; generated by PrusaSlicer 2.8.0+MacOS-arm64 on 2024-09-05 at 12:59:22 UTC


;
;

;
;
; 

; external perimeters extrusion width = 0.68mm
; perimeters extrusion width = 0.68mm
; infill extrusion width = 0.68mm
; solid infill extrusion width = 0.68mm
; top infill extrusion width = 0.60mm
; first layer extrusion width = 0.70mm

; external perimeters extrusion width = 0.68mm
; perimeters extrusion width = 0.68mm
; infill extrusion width = 0.68mm
; solid infill extrusion width = 0.68mm
; top infill extrusion width = 0.60mm
; first layer extrusion width = 0.70mm


EXCLUDE_OBJECT_DEFINE NAME='8mm_stepper_spacer_bottom_r' CENTER=176.000,125.000 POLYGON=[[197.000,108.000],[197.000,142.000],[193.000,146.000],[159.000,146.000],[155.000,142.000],[155.000,108.000],[159.000,104.000],[193.000,104.000]]
EXCLUDE_OBJECT_DEFINE NAME='8mm_stepper_spacer_bottom_l' CENTER=74.000,125.000 POLYGON=[[95.000,108.000],[95.000,142.000],[91.000,146.000],[57.000,146.000],[53.000,142.000],[53.000,108.000],[57.000,104.000],[91.000,104.000]]

;TYPE:Custom
START_PRINT BED_TEMP=80 HOTEND_TEMP=230 FILAMENT_TYPE=FLEX EXTRUSION_MULTIPLIER=0.9 PERIMETER_SPEED=20
G21 ; set units to millimeters
G90 ; use absolute coordinates
M82 ; use absolute distances for extrusion
G92 E0
; Filament gcode
; ########################### NOTE OFFSET CHANGES ####################################
; Prevents PETG buildup on nozzle.
SET_GCODE_OFFSET Z=0
; ####################################################################################
M107
;LAYER_CHANGE
;Z:0.35
;HEIGHT:0.35
G1 E-.5 F240
G1 Z.35 F7800
EXCLUDE_OBJECT_START NAME='8mm_stepper_spacer_bottom_l'
G92 E0
G1 X61.796 Y117.943
G1 E.5 F240
G92 E0
;TYPE:Perimeter
;WIDTH:0.7
G1 F1500
G1 X62.039 Y117.541 E.03844
G1 X62.457 Y116.907 E.10059
G1 X62.88 Y116.333 E.15894
G1 X63.566 Y115.522 E.24587
G1 X64.06 Y115.004 E.30445
G1 X64.536 Y114.553 E.35811
G1 X65.044 Y114.115 E.413
G1 X65.755 Y113.563 E.48666
G1 X66.31 Y113.183 E.54171
G1 X66.883 Y112.83 E.59679
G1 X67.472 Y112.503 E.65192
G1 X68.074 Y112.207 E.70682
G1 X68.687 Y111.94 E.76154
G1 X69.308 Y111.705 E.81588
G1 X69.94 Y111.498 E.8703
G1 X70.585 Y111.321 E.92504
G1 X71.241 Y111.174 E.98006
G1 X71.904 Y111.058 E1.03514
G1 X72.572 Y110.974 E1.09024
G1 X73.242 Y110.921 E1.14524
G1 X73.898 Y110.901 E1.19895
G1 X74.767 Y110.922 E1.27009
G1 X75.443 Y110.975 E1.32558
G1 X76.107 Y111.06 E1.38036
G1 X76.769 Y111.176 E1.43536
G1 X77.425 Y111.324 E1.49039
G1 X78.075 Y111.503 E1.54556
G1 X78.713 Y111.712 E1.6005
G1 X79.338 Y111.951 E1.65526
G1 X79.948 Y112.217 E1.70972
G1 X80.543 Y112.511 E1.76403
G1 X81.127 Y112.836 E1.81872
G1 X82.192 Y113.528 E1.92266
G1 X82.79 Y113.977 E1.98386
G1 X83.176 Y114.299 E2.025
G1 X83.6 Y114.678 E2.07154
G1 X84.183 Y115.251 E2.13844
G1 X84.707 Y115.827 E2.20216
G1 X85.128 Y116.344 E2.25672
G1 X85.527 Y116.883 E2.3116
G1 X85.901 Y117.442 E2.36664
G1 X86.249 Y118.019 E2.42178
G1 X86.568 Y118.611 E2.47681
G1 X86.858 Y119.216 E2.53172
G1 X87.118 Y119.831 E2.58636
G1 X87.346 Y120.454 E2.64065
G1 X87.546 Y121.09 E2.69521
G1 X87.716 Y121.737 E2.74996
G1 X87.856 Y122.395 E2.80501
G1 X87.965 Y123.06 E2.86016
G1 X88.05 Y123.834 E2.92388
G1 X88.098 Y124.931 E3.01374
G1 X88.086 Y125.627 E3.07071
G1 X88.04 Y126.289 E3.12502
G1 X87.963 Y126.953 E3.17972
G1 X87.854 Y127.615 E3.23463
G1 X87.714 Y128.274 E3.28976
G1 X87.542 Y128.925 E3.34486
G1 X87.339 Y129.566 E3.39988
G1 X87.108 Y130.195 E3.45472
G1 X86.848 Y130.808 E3.50921
G1 X86.56 Y131.406 E3.56353
G1 X86.243 Y131.992 E3.61805
G1 X85.972 Y132.443 E3.66111
G1 X85.554 Y133.078 E3.72332
G1 X85.121 Y133.666 E3.78308
G1 X84.348 Y134.574 E3.88067
G1 X83.949 Y134.987 E3.92767
G1 X83.474 Y135.438 E3.98127
G1 X82.965 Y135.878 E4.03633
G1 X82.245 Y136.436 E4.11088
G1 X81.691 Y136.817 E4.1659
G1 X81.118 Y137.171 E4.22102
G1 X80.529 Y137.497 E4.27611
G1 X79.926 Y137.794 E4.33112
G1 X79.313 Y138.06 E4.38581
G1 X78.693 Y138.296 E4.4401
G1 X78.06 Y138.502 E4.49458
G1 X77.415 Y138.679 E4.54932
G1 X76.76 Y138.826 E4.60426
G1 X76.097 Y138.942 E4.65934
G1 X75.429 Y139.027 E4.71445
G1 X74.759 Y139.079 E4.76945
G1 X74.089 Y139.099 E4.8243
G1 X73.227 Y139.078 E4.89486
G1 X72.552 Y139.025 E4.95027
G1 X71.888 Y138.94 E5.00505
G1 X71.226 Y138.823 E5.06007
G1 X70.57 Y138.675 E5.1151
G1 X69.921 Y138.496 E5.1702
G1 X69.282 Y138.287 E5.22522
G1 X68.657 Y138.048 E5.27998
G1 X68.048 Y137.782 E5.33437
G1 X67.453 Y137.487 E5.38872
G1 X66.869 Y137.163 E5.44338
G1 X66.298 Y136.809 E5.49836
G1 X65.83 Y136.489 E5.54476
G1 X65.206 Y136.021 E5.60859
G1 X64.691 Y135.589 E5.6636
G1 X64.198 Y135.135 E5.71845
G1 X63.732 Y134.663 E5.77273
G1 X63.29 Y134.17 E5.82692
G1 X62.868 Y133.653 E5.88153
G1 X62.47 Y133.114 E5.93636
G1 X62.096 Y132.554 E5.99147
G1 X61.81 Y132.081 E6.0367
G1 X61.429 Y131.385 E6.10163
G1 X61.14 Y130.78 E6.1565
G1 X60.88 Y130.165 E6.21114
G1 X60.652 Y129.542 E6.26543
G1 X60.453 Y128.907 E6.31989
G1 X60.283 Y128.259 E6.37471
G1 X60.143 Y127.601 E6.42976
G1 X60.035 Y126.937 E6.48481
G1 X59.95 Y126.162 E6.54861
G1 X59.902 Y125.069 E6.63814
G1 X59.915 Y124.373 E6.69511
G1 X59.96 Y123.711 E6.74941
G1 X60.037 Y123.047 E6.80411
G1 X60.146 Y122.384 E6.8591
G1 X60.304 Y121.654 E6.92022
G1 X60.458 Y121.075 E6.96925
G1 X60.661 Y120.434 E7.02427
G1 X60.892 Y119.805 E7.07911
G1 X61.152 Y119.192 E7.1336
G1 X61.44 Y118.594 E7.18792
G1 X61.75 Y118.021 E7.24124
G1 X61.75 Y118.021 F7800
G1 X62.33 Y118.267
G1 F1500
G1 X62.573 Y117.865 E7.27968
G1 X62.975 Y117.256 E7.3394
G1 X63.381 Y116.707 E7.39528
G1 X64.125 Y115.836 E7.48902
G1 X64.957 Y115.015 E7.58468
G1 X65.443 Y114.596 E7.63719
G1 X66.131 Y114.063 E7.70841
G1 X66.662 Y113.7 E7.76105
G1 X67.21 Y113.362 E7.81374
G1 X67.773 Y113.051 E7.86638
G1 X68.349 Y112.768 E7.9189
G1 X68.935 Y112.514 E7.97117
G1 X69.528 Y112.289 E8.02307
G1 X70.132 Y112.093 E8.07504
G1 X70.749 Y111.924 E8.12739
G1 X71.376 Y111.784 E8.17997
G1 X72.01 Y111.674 E8.23263
G1 X72.649 Y111.594 E8.28533
G1 X73.289 Y111.544 E8.33787
G1 X73.915 Y111.526 E8.38912
G1 X74.751 Y111.547 E8.45756
G1 X75.392 Y111.598 E8.51018
G1 X76.026 Y111.679 E8.56249
G1 X76.659 Y111.791 E8.6151
G1 X77.287 Y111.933 E8.66779
G1 X77.907 Y112.105 E8.72044
G1 X78.517 Y112.305 E8.77298
G1 X79.114 Y112.534 E8.82531
G1 X79.696 Y112.789 E8.87731
G1 X80.264 Y113.071 E8.92921
G1 X80.822 Y113.381 E8.98145
G1 X81.368 Y113.719 E9.034
G1 X81.837 Y114.042 E9.0806
G1 X82.411 Y114.473 E9.13934
G1 X82.903 Y114.886 E9.19191
G1 X83.363 Y115.311 E9.24316
G1 X83.737 Y115.689 E9.28668
G1 X84.241 Y116.243 E9.34797
G1 X84.643 Y116.738 E9.40016
G1 X85.024 Y117.253 E9.45259
G1 X85.381 Y117.788 E9.50523
G1 X85.713 Y118.34 E9.55794
G1 X86.018 Y118.906 E9.61056
G1 X86.294 Y119.485 E9.66305
G1 X86.541 Y120.073 E9.71524
G1 X86.759 Y120.668 E9.7671
G1 X86.949 Y121.275 E9.81915
G1 X87.111 Y121.895 E9.87159
G1 X87.244 Y122.524 E9.9242
G1 X87.348 Y123.159 E9.97686
G1 X87.426 Y123.862 E10.03474
G1 X87.474 Y124.959 E10.1246
G1 X87.461 Y125.612 E10.17805
G1 X87.417 Y126.245 E10.22998
G1 X87.342 Y126.879 E10.28223
G1 X87.238 Y127.512 E10.33473
G1 X87.103 Y128.142 E10.38746
G1 X86.938 Y128.764 E10.44012
G1 X86.744 Y129.377 E10.49274
G1 X86.522 Y129.977 E10.5451
G1 X86.273 Y130.563 E10.59721
G1 X85.998 Y131.133 E10.649
G1 X85.694 Y131.694 E10.70122
G1 X85.363 Y132.242 E10.75361
G1 X85.036 Y132.729 E10.80162
G1 X84.62 Y133.293 E10.85897
G1 X84.213 Y133.79 E10.91154
G1 X83.783 Y134.266 E10.96404
G1 X83.337 Y134.716 E11.01589
G1 X82.87 Y135.144 E11.06773
G1 X82.38 Y135.551 E11.11986
G1 X81.869 Y135.937 E11.17227
G1 X81.339 Y136.3 E11.22484
G1 X80.791 Y136.638 E11.27753
G1 X80.227 Y136.949 E11.33024
G1 X79.651 Y137.232 E11.38276
G1 X79.066 Y137.487 E11.43498
G1 X78.472 Y137.711 E11.48693
G1 X77.868 Y137.907 E11.5389
G1 X77.251 Y138.076 E11.59125
G1 X76.625 Y138.216 E11.64375
G1 X75.991 Y138.326 E11.69641
G1 X75.352 Y138.407 E11.74912
G1 X74.711 Y138.456 E11.80173
G1 X74.072 Y138.475 E11.85405
G1 X73.244 Y138.453 E11.92183
G1 X72.603 Y138.402 E11.97445
G1 X71.969 Y138.32 E12.02677
G1 X71.336 Y138.208 E12.07938
G1 X70.709 Y138.066 E12.13199
G1 X70.088 Y137.894 E12.18472
G1 X69.478 Y137.694 E12.23726
G1 X68.881 Y137.465 E12.28959
G1 X68.3 Y137.21 E12.34152
G1 X67.731 Y136.928 E12.39349
G1 X67.173 Y136.617 E12.44577
G1 X66.628 Y136.279 E12.49825
G1 X66.186 Y135.974 E12.5422
G1 X65.586 Y135.524 E12.60358
G1 X65.093 Y135.111 E12.65621
G1 X64.623 Y134.677 E12.70856
G1 X64.179 Y134.226 E12.76035
G1 X63.756 Y133.754 E12.81222
G1 X63.354 Y133.259 E12.86441
G1 X62.973 Y132.743 E12.9169
G1 X62.616 Y132.208 E12.96954
G1 X62.346 Y131.76 E13.01235
G1 X61.98 Y131.09 E13.07483
G1 X61.704 Y130.512 E13.12725
G1 X61.457 Y129.924 E13.17944
G1 X61.24 Y129.329 E13.23127
G1 X61.05 Y128.721 E13.2834
G1 X60.888 Y128.102 E13.33576
G1 X60.755 Y127.473 E13.38837
G1 X60.652 Y126.838 E13.44102
G1 X60.574 Y126.135 E13.4989
G1 X60.526 Y125.041 E13.58852
G1 X60.539 Y124.388 E13.64197
G1 X60.583 Y123.755 E13.6939
G1 X60.658 Y123.121 E13.74615
G1 X60.762 Y122.487 E13.79873
G1 X60.908 Y121.815 E13.85501
G1 X61.062 Y121.236 E13.90404
G1 X61.256 Y120.623 E13.95666
G1 X61.478 Y120.023 E14.00902
G1 X61.727 Y119.437 E14.06113
G1 X62.002 Y118.867 E14.11292
G1 X62.285 Y118.345 E14.16151
G1 X62.285 Y118.345 F7800
G1 X62.863 Y118.591
;TYPE:External perimeter
G1 F1500
G1 X63.172 Y118.082 E14.21024
G1 X63.493 Y117.605 E14.25729
G1 X63.882 Y117.08 E14.31076
G1 X64.271 Y116.606 E14.36094
G1 X64.681 Y116.153 E14.41094
G1 X65.107 Y115.725 E14.46036
G1 X65.552 Y115.317 E14.50977
G1 X66.019 Y114.929 E14.55946
G1 X66.507 Y114.562 E14.60943
G1 X67.014 Y114.216 E14.65966
G1 X67.537 Y113.895 E14.70988
G1 X68.074 Y113.598 E14.7601
G1 X68.624 Y113.329 E14.81021
G1 X69.182 Y113.087 E14.85998
G1 X69.748 Y112.874 E14.90947
G1 X70.324 Y112.688 E14.959
G1 X70.913 Y112.527 E15.00897
G1 X71.511 Y112.394 E15.0591
G1 X72.116 Y112.29 E15.10934
G1 X72.725 Y112.214 E15.15957
G1 X73.336 Y112.168 E15.20971
G1 X73.933 Y112.151 E15.25859
G1 X74.734 Y112.171 E15.32416
G1 X75.341 Y112.221 E15.374
G1 X75.946 Y112.299 E15.42392
G1 X76.549 Y112.406 E15.47404
G1 X77.148 Y112.542 E15.52431
G1 X77.739 Y112.707 E15.57452
G1 X78.321 Y112.899 E15.62467
G1 X78.89 Y113.117 E15.67454
G1 X79.444 Y113.361 E15.72408
G1 X79.986 Y113.63 E15.7736
G1 X80.518 Y113.927 E15.82346
G1 X81.038 Y114.25 E15.87356
G1 X81.482 Y114.556 E15.91769
G1 X82.032 Y114.97 E15.97403
G1 X82.501 Y115.365 E16.02421
G1 X82.939 Y115.769 E16.07297
G1 X83.291 Y116.127 E16.11406
G1 X83.775 Y116.659 E16.17292
G1 X84.158 Y117.131 E16.22266
G1 X84.521 Y117.624 E16.27276
G1 X84.861 Y118.134 E16.32292
G1 X85.177 Y118.661 E16.37321
G1 X85.467 Y119.202 E16.42344
G1 X85.73 Y119.753 E16.47341
G1 X85.965 Y120.314 E16.52319
G1 X86.172 Y120.882 E16.57266
G1 X86.352 Y121.461 E16.62228
G1 X86.506 Y122.052 E16.67226
G1 X86.633 Y122.652 E16.72245
G1 X86.731 Y123.258 E16.77269
G1 X86.801 Y123.889 E16.82465
G1 X86.85 Y124.986 E16.91451
G1 X86.836 Y125.597 E16.96453
G1 X86.793 Y126.2 E17.014
G1 X86.722 Y126.805 E17.06385
G1 X86.621 Y127.409 E17.11397
G1 X86.492 Y128.01 E17.16427
G1 X86.334 Y128.603 E17.21449
G1 X86.149 Y129.187 E17.26462
G1 X85.936 Y129.76 E17.31465
G1 X85.698 Y130.317 E17.36422
G1 X85.436 Y130.861 E17.41363
G1 X85.145 Y131.395 E17.4634
G1 X84.828 Y131.918 E17.51345
G1 X84.518 Y132.38 E17.55898
G1 X84.119 Y132.919 E17.61386
G1 X83.73 Y133.393 E17.66404
G1 X83.32 Y133.847 E17.7141
G1 X82.894 Y134.275 E17.76352
G1 X82.448 Y134.682 E17.81293
G1 X81.981 Y135.07 E17.86262
G1 X81.493 Y135.438 E17.91264
G1 X80.987 Y135.784 E17.9628
G1 X80.464 Y136.105 E18.01302
G1 X79.926 Y136.402 E18.06331
G1 X79.377 Y136.671 E18.11334
G1 X78.818 Y136.913 E18.16319
G1 X78.252 Y137.126 E18.21268
G1 X77.676 Y137.313 E18.26224
G1 X77.088 Y137.473 E18.31211
G1 X76.49 Y137.606 E18.36224
G1 X75.884 Y137.711 E18.41257
G1 X75.275 Y137.786 E18.46278
G1 X74.664 Y137.833 E18.51293
G1 X74.055 Y137.85 E18.56279
G1 X73.261 Y137.829 E18.62779
G1 X72.655 Y137.779 E18.67755
G1 X72.05 Y137.701 E18.72747
G1 X71.446 Y137.593 E18.77768
G1 X70.848 Y137.457 E18.82787
G1 X70.256 Y137.292 E18.87816
G1 X69.675 Y137.1 E18.92824
G1 X69.106 Y136.882 E18.97811
G1 X68.552 Y136.638 E19.02765
G1 X68.01 Y136.368 E19.0772
G1 X67.478 Y136.072 E19.12702
G1 X66.958 Y135.748 E19.17716
G1 X66.541 Y135.46 E19.21863
G1 X65.965 Y135.027 E19.2776
G1 X65.495 Y134.633 E19.32779
G1 X65.047 Y134.218 E19.37777
G1 X64.625 Y133.788 E19.42708
G1 X64.222 Y133.338 E19.47652
G1 X63.839 Y132.866 E19.52626
G1 X63.476 Y132.373 E19.57636
G1 X63.136 Y131.862 E19.62659
G1 X62.821 Y131.336 E19.67676
G1 X62.531 Y130.795 E19.72699
G1 X62.268 Y130.243 E19.77703
G1 X62.033 Y129.683 E19.82673
G1 X61.827 Y129.115 E19.87618
G1 X61.646 Y128.536 E19.92582
G1 X61.493 Y127.945 E19.97578
G1 X61.366 Y127.345 E20.02597
G1 X61.269 Y126.739 E20.07619
G1 X61.198 Y126.107 E20.12824
G1 X61.15 Y125.014 E20.21777
G1 X61.164 Y124.403 E20.26779
G1 X61.207 Y123.799 E20.31734
G1 X61.278 Y123.194 E20.36719
G1 X61.379 Y122.59 E20.41731
G1 X61.512 Y121.976 E20.46872
G1 X61.666 Y121.397 E20.51775
G1 X61.852 Y120.813 E20.56791
G1 X62.064 Y120.241 E20.61783
G1 X62.302 Y119.683 E20.66748
G1 X62.565 Y119.139 E20.71693
G1 X62.82 Y118.67 E20.76062
G1 X63.128 Y118.156 F7800
G1 E20.26062 F240
G92 E0
G1 X62.626 Y117.85 F7800
G1 X57.601 Y111.947
G1 X57.593 Y111.968
G1 E.5 F240
;TYPE:Perimeter
G1 F1500
G1 X57.403 Y111.902 E.51646
G1 X56.95 Y111.634 E.55953
G1 X56.574 Y111.3 E.60069
G1 X56.315 Y110.97 E.63502
G1 X56.069 Y110.506 E.678
G1 X55.919 Y110.002 E.72103
G1 X55.872 Y109.477 E.76417
G1 X55.93 Y108.954 E.80723
G1 X56.09 Y108.453 E.85027
G1 X56.347 Y107.994 E.89332
G1 X56.689 Y107.594 E.93639
G1 X57.104 Y107.27 E.97948
G1 X57.575 Y107.035 E1.02256
G1 X58.082 Y106.898 E1.06554
G1 X58.581 Y106.862 E1.10648
G1 X59.001 Y106.907 E1.14105
G1 X59.505 Y107.055 E1.18404
G1 X59.971 Y107.3 E1.22713
G1 X60.379 Y107.632 E1.27018
G1 X60.713 Y108.039 E1.31327
G1 X60.96 Y108.504 E1.35636
G1 X61.11 Y109.008 E1.39939
G1 X61.158 Y109.513 E1.4409
G1 X61.099 Y110.055 E1.48552
G1 X60.947 Y110.54 E1.52711
G1 X60.682 Y111.016 E1.57169
G1 X60.34 Y111.416 E1.61476
G1 X59.925 Y111.739 E1.6578
G1 X59.454 Y111.975 E1.70091
G1 X58.971 Y112.109 E1.74193
G1 X58.421 Y112.146 E1.78704
G1 X57.9 Y112.075 E1.83007
G1 X57.678 Y111.998 E1.8493
G1 X57.678 Y111.998 F7800
G1 X57.819 Y111.392
;TYPE:External perimeter
G1 F1500
G1 X57.701 Y111.353 E1.85947
G1 X57.351 Y111.156 E1.89234
G1 X57.053 Y110.899 E1.92454
G1 X56.857 Y110.658 E1.94996
G1 X56.661 Y110.307 E1.98286
G1 X56.539 Y109.924 E2.01576
G1 X56.495 Y109.524 E2.04869
G1 X56.531 Y109.124 E2.08156
G1 X56.646 Y108.738 E2.11452
G1 X56.835 Y108.383 E2.14743
G1 X57.091 Y108.073 E2.18033
G1 X57.403 Y107.819 E2.21325
G1 X57.759 Y107.632 E2.24616
G1 X58.145 Y107.52 E2.27905
G1 X58.535 Y107.485 E2.31109
G1 X58.847 Y107.513 E2.33673
G1 X59.234 Y107.618 E2.36955
G1 X59.594 Y107.798 E2.40249
G1 X59.911 Y108.046 E2.43543
G1 X60.172 Y108.351 E2.46828
G1 X60.368 Y108.703 E2.50125
G1 X60.49 Y109.086 E2.53415
G1 X60.524 Y109.619 E2.57786
G1 X60.497 Y109.886 E2.59982
G1 X60.333 Y110.369 E2.64156
G1 X60.194 Y110.626 E2.66547
G1 X59.923 Y110.949 E2.69997
G1 X59.626 Y111.191 E2.73132
G1 X59.178 Y111.406 E2.77199
G1 X58.884 Y111.49 E2.79701
G1 X58.483 Y111.524 E2.82994
G1 X58.084 Y111.478 E2.86281
G1 X57.904 Y111.419 E2.87831
G1 X57.37 Y111.146 F7800
G1 E2.37831 F240
G92 E0
G1 X57.016 Y111.639 F7800
G1 X61.102 Y140.18
G1 X61.115 Y140.31
G1 X61.122 Y140.44
G1 X61.122 Y140.57
G1 X61.115 Y140.7
G1 X61.102 Y140.829
G1 X61.083 Y140.958
G1 X61.057 Y141.085
G1 X61.025 Y141.211
G1 X60.987 Y141.336
G1 X60.979 Y141.357
G1 X61 Y141.365
G1 E.5 F240
;TYPE:Perimeter
G1 F1500
G1 X60.939 Y141.557 E.51649
G1 X60.682 Y142.016 E.55954
G1 X60.34 Y142.416 E.60261
G1 X59.925 Y142.739 E.64565
G1 X59.454 Y142.975 E.68876
G1 X58.946 Y143.112 E.73182
G1 X58.421 Y143.146 E.77487
G1 X57.9 Y143.075 E.8179
G1 X57.426 Y142.914 E.85887
G1 X57.057 Y142.709 E.89341
G1 X56.65 Y142.377 E.93639
G1 X56.316 Y141.971 E.97941
G1 X56.069 Y141.506 E1.0225
G1 X55.919 Y141.002 E1.06553
G1 X55.872 Y140.477 E1.10867
G1 X55.93 Y139.954 E1.15173
G1 X56.09 Y139.453 E1.19477
