; generated by PrusaSlicer 2.8.1+MacOS-arm64 on 2024-11-27 at 04:49:05 UTC


;
;

;
;
; 

; external perimeters extrusion width = 0.50mm
; perimeters extrusion width = 0.55mm
; infill extrusion width = 0.60mm
; solid infill extrusion width = 0.60mm
; top infill extrusion width = 0.55mm
; first layer extrusion width = 0.60mm

M73 P0 R104
M73 C82

EXCLUDE_OBJECT_DEFINE NAME='24v_panel_label_(Instance_1)' CENTER=124.999,166.870 POLYGON=[[141.914,128.005],[142.645,128.113],[143.341,128.362],[143.824,128.636],[144.395,129.105],[144.864,129.676],[145.213,130.328],[145.387,130.855],[145.495,131.586],[145.500,201.968],[145.387,202.884],[145.138,203.580],[144.523,204.501],[143.824,205.104],[142.824,205.577],[141.914,205.735],[108.271,205.739],[107.535,205.667],[106.659,205.377],[105.879,204.883],[105.136,204.063],[104.662,203.063],[104.500,201.968],[104.500,131.771],[104.572,131.035],[104.862,130.159],[105.356,129.379],[106.176,128.636],[107.176,128.162],[108.086,128.005]]
EXCLUDE_OBJECT_DEFINE NAME='24v_panel_label_(Instance_2)' CENTER=171.999,83.131 POLYGON=[[188.914,44.265],[189.645,44.374],[190.341,44.623],[190.824,44.896],[191.395,45.365],[191.864,45.937],[192.138,46.420],[192.387,47.116],[192.495,47.847],[192.500,118.229],[192.387,119.145],[192.138,119.841],[191.523,120.761],[190.824,121.364],[189.824,121.838],[188.914,121.995],[155.271,122.000],[154.535,121.928],[153.659,121.638],[152.879,121.144],[152.136,120.324],[151.662,119.324],[151.500,118.229],[151.500,48.032],[151.572,47.296],[151.862,46.420],[152.356,45.640],[153.176,44.896],[154.176,44.423],[155.086,44.265]]
EXCLUDE_OBJECT_DEFINE NAME='24v_panel_label_(Instance_3)' CENTER=77.999,83.131 POLYGON=[[94.914,44.265],[95.645,44.374],[96.341,44.623],[96.824,44.896],[97.395,45.365],[97.864,45.937],[98.213,46.589],[98.387,47.116],[98.495,47.847],[98.500,118.229],[98.387,119.145],[98.138,119.841],[97.523,120.761],[96.824,121.364],[95.824,121.838],[94.914,121.995],[61.271,122.000],[60.535,121.928],[59.659,121.638],[58.879,121.144],[58.136,120.324],[57.662,119.324],[57.500,118.229],[57.500,48.032],[57.572,47.296],[57.862,46.420],[58.356,45.640],[59.176,44.896],[60.176,44.423],[61.086,44.265]]
EXCLUDE_OBJECT_DEFINE NAME='24v_panel_label_(Instance_4)' CENTER=124.999,83.131 POLYGON=[[141.914,44.265],[142.645,44.374],[143.341,44.623],[143.824,44.896],[144.395,45.365],[144.864,45.937],[145.213,46.589],[145.387,47.116],[145.495,47.847],[145.500,118.229],[145.387,119.145],[145.138,119.841],[144.523,120.761],[143.824,121.364],[142.824,121.838],[141.914,121.995],[108.271,122.000],[107.535,121.928],[106.659,121.638],[105.879,121.144],[105.136,120.324],[104.662,119.324],[104.500,118.229],[104.500,48.032],[104.572,47.296],[104.862,46.420],[105.356,45.640],[106.176,44.896],[107.176,44.423],[108.086,44.265]]

M190 S55 ; set bed temperature and wait for it to be reached
M104 S230 ; set temperature
;TYPE:Custom
START_PRINT BED_TEMP=55 HOTEND_TEMP=230 FILAMENT_TYPE=PLA EXTRUSION_MULTIPLIER=0.98
M109 S230 ; set temperature and wait for it to be reached
G21 ; set units to millimeters
G90 ; use absolute coordinates
M82 ; use absolute distances for extrusion
G92 E0
; Filament gcode
SET_GCODE_OFFSET Z=0.01
M107
;LAYER_CHANGE
;Z:0.25
;HEIGHT:0.25
G1 E-.53 F600
G1 Z.55 F9000
EXCLUDE_OBJECT_START NAME='24v_panel_label_(Instance_1)'
G92 E0
G1 X108.684 Y146.323
G1 Z.25
G1 E.53 F1200
;TYPE:External perimeter
;WIDTH:0.599999
G1 F1800
G1 X108.614 Y146.246 E.53579
G1 X108.593 Y146.141 E.54175
G1 X108.593 Y131.973 E1.33021
G1 X108.664 Y131.79 E1.34113
G3 X108.866 Y131.7 I.28 J.358 E1.35356
G1 X140.934 Y131.7 E3.13817
G1 X141.11 Y131.764 E3.14859
G1 X141.204 Y131.933 E3.15935
G1 X141.207 Y131.973 E3.16158
G1 X141.207 Y146.141 E3.95004
G1 X141.152 Y146.305 E3.95967
G1 X140.983 Y146.409 E3.97071
G1 X140.934 Y146.414 E3.97345
G1 X108.866 Y146.414 E5.75806
G1 X108.738 Y146.382 E5.7654
G1 X108.735 Y146.378 E5.76568
G1 X108.605 Y145.895 F9000
G1 X109.221 Y146.96
;TYPE:Perimeter
G1 F1800
G1 X108.866 Y146.96 E5.78544
G1 X108.481 Y146.864 E5.80752
G1 X108.273 Y146.706 E5.82206
G1 X108.11 Y146.456 E5.83867
G1 X108.047 Y146.141 E5.85655
G1 X108.047 Y131.973 E6.64501
G1 X108.125 Y131.623 E6.66497
G1 X108.258 Y131.424 E6.67829
G1 X108.54 Y131.221 E6.69763
G1 X108.866 Y131.154 E6.71615
G1 X140.934 Y131.154 E8.50076
G1 X141.358 Y131.272 E8.52525
G1 X141.612 Y131.512 E8.5447
G3 X141.753 Y131.973 I-.858 J.516 E8.57179
G1 X141.753 Y146.141 E9.36025
G3 X141.425 Y146.796 I-.879 J-.03 E9.4023
G1 X141.082 Y146.947 E9.42316
G1 X140.934 Y146.96 E9.43143
G1 X109.296 Y146.96 E11.19211
G1 E10.66211 F600
G92 E0
G1 X109.296 Y146.96 F9000
G1 X104.801 Y131.771 Z.526
G1 Z.25
G1 E.53 F1200
;TYPE:External perimeter
G1 F1800
G1 X104.868 Y131.09 E.56808
G1 X105.003 Y130.605 E.5961
G1 X105.297 Y129.984 E.63434
G3 X106.788 Y128.634 I3.071 J1.894 E.74778
G1 X107.379 Y128.425 E.78267
G1 X108.101 Y128.305 E.8234
G1 X141.881 Y128.304 E2.70328
G1 X142.403 Y128.367 E2.73254
G1 X143.057 Y128.565 E2.77057
G1 X143.657 Y128.886 E2.80844
G1 X144.182 Y129.318 E2.84628
G3 X144.706 Y130.016 I-5.256 J4.487 E2.89488
G1 X144.99 Y130.61 E2.93152
G3 X145.195 Y131.755 I-4.711 J1.435 E2.9964
G1 X145.2 Y201.954 E6.90302
G1 X145.132 Y202.649 E6.94188
G1 X144.997 Y203.134 E6.9699
G1 X144.705 Y203.752 E7.00794
G1 X144.298 Y204.301 E7.04597
G1 X143.933 Y204.648 E7.074
G1 X143.377 Y205.021 E7.11126
G1 X142.736 Y205.288 E7.1499
G1 X141.903 Y205.435 E7.19697
G1 X108.285 Y205.439 E9.06783
G1 X107.594 Y205.371 E9.10647
G1 X106.943 Y205.174 E9.14432
G3 X106.125 Y204.683 I3.097 J-6.096 E9.19746
G1 X105.745 Y204.334 E9.22617
G1 X105.304 Y203.767 E9.26614
G1 X105.009 Y203.15 E9.3042
G1 X104.838 Y202.474 E9.343
G1 X104.8 Y201.958 E9.37179
G1 X104.8 Y131.846 E13.27357
G1 X104.844 Y131.348 F9000
M73 P0 R103
G1 X105.417 Y131.226
;TYPE:Perimeter
G1 F1800
G3 X105.517 Y130.796 I4.608 J.849 E13.29815
G1 X105.77 Y130.26 E13.33113
G1 X106.084 Y129.842 E13.36022
G1 X106.571 Y129.401 E13.39678
G1 X107.022 Y129.129 E13.42609
G1 X107.5 Y128.958 E13.45434
G1 X108.128 Y128.851 E13.48979
G1 X141.774 Y128.851 E15.36221
G1 X142.29 Y128.904 E15.39108
G1 X142.847 Y129.073 E15.42347
G1 X143.352 Y129.343 E15.45534
G1 X143.794 Y129.706 E15.48717
G1 X144.157 Y130.148 E15.519
G1 X144.432 Y130.662 E15.55144
G3 X144.649 Y131.755 I-4.057 J1.374 E15.61363
G1 X144.654 Y201.774 E19.51023
G3 X144.483 Y202.943 I-5.102 J-.147 E19.57613
G1 X144.234 Y203.47 E19.60857
G3 X143.59 Y204.221 I-4.458 J-3.173 E19.6637
G1 X143.117 Y204.537 E19.69536
G1 X142.576 Y204.763 E19.72799
G1 X141.883 Y204.888 E19.76718
G1 X108.312 Y204.893 E21.63543
G1 X107.701 Y204.833 E21.6696
G1 X107.153 Y204.666 E21.70148
G1 X106.639 Y204.392 E21.73389
G1 X106.141 Y203.958 E21.77065
G1 X105.777 Y203.49 E21.80364
G1 X105.526 Y202.964 E21.83607
G1 X105.379 Y202.386 E21.86926
G1 X105.346 Y201.938 E21.89426
G1 X105.346 Y131.812 E25.79682
G3 X105.404 Y131.3 I4.679 J.263 E25.82551
G1 E25.29551 F600
G92 E0
G1 X105.404 Y131.3 F9000
G1 X122.589 Y131.499 Z.55
G1 X144.485 Y131.753
G1 Z.25
G1 E.53 F1200
;TYPE:Solid infill
;WIDTH:0.601293
G1 F1800
G1 X142.016 Y129.283 E.72481
G1 X141.881 Y129.267 E.73239
G1 X141.225 Y129.267 E.76898
G1 X144.239 Y132.281 E1.00675
G1 X144.239 Y133.056 E1.04998
G1 X140.45 Y129.267 E1.34889
G1 X139.676 Y129.267 E1.39207
G1 X144.485 Y134.076 E1.77144
G1 E1.24144 F600
G92 E0
G1 X144.485 Y134.076 F9000
G1 X141.917 Y132.283 Z.305
G1 Z.25
G1 E.53 F1200
G1 F1800
G1 X144.24 Y134.605 E.71322
G1 X144.24 Y135.38 E.75645
G1 X142.163 Y133.303 E.9203
G1 X142.163 Y134.077 E.96348
G1 X144.24 Y136.154 E1.12733
G1 X144.24 Y136.929 E1.17056
G1 X142.163 Y134.852 E1.33441
G1 X142.163 Y135.626 E1.37759
G1 X144.24 Y137.703 E1.54144
G1 X144.24 Y138.478 E1.58467
G1 X142.163 Y136.401 E1.74852
G1 X142.163 Y137.175 E1.7917
G1 X144.24 Y139.252 E1.95555
G1 X144.24 Y140.027 E1.99878
G1 X142.163 Y137.95 E2.16263
G1 X142.163 Y138.724 E2.20581
G1 X144.24 Y140.801 E2.36966
G1 X144.24 Y141.576 E2.41289
G1 X142.163 Y139.499 E2.57674
G1 X142.163 Y140.273 E2.61992
G1 X144.24 Y142.35 E2.78377
G1 X144.24 Y143.125 E2.827
G1 X142.163 Y141.048 E2.99085
G1 X142.163 Y141.822 E3.03403
G1 X144.24 Y143.899 E3.19788
G1 X144.24 Y144.674 E3.24111
G1 X142.163 Y142.597 E3.40496
G1 X142.163 Y143.371 E3.44814
G1 X144.24 Y145.448 E3.61199
G1 X144.24 Y146.223 E3.65522
G1 X142.163 Y144.146 E3.81907
G1 X142.163 Y144.92 E3.86225
G1 X144.24 Y146.998 E4.02614
G1 X144.24 Y147.772 E4.06932
G1 X142.163 Y145.695 E4.23317
G3 X142.145 Y146.353 I-5.121 J.189 E4.26991
G1 X142.125 Y146.431 E4.2744
G1 X144.24 Y148.547 E4.44129
G1 X144.24 Y149.321 E4.48447
G1 X141.858 Y146.939 E4.67238
G3 X141.416 Y147.271 I-.967 J-.828 E4.70346
G1 X144.241 Y150.096 E4.92632
G1 X144.241 Y150.87 E4.9695
G1 X140.74 Y147.37 E5.24565
G1 X139.966 Y147.37 E5.28883
G1 X144.241 Y151.645 E5.62608
G1 X144.241 Y152.419 E5.66926
G1 X139.191 Y147.37 E6.06761
G1 X138.417 Y147.37 E6.11079
G1 X144.241 Y153.194 E6.57024
G1 X144.241 Y153.968 E6.61342
G1 X137.642 Y147.37 E7.13396
G1 X136.868 Y147.37 E7.17714
G1 X144.241 Y154.743 E7.75878
G1 X144.241 Y155.517 E7.80196
G1 X136.093 Y147.37 E8.4447
G1 X135.319 Y147.37 E8.48788
G1 X144.241 Y156.292 E9.19172
G1 X144.241 Y157.066 E9.2349
G1 X134.544 Y147.37 E9.99984
G1 X133.77 Y147.37 E10.04302
G1 X144.241 Y157.841 E10.86906
G1 X144.241 Y158.616 E10.91229
G1 X132.995 Y147.37 E11.79947
G1 X132.221 Y147.37 E11.84265
G1 X144.241 Y159.39 E12.79089
G1 X144.241 Y160.165 E12.83412
G1 X131.447 Y147.37 E13.84346
G1 X130.672 Y147.37 E13.88669
G1 X144.241 Y160.939 E14.95713
G1 X144.241 Y161.714 E15.00036
G1 X129.898 Y147.37 E16.13189
G1 X129.123 Y147.37 E16.17512
G1 X144.241 Y162.488 E17.36775
G1 X144.241 Y163.263 E17.41098
G1 X128.349 Y147.37 E18.66471
G1 X127.574 Y147.37 E18.70794
G1 X144.241 Y164.037 E20.02277
G1 X144.241 Y164.812 E20.066
G1 X126.8 Y147.37 E21.44193
G1 X126.025 Y147.37 E21.48516
M73 C81
G1 X144.242 Y165.586 E22.92223
G1 X144.242 Y166.361 E22.96546
G1 X125.251 Y147.37 E24.46363
G1 X124.476 Y147.37 E24.50686
G1 X144.242 Y167.135 E26.06613
G1 X144.242 Y167.91 E26.10936
G1 X123.702 Y147.37 E27.72973
G1 X122.927 Y147.37 E27.77296
G1 X144.242 Y168.685 E29.45446
G1 X144.242 Y169.459 E29.49764
G1 X122.153 Y147.37 E31.2402
G1 X121.378 Y147.37 E31.28343
G1 X144.242 Y170.234 E33.08713
G1 X144.242 Y171.008 E33.13031
G1 X120.604 Y147.37 E34.99507
G1 X119.829 Y147.37 E35.0383
G1 X144.242 Y171.783 E36.9642
G1 X144.242 Y172.557 E37.00738
G1 X119.055 Y147.37 E38.99434
G1 X118.28 Y147.37 E39.03757
G1 X144.242 Y173.332 E41.08567
G1 X144.242 Y174.106 E41.12885
G1 X117.506 Y147.37 E43.23801
G1 X116.731 Y147.37 E43.28124
G1 X144.242 Y174.881 E45.45154
G1 X144.242 Y175.655 E45.49472
G1 X115.957 Y147.37 E47.72608
G1 X115.182 Y147.37 E47.76931
G1 X144.242 Y176.43 E50.0618
G1 X144.242 Y177.204 E50.10498
G1 X114.408 Y147.37 E52.45853
G1 X113.633 Y147.37 E52.50176
G1 X144.242 Y177.979 E54.91645
G1 X144.242 Y178.753 E54.95963
G1 X112.859 Y147.37 E57.43538
G1 X112.084 Y147.37 E57.47861
M73 P1 R103
G1 X144.242 Y179.528 E60.0155
G1 X144.242 Y180.303 E60.05873
G1 X111.31 Y147.37 E62.65672
G1 X110.535 Y147.37 E62.69995
G1 X144.243 Y181.077 E65.35908
G1 X144.243 Y181.852 E65.40231
G1 X109.515 Y147.124 E68.14194
G1 E67.61194 F600
G92 E0
G1 X109.515 Y147.124 F9000
G1 X124.114 Y138.054 Z.55
G1 X138.655 Y129.021
G1 Z.25
G1 E.53 F1200
G1 F1800
G1 X140.378 Y130.744 E.66592
G1 X139.604 Y130.744 E.7091
G1 X138.127 Y129.267 E.82562
G1 X137.352 Y129.266 E.86885
G1 X138.829 Y130.744 E.98541
G1 X138.055 Y130.744 E1.02859
G1 X136.577 Y129.266 E1.14519
G1 X135.803 Y129.266 E1.18837
G1 X137.28 Y130.744 E1.30493
G1 X136.506 Y130.744 E1.34811
G1 X135.028 Y129.266 E1.46471
G1 X134.253 Y129.266 E1.50794
G1 X135.732 Y130.744 E1.62458
G1 X134.957 Y130.744 E1.66781
G1 X133.479 Y129.266 E1.78441
G1 X132.704 Y129.265 E1.82764
G1 X134.183 Y130.744 E1.94432
G1 X133.408 Y130.744 E1.98755
G1 X131.929 Y129.265 E2.10423
G1 X131.155 Y129.265 E2.14741
G1 X132.634 Y130.744 E2.26409
G1 X131.859 Y130.744 E2.30732
G1 X130.38 Y129.265 E2.424
G1 X129.606 Y129.265 E2.46718
G1 X131.085 Y130.744 E2.58386
G1 X130.31 Y130.744 E2.62709
G1 X128.831 Y129.265 E2.74377
G1 X128.056 Y129.265 E2.787
G1 X129.536 Y130.744 E2.90372
G1 X128.761 Y130.744 E2.94695
G1 X127.282 Y129.264 E3.06367
G1 X126.507 Y129.264 E3.1069
G1 X127.987 Y130.744 E3.22365
G1 X127.212 Y130.744 E3.26688
G1 X125.732 Y129.264 E3.38363
G1 X124.958 Y129.264 E3.42681
G1 X126.438 Y130.744 E3.54356
G1 X125.663 Y130.744 E3.58679
G1 X124.183 Y129.264 E3.70354
G1 X123.408 Y129.264 E3.74677
G1 X124.889 Y130.744 E3.86356
G1 X124.114 Y130.744 E3.90679
G1 X122.634 Y129.263 E4.02358
G1 X121.859 Y129.263 E4.06681
G1 X123.34 Y130.744 E4.18364
G1 X122.565 Y130.744 E4.22687
G1 X121.085 Y129.263 E4.34366
G1 X120.31 Y129.263 E4.38689
G1 X121.791 Y130.744 E4.50372
G1 X121.016 Y130.744 E4.54695
G1 X119.535 Y129.263 E4.66378
G1 X118.761 Y129.263 E4.70696
G1 X120.242 Y130.744 E4.82379
G1 X119.467 Y130.744 E4.86702
G1 X117.986 Y129.263 E4.98385
G1 X117.211 Y129.262 E5.02708
G1 X118.693 Y130.744 E5.14399
G1 X117.918 Y130.744 E5.18722
G1 X116.437 Y129.262 E5.30409
G1 X115.662 Y129.262 E5.34732
G1 X117.144 Y130.744 E5.46423
G1 X116.369 Y130.744 E5.50746
G1 X114.887 Y129.262 E5.62437
G1 X114.113 Y129.262 E5.66755
G1 X115.595 Y130.744 E5.78446
M73 P1 R102
G1 X114.82 Y130.744 E5.82769
G1 X113.338 Y129.262 E5.9446
G1 X112.564 Y129.262 E5.98778
G1 X114.046 Y130.744 E6.10469
G1 X113.271 Y130.744 E6.14792
G1 X111.789 Y129.261 E6.26487
G1 X111.014 Y129.261 E6.3081
G1 X112.497 Y130.744 E6.42509
G1 X111.723 Y130.744 E6.46827
G1 X110.24 Y129.261 E6.58526
G1 X109.465 Y129.261 E6.62849
G1 X110.948 Y130.744 E6.74548
G1 X110.174 Y130.744 E6.78866
G1 X108.69 Y129.261 E6.90569
G2 X107.937 Y129.281 I-.227 J5.447 E6.94774
G1 X109.399 Y130.744 E7.06311
G2 X108.652 Y130.762 I-.225 J6.13 E7.10482
G1 X107.33 Y129.449 E7.20876
G2 X106.827 Y129.721 I.769 J2.024 E7.24075
G1 X108.115 Y131.009 E7.34236
G2 X107.764 Y131.432 I.693 J.933 E7.37331
G1 X106.417 Y130.086 E7.47953
G2 X106.093 Y130.536 I1.357 J1.318 E7.51057
G1 X107.638 Y132.081 E7.63245
G1 X107.638 Y132.855 E7.67563
G1 X105.863 Y131.08 E7.81566
G2 X105.764 Y131.755 I2.724 J.747 E7.85381
G1 X107.638 Y133.63 E8.00169
G1 X107.638 Y134.404 E8.04487
G1 X105.756 Y132.522 E8.19334
G1 X105.756 Y133.297 E8.23657
G1 X107.638 Y135.178 E8.385
G1 X107.638 Y135.953 E8.42823
G1 X105.756 Y134.071 E8.5767
G1 X105.756 Y134.846 E8.61993
G1 X107.638 Y136.727 E8.76836
G1 X107.638 Y137.502 E8.81159
G1 X105.756 Y135.62 E8.96006
G1 X105.756 Y136.395 E9.00329
G1 X107.638 Y138.276 E9.15172
G1 X107.637 Y139.051 E9.19495
G1 X105.756 Y137.169 E9.34338
G1 X105.756 Y137.944 E9.38661
G1 X107.637 Y139.825 E9.535
G1 X107.637 Y140.599 E9.57818
G1 X105.756 Y138.718 E9.72657
G1 X105.756 Y139.493 E9.7698
G1 X107.637 Y141.374 E9.91819
G1 X107.637 Y142.148 E9.96137
G1 X105.756 Y140.267 E10.10976
G1 X105.756 Y141.042 E10.15299
G1 X107.637 Y142.923 E10.30138
G1 X107.637 Y143.697 E10.34456
G1 X105.756 Y141.816 E10.49295
G1 X105.756 Y142.591 E10.53618
G1 X107.637 Y144.472 E10.68457
G1 X107.637 Y145.246 E10.72775
G1 X105.756 Y143.365 E10.87614
G1 X105.756 Y144.14 E10.91937
G1 X107.637 Y146.02 E11.06772
G2 X107.732 Y146.619 I1.524 J.065 E11.10178
G1 X107.974 Y146.989 E11.12644
G1 X108.286 Y147.226 E11.1483
G2 X108.986 Y147.37 I.64 J-1.337 E11.18856
G1 X144.243 Y182.626 E13.96989
G1 X144.243 Y183.401 E14.01312
G1 X105.756 Y144.914 E17.04929
G1 X105.756 Y145.689 E17.09252
G1 X144.243 Y184.175 E20.12865
G1 X144.243 Y184.95 E20.17188
G1 X105.756 Y146.463 E23.20805
G1 X105.756 Y147.238 E23.25128
G1 X144.243 Y185.724 E26.28741
G1 X144.243 Y186.499 E26.33064
G1 X105.756 Y148.012 E29.36681
G1 X105.756 Y148.787 E29.41004
G1 X144.243 Y187.273 E32.44617
G1 X144.243 Y188.048 E32.4894
G1 X105.756 Y149.561 E35.52557
G1 X105.756 Y150.335 E35.56875
G1 X144.243 Y188.822 E38.60492
G1 X144.243 Y189.597 E38.64815
G1 X105.756 Y151.11 E41.68432
G1 X105.756 Y151.884 E41.7275
G1 X144.243 Y190.371 E44.76367
G1 X144.243 Y191.146 E44.8069
M73 C80
G1 X105.756 Y152.659 E47.84307
G1 X105.756 Y153.433 E47.88625
