; generated by PrusaSlicer 2.8.0+MacOS-arm64 on 2024-09-17 at 07:17:17 UTC


;
;

;
;
; 

; external perimeters extrusion width = 0.68mm
; perimeters extrusion width = 0.68mm
; infill extrusion width = 0.68mm
; solid infill extrusion width = 0.68mm
; top infill extrusion width = 0.60mm


EXCLUDE_OBJECT_DEFINE NAME='5v_dc_reducer_clip' CENTER=124.993,124.995 POLYGON=[[143.373,104.503],[144.207,104.690],[145.018,105.232],[145.510,105.931],[145.747,106.877],[145.750,143.000],[145.604,143.842],[145.102,144.679],[144.319,145.260],[143.738,145.452],[143.250,145.500],[106.750,145.500],[105.908,145.354],[105.071,144.852],[104.490,144.069],[104.298,143.488],[104.250,143.000],[104.250,106.500],[104.367,105.826],[104.768,105.157],[105.395,104.692],[106.250,104.500]]

;TYPE:Custom
START_PRINT BED_TEMP=65 HOTEND_TEMP=220 FILAMENT_TYPE=PLA EXTRUSION_MULTIPLIER=0.95 PERIMETER_SPEED=80
G21 ; set units to millimeters
G90 ; use absolute coordinates
M82 ; use absolute distances for extrusion
G92 E0
; Filament gcode
M107
;LAYER_CHANGE
;Z:0.35
;HEIGHT:0.35
G1 E-.5 F240
G1 Z.35 F9000
EXCLUDE_OBJECT_START NAME='5v_dc_reducer_clip'
G92 E0
G1 X137.369 Y108.739
G1 E.5 F240
G92 E0
;TYPE:External perimeter
;WIDTH:0.675
G1 F1800
G1 X137.546 Y108.86 E.01778
G1 X137.825 Y109.084 E.04745
G1 X138.275 Y109.605 E.10454
G1 X138.529 Y110.042 E.14646
G1 X138.722 Y110.541 E.19083
G1 X138.837 Y111.166 E.24353
G1 X138.86 Y111.7 E.28785
G1 X138.856 Y137.499 E2.42729
;WIDTH:0.721901
G1 X138.88 Y137.665 E2.44229
;WIDTH:0.768802
G1 X138.903 Y137.831 E2.45836
;WIDTH:0.815703
G1 X138.926 Y137.997 E2.47552
;WIDTH:0.853472
G1 X138.945 Y138.541 E2.53409
G1 X138.907 Y138.719 E2.55367
;WIDTH:0.811798
G1 X138.869 Y138.897 E2.57221
;WIDTH:0.770124
G1 X138.778 Y139.196 E2.60224
;WIDTH:0.722562
G1 X138.686 Y139.496 E2.63032
;WIDTH:0.675
G1 X138.481 Y140.029 E2.67768
G1 X138.216 Y140.458 E2.7195
G1 X137.667 Y141.043 E2.78603
G1 X136.981 Y141.488 E2.85384
G1 X136.512 Y141.675 E2.89571
G1 X136.02 Y141.789 E2.93759
G1 X135.523 Y141.826 E2.97892
G1 X114.473 Y141.823 E4.72454
G1 X113.689 Y141.691 E4.79047
G1 X112.939 Y141.368 E4.85819
G1 X112.404 Y140.98 E4.913
G1 X111.99 Y140.513 E4.96475
G1 X111.747 Y140.168 E4.99974
G1 X111.476 Y139.583 E5.0532
;WIDTH:0.690157
G1 X111.317 Y139.002 E5.10441
G1 X111.285 Y138.497 E5.14743
;WIDTH:0.69196
G1 X111.285 Y137.141 E5.26306
;WIDTH:0.675
G1 X111.285 Y136.649 E5.30386
G1 X111.285 Y111.488 E7.39039
G1 X111.356 Y110.905 E7.43909
G1 X111.469 Y110.4 E7.482
G1 X111.746 Y109.799 E7.53688
G1 X112.111 Y109.296 E7.58842
G1 X112.611 Y108.827 E7.64527
G1 X113.062 Y108.55 E7.68916
G1 X113.783 Y108.26 E7.75361
G1 X114.621 Y108.151 E7.82369
G1 X135.671 Y108.155 E9.56931
G1 X136.304 Y108.245 E9.62233
G1 X137.062 Y108.53 E9.68949
G1 X137.294 Y108.688 E9.71277
G1 X137.772 Y109.051 F9000
G1 E9.21277 F240
G92 E0
G1 X141.771 Y141.029 F9000
G1 E.5 F240
;TYPE:Perimeter
G1 F1800
G1 X141.336 Y141.001 E.53615
G1 X140.849 Y140.869 E.57799
G1 X140.397 Y140.643 E.6199
G1 X140 Y140.333 E.66167
G1 X139.835 Y140.151 E.68204
G1 X139.514 Y139.681 E.72924
G1 X139.359 Y139.359 E.75888
G1 X139.041 Y140.243 E.83679
G1 X138.722 Y140.779 E.88852
G1 X138.383 Y141.161 E.93087
G1 X137.931 Y141.597 E.98295
G1 X137.302 Y141.995 E1.04468
G1 X136.728 Y142.235 E1.09627
G1 X136.165 Y142.371 E1.1443
G1 X135.523 Y142.426 E1.19773
G1 X114.473 Y142.422 E2.94335
G1 X113.587 Y142.282 E3.01774
G1 X112.696 Y141.917 E3.09759
G1 X112.046 Y141.462 E3.16339
G1 X111.536 Y140.904 E3.22608
G1 X111.313 Y140.62 E3.25602
G1 X111.037 Y140.111 E3.30404
G1 X110.92 Y139.809 E3.3309
G1 X110.626 Y140.205 E3.3718
G1 X110.251 Y140.542 E3.41361
G1 X109.816 Y140.799 E3.45551
G1 X109.34 Y140.965 E3.49731
G1 X108.84 Y141.033 E3.53916
G1 X108.336 Y141.001 E3.58104
G1 X107.849 Y140.869 E3.62288
G1 X107.397 Y140.643 E3.66479
G1 X107 Y140.333 E3.70656
G1 X106.514 Y139.681 E3.774
;WIDTH:0.713547
G1 X106.442 Y139.554 E3.78688
;WIDTH:0.752094
G1 X106.371 Y139.428 E3.80041
;WIDTH:0.790641
G1 X106.299 Y139.302 E3.81476
;WIDTH:0.829189
G1 X106.227 Y139.176 E3.82989
;WIDTH:0.871438
G1 X106.185 Y139.083 E3.84112
;WIDTH:0.913687
G1 X106.142 Y138.991 E3.85289
G1 X106.108 Y138.466 E3.91388
;WIDTH:0.90201
G1 X106.127 Y138.14 E3.95121
G1 X106.173 Y138.043 E3.96348
;WIDTH:0.856608
G1 X106.22 Y137.947 E3.97503
;WIDTH:0.811206
G1 X106.266 Y137.851 E3.98586
;WIDTH:0.765804
G1 X106.313 Y137.754 E3.99615
;WIDTH:0.720402
G1 X106.359 Y137.658 E4.00565
;WIDTH:0.675
G1 X106.574 Y137.201 E4.04753
G1 X106.874 Y136.795 E4.08939
G1 X107.249 Y136.458 E4.1312
G1 X107.684 Y136.201 E4.1731
G1 X108.16 Y136.035 E4.2149
G1 X108.403 Y135.995 E4.23532
G1 X108.972 Y135.981 E4.28252
G1 X109.532 Y136.089 E4.32981
G1 X109.994 Y136.292 E4.37166
G1 X110.407 Y136.582 E4.41351
G1 X110.685 Y136.87 E4.4467
G1 X110.685 Y111.488 E6.55156
G1 X110.726 Y110.97 E6.59465
G1 X110.86 Y110.46 E6.63838
;WIDTH:0.637297
G1 X110.905 Y110.288 E6.6522
;WIDTH:0.645965
G1 X110.765 Y110.496 E6.67199
;WIDTH:0.674887
G1 X110.626 Y110.705 E6.6928
;WIDTH:0.675
G1 X110.251 Y111.042 E6.73461
G1 X109.816 Y111.299 E6.77651
G1 X109.34 Y111.465 E6.81831
G1 X108.84 Y111.533 E6.86016
G1 X108.336 Y111.501 E6.90204
G1 X107.849 Y111.369 E6.94388
G1 X107.397 Y111.143 E6.98579
G1 X107 Y110.833 E7.02756
G1 X106.514 Y110.181 E7.095
;WIDTH:0.694821
G1 X106.395 Y109.963 E7.11628
;WIDTH:0.738594
G1 X106.344 Y109.869 E7.12609
;WIDTH:0.782367
G1 X106.294 Y109.774 E7.13659
;WIDTH:0.82614
G1 X106.243 Y109.68 E7.14769
;WIDTH:0.869913
G1 X106.193 Y109.586 E7.15939
;WIDTH:0.913687
G1 X106.142 Y109.491 E7.17189
G1 X106.108 Y108.966 E7.23288
;WIDTH:0.90201
G1 X106.127 Y108.64 E7.27021
G1 X106.173 Y108.543 E7.28248
;WIDTH:0.856608
G1 X106.22 Y108.447 E7.29403
;WIDTH:0.811206
G1 X106.266 Y108.351 E7.30486
;WIDTH:0.765804
G1 X106.313 Y108.254 E7.31515
;WIDTH:0.720402
G1 X106.359 Y108.158 E7.32465
;WIDTH:0.675
G1 X106.574 Y107.701 E7.36653
G1 X106.874 Y107.295 E7.40839
G1 X107.249 Y106.958 E7.4502
G1 X107.684 Y106.701 E7.4921
;WIDTH:0.716589
G1 X107.797 Y106.639 E7.50353
;WIDTH:0.758179
G1 X107.91 Y106.578 E7.51566
;WIDTH:0.799769
G1 X108.023 Y106.517 E7.52852
;WIDTH:0.841359
G1 X108.136 Y106.455 E7.54217
;WIDTH:0.877956
G1 X108.193 Y106.423 E7.54942
;WIDTH:0.914554
G1 X108.249 Y106.39 E7.55696
G1 X108.969 Y106.37 E7.64054
;WIDTH:0.918976
G1 X109.247 Y106.39 E7.67305
G1 X109.337 Y106.442 E7.68518
;WIDTH:0.87018
G1 X109.428 Y106.494 E7.6967
;WIDTH:0.821385
G1 X109.519 Y106.546 E7.70751
;WIDTH:0.77259
G1 X109.61 Y106.598 E7.71762
;WIDTH:0.723795
G1 X109.701 Y106.65 E7.72702
;WIDTH:0.675
G1 X110.147 Y106.885 E7.76883
G1 X110.539 Y107.204 E7.81074
G1 X110.859 Y107.594 E7.85258
G1 X111.096 Y108.04 E7.89446
G1 X111.24 Y108.524 E7.93634
G1 X111.284 Y109.026 E7.97813
;WIDTH:0.673115
G1 X111.221 Y109.526 E8.01979
G1 X111.505 Y109.109 E8.0615
;WIDTH:0.675
G1 X111.816 Y108.737 E8.10171
G1 X112.208 Y108.382 E8.14557
G1 X112.695 Y108.07 E8.19353
G1 X113.02 Y107.896 E8.2241
G1 X113.581 Y107.695 E8.27352
G1 X114.51 Y107.558 E8.35139
G1 X135.671 Y107.555 E10.10621
G1 X136.392 Y107.652 E10.16654
G1 X137.277 Y107.97 E10.24452
G1 X137.891 Y108.369 E10.30524
G1 X138.28 Y108.692 E10.34717
G1 X138.729 Y109.213 E10.40421
;WIDTH:0.718331
G1 X138.802 Y109.291 E10.41371
;WIDTH:0.761663
G1 X138.875 Y109.369 E10.42385
;WIDTH:0.804994
G1 X138.949 Y109.447 E10.4347
;WIDTH:0.848326
G1 X139.022 Y109.524 E10.44604
;WIDTH:0.891657
G1 X139.095 Y109.602 E10.4581
;WIDTH:0.934989
G1 X139.168 Y109.68 E10.4708
G1 X139.176 Y109.575 E10.48332
;WIDTH:0.887991
G1 X139.184 Y109.47 E10.49515
;WIDTH:0.840993
G1 X139.192 Y109.365 E10.5063
;WIDTH:0.793995
G1 X139.2 Y109.259 E10.51686
;WIDTH:0.746997
G1 X139.208 Y109.154 E10.52664
;WIDTH:0.699999
G1 X139.24 Y108.648 E10.57044
;WIDTH:0.675
G1 X139.359 Y108.158 E10.61226
G1 X139.574 Y107.701 E10.65414
G1 X139.874 Y107.295 E10.696
G1 X140.249 Y106.958 E10.73781
G1 X140.684 Y106.701 E10.77971
;WIDTH:0.716391
G1 X140.797 Y106.639 E10.79114
;WIDTH:0.757783
G1 X140.91 Y106.578 E10.80326
;WIDTH:0.799175
G1 X141.023 Y106.517 E10.81611
;WIDTH:0.840567
G1 X141.136 Y106.456 E10.8297
;WIDTH:0.876945
G1 X141.193 Y106.423 E10.837
;WIDTH:0.913324
G1 X141.249 Y106.391 E10.84447
G1 X141.969 Y106.371 E10.92793
;WIDTH:0.917738
G1 X142.246 Y106.391 E10.96028
G1 X142.337 Y106.443 E10.97249
;WIDTH:0.86919
G1 X142.428 Y106.495 E10.984
;WIDTH:0.820642
G1 X142.519 Y106.547 E10.9948
;WIDTH:0.772095
G1 X142.61 Y106.598 E11.00485
;WIDTH:0.723547
G1 X142.701 Y106.65 E11.01424
;WIDTH:0.675
G1 X143.147 Y106.885 E11.05605
G1 X143.539 Y107.204 E11.09796
G1 X143.859 Y107.594 E11.1398
G1 X144.095 Y108.04 E11.18164
;WIDTH:0.674329
G1 X144.233 Y108.524 E11.22333
;WIDTH:0.661272
G1 X144.266 Y109.025 E11.26401
;WIDTH:0.661008
G1 X144.222 Y109.526 E11.30474
;WIDTH:0.675
G1 X144.075 Y110.009 E11.34661
G1 X143.829 Y110.45 E11.38849
G1 X143.501 Y110.833 E11.43031
G1 X143.103 Y111.143 E11.47215
G1 X142.651 Y111.369 E11.51406
G1 X142.164 Y111.501 E11.5559
G1 X141.66 Y111.533 E11.59778
G1 X141.16 Y111.465 E11.63963
G1 X140.684 Y111.299 E11.68143
G1 X140.249 Y111.042 E11.72333
G1 X139.838 Y110.656 E11.77009
;WIDTH:0.72143
G1 X139.754 Y110.574 E11.78058
;WIDTH:0.767861
G1 X139.67 Y110.492 E11.79182
;WIDTH:0.814291
G1 X139.586 Y110.41 E11.80382
;WIDTH:0.860722
G1 X139.502 Y110.328 E11.81657
;WIDTH:0.907153
G1 X139.418 Y110.246 E11.83007
;WIDTH:0.932445
G1 X139.376 Y110.204 E11.83711
G1 X139.38 Y110.31 E11.84968
;WIDTH:0.889537
G1 X139.385 Y110.415 E11.86151
;WIDTH:0.84663
G1 X139.39 Y110.521 E11.87283
;WIDTH:0.803722
G1 X139.394 Y110.627 E11.88351
;WIDTH:0.760815
G1 X139.399 Y110.733 E11.89357
;WIDTH:0.717907
G1 X139.403 Y110.838 E11.90291
;WIDTH:0.675
G1 X139.457 Y111.421 E11.95146
G1 X139.459 Y112.027 E12.00171
G1 X139.456 Y137.43 E14.10831
G1 X139.671 Y137.05 E14.14452
G1 X139.999 Y136.667 E14.18634
G1 X140.397 Y136.357 E14.22818
G1 X140.849 Y136.131 E14.27009
G1 X141.403 Y135.995 E14.3174
G1 X141.972 Y135.981 E14.3646
G1 X142.532 Y136.089 E14.41189
G1 X142.994 Y136.292 E14.45374
G1 X143.407 Y136.582 E14.49559
G1 X143.754 Y136.949 E14.53747
G1 X144.022 Y137.377 E14.57935
G1 X144.196 Y137.85 E14.62114
;WIDTH:0.667516
G1 X144.264 Y138.349 E14.66238
;WIDTH:0.651493
G1 X144.248 Y138.851 E14.7024
;WIDTH:0.670927
G1 X144.139 Y139.341 E14.74374
;WIDTH:0.675
G1 X143.927 Y139.799 E14.78559
G1 X143.626 Y140.205 E14.8275
G1 X143.251 Y140.542 E14.86931
G1 X142.816 Y140.799 E14.91121
G1 X142.34 Y140.965 E14.95301
G1 X141.86 Y141.03 E14.99318
G1 E14.49318 F240
G92 E0
G1 X141.86 Y141.03 F9000
G1 X110.935 Y110.209
G1 E.5 F240
;WIDTH:0.653849
G1 F1800
G1 X111.213 Y109.547 E.55744
G1 E.05744 F240
G92 E0
G1 X111.213 Y109.547 F9000
G1 X139.376 Y110.204
G1 E.5 F240
;WIDTH:0.941473
G1 F1800
G1 X139.174 Y109.693 E.56581
G1 E.06581 F240
G92 E0
G1 X139.174 Y109.693 F9000
G1 X143.673 Y108.864
G1 E.5 F240
;TYPE:External perimeter
;WIDTH:0.675
G1 F1800
G1 X143.686 Y108.982 E.50984
G1 X143.652 Y109.366 E.54181
G1 X143.541 Y109.735 E.57376
G1 X143.36 Y110.076 E.60577
G1 X143.115 Y110.373 E.6377
G1 X142.816 Y110.617 E.6697
G1 X142.475 Y110.796 E.70164
G1 X142.104 Y110.904 E.73368
G1 X141.72 Y110.936 E.76563
G1 X141.337 Y110.892 E.7976
G1 X140.97 Y110.773 E.82959
G1 X140.615 Y110.566 E.86367
G1 X140.33 Y110.313 E.89527
G1 X140.009 Y109.843 E.94247
G1 X139.856 Y109.402 E.98118
G1 X139.814 Y109.018 E1.01321
G1 X139.864 Y108.58 E1.04977
G1 X139.959 Y108.265 E1.07705
G1 X140.14 Y107.924 E1.10906
G1 X140.385 Y107.627 E1.14099
G1 X140.684 Y107.383 E1.17299
G1 X141.025 Y107.204 E1.20493
G1 X141.418 Y107.095 E1.23875
G1 X141.987 Y107.081 E1.28595
G1 X142.44 Y107.191 E1.32461
G1 X142.868 Y107.426 E1.3651
G1 X143.125 Y107.642 E1.39294
G1 X143.34 Y107.894 E1.42041
G1 X143.527 Y108.231 E1.45237
G1 X143.644 Y108.598 E1.48431
G1 X143.664 Y108.774 E1.499
G1 X143.629 Y109.373 F9000
G1 E.999 F240
G92 E0
G1 X141.662 Y136.589 F9000
G1 E.5 F240
G1 F1800
G1 X141.987 Y136.581 E.52696
G1 X142.44 Y136.691 E.56562
G1 X142.785 Y136.863 E.59759
G1 X143.089 Y137.101 E.62961
G1 X143.34 Y137.394 E.6616
G1 X143.527 Y137.731 E.69356
G1 X143.644 Y138.098 E.7255
G1 X143.686 Y138.482 E.75753
G1 X143.652 Y138.866 E.7895
G1 X143.541 Y139.235 E.82145
G1 X143.36 Y139.576 E.85346
G1 X143.115 Y139.873 E.88539
G1 X142.816 Y140.117 E.91739
G1 X142.475 Y140.296 E.94933
G1 X142.104 Y140.404 E.98137
G1 X141.72 Y140.436 E1.01332
G1 X141.337 Y140.392 E1.04529
G1 X140.97 Y140.273 E1.07728
G1 X140.634 Y140.083 E1.10929
G1 X140.33 Y139.813 E1.14301
G1 X139.973 Y139.269 E1.19697
;WIDTH:0.715101
G1 X139.917 Y139.128 E1.21039
;WIDTH:0.755203
G1 X139.861 Y138.986 E1.22474
;WIDTH:0.795305
G1 X139.806 Y138.844 E1.2399
;WIDTH:0.835407
G1 X139.75 Y138.703 E1.25585
;WIDTH:0.854554
G1 X139.724 Y138.512 E1.27662
;WIDTH:0.866732
G1 X139.742 Y138.186 E1.31235
G1 X139.834 Y138.008 E1.33428
;WIDTH:0.818799
G1 X139.925 Y137.83 E1.35483
;WIDTH:0.770866
G1 X140.016 Y137.652 E1.37406
;WIDTH:0.722933
G1 X140.107 Y137.475 E1.39188
;WIDTH:0.675
G1 X140.385 Y137.127 E1.42882
G1 X140.684 Y136.883 E1.46082
G1 X141.025 Y136.704 E1.49276
G1 X141.418 Y136.595 E1.52658
G1 X141.572 Y136.591 E1.53936
G1 X142.171 Y136.639 F9000
G1 E1.03936 F240
G92 E0
G1 X110.629 Y138.937 F9000
G1 E.5 F240
;WIDTH:0.698559
G1 F1800
G1 X110.499 Y139.319 E.53478
;WIDTH:0.675
G1 X110.268 Y139.691 E.57109
G1 X109.978 Y139.989 E.60557
G1 X109.53 Y140.273 E.64956
G1 X109.104 Y140.404 E.68652
G1 X108.72 Y140.436 E.71847
G1 X108.337 Y140.392 E.75044
G1 X107.97 Y140.273 E.78243
G1 X107.635 Y140.083 E.81437
G1 X107.33 Y139.813 E.84815
G1 X107.009 Y139.343 E.89535
G1 X106.856 Y138.902 E.93406
G1 X106.814 Y138.518 E.96609
G1 X106.848 Y138.134 E.99806
G1 X106.959 Y137.765 E1.03001
G1 X107.14 Y137.424 E1.06202
G1 X107.385 Y137.127 E1.09395
G1 X107.635 Y136.917 E1.12103
G1 X108.025 Y136.704 E1.15788
G1 X108.418 Y136.595 E1.1917
G1 X108.987 Y136.581 E1.2389
G1 X109.44 Y136.691 E1.27756
G1 X109.785 Y136.863 E1.30953
G1 X110.089 Y137.101 E1.34155
G1 X110.34 Y137.394 E1.37354
;WIDTH:0.680139
G1 X110.53 Y137.73 E1.40582
;WIDTH:0.696463
G1 X110.655 Y138.097 E1.43912
;WIDTH:0.698559
G1 X110.674 Y138.808 E1.50042
G1 X110.658 Y138.852 E1.50446
G1 X110.428 Y139.406 F9000
G1 E1.00446 F240
G92 E0
G1 X107.821 Y110.688 F9000
G1 E.5 F240
;WIDTH:0.675
G1 F1800
G1 X107.635 Y110.583 E.51771
G1 X107.33 Y110.313 E.55149
G1 X106.973 Y109.769 E.60545
G1 X106.856 Y109.402 E.63739
G1 X106.814 Y109.018 E.66942
G1 X106.848 Y108.634 E.70139
G1 X106.959 Y108.265 E.73334
G1 X107.14 Y107.924 E.76535
G1 X107.385 Y107.627 E.79728
G1 X107.684 Y107.383 E.82928
G1 X108.025 Y107.204 E.86122
G1 X108.418 Y107.095 E.89504
G1 X108.987 Y107.081 E.94224
G1 X109.44 Y107.191 E.9809
G1 X109.785 Y107.363 E1.01287
G1 X110.089 Y107.601 E1.04489
G1 X110.34 Y107.894 E1.07688
G1 X110.546 Y108.288 E1.11375
G1 X110.653 Y108.664 E1.14617
G1 X110.686 Y108.982 E1.17268
G1 X110.645 Y109.387 E1.20644
G1 X110.487 Y109.842 E1.24638
G1 X110.36 Y110.076 E1.26846
G1 X110.097 Y110.389 E1.30236
G1 X109.816 Y110.617 E1.33237
G1 X109.475 Y110.796 E1.36431
G1 X109.104 Y110.904 E1.39635
G1 X108.72 Y110.936 E1.4283
G1 X108.337 Y110.892 E1.46027
G1 X107.97 Y110.773 E1.49226
G1 X107.9 Y110.733 E1.49895
G1 X107.416 Y110.378 F9000
G1 E.99895 F240
G92 E0
G1 X144.766 Y144.528 F9000
G1 E.5 F240
G1 F1800
G1 X144.543 Y144.731 E.52501
G1 X143.974 Y145.035 E.57851
G1 X143.682 Y145.1 E.60332
G1 X143.242 Y145.163 E.64018
G1 X106.767 Y145.163 E3.66495
G1 X106.175 Y145.078 E3.71455
G1 X105.639 Y144.853 E3.76276
G1 X105.299 Y144.601 E3.79786
G1 X105.019 Y144.293 E3.83238
G1 X104.715 Y143.724 E3.88588
G1 X104.65 Y143.432 E3.91069
G1 X104.587 Y142.992 E3.94755
G1 X104.592 Y106.454 E6.97754
G1 X104.686 Y105.94 E7.02087
G1 X104.917 Y105.522 E7.06047
G1 X105.255 Y105.171 E7.10088
G1 X105.701 Y104.933 E7.1428
G1 X106.267 Y104.838 E7.19039
G1 X142.676 Y104.84 E10.20968
G1 X143.458 Y104.854 E10.27454
G1 X143.95 Y104.965 E10.31637
G1 X144.451 Y105.203 E10.36237
G1 X144.858 Y105.563 E10.40743
G1 X145.136 Y105.964 E10.44789
G1 X145.346 Y106.475 E10.4937
G1 X145.409 Y106.992 E10.53689
G1 X145.412 Y142.983 E13.52152
G1 X145.328 Y143.575 E13.5711
G1 X145.103 Y144.111 E13.61931
