; generated by PrusaSlicer 2.8.1+MacOS-arm64 on 2024-11-27 at 04:46:15 UTC


;
;

;
;
; 

; external perimeters extrusion width = 0.50mm
; perimeters extrusion width = 0.55mm
; infill extrusion width = 0.60mm
; solid infill extrusion width = 0.60mm
; top infill extrusion width = 0.55mm
; first layer extrusion width = 0.60mm

M73 P0 R23

EXCLUDE_OBJECT_DEFINE NAME='5v_dc_reducer_clip_(Instance_1)' CENTER=124.993,74.495 POLYGON=[[143.373,54.003],[144.207,54.190],[145.018,54.732],[145.510,55.431],[145.747,56.377],[145.750,92.500],[145.604,93.342],[145.102,94.179],[144.319,94.760],[143.738,94.952],[143.250,95.000],[106.750,95.000],[105.908,94.854],[105.071,94.352],[104.490,93.569],[104.298,92.988],[104.250,92.500],[104.250,56.000],[104.367,55.326],[104.768,54.657],[105.395,54.192],[106.250,54.000]]
EXCLUDE_OBJECT_DEFINE NAME='5v_dc_reducer_clip_(Instance_2)' CENTER=124.993,175.495 POLYGON=[[143.373,155.003],[144.207,155.190],[145.018,155.732],[145.510,156.431],[145.747,157.377],[145.750,193.500],[145.604,194.342],[145.102,195.179],[144.319,195.760],[143.738,195.952],[143.250,196.000],[106.750,196.000],[105.908,195.854],[105.071,195.352],[104.490,194.569],[104.298,193.988],[104.250,193.500],[104.250,157.000],[104.367,156.326],[104.768,155.657],[105.395,155.192],[106.250,155.000]]

M190 S55 ; set bed temperature and wait for it to be reached
M104 S230 ; set temperature
;TYPE:Custom
START_PRINT BED_TEMP=55 HOTEND_TEMP=230 FILAMENT_TYPE=PLA EXTRUSION_MULTIPLIER=0.98
M109 S230 ; set temperature and wait for it to be reached
G21 ; set units to millimeters
G90 ; use absolute coordinates
M82 ; use absolute distances for extrusion
G92 E0
; Filament gcode
SET_GCODE_OFFSET Z=0.01
M107
;LAYER_CHANGE
;Z:0.25
;HEIGHT:0.25
G1 E-.53 F600
G1 Z.55 F9000
EXCLUDE_OBJECT_START NAME='5v_dc_reducer_clip_(Instance_1)'
G92 E0
G1 X137.349 Y58.267
G1 Z.25
G1 E.53 F1200
;TYPE:External perimeter
;WIDTH:0.599999
G1 F1800
G3 X137.796 Y58.608 I-4.518 J6.398 E.56129
G1 X138.246 Y59.129 E.5996
G3 X138.685 Y60.05 I-3.283 J2.131 E.65654
G3 X138.822 Y61.201 I-4.939 J1.171 E.72119
G1 X138.818 Y88.138 E2.22025
G1 X138.728 Y88.764 E2.25545
G1 X138.447 Y89.512 E2.29992
G1 X138.184 Y89.938 E2.32778
G1 X137.64 Y90.517 E2.37199
G1 X136.962 Y90.956 E2.41694
G3 X135.523 Y91.289 I-1.5 J-3.209 E2.49974
G1 X114.474 Y91.285 E3.67113
G1 X113.697 Y91.154 E3.71498
G1 X112.955 Y90.835 E3.75993
G1 X112.427 Y90.451 E3.79626
G3 X111.78 Y89.65 I4.315 J-4.147 E3.85363
G1 X111.51 Y89.068 E3.88933
;WIDTH:0.647141
G1 X111.338 Y88.498 E3.92532
;WIDTH:0.665846
G1 X111.29 Y88.012 E3.95577
G1 X111.29 Y87.432 E3.99194
;WIDTH:0.663732
G1 X111.306 Y87.037 E4.01651
;WIDTH:0.631866
G1 X111.322 Y86.642 E4.03979
;WIDTH:0.599999
G1 X111.322 Y60.988 E5.46745
G3 X111.506 Y59.909 I6.698 J.584 E5.52843
G1 X111.779 Y59.316 E5.56476
G1 X112.142 Y58.818 E5.59906
G1 X112.636 Y58.355 E5.63674
G1 X113.081 Y58.082 E5.66579
G1 X113.795 Y57.795 E5.70861
G1 X114.588 Y57.691 E5.75312
G1 X135.671 Y57.692 E6.9264
G1 X136.298 Y57.782 E6.96165
G1 X137.047 Y58.064 E7.00619
G3 X137.287 Y58.224 I-4.216 J6.601 E7.02224
G1 X137.688 Y58.523 F9000
G1 E6.49224 F600
G92 E0
G1 X141.409 Y75.303 Z.55 F9000
G1 X144.041 Y87.169
G1 Z.25
G1 E.53 F1200
;TYPE:Perimeter
;WIDTH:0.654172
G1 F1800
G1 X144.139 Y87.368 E.54357
;WIDTH:0.679714
G1 X144.17 Y87.449 E.5491
;WIDTH:0.705256
G1 X144.202 Y87.529 E.55482
G1 X144.235 Y88.024 E.58775
;WIDTH:0.682113
G1 X144.178 Y88.515 E.61939
;WIDTH:0.676874
G1 X144.012 Y88.886 E.64519
;WIDTH:0.638437
G1 X143.846 Y89.257 E.6694
;WIDTH:0.599999
G1 X143.441 Y89.764 E.70551
G1 X143.058 Y90.064 E.73258
G1 X142.623 Y90.282 E.75966
G1 X142.154 Y90.41 E.78671
G1 X141.668 Y90.442 E.81381
G1 X141.186 Y90.378 E.84087
G1 X140.726 Y90.219 E.86796
G1 X140.307 Y89.972 E.89503
G1 X139.909 Y89.599 E.92539
G1 X139.59 Y89.131 E.95691
G1 X139.389 Y88.622 E.98736
;WIDTH:0.596191
G1 X139.34 Y88.255 E1.00782
;WIDTH:0.599999
G1 X139.269 Y88.844 E1.04084
G1 X138.957 Y89.708 E1.09196
G1 X138.646 Y90.23 E1.12577
G3 X137.881 Y91.021 I-6.928 J-5.936 E1.18705
G1 X137.255 Y91.417 E1.22827
G3 X135.523 Y91.835 I-1.803 J-3.675 E1.32822
G1 X114.473 Y91.831 E2.49967
G1 X113.603 Y91.693 E2.54869
G1 X112.734 Y91.334 E2.60101
G1 X112.101 Y90.89 E2.64404
G1 X111.606 Y90.346 E2.68497
G3 X110.936 Y89.081 I3.18 J-2.493 E2.76506
G1 X110.666 Y89.508 E2.79317
G1 X110.305 Y89.878 E2.82194
G3 X109.623 Y90.282 I-1.74 J-2.158 E2.8662
G1 X109.154 Y90.41 E2.89325
G1 X108.668 Y90.442 E2.92035
G1 X108.186 Y90.378 E2.94741
G1 X107.726 Y90.219 E2.9745
G1 X107.307 Y89.972 E3.00157
G1 X106.909 Y89.598 E3.03196
G1 X106.59 Y89.131 E3.06343
G3 X106.357 Y88.504 I4.341 J-1.972 E3.10068
G1 X106.306 Y87.979 E3.13003
G1 X106.359 Y87.495 E3.15713
G1 X106.506 Y87.032 E3.18416
G1 X106.743 Y86.606 E3.21129
G1 X107.059 Y86.236 E3.23837
G1 X107.442 Y85.936 E3.26544
G1 X107.876 Y85.718 E3.29247
G1 X108.345 Y85.59 E3.31952
G1 X108.885 Y85.566 E3.3496
G1 X109.447 Y85.664 E3.38135
G1 X109.954 Y85.873 E3.41187
G1 X110.471 Y86.265 E3.44798
G1 X110.776 Y86.634 E3.47462
G1 X110.776 Y60.988 E4.90184
G1 X110.815 Y60.491 E4.92958
;WIDTH:0.626978
G1 X110.86 Y60.231 E4.94499
;WIDTH:0.653956
G1 X110.904 Y59.971 E4.96111
;WIDTH:0.684363
G1 X110.919 Y59.84 E4.96958
;WIDTH:0.71477
G1 X110.934 Y59.71 E4.97839
G1 X110.808 Y59.856 E4.99138
;WIDTH:0.676513
G1 X110.682 Y60.001 E5.00357
;WIDTH:0.638256
G1 X110.555 Y60.147 E5.01509
;WIDTH:0.599999
G1 X110.094 Y60.543 E5.04891
G1 X109.624 Y60.782 E5.07825
G1 X109.154 Y60.91 E5.10536
G1 X108.668 Y60.942 E5.13246
G1 X108.186 Y60.878 E5.15952
G1 X107.726 Y60.719 E5.18661
G1 X107.307 Y60.472 E5.21368
G1 X106.909 Y60.098 E5.24407
G1 X106.59 Y59.631 E5.27554
G1 X106.387 Y59.123 E5.30598
G1 X106.304 Y58.541 E5.3387
G1 X106.359 Y57.996 E5.36918
G1 X106.506 Y57.532 E5.39627
G1 X106.743 Y57.106 E5.4234
G1 X107.059 Y56.736 E5.45048
G1 X107.442 Y56.436 E5.47755
G1 X107.876 Y56.218 E5.50458
G1 X108.345 Y56.09 E5.53163
G1 X108.885 Y56.066 E5.56171
G1 X109.447 Y56.164 E5.59346
G1 X109.954 Y56.373 E5.62398
G1 X110.471 Y56.765 E5.66009
G1 X110.781 Y57.141 E5.68721
G1 X111.029 Y57.627 E5.71757
G1 X111.157 Y58.1 E5.74484
;WIDTH:0.646734
G1 X111.187 Y58.474 E5.76751
;WIDTH:0.693468
G1 X111.216 Y58.847 E5.79189
;WIDTH:0.723462
G1 X111.221 Y58.938 E5.79811
;WIDTH:0.753456
G1 X111.225 Y59.029 E5.8046
G1 X111.313 Y58.938 E5.81362
;WIDTH:0.715092
G1 X111.401 Y58.846 E5.8222
;WIDTH:0.676728
G1 X111.489 Y58.755 E5.83023
;WIDTH:0.638364
G1 X111.576 Y58.663 E5.83777
;WIDTH:0.599999
G3 X112.269 Y57.95 I3.53 J2.736 E5.89322
G1 X112.741 Y57.649 E5.92437
G3 X113.611 Y57.281 I1.967 J3.438 E5.97706
G1 X114.621 Y57.142 E6.0338
G1 X135.671 Y57.146 E7.20525
G1 X136.378 Y57.242 E7.24496
G1 X137.244 Y57.554 E7.29619
G3 X138.21 Y58.251 I-3.36 J5.682 E7.36257
G1 X138.659 Y58.772 E7.40085
G1 X138.951 Y59.302 E7.43453
;WIDTH:0.552625
G1 X139.146 Y59.794 E7.46143
;WIDTH:0.573343
G1 X139.23 Y60.075 E7.47696
;WIDTH:0.599999
G1 X139.314 Y60.356 E7.49328
G3 X139.368 Y61.525 I-8.045 J.961 E7.55846
G1 X139.365 Y86.998 E8.97605
G1 X139.348 Y87.658 E9.01279
;WIDTH:0.599233
G1 X139.447 Y87.184 E9.0397
;WIDTH:0.599999
G1 X139.743 Y86.606 E9.07584
G1 X140.059 Y86.236 E9.10292
G1 X140.442 Y85.936 E9.12999
G1 X140.876 Y85.718 E9.15702
G1 X141.345 Y85.59 E9.18407
G1 X141.885 Y85.566 E9.21415
G1 X142.447 Y85.664 E9.2459
G1 X142.954 Y85.873 E9.27642
G1 X143.471 Y86.265 E9.31253
G1 X143.781 Y86.641 E9.33965
;WIDTH:0.627086
G1 X143.96 Y87.004 E9.36329
;WIDTH:0.654172
G1 X144.008 Y87.102 E9.36996
G1 E8.83996 F600
G92 E0
G1 X144.008 Y87.102 F9000
G1 X139.339 Y88.176 Z.334
G1 Z.25
G1 E.53 F1200
;WIDTH:0.565572
G1 F1800
G1 X139.348 Y87.658 E.55701
G1 E.02701 F600
G92 E0
G1 X139.348 Y87.658 F9000
G1 X127.095 Y75.605 Z.55
G1 X110.934 Y59.71
G1 Z.25
G1 E.53 F1200
;WIDTH:0.760708
G1 F1800
G1 X111.212 Y59.048 E.58171
G1 E.05171 F600
G92 E0
G1 X111.212 Y59.048 F9000
G1 X107.527 Y59.947 Z.316
G1 Z.25
G1 E.53 F1200
;TYPE:External perimeter
;WIDTH:0.599999
G1 F1800
G3 X107.36 Y59.79 I1.237 J-1.483 E.54276
G1 X107.041 Y59.323 E.57423
G1 X106.893 Y58.896 E.59938
G3 X106.992 Y57.781 I2.008 J-.383 E.66248
G3 X108.792 Y56.604 I1.77 J.742 E.78953
G1 X109.353 Y56.702 E.82122
G1 X109.763 Y56.894 E.84641
G3 X110.308 Y57.414 I-1.294 J1.9 E.88852
G1 X110.511 Y57.801 E.91284
G3 X110.609 Y58.878 I-1.878 J.714 E.97377
G1 X110.454 Y59.324 E1.00005
G3 X110.128 Y59.806 I-1.802 J-.865 E1.03255
G1 X109.797 Y60.084 E1.05661
G3 X109.1 Y60.367 I-1.2 J-1.962 E1.09866
G3 X107.585 Y59.994 I-.336 J-1.903 E1.18804
G1 X107.254 Y59.619 F9000
G1 E.65804 F600
G92 E0
G1 X109.269 Y76.688 Z.55 F9000
G1 X110.645 Y88.342
G1 Z.25
G1 E.53 F1200
;WIDTH:0.665846
G1 F1800
G1 X110.64 Y88.387 E.53282
;WIDTH:0.664942
G1 X110.525 Y88.648 E.55058
;WIDTH:0.632471
G1 X110.41 Y88.91 E.56745
;WIDTH:0.599999
G1 X110.09 Y89.345 E.5975
G3 X109.1 Y89.867 I-1.41 J-1.479 E.66059
G3 X107.36 Y89.29 I-.336 J-1.903 E.76689
G1 X107.041 Y88.823 E.79836
G1 X106.895 Y88.409 E.82279
M73 P1 R23
G3 X106.992 Y87.281 I2.016 J-.394 E.88662
G3 X108.792 Y86.104 I1.77 J.742 E1.01367
G1 X109.353 Y86.202 E1.04536
G1 X109.763 Y86.394 E1.07055
G3 X110.308 Y86.914 I-1.294 J1.9 E1.11266
;WIDTH:0.631866
G1 X110.466 Y87.227 E1.13331
;WIDTH:0.663732
G1 X110.625 Y87.541 E1.15518
;WIDTH:0.665846
G1 X110.679 Y88.012 E1.18474
G1 X110.653 Y88.268 E1.20079
G1 X110.481 Y88.737 F9000
G1 E.67079 F600
G92 E0
G1 X127.607 Y87.292 Z.55 F9000
G1 X141.568 Y86.114
G1 Z.25
G1 E.53 F1200
;WIDTH:0.599999
G1 F1800
G3 X141.792 Y86.104 I.194 J1.909 E.54249
G1 X142.353 Y86.202 E.57418
G1 X142.763 Y86.394 E.59937
G3 X143.508 Y88.719 I-1.038 J1.614 E.74663
G3 X141.347 Y89.856 I-1.77 J-.742 E.89392
G3 X140.36 Y89.29 I.466 J-1.957 E.95811
G1 X140.041 Y88.823 E.98958
G1 X139.893 Y88.396 E1.01473
G3 X139.992 Y87.281 I2.008 J-.383 E1.07783
G3 X141.494 Y86.123 I1.77 J.742 E1.18823
G1 X141.993 Y86.148 F9000
G1 E.65823 F600
G92 E0
G1 X142.94 Y68.987 Z.55 F9000
G1 X143.551 Y57.903
G1 Z.25
G1 E.53 F1200
G1 F1800
G3 X142.797 Y60.084 I-1.826 J.59 E.66778
G1 X142.462 Y60.26 E.68884
G3 X140.36 Y59.79 I-.704 J-1.788 E.81608
G1 X140.041 Y59.323 E.84755
G1 X139.893 Y58.896 E.8727
G3 X139.992 Y57.781 I2.081 J-.376 E.93575
G3 X141.792 Y56.604 I1.77 J.742 E1.0628
G1 X142.353 Y56.702 E1.09449
G1 X142.783 Y56.909 E1.12105
G1 X143.097 Y57.167 E1.14367
G3 X143.492 Y57.744 I-1.571 J1.499 E1.18275
G3 X143.527 Y57.832 I-1.767 J.749 E1.18802
G1 X143.627 Y58.322 F9000
G1 X143.834 Y57.249
;TYPE:Perimeter
;WIDTH:0.626793
G1 F1800
G1 X143.96 Y57.504 E1.20463
;WIDTH:0.653586
G1 X144.138 Y57.868 E1.22939
;WIDTH:0.678802
G1 X144.17 Y57.949 E1.23494
;WIDTH:0.704017
G1 X144.201 Y58.03 E1.24069
G1 X144.234 Y58.524 E1.27349
;WIDTH:0.680877
G1 X144.178 Y59.015 E1.30506
;WIDTH:0.675959
G1 X144.012 Y59.386 E1.33082
;WIDTH:0.637979
G1 X143.846 Y59.757 E1.35501
;WIDTH:0.599999
G1 X143.441 Y60.264 E1.39112
G1 X143.058 Y60.564 E1.41819
G1 X142.624 Y60.782 E1.44522
G1 X142.154 Y60.91 E1.47233
G1 X141.668 Y60.942 E1.49943
G1 X141.186 Y60.878 E1.52649
G1 X140.726 Y60.719 E1.55358
G1 X140.287 Y60.456 E1.58206
G1 X139.912 Y60.103 E1.61072
G1 X139.609 Y59.618 E1.64254
;WIDTH:0.553029
G1 X139.41 Y59.115 E1.67006
;WIDTH:0.599999
G1 X139.31 Y58.642 E1.69696
G1 X139.331 Y58.156 E1.72403
G1 X139.466 Y57.625 E1.75452
G1 X139.743 Y57.106 E1.78726
G1 X140.059 Y56.736 E1.81434
G1 X140.442 Y56.436 E1.84141
G1 X140.876 Y56.218 E1.86844
G1 X141.345 Y56.09 E1.89549
G1 X141.885 Y56.066 E1.92557
G1 X142.447 Y56.164 E1.95732
G1 X142.954 Y56.373 E1.98784
G1 X143.38 Y56.677 E2.01696
G1 X143.781 Y57.141 E2.05109
;WIDTH:0.626793
G1 X143.801 Y57.182 E2.05375
G1 E1.52375 F600
G92 E0
G1 X143.801 Y57.182 F9000
G1 X144.227 Y74.364 Z.55
G1 X144.717 Y94.129
G1 Z.25
G1 E.53 F1200
;TYPE:External perimeter
;WIDTH:0.599999
G1 F1800
G3 X143.994 Y94.569 I-1.526 J-1.694 E.57738
G3 X143.243 Y94.7 I-1.62 J-7.047 E.61982
G1 X106.878 Y94.7 E2.64356
G1 X106.325 Y94.657 E2.67443
G1 X105.807 Y94.486 E2.70479
G3 X104.681 Y93.244 I1.008 J-2.045 E2.80033
G3 X104.55 Y92.493 I7.049 J-1.62 E2.84277
G1 X104.55 Y56.53 E4.84413
G1 X104.579 Y55.778 E4.88601
G1 X104.662 Y55.42 E4.90646
G1 X104.886 Y54.988 E4.93354
G1 X105.24 Y54.645 E4.96097
G1 X105.674 Y54.402 E4.98865
G1 X106.257 Y54.3 E5.02159
G1 X143.227 Y54.303 E7.07899
G3 X144.136 Y54.499 I-.214 J3.202 E7.13092
G1 X144.513 Y54.712 E7.15502
G1 X144.912 Y55.083 E7.18534
G1 X145.169 Y55.445 E7.21005
G1 X145.383 Y55.966 E7.24139
G1 X145.447 Y56.492 E7.27088
G1 X145.45 Y92.372 E9.26763
G1 X145.407 Y92.925 E9.2985
G1 X145.236 Y93.443 E9.32886
G3 X144.771 Y94.078 I-2.045 J-1.008 E9.37288
G1 X144.37 Y94.376 F9000
G1 X143.851 Y94.028
;TYPE:Perimeter
G1 F1800
G1 X143.815 Y94.049 E9.3752
G1 X143.229 Y94.154 E9.40833
G1 X107.293 Y94.154 E11.40819
G1 X106.624 Y94.137 E11.44543
G1 X106.193 Y94.038 E11.47004
G1 X105.767 Y93.825 E11.49655
G1 X105.435 Y93.482 E11.52312
G1 X105.201 Y93.065 E11.54973
G1 X105.096 Y92.479 E11.58286
G1 X105.096 Y56.53 E13.58345
G1 X105.122 Y55.845 E13.6216
G1 X105.211 Y55.508 E13.641
G1 X105.478 Y55.148 E13.66594
G1 X105.853 Y54.922 E13.69031
G1 X106.271 Y54.846 E13.71395
G1 X143.227 Y54.849 E15.77058
G3 X143.927 Y55.004 I-.179 J2.479 E15.81062
G1 X144.288 Y55.219 E15.834
G1 X144.628 Y55.606 E15.86267
G1 X144.824 Y56.027 E15.88851
G1 X144.901 Y56.492 E15.91474
G1 X144.901 Y57.424 E15.96661
;WIDTH:0.634672
G1 X144.883 Y57.612 E15.97779
;WIDTH:0.669345
G1 X144.866 Y57.801 E15.98969
;WIDTH:0.704017
G2 X144.86 Y58.547 I4.976 J.411 E16.03916
;WIDTH:0.680877
G1 X144.863 Y59.109 E16.07507
;WIDTH:0.675959
G1 X144.882 Y59.398 E16.09343
;WIDTH:0.637979
G1 X144.901 Y59.687 E16.11067
;WIDTH:0.599999
G1 X144.903 Y86.924 E17.62643
;WIDTH:0.635085
G1 X144.886 Y87.112 E17.63761
M73 P2 R23
;WIDTH:0.670171
G1 X144.868 Y87.3 E17.64947
;WIDTH:0.705256
G2 X144.862 Y88.047 I4.932 J.413 E17.6991
;WIDTH:0.682113
G1 X144.865 Y88.61 E17.73514
;WIDTH:0.676874
G1 X144.884 Y88.899 E17.75353
;WIDTH:0.638437
G1 X144.903 Y89.188 E17.77078
;WIDTH:0.599999
G3 X144.887 Y92.626 I-124.873 J1.133 E17.96212
G1 X144.788 Y93.057 E17.98673
G1 X144.575 Y93.483 E18.01324
G1 X144.232 Y93.816 E18.03984
G1 X143.917 Y93.992 E18.05992
G1 E17.52992 F600
G92 E0
G1 X143.917 Y93.992 F9000
G1 X144.337 Y76.81 Z.55
G1 X144.737 Y60.411
G1 Z.25
G1 E.53 F1200
;TYPE:Solid infill
;WIDTH:0.601004
G1 F1800
G1 X144.23 Y59.904 E.56998
G3 X143.911 Y60.358 I-2.224 J-1.223 E.60098
G1 X144.491 Y60.939 E.64675
G1 X144.491 Y61.713 E.6899
G1 X143.515 Y60.737 E.76685
G3 X143.043 Y61.039 I-1.518 J-1.853 E.79816
G1 X144.491 Y62.487 E.91233
G1 X144.491 Y63.261 E.95548
G1 X142.484 Y61.254 E1.11373
G3 X141.807 Y61.351 I-.725 J-2.661 E1.15196
G1 X144.492 Y64.035 E1.36362
G1 X144.492 Y64.81 E1.40683
G1 X140.9 Y61.219 E1.69001
G3 X140.535 Y61.081 I.671 J-2.347 E1.71179
G1 X140.099 Y60.831 E1.73981
G1 X139.747 Y60.528 E1.7657
G1 X139.77 Y60.862 E1.78437
G1 X144.492 Y65.584 E2.15668
G1 X144.492 Y66.358 E2.19983
G1 X139.778 Y61.644 E2.57151
G1 X139.778 Y62.418 E2.61466
G1 X144.492 Y67.132 E2.98634
G1 X144.492 Y67.906 E3.02949
G1 X139.778 Y63.192 E3.40117
G1 X139.778 Y63.966 E3.44432
G1 X144.492 Y68.68 E3.816
G1 X144.492 Y69.454 E3.85915
G1 X139.778 Y64.74 E4.23083
G1 X139.778 Y65.514 E4.27398
G1 X144.492 Y70.229 E4.6457
G1 X144.492 Y71.003 E4.68885
G1 X139.777 Y66.288 E5.06061
G1 X139.777 Y67.062 E5.10376
G1 X144.492 Y71.777 E5.47552
G1 X144.492 Y72.551 E5.51867
G1 X139.777 Y67.836 E5.89043
G1 X139.777 Y68.61 E5.93358
G1 X144.492 Y73.325 E6.30534
G1 X144.492 Y74.099 E6.34849
G1 X139.777 Y69.384 E6.72025
G1 X139.777 Y70.158 E6.7634
G1 X144.492 Y74.873 E7.13516
G1 X144.492 Y75.648 E7.17837
G1 X139.777 Y70.932 E7.55017
G1 X139.777 Y71.706 E7.59332
G1 X144.493 Y76.422 E7.96516
G1 X144.493 Y77.196 E8.00831
G1 X139.777 Y72.48 E8.38015
G1 X139.777 Y73.254 E8.4233
G1 X144.493 Y77.97 E8.79514
G1 X144.493 Y78.744 E8.83829
G1 X139.776 Y74.028 E9.21017
G1 X139.776 Y74.802 E9.25332
G1 X144.493 Y79.518 E9.6252
G1 X144.493 Y80.292 E9.66835
G1 X139.776 Y75.576 E10.04023
G1 X139.776 Y76.35 E10.08338
G1 X144.493 Y81.067 E10.4553
G1 X144.493 Y81.841 E10.49845
G1 X139.776 Y77.124 E10.87037
G1 X139.776 Y77.898 E10.91352
