; generated by PrusaSlicer 2.8.1+MacOS-arm64 on 2024-10-11 at 05:43:51 UTC


;
;

;
;
; 

; external perimeters extrusion width = 0.68mm
; perimeters extrusion width = 0.68mm
; infill extrusion width = 0.68mm
; solid infill extrusion width = 0.68mm
; top infill extrusion width = 0.60mm

; external perimeters extrusion width = 0.68mm
; perimeters extrusion width = 0.68mm
; infill extrusion width = 0.68mm
; solid infill extrusion width = 0.68mm
; top infill extrusion width = 0.60mm


EXCLUDE_OBJECT_DEFINE NAME='24v_panel_label' CENTER=98.537,132.367 POLYGON=[[115.451,93.501],[116.183,93.610],[116.879,93.859],[117.362,94.132],[117.933,94.601],[118.402,95.173],[118.750,95.825],[118.925,96.351],[119.033,97.083],[119.038,167.465],[118.925,168.381],[118.675,169.077],[118.061,169.997],[117.362,170.600],[116.361,171.073],[115.451,171.231],[81.809,171.236],[80.892,171.123],[80.196,170.874],[79.276,170.259],[78.574,169.403],[78.151,168.381],[78.038,167.465],[78.038,97.268],[78.110,96.532],[78.400,95.655],[78.894,94.875],[79.714,94.132],[80.714,93.659],[81.624,93.501]]
EXCLUDE_OBJECT_DEFINE NAME='led_panel_label' CENTER=161.625,134.597 POLYGON=[[198.034,102.851],[198.766,102.959],[199.464,103.209],[200.099,103.590],[200.520,103.953],[200.882,104.373],[201.263,105.009],[201.513,105.706],[201.621,106.438],[201.626,162.569],[201.513,163.487],[201.263,164.184],[200.768,164.965],[200.245,165.489],[199.790,165.809],[199.121,166.125],[198.403,166.305],[197.849,166.346],[125.403,166.346],[124.666,166.274],[123.788,165.984],[123.153,165.603],[122.483,164.965],[122.072,164.350],[121.847,163.842],[121.698,163.306],[121.626,162.569],[121.626,106.624],[121.698,105.887],[121.989,105.009],[122.369,104.373],[123.007,103.704],[123.623,103.292],[124.131,103.067],[124.666,102.919],[125.403,102.846]]

;TYPE:Custom
START_PRINT BED_TEMP=65 HOTEND_TEMP=215 FILAMENT_TYPE=PLA EXTRUSION_MULTIPLIER=0.95 PERIMETER_SPEED=80
G21 ; set units to millimeters
G90 ; use absolute coordinates
M82 ; use absolute distances for extrusion
G92 E0
; Filament gcode
M107
;LAYER_CHANGE
;Z:0.35
;HEIGHT:0.35
G1 E-.5 F240
G1 Z.35 F9000
EXCLUDE_OBJECT_START NAME='led_panel_label'
G92 E0
G1 X163.352 Y117.073
G1 E.5 F240
;TYPE:External perimeter
;WIDTH:0.675
G1 F1800
G1 X163.157 Y117.138 E.51705
G1 X162.205 Y117.263 E.59667
G1 X161.244 Y117.197 E.67655
G1 X160.315 Y116.942 E.75644
G1 X159.564 Y116.563 E.8262
G1 X158.838 Y116.042 E.9003
G1 X158.217 Y115.373 E.976
G1 X157.737 Y114.599 E1.05153
G1 X157.417 Y113.765 E1.12561
G1 X157.248 Y112.851 E1.20269
G1 X157.23 Y112.485 E1.23308
G1 X157.268 Y111.738 E1.29511
G1 X157.52 Y110.747 E1.37991
G1 X157.912 Y109.933 E1.45483
G1 X158.489 Y109.162 E1.53469
G1 X159.207 Y108.52 E1.61456
G1 X160.038 Y108.033 E1.69443
G1 X160.949 Y107.721 E1.77428
G1 X161.904 Y107.595 E1.85416
G1 X162.865 Y107.661 E1.93404
G1 X163.793 Y107.917 E2.01387
G1 X164.653 Y108.351 E2.09375
G1 X165.41 Y108.946 E2.1736
G1 X166.033 Y109.68 E2.25344
G1 X166.482 Y110.486 E2.32995
G1 X166.675 Y111.037 E2.37836
G1 X166.769 Y111.404 E2.40978
G1 X166.883 Y112.158 E2.47302
G1 X166.852 Y112.891 E2.53386
G1 X166.797 Y113.316 E2.5694
G1 X166.609 Y114.055 E2.63264
G1 X166.219 Y114.878 E2.70816
G1 X165.62 Y115.697 E2.7923
G1 X164.901 Y116.338 E2.87218
G1 X164.016 Y116.85 E2.95697
G1 X163.438 Y117.044 E3.00753
G1 X162.851 Y117.171 F9000
G1 X164.056 Y117.469
;TYPE:Perimeter
G1 F1800
G1 X163.351 Y117.706 E3.06921
G1 X162.279 Y117.858 E3.159
G1 X161.199 Y117.795 E3.24871
G1 X160.153 Y117.519 E3.33842
G1 X159.29 Y117.097 E3.41808
G1 X159.049 Y116.958 E3.44115
G1 X158.409 Y116.461 E3.50835
G1 X157.778 Y115.781 E3.58528
G1 X157.225 Y114.912 E3.6707
G1 X156.853 Y113.971 E3.75461
G1 X156.746 Y113.544 E3.79111
G1 X156.632 Y112.79 E3.85435
G1 X156.661 Y111.86 E3.93151
G1 X156.73 Y111.394 E3.97058
G1 X156.918 Y110.655 E4.03382
G1 X157.417 Y109.59 E4.13135
G1 X158.011 Y108.8 E4.21332
G1 X158.81 Y108.07 E4.30307
G1 X159.738 Y107.514 E4.39278
G1 X160.758 Y107.152 E4.48253
G1 X161.829 Y107 E4.57223
G1 X162.909 Y107.063 E4.66194
G1 X163.956 Y107.339 E4.75173
G1 X164.927 Y107.817 E4.84148
G1 X165.784 Y108.477 E4.93118
G1 X166.493 Y109.295 E5.02095
G1 X167.057 Y110.302 E5.11666
G1 X167.243 Y110.843 E5.1641
G1 X167.362 Y111.315 E5.20447
G1 X167.476 Y112.069 E5.26771
G1 X167.451 Y112.921 E5.33839
G1 X167.378 Y113.464 E5.38382
G1 X167.19 Y114.203 E5.44706
G1 X166.76 Y115.139 E5.53248
G1 X166.098 Y116.059 E5.62647
G1 X165.298 Y116.788 E5.71622
G1 X164.476 Y117.283 E5.79579
G1 X164.207 Y117.418 E5.82075
G1 X164.141 Y117.44 E5.82652
G1 E5.32652 F240
G92 E0
G1 X164.141 Y117.44 F9000
G1 X179.868 Y116.358
G1 E.5 F240
;TYPE:External perimeter
G1 F1800
G1 X179.016 Y116.85 E.58159
G1 X178.159 Y117.137 E.65654
G1 X177.205 Y117.263 E.73634
G1 X176.244 Y117.197 E.81622
G1 X175.315 Y116.942 E.89611
G1 X174.564 Y116.563 E.96587
G1 X173.871 Y116.071 E1.03635
G1 X173.217 Y115.373 E1.11567
G1 X172.737 Y114.599 E1.1912
G1 X172.417 Y113.765 E1.26528
G1 X172.248 Y112.851 E1.34236
G1 X172.23 Y112.485 E1.37275
G1 X172.268 Y111.738 E1.43478
G1 X172.311 Y111.542 E1.45142
G1 X172.5 Y110.803 E1.51468
G1 X172.943 Y109.882 E1.59943
G1 X173.489 Y109.162 E1.67436
G1 X174.207 Y108.52 E1.75423
G1 X175.038 Y108.033 E1.8341
G1 X175.949 Y107.721 E1.91395
G1 X176.904 Y107.595 E1.99383
G1 X177.865 Y107.661 E2.07371
G1 X178.793 Y107.917 E2.15354
G1 X179.653 Y108.351 E2.23342
G1 X180.41 Y108.946 E2.31327
G1 X181.033 Y109.68 E2.39311
G1 X181.482 Y110.486 E2.46962
G1 X181.675 Y111.037 E2.51803
G1 X181.769 Y111.404 E2.54945
G1 X181.883 Y112.158 E2.61269
G1 X181.852 Y112.891 E2.67353
G1 X181.797 Y113.316 E2.70907
G1 X181.609 Y114.055 E2.77231
G1 X181.219 Y114.878 E2.84783
G1 X180.62 Y115.697 E2.93197
G1 X179.94 Y116.304 E3.00756
G1 X179.425 Y116.612 F9000
G1 X180.648 Y116.469
;TYPE:Perimeter
G1 F1800
G1 X180.298 Y116.788 E3.04683
G1 X179.476 Y117.283 E3.1264
G1 X179.207 Y117.418 E3.15136
G1 X178.351 Y117.706 E3.22626
G1 X177.279 Y117.858 E3.31605
G1 X176.199 Y117.795 E3.40576
G1 X175.153 Y117.519 E3.49547
G1 X174.29 Y117.097 E3.57513
G1 X174.049 Y116.958 E3.5982
G1 X173.509 Y116.549 E3.65438
G1 X172.778 Y115.781 E3.74231
G1 X172.225 Y114.912 E3.82773
G1 X171.853 Y113.971 E3.91164
G1 X171.746 Y113.544 E3.94814
G1 X171.632 Y112.79 E4.01138
G1 X171.661 Y111.86 E4.08854
G1 X171.73 Y111.394 E4.12761
G1 X171.918 Y110.655 E4.19085
G1 X172.417 Y109.59 E4.28838
G1 X173.011 Y108.8 E4.37035
G1 X173.81 Y108.07 E4.4601
G1 X174.738 Y107.514 E4.54981
G1 X175.758 Y107.152 E4.63956
G1 X176.829 Y107 E4.72926
G1 X177.909 Y107.063 E4.81897
G1 X178.956 Y107.339 E4.90876
G1 X179.927 Y107.817 E4.99851
G1 X180.784 Y108.477 E5.08821
G1 X181.493 Y109.295 E5.17798
G1 X182.057 Y110.302 E5.27369
G1 X182.243 Y110.843 E5.32113
G1 X182.362 Y111.315 E5.3615
G1 X182.476 Y112.069 E5.42474
G1 X182.451 Y112.921 E5.49542
G1 X182.378 Y113.464 E5.54085
G1 X182.19 Y114.203 E5.60409
G1 X181.76 Y115.139 E5.68951
G1 X181.098 Y116.059 E5.7835
G1 X180.715 Y116.408 E5.82647
G1 E5.32647 F240
G92 E0
G1 X180.715 Y116.408 F9000
G1 X196.851 Y111.957
G1 E.5 F240
;TYPE:External perimeter
G1 F1800
G1 X196.883 Y112.158 E.51688
G1 X196.841 Y113.12 E.59673
G1 X196.609 Y114.055 E.67662
G1 X196.196 Y114.925 E.75648
G1 X195.62 Y115.697 E.83636
G1 X194.901 Y116.338 E.91624
G1 X194.07 Y116.825 E.99611
G1 X193.159 Y117.137 E1.07596
G1 X192.205 Y117.263 E1.15576
G1 X191.244 Y117.197 E1.23564
G1 X190.315 Y116.942 E1.31553
G1 X189.564 Y116.563 E1.38529
G1 X188.871 Y116.071 E1.45577
G1 X188.217 Y115.373 E1.53509
G1 X187.737 Y114.599 E1.61062
G1 X187.653 Y114.414 E1.62747
G1 X187.375 Y113.651 E1.69481
G1 X187.248 Y112.851 E1.76198
G1 X187.23 Y112.485 E1.79237
G1 X187.268 Y111.738 E1.8544
G1 X187.52 Y110.747 E1.9392
G1 X187.912 Y109.933 E2.01412
G1 X188.489 Y109.162 E2.09398
G1 X189.207 Y108.52 E2.17385
G1 X190.038 Y108.033 E2.25372
G1 X190.949 Y107.721 E2.33357
G1 X191.904 Y107.595 E2.41345
G1 X192.865 Y107.661 E2.49333
G1 X193.793 Y107.917 E2.57316
G1 X194.653 Y108.351 E2.65304
G1 X195.41 Y108.946 E2.73289
G1 X196.033 Y109.68 E2.81273
G1 X196.499 Y110.524 E2.89268
G1 X196.736 Y111.214 E2.95318
G1 X196.838 Y111.868 E3.00807
G1 X196.862 Y112.468 F9000
G1 X197.356 Y111.336
;TYPE:Perimeter
G1 F1800
G1 X197.476 Y112.069 E3.06966
G1 X197.44 Y113.15 E3.15935
G1 X197.19 Y114.203 E3.2491
G1 X196.737 Y115.186 E3.33886
G1 X196.098 Y116.059 E3.42858
G1 X195.298 Y116.788 E3.51833
G1 X194.37 Y117.345 E3.60808
G1 X193.351 Y117.706 E3.69773
G1 X192.279 Y117.858 E3.78752
G1 X191.199 Y117.795 E3.87723
G1 X190.153 Y117.519 E3.96694
G1 X189.29 Y117.097 E4.0466
G1 X189.049 Y116.958 E4.06967
G1 X188.509 Y116.549 E4.12585
G1 X187.778 Y115.781 E4.21378
G1 X187.225 Y114.912 E4.2992
G1 X187.089 Y114.619 E4.32599
G1 X186.811 Y113.857 E4.39325
G1 X186.655 Y112.94 E4.47039
G1 X186.631 Y112.455 E4.51066
G1 X186.669 Y111.708 E4.57269
G1 X186.873 Y110.834 E4.64712
G1 X186.98 Y110.487 E4.67723
G1 X187.372 Y109.673 E4.75215
G1 X188.011 Y108.8 E4.84187
G1 X188.81 Y108.07 E4.93162
G1 X189.738 Y107.514 E5.02133
G1 X190.758 Y107.152 E5.11108
G1 X191.829 Y107 E5.20078
G1 X192.909 Y107.063 E5.29049
G1 X193.956 Y107.339 E5.38028
G1 X194.927 Y107.817 E5.47003
G1 X195.784 Y108.477 E5.55973
G1 X196.493 Y109.295 E5.6495
G1 X197.026 Y110.237 E5.73926
G1 X197.304 Y111.022 E5.80832
G1 X197.341 Y111.247 E5.82723
G1 E5.32723 F240
G92 E0
G1 X197.341 Y111.247 F9000
G1 X145.529 Y107.865
G1 E.5 F240
;TYPE:External perimeter
G1 F1800
G1 X145.949 Y107.721 E.53682
G1 X146.904 Y107.595 E.6167
G1 X147.865 Y107.661 E.69658
G1 X148.793 Y107.917 E.77641
G1 X149.653 Y108.351 E.85629
G1 X150.41 Y108.946 E.93614
G1 X151.033 Y109.68 E1.01598
G1 X151.482 Y110.486 E1.09249
G1 X151.675 Y111.037 E1.1409
G1 X151.769 Y111.404 E1.17232
G1 X151.883 Y112.158 E1.23556
G1 X151.852 Y112.891 E1.2964
G1 X151.797 Y113.316 E1.33194
G1 X151.609 Y114.055 E1.39518
G1 X151.219 Y114.878 E1.4707
G1 X150.62 Y115.697 E1.55484
G1 X149.901 Y116.338 E1.63472
G1 X149.016 Y116.85 E1.71951
G1 X148.157 Y117.138 E1.79464
G1 X147.205 Y117.263 E1.87426
G1 X146.244 Y117.197 E1.95414
G1 X145.315 Y116.942 E2.03403
G1 X144.564 Y116.563 E2.10379
G1 X143.871 Y116.071 E2.17427
G1 X143.217 Y115.373 E2.25359
G1 X142.737 Y114.599 E2.32912
G1 X142.417 Y113.765 E2.4032
G1 X142.248 Y112.851 E2.48028
G1 X142.23 Y112.485 E2.51067
G1 X142.268 Y111.738 E2.5727
G1 X142.52 Y110.747 E2.6575
G1 X142.912 Y109.933 E2.73242
G1 X143.489 Y109.162 E2.81228
G1 X144.207 Y108.52 E2.89215
G1 X145.038 Y108.033 E2.97202
G1 X145.444 Y107.894 E3.00761
G1 X146.02 Y107.725 F9000
G1 X144.816 Y107.486
;TYPE:Perimeter
G1 F1800
G1 X145.758 Y107.152 E3.09049
G1 X146.829 Y107 E3.18019
G1 X147.909 Y107.063 E3.2699
G1 X148.956 Y107.339 E3.35969
G1 X149.927 Y107.817 E3.44944
G1 X150.784 Y108.477 E3.53914
G1 X151.493 Y109.295 E3.62891
G1 X152.057 Y110.302 E3.72462
G1 X152.243 Y110.843 E3.77206
G1 X152.362 Y111.315 E3.81243
G1 X152.476 Y112.069 E3.87567
G1 X152.451 Y112.921 E3.94635
G1 X152.378 Y113.464 E3.99178
G1 X152.19 Y114.203 E4.05502
G1 X151.76 Y115.139 E4.14044
G1 X151.098 Y116.059 E4.23443
G1 X150.298 Y116.788 E4.32418
G1 X149.476 Y117.283 E4.40375
G1 X149.207 Y117.418 E4.42871
G1 X148.351 Y117.706 E4.50361
G1 X147.279 Y117.858 E4.5934
G1 X146.199 Y117.795 E4.68311
G1 X145.153 Y117.519 E4.77282
G1 X144.29 Y117.097 E4.85248
G1 X144.049 Y116.958 E4.87555
G1 X143.509 Y116.549 E4.93173
G1 X142.778 Y115.781 E5.01966
G1 X142.225 Y114.912 E5.10508
G1 X141.853 Y113.971 E5.18899
G1 X141.746 Y113.544 E5.22549
G1 X141.655 Y112.94 E5.27614
G1 X141.631 Y112.455 E5.31641
G1 X141.669 Y111.708 E5.37844
G1 X141.873 Y110.834 E5.45287
G1 X141.98 Y110.487 E5.48298
G1 X142.372 Y109.673 E5.5579
G1 X143.011 Y108.8 E5.64762
G1 X143.81 Y108.07 E5.73737
G1 X144.731 Y107.518 E5.82641
G1 E5.32641 F240
G92 E0
G1 X144.731 Y107.518 F9000
G1 X131.942 Y107.598
G1 E.5 F240
;TYPE:External perimeter
G1 F1800
G1 X132.865 Y107.661 E.57672
G1 X133.793 Y107.917 E.65655
G1 X134.653 Y108.351 E.73643
G1 X135.41 Y108.946 E.81628
G1 X136.033 Y109.68 E.89612
G1 X136.482 Y110.486 E.97263
G1 X136.675 Y111.037 E1.02104
G1 X136.769 Y111.404 E1.05246
G1 X136.883 Y112.158 E1.1157
G1 X136.852 Y112.891 E1.17654
G1 X136.797 Y113.316 E1.21208
G1 X136.609 Y114.055 E1.27532
G1 X136.219 Y114.878 E1.35084
G1 X135.62 Y115.697 E1.43498
G1 X134.901 Y116.338 E1.51486
G1 X134.176 Y116.764 E1.58459
G1 X133.935 Y116.877 E1.60666
G1 X133.159 Y117.137 E1.67453
G1 X132.205 Y117.263 E1.75433
G1 X131.244 Y117.197 E1.83421
G1 X130.315 Y116.942 E1.9141
G1 X129.455 Y116.508 E1.99398
G1 X128.871 Y116.071 E2.05447
G1 X128.217 Y115.373 E2.13379
G1 X127.71 Y114.554 E2.21367
G1 X127.375 Y113.651 E2.29354
G1 X127.226 Y112.7 E2.37337
G1 X127.268 Y111.738 E2.45322
G1 X127.5 Y110.803 E2.53311
G1 X127.943 Y109.882 E2.61786
G1 X128.489 Y109.162 E2.69279
G1 X129.207 Y108.52 E2.77266
G1 X130.038 Y108.033 E2.85253
G1 X130.949 Y107.721 E2.93238
G1 X131.853 Y107.602 E3.00799
G1 X132.452 Y107.634 F9000
G1 X131.361 Y107.067
;TYPE:Perimeter
G1 F1800
G1 X131.829 Y107 E3.0472
G1 X132.909 Y107.063 E3.13691
G1 X133.956 Y107.339 E3.2267
G1 X134.927 Y107.817 E3.31645
G1 X135.784 Y108.477 E3.40615
G1 X136.493 Y109.295 E3.49592
G1 X137.057 Y110.302 E3.59163
G1 X137.243 Y110.843 E3.63907
G1 X137.362 Y111.315 E3.67944
G1 X137.476 Y112.069 E3.74268
G1 X137.451 Y112.921 E3.81336
G1 X137.378 Y113.464 E3.85879
G1 X137.19 Y114.203 E3.92203
G1 X136.76 Y115.139 E4.00745
G1 X136.098 Y116.059 E4.10144
G1 X135.298 Y116.788 E4.19119
G1 X134.476 Y117.283 E4.27076
G1 X134.126 Y117.446 E4.30278
G1 X133.351 Y117.706 E4.37057
G1 X132.279 Y117.858 E4.46036
G1 X131.199 Y117.795 E4.55007
G1 X130.153 Y117.519 E4.63978
G1 X129.181 Y117.041 E4.7296
G1 X128.509 Y116.549 E4.79867
G1 X127.778 Y115.781 E4.8866
G1 X127.198 Y114.867 E4.97637
G1 X126.811 Y113.857 E5.06606
G1 X126.632 Y112.79 E5.15578
G1 X126.669 Y111.708 E5.24556
G1 X126.918 Y110.655 E5.33529
G1 X127.372 Y109.673 E5.42501
G1 X127.465 Y109.52 E5.43986
G1 X128.011 Y108.8 E5.51479
G1 X128.81 Y108.07 E5.60454
G1 X129.738 Y107.514 E5.69425
G1 X130.758 Y107.152 E5.784
G1 X131.272 Y107.079 E5.82705
G1 E5.32705 F240
G92 E0
G1 X131.272 Y107.079 F9000
G1 X198.835 Y165.849
G1 E.5 F240
;TYPE:External perimeter
G1 F1800
G1 X198.35 Y165.971 E.54147
G1 X197.836 Y166.009 E.58421
G1 X125.419 Y166.009 E6.58954
G1 X124.729 Y165.941 E6.64704
G1 X124.248 Y165.808 E6.68842
G1 X123.79 Y165.591 E6.73045
G1 X123.358 Y165.334 E6.77213
G1 X122.974 Y165.003 E6.81417
G1 X122.652 Y164.611 E6.85624
G1 X122.372 Y164.194 E6.89789
G1 X122.165 Y163.728 E6.94018
G1 X122.031 Y163.243 E6.98191
G1 X121.963 Y162.553 E7.03941
G1 X121.963 Y106.639 E11.6762
G1 X122.014 Y106.123 E11.7192
G1 X122.111 Y105.629 E11.76095
G1 X122.293 Y105.156 E11.80298
G1 X122.643 Y104.573 E11.85937
G1 X122.969 Y104.194 E11.90083
G1 X123.28 Y103.94 E11.93413
G1 X123.76 Y103.603 E11.98277
G1 X124.243 Y103.387 E12.02665
G1 X124.881 Y103.225 E12.08124
G1 X125.416 Y103.184 E12.12574
G1 X197.992 Y103.188 E18.14426
G1 X198.517 Y103.251 E18.18811
G1 X199.164 Y103.447 E18.24417
G1 X199.759 Y103.765 E18.30012
G1 X200.282 Y104.194 E18.35622
G1 X200.609 Y104.573 E18.39773
G1 X200.957 Y105.154 E18.45389
G1 X201.184 Y105.788 E18.50973
G1 X201.233 Y106.119 E18.53748
G1 X201.284 Y106.71 E18.58667
G1 X201.288 Y162.557 E23.2179
G1 X201.25 Y163.07 E23.26056
G1 X201.086 Y163.727 E23.31671
G1 X200.796 Y164.34 E23.37295
G1 X200.509 Y164.748 E23.41432
G1 X200.03 Y165.227 E23.4705
G1 X199.467 Y165.603 E23.52664
G1 X199.01 Y165.806 E23.56811
G1 X198.922 Y165.828 E23.57563
G1 X198.337 Y165.959 F9000
G1 X198.043 Y165.392
;TYPE:Perimeter
G1 F1800
G1 X197.814 Y165.409 E23.59467
G1 X125.448 Y165.409 E29.59577
G1 X124.839 Y165.349 E29.64652
G1 X124.279 Y165.159 E29.69556
G1 X123.814 Y164.917 E29.73903
G1 X123.405 Y164.582 E29.78287
G1 X123.031 Y164.127 E29.83171
G1 X122.808 Y163.696 E29.87195
G1 X122.623 Y163.133 E29.92109
G1 X122.563 Y162.524 E29.97184
G1 X122.563 Y107.873 E34.50389
G1 X122.582 Y106.478 E34.61958
G1 X122.657 Y105.919 E34.66635
G1 X122.834 Y105.42 E34.71026
G1 X123.131 Y104.925 E34.75813
G1 X123.543 Y104.5 E34.80722
G1 X123.951 Y104.188 E34.84981
