; generated by PrusaSlicer 2.8.0+MacOS-arm64 on 2024-09-06 at 09:44:37 UTC


;
;

;
;
; 

; external perimeters extrusion width = 0.68mm
; perimeters extrusion width = 0.68mm
; infill extrusion width = 0.68mm
; solid infill extrusion width = 0.68mm
; top infill extrusion width = 0.60mm
; support material extrusion width = 0.60mm


EXCLUDE_OBJECT_DEFINE NAME='center_adjust_knob' CENTER=125.000,125.004 POLYGON=[[125.170,115.001],[126.907,115.183],[128.807,115.753],[129.728,116.188],[130.600,116.715],[131.413,117.327],[132.161,118.020],[132.833,118.784],[133.425,119.613],[134.317,121.368],[134.839,123.211],[134.999,125.120],[134.793,127.024],[134.227,128.855],[133.323,130.543],[132.727,131.348],[132.041,132.101],[131.282,132.780],[130.458,133.379],[129.578,133.891],[128.650,134.310],[127.684,134.633],[126.690,134.856],[124.760,134.997],[122.858,134.768],[121.035,134.180],[120.123,133.730],[119.260,133.189],[118.457,132.563],[117.722,131.858],[117.062,131.082],[116.485,130.243],[115.996,129.350],[115.600,128.411],[115.121,126.553],[115.003,124.745],[115.081,123.730],[115.258,122.741],[115.868,120.925],[116.812,119.259],[118.081,117.780],[119.557,116.611],[121.256,115.727],[123.143,115.174],[124.152,115.036]]

;TYPE:Custom
START_PRINT BED_TEMP=65 HOTEND_TEMP=220 FILAMENT_TYPE=PLA EXTRUSION_MULTIPLIER=0.95 PERIMETER_SPEED=80
G21 ; set units to millimeters
G90 ; use absolute coordinates
M82 ; use absolute distances for extrusion
G92 E0
; Filament gcode
M107
;LAYER_CHANGE
;Z:0.35
;HEIGHT:0.35
G1 E-.5 F240
G1 Z.35 F9000
EXCLUDE_OBJECT_START NAME='center_adjust_knob'
G92 E0
G1 X123.659 Y122.52
G1 E.5 F240
G92 E0
;TYPE:External perimeter
;WIDTH:0.675
G1 F1800
G1 X123.855 Y122.407 E.01876
G1 X124.409 Y122.226 E.06709
G1 X124.965 Y122.164 E.11348
G1 X125.535 Y122.221 E.16098
G1 X126.098 Y122.393 E.2098
G1 X126.613 Y122.678 E.25861
G1 X126.951 Y122.941 E.29412
G1 X127.285 Y123.32 E.33601
G1 X127.573 Y123.806 E.38286
G1 X127.758 Y124.34 E.42973
G1 X127.835 Y124.899 E.47652
G1 X127.798 Y125.463 E.52339
G1 X127.651 Y126.008 E.5702
G1 X127.399 Y126.514 E.61708
G1 X127.051 Y126.959 E.66393
G1 X126.622 Y127.327 E.7108
G1 X126.129 Y127.602 E.75761
G1 X125.591 Y127.774 E.80445
G1 X125.03 Y127.836 E.85126
G1 X124.508 Y127.79 E.89472
G1 X124.017 Y127.662 E.9368
G1 X123.547 Y127.436 E.98005
G1 X123.093 Y127.099 E1.02694
G1 X122.715 Y126.68 E1.07374
G1 X122.427 Y126.194 E1.12059
G1 X122.249 Y125.683 E1.16546
G1 X122.165 Y125.101 E1.21422
G1 X122.202 Y124.537 E1.26109
G1 X122.364 Y123.951 E1.31151
G1 X122.601 Y123.486 E1.35479
G1 X122.949 Y123.041 E1.40164
G1 X123.345 Y122.701 E1.44492
G1 X123.581 Y122.565 E1.46751
G1 X124.131 Y122.325 F9000
G1 X123.386 Y121.988
;TYPE:Perimeter
G1 F1800
G1 X123.568 Y121.88 E1.48506
G1 X124.232 Y121.653 E1.54325
G1 X124.905 Y121.567 E1.59951
G1 X125.445 Y121.593 E1.64434
G1 X126.09 Y121.743 E1.69926
G1 X126.714 Y122.024 E1.75601
G1 X127.269 Y122.422 E1.81265
G1 X127.735 Y122.923 E1.86939
G1 X128.092 Y123.506 E1.92608
G1 X128.327 Y124.149 E1.98285
G1 X128.43 Y124.825 E2.03956
G1 X128.397 Y125.508 E2.09627
G1 X128.229 Y126.171 E2.15299
G1 X127.932 Y126.787 E2.2097
G1 X127.52 Y127.333 E2.26642
G1 X127.008 Y127.786 E2.32311
G1 X126.416 Y128.129 E2.37985
G1 X125.883 Y128.312 E2.42658
G1 X125.592 Y128.383 E2.45142
G1 X125.09 Y128.433 E2.49326
G1 X124.449 Y128.387 E2.54655
G1 X123.888 Y128.251 E2.59442
G1 X123.286 Y127.976 E2.6493
G1 X122.731 Y127.578 E2.70594
G1 X122.265 Y127.077 E2.76268
G1 X121.908 Y126.494 E2.81937
G1 X121.68 Y125.874 E2.87415
G1 X121.57 Y125.175 E2.93283
G1 X121.604 Y124.492 E2.98954
G1 X121.815 Y123.707 E3.05695
G1 X122.068 Y123.213 E3.10298
G1 X122.437 Y122.72 E3.15405
G1 X122.959 Y122.241 E3.2128
G1 X123.308 Y122.034 E3.24645
G1 X123.308 Y122.034 F9000
G1 X123.112 Y121.454
G1 F1800
G1 X123.281 Y121.353 E3.26278
G1 X124.055 Y121.079 E3.33087
G1 X124.845 Y120.97 E3.397
G1 X125.489 Y120.995 E3.45045
G1 X126.238 Y121.162 E3.51409
G1 X126.974 Y121.483 E3.58068
G1 X127.632 Y121.944 E3.64731
G1 X128.185 Y122.526 E3.71389
G1 X128.466 Y122.953 E3.75628
G1 X128.735 Y123.479 E3.80527
G1 X128.896 Y123.958 E3.84718
G1 X129.025 Y124.75 E3.91372
G1 X128.995 Y125.553 E3.98036
G1 X128.806 Y126.333 E4.04691
G1 X128.466 Y127.061 E4.11354
G1 X127.989 Y127.707 E4.18013
G1 X127.394 Y128.246 E4.24671
G1 X126.703 Y128.656 E4.31334
G1 X126.06 Y128.885 E4.36994
G1 X125.652 Y128.98 E4.40468
G1 X125.149 Y129.03 E4.4466
G1 X124.389 Y128.984 E4.50974
G1 X123.725 Y128.828 E4.5663
G1 X123.026 Y128.517 E4.62974
G1 X122.368 Y128.056 E4.69637
G1 X121.815 Y127.474 E4.76295
G1 X121.388 Y126.794 E4.82954
G1 X121.112 Y126.065 E4.89418
G1 X120.975 Y125.25 E4.96271
G1 X121.005 Y124.447 E5.02935
G1 X121.154 Y123.808 E5.08376
G1 X121.267 Y123.464 E5.11379
G1 X121.534 Y122.939 E5.16263
G1 X121.968 Y122.346 E5.22357
G1 X122.219 Y122.079 E5.25396
G1 X122.606 Y121.754 E5.29587
G1 X123.034 Y121.5 E5.33714
G1 E4.83714 F240
G92 E0
G1 X123.034 Y121.5 F9000
G1 X128.663 Y116.91
G1 E.5 F240
;TYPE:External perimeter
G1 F1800
G1 X129.462 Y117.322 E.57455
G1 X130.22 Y117.815 E.64953
G1 X130.924 Y118.383 E.72454
G1 X131.566 Y119.02 E.79954
G1 X132.14 Y119.719 E.87455
G1 X132.64 Y120.473 E.94958
G1 X132.929 Y120.999 E.99935
G1 X133.296 Y121.829 E1.07461
G1 X133.527 Y122.543 E1.13684
G1 X133.664 Y123.101 E1.18449
G1 X133.783 Y123.727 E1.23733
G1 X133.866 Y124.626 E1.3122
G1 X133.873 Y125.377 E1.37448
G1 X133.789 Y126.277 E1.44944
G1 X133.613 Y127.165 E1.52451
G1 X133.348 Y128.029 E1.59945
G1 X133.125 Y128.587 E1.64928
G1 X132.716 Y129.397 E1.72453
G1 X132.229 Y130.159 E1.79952
G1 X131.667 Y130.867 E1.87448
G1 X131.035 Y131.515 E1.94954
G1 X130.341 Y132.095 E2.02454
G1 X129.592 Y132.602 E2.09954
G1 X128.795 Y133.029 E2.17452
G1 X127.959 Y133.374 E2.24952
G1 X127.386 Y133.554 E2.29933
G1 X126.501 Y133.753 E2.37455
G1 X125.603 Y133.86 E2.44955
G1 X124.698 Y133.876 E2.52461
G1 X123.797 Y133.799 E2.5996
G1 X122.908 Y133.631 E2.67463
G1 X122.041 Y133.374 E2.74962
G1 X121.205 Y133.029 E2.82462
G1 X120.671 Y132.755 E2.87439
G1 X119.903 Y132.272 E2.94963
G1 X119.19 Y131.716 E3.02461
G1 X118.536 Y131.09 E3.09969
G1 X117.951 Y130.401 E3.17464
G1 X117.438 Y129.656 E3.24965
G1 X117.003 Y128.863 E3.32466
G1 X116.652 Y128.03 E3.39962
G1 X116.466 Y127.459 E3.44942
G1 X116.26 Y126.575 E3.52469
G1 X116.145 Y125.678 E3.59968
G1 X116.122 Y124.774 E3.67467
G1 X116.191 Y123.872 E3.74969
G1 X116.351 Y122.982 E3.82468
G1 X116.507 Y122.402 E3.87449
G1 X116.817 Y121.549 E3.94975
G1 X117.21 Y120.735 E4.02471
G1 X117.685 Y119.965 E4.09974
G1 X118.235 Y119.247 E4.17474
G1 X118.855 Y118.588 E4.24977
G1 X119.539 Y117.997 E4.32473
G1 X120.28 Y117.478 E4.39975
G1 X121.069 Y117.036 E4.47475
G1 X121.9 Y116.678 E4.54979
G1 X122.762 Y116.406 E4.62475
G1 X123.648 Y116.223 E4.69977
G1 X124.548 Y116.131 E4.77479
G1 X125.452 Y116.131 E4.84976
G1 X126.05 Y116.181 E4.89952
G1 X126.945 Y116.335 E4.97483
G1 X127.816 Y116.577 E5.0498
G1 X128.58 Y116.877 E5.11787
G1 X129.116 Y117.145 F9000
G1 X128.425 Y117.462
;TYPE:Perimeter
G1 F1800
G1 X129.16 Y117.841 E5.18645
G1 X129.867 Y118.301 E5.2564
G1 X130.523 Y118.831 E5.32634
G1 X131.122 Y119.425 E5.3963
G1 X131.657 Y120.076 E5.46618
G1 X132.126 Y120.783 E5.53654
G1 X132.39 Y121.265 E5.58211
G1 X132.734 Y122.044 E5.65273
G1 X132.957 Y122.728 E5.71239
G1 X133.077 Y123.228 E5.75503
G1 X133.186 Y123.793 E5.80275
G1 X133.267 Y124.631 E5.87257
G1 X133.273 Y125.351 E5.93228
G1 X133.194 Y126.191 E6.00225
G1 X133.03 Y127.018 E6.07217
G1 X132.782 Y127.83 E6.14258
G1 X132.577 Y128.339 E6.18808
G1 X132.194 Y129.099 E6.25866
G1 X131.74 Y129.81 E6.32862
G1 X131.216 Y130.471 E6.39857
G1 X130.627 Y131.074 E6.46847
G1 X129.98 Y131.615 E6.53841
G1 X129.281 Y132.087 E6.60835
G1 X128.538 Y132.486 E6.67829
G1 X127.754 Y132.809 E6.74861
G1 X127.23 Y132.975 E6.79419
G1 X126.399 Y133.161 E6.86481
G1 X125.562 Y133.261 E6.93471
G1 X124.719 Y133.275 E7.00463
G1 X123.879 Y133.204 E7.07454
G1 X123.05 Y133.047 E7.14451
G1 X122.242 Y132.807 E7.21441
G1 X121.457 Y132.484 E7.2848
G1 X120.968 Y132.233 E7.33038
G1 X120.247 Y131.781 E7.40095
G1 X119.583 Y131.262 E7.47084
G1 X118.974 Y130.678 E7.54081
G1 X118.427 Y130.036 E7.61075
G1 X117.949 Y129.341 E7.6807
G1 X117.544 Y128.602 E7.75058
G1 X117.214 Y127.82 E7.82097
G1 X117.045 Y127.298 E7.86647
G1 X116.851 Y126.469 E7.93707
G1 X116.744 Y125.632 E8.00704
G1 X116.723 Y124.789 E8.07697
G1 X116.787 Y123.948 E8.14691
G1 X116.937 Y123.113 E8.21726
G1 X117.08 Y122.583 E8.26278
G1 X117.37 Y121.783 E8.33335
G1 X117.737 Y121.023 E8.40334
G1 X118.179 Y120.305 E8.47326
G1 X118.692 Y119.636 E8.54317
G1 X119.271 Y119.022 E8.61316
G1 X119.908 Y118.47 E8.68306
G1 X120.599 Y117.986 E8.75302
G1 X121.335 Y117.575 E8.82293
G1 X122.109 Y117.241 E8.89284
G1 X122.914 Y116.987 E8.96284
G1 X123.739 Y116.816 E9.03271
G1 X124.578 Y116.731 E9.10264
G1 X125.427 Y116.73 E9.17305
G1 X125.974 Y116.777 E9.21858
G1 X126.813 Y116.921 E9.28917
G1 X127.625 Y117.147 E9.35907
G1 X128.342 Y117.428 E9.42293
G1 X128.342 Y117.428 F9000
G1 X128.186 Y118.014
G1 F1800
G1 X128.859 Y118.36 E9.48568
G1 X129.514 Y118.787 E9.55052
G1 X130.122 Y119.278 E9.61533
G1 X130.678 Y119.829 E9.68024
G1 X131.174 Y120.434 E9.74512
G1 X131.57 Y121.029 E9.80439
G1 X131.852 Y121.531 E9.85214
G1 X132.173 Y122.258 E9.91804
G1 X132.365 Y122.846 E9.96933
G1 X132.491 Y123.354 E10.01273
G1 X132.59 Y123.859 E10.05541
G1 X132.667 Y124.637 E10.12024
G1 X132.673 Y125.326 E10.17738
G1 X132.6 Y126.105 E10.24226
G1 X132.448 Y126.872 E10.3071
G1 X132.239 Y127.556 E10.36641
G1 X132.03 Y128.092 E10.41412
G1 X131.672 Y128.802 E10.48006
G1 X131.251 Y129.461 E10.54491
G1 X130.765 Y130.074 E10.60978
G1 X130.219 Y130.634 E10.67464
G1 X129.619 Y131.135 E10.73946
G1 X128.971 Y131.573 E10.80432
G1 X128.281 Y131.943 E10.86925
G1 X127.62 Y132.215 E10.92852
G1 X127.074 Y132.395 E10.9762
G1 X126.298 Y132.569 E11.04215
G1 X125.521 Y132.662 E11.10704
G1 X124.739 Y132.675 E11.1719
G1 X123.96 Y132.609 E11.23673
G1 X123.191 Y132.464 E11.30162
G1 X122.442 Y132.241 E11.36643
G1 X121.781 Y131.969 E11.4257
G1 X121.266 Y131.711 E11.47347
G1 X120.592 Y131.289 E11.53941
G1 X119.976 Y130.808 E11.60422
G1 X119.411 Y130.266 E11.66915
G1 X118.904 Y129.671 E11.73398
G1 X118.461 Y129.026 E11.79887
G1 X118.085 Y128.34 E11.86374
G1 X117.807 Y127.682 E11.92298
G1 X117.623 Y127.136 E11.97076
G1 X117.442 Y126.362 E12.03668
G1 X117.343 Y125.586 E12.10155
G1 X117.323 Y124.804 E12.16642
G1 X117.383 Y124.024 E12.23129
G1 X117.509 Y123.321 E12.29052
G1 X117.653 Y122.763 E12.33831
G1 X117.924 Y122.016 E12.40421
G1 X118.264 Y121.312 E12.46904
G1 X118.674 Y120.646 E12.5339
G1 X119.15 Y120.025 E12.59879
G1 X119.686 Y119.456 E12.66361
G1 X120.278 Y118.944 E12.72852
G1 X120.918 Y118.495 E12.79335
G1 X121.601 Y118.114 E12.85821
G1 X122.319 Y117.804 E12.92306
G1 X123.065 Y117.568 E12.98795
G1 X123.831 Y117.41 E13.05281
G1 X124.609 Y117.33 E13.11767
G1 X125.324 Y117.33 E13.17696
G1 X125.898 Y117.373 E13.22469
G1 X126.682 Y117.507 E13.29065
G1 X127.435 Y117.717 E13.35548
G1 X128.104 Y117.979 E13.41506
G1 X128.104 Y117.979 F9000
G1 X128.683 Y118.472
;TYPE:Solid infill
;WIDTH:0.676997
G1 F1800
G1 X130.351 Y120.14 E13.61133
G1 X130.812 Y120.701 E13.67175
G1 X131.227 Y121.327 E13.73424
G1 X131.448 Y121.73 E13.77248
G1 X131.732 Y122.372 E13.83089
G1 X127.64 Y118.28 E14.31238
G1 X127.292 Y118.144 E14.34347
G1 X126.583 Y117.946 E14.40472
G1 X126.428 Y117.92 E14.4178
G1 X132.077 Y123.568 E15.08244
G1 X132.135 Y123.839 E15.1055
G1 X132.215 Y124.558 E15.16569
G1 X125.443 Y117.786 E15.96253
G1 X124.591 Y117.785 E16.03342
G1 X132.213 Y125.407 E16.93028
G1 X132.128 Y126.173 E16.9944
G1 X129.064 Y123.109 E17.35493
G1 X128.685 Y122.44 E17.4189
G1 X128.525 Y122.232 E17.44073
G1 X128.099 Y121.755 E17.49394
G1 X127.907 Y121.588 E17.51511
G1 X127.384 Y121.198 E17.56939
G1 X126.926 Y120.971 E17.61192
G1 X123.825 Y117.871 E17.97675
G1 X123.125 Y118.021 E18.03631
G1 X125.669 Y120.565 E18.33565
G1 X125.134 Y120.518 E18.38034
G1 X124.778 Y120.525 E18.40997
G1 X122.478 Y118.225 E18.6806
G1 X121.883 Y118.482 E18.73453
G1 X124.027 Y120.626 E18.98681
G1 X123.378 Y120.828 E19.04336
G1 X121.33 Y118.78 E19.28434
G1 X121.158 Y118.877 E19.30077
G1 X120.815 Y119.117 E19.3356
G1 X122.808 Y121.109 E19.57005
G1 X122.452 Y121.305 E19.60386
G1 X122.29 Y121.443 E19.62157
G1 X120.336 Y119.488 E19.85155
G1 X119.891 Y119.894 E19.90167
G1 X121.83 Y121.834 E20.12989
G1 X121.765 Y121.889 E20.13697
G1 X121.444 Y122.299 E20.18029
G1 X119.48 Y120.334 E20.41145
G1 X119.11 Y120.816 E20.46201
G1 X121.103 Y122.809 E20.69652
G1 X120.819 Y123.377 E20.74936
G1 X118.778 Y121.335 E20.98958
G1 X118.659 Y121.528 E21.00845
G1 X118.484 Y121.892 E21.04205
G1 X120.63 Y124.038 E21.29456
G1 X120.581 Y124.214 E21.30976
G1 X120.537 Y124.797 E21.35841
G1 X118.231 Y122.49 E21.62981
G1 X118.082 Y122.899 E21.66603
G1 X118.02 Y123.13 E21.68593
G1 X120.918 Y126.029 E22.02699
G1 E21.52699 F240
G92 E0
G1 X120.918 Y126.029 F9000
G1 X129.081 Y123.977
G1 E.5 F240
G1 F1800
G1 X131.977 Y126.873 E.84076
G1 X131.791 Y127.48 E.89358
G1 X131.774 Y127.522 E.89735
G1 X129.463 Y125.211 E1.16928
G1 X129.413 Y125.817 E1.21987
G1 X129.369 Y125.968 E1.23296
G1 X131.515 Y128.114 E1.48547
G1 X131.222 Y128.672 E1.53791
G1 X129.179 Y126.629 E1.7783
G1 X128.894 Y127.195 E1.83103
G1 X130.89 Y129.191 E2.06589
G1 X130.514 Y129.666 E2.11629
G1 X128.554 Y127.706 E2.34692
G1 X128.168 Y128.171 E2.3972
G1 X130.104 Y130.107 E2.625
G1 X129.913 Y130.303 E2.64777
G1 X129.66 Y130.515 E2.67523
G1 X127.705 Y128.559 E2.90533
G1 X127.522 Y128.713 E2.92523
G1 X127.188 Y128.894 E2.95684
G1 X129.182 Y130.888 E3.19147
G1 X128.668 Y131.225 E3.24261
G1 X126.619 Y129.176 E3.48371
G1 X125.97 Y129.378 E3.54026
G1 X128.114 Y131.522 E3.79254
G1 X127.513 Y131.773 E3.84673
G1 X125.209 Y129.469 E4.11783
G1 X125.032 Y129.488 E4.13264
G1 X124.309 Y129.42 E4.19306
G1 X126.869 Y131.98 E4.49429
G1 X126.169 Y132.131 E4.55387
G1 X117.874 Y123.836 E5.52992
G1 X117.83 Y124.082 E5.55071
G1 X117.79 Y124.603 E5.59419
G1 X125.401 Y132.214 E6.48975
G1 X124.755 Y132.225 E6.54351
G1 X124.543 Y132.207 E6.56121
G1 X117.79 Y125.454 E7.35582
G1 X117.886 Y126.282 E7.42517
G1 X117.922 Y126.437 E7.43841
G1 X123.56 Y132.075 E8.10182
G1 X123.297 Y132.026 E8.12408
G1 X122.592 Y131.816 E8.18529
G1 X122.35 Y131.717 E8.20704
G1 X118.281 Y127.648 E8.68583
G1 X118.491 Y128.144 E8.73065
G1 X118.844 Y128.79 E8.7919
G1 X119.262 Y129.397 E8.85322
G1 X119.733 Y129.951 E8.91372
G1 X121.306 Y131.524 E9.09881
;LAYER_CHANGE
;Z:0.55
;HEIGHT:0.2
G1 Z.55 F9000
M104 S215 ; set temperature
G1 E8.59881 F240
G92 E0
G1 X121.306 Y131.524 Z.55 F9000
G1 X123.645 Y122.528
G1 E.5 F240
G92 E0
;TYPE:External perimeter
;WIDTH:0.674999
G1 F1440
G1 X123.862 Y122.403 E.0125
G1 X124.407 Y122.226 E.04111
G1 X124.956 Y122.164 E.0687
G1 X125.53 Y122.22 E.0975
G1 X126.094 Y122.391 E.12693
G1 X126.61 Y122.675 E.15634
G1 X126.952 Y122.942 E.178
G1 X127.284 Y123.319 E.20308
G1 X127.572 Y123.805 E.23129
G1 X127.758 Y124.338 E.25948
G1 X127.834 Y124.898 E.2877
G1 X127.798 Y125.461 E.31587
G1 X127.654 Y125.997 E.34358
G1 X127.399 Y126.512 E.37227
G1 X127.052 Y126.958 E.40048
G1 X126.624 Y127.326 E.42866
G1 X126.131 Y127.601 E.45685
G1 X125.593 Y127.774 E.48507
G1 X125.09 Y127.83 E.51034
G1 X124.502 Y127.789 E.53977
G1 X124.018 Y127.662 E.56475
G1 X123.548 Y127.436 E.59079
G1 X123.094 Y127.1 E.61899
G1 X122.716 Y126.681 E.64717
G1 X122.434 Y126.206 E.67475
G1 X122.242 Y125.662 E.70355
G1 X122.166 Y125.102 E.73177
G1 X122.202 Y124.539 E.75994
G1 X122.349 Y123.993 E.78817
G1 X122.601 Y123.488 E.81635
G1 X122.948 Y123.042 E.84456
G1 X123.35 Y122.697 E.87101
G1 X123.567 Y122.572 E.88351
G1 X124.115 Y122.33 F9000
G1 X123.329 Y121.982
;TYPE:Perimeter
G1 F1440
G1 X123.559 Y121.848 E.8968
G1 X124.221 Y121.622 E.93173
G1 X124.892 Y121.535 E.96551
G1 X125.444 Y121.561 E.9931
G1 X126.096 Y121.712 E1.02652
G1 X126.726 Y121.994 E1.06098
G1 X127.288 Y122.396 E1.09548
G1 X127.758 Y122.901 E1.12993
G1 X128.12 Y123.489 E1.16441
G1 X128.357 Y124.137 E1.19886
G1 X128.462 Y124.819 E1.23331
G1 X128.434 Y125.442 E1.26445
G1 X128.263 Y126.168 E1.30169
