; generated by PrusaSlicer 2.8.0+MacOS-arm64 on 2024-10-04 at 11:59:30 UTC


;
;

;
;
; 

; external perimeters extrusion width = 0.68mm
; perimeters extrusion width = 0.68mm
; infill extrusion width = 0.68mm
; solid infill extrusion width = 0.68mm
; top infill extrusion width = 0.60mm

; external perimeters extrusion width = 0.68mm
; perimeters extrusion width = 0.68mm
; infill extrusion width = 0.68mm
; solid infill extrusion width = 0.68mm
; top infill extrusion width = 0.60mm

; external perimeters extrusion width = 0.68mm
; perimeters extrusion width = 0.68mm
; infill extrusion width = 0.68mm
; solid infill extrusion width = 0.68mm
; top infill extrusion width = 0.60mm

; external perimeters extrusion width = 0.68mm
; perimeters extrusion width = 0.68mm
; infill extrusion width = 0.68mm
; solid infill extrusion width = 0.68mm
; top infill extrusion width = 0.60mm


EXCLUDE_OBJECT_DEFINE NAME='6mm_gt2_belt_clip_2' CENTER=122.994,136.637 POLYGON=[[123.131,129.891],[123.937,130.051],[124.770,130.523],[125.322,131.132],[125.710,132.007],[125.794,132.688],[125.794,140.588],[125.740,141.134],[125.581,141.659],[125.322,142.143],[124.974,142.567],[124.550,142.916],[124.066,143.174],[123.540,143.334],[122.994,143.388],[122.181,143.267],[121.326,142.837],[120.666,142.143],[120.278,141.268],[120.194,140.588],[120.194,132.688],[120.248,132.141],[120.407,131.616],[120.666,131.132],[121.014,130.708],[121.438,130.359],[122.051,130.051],[122.583,129.918]]
EXCLUDE_OBJECT_DEFINE NAME='6mm_gt2_belt_clip_3' CENTER=130.676,136.442 POLYGON=[[130.813,129.696],[131.748,129.906],[132.452,130.328],[133.078,131.053],[133.392,131.813],[133.476,132.493],[133.476,140.393],[133.422,140.939],[133.263,141.464],[133.004,141.949],[132.656,142.373],[132.232,142.721],[131.748,142.980],[131.222,143.139],[130.676,143.193],[129.733,143.029],[128.900,142.557],[128.274,141.832],[127.960,141.073],[127.876,140.393],[127.876,132.493],[127.930,131.947],[128.089,131.421],[128.348,130.937],[128.696,130.513],[129.120,130.165],[129.733,129.857],[130.265,129.723]]
EXCLUDE_OBJECT_DEFINE NAME='6mm_gt2_belt_clip_4' CENTER=130.203,115.112 POLYGON=[[130.340,108.365],[131.275,108.575],[131.979,108.998],[132.531,109.606],[132.919,110.482],[133.003,111.162],[133.003,119.062],[132.949,119.608],[132.790,120.134],[132.531,120.618],[132.183,121.042],[131.759,121.390],[131.275,121.649],[130.749,121.808],[130.203,121.862],[129.390,121.742],[128.535,121.311],[127.875,120.618],[127.487,119.742],[127.403,119.062],[127.403,111.162],[127.457,110.616],[127.616,110.091],[127.875,109.606],[128.223,109.182],[128.647,108.834],[129.132,108.575],[129.792,108.392]]
EXCLUDE_OBJECT_DEFINE NAME='6mm_gt2_belt_clip_1' CENTER=122.333,115.567 POLYGON=[[122.470,108.820],[123.404,109.030],[124.109,109.453],[124.661,110.061],[125.049,110.937],[125.133,111.617],[125.133,119.517],[125.079,120.063],[124.919,120.589],[124.661,121.073],[124.312,121.497],[123.888,121.845],[123.404,122.104],[122.879,122.263],[122.332,122.317],[121.520,122.196],[120.665,121.766],[120.004,121.073],[119.616,120.197],[119.533,119.517],[119.533,111.617],[119.586,111.071],[119.746,110.545],[120.004,110.061],[120.353,109.637],[120.777,109.289],[121.261,109.030],[121.922,108.847]]

;TYPE:Custom
START_PRINT BED_TEMP=65 HOTEND_TEMP=220 FILAMENT_TYPE=PLA EXTRUSION_MULTIPLIER=0.95 PERIMETER_SPEED=80
G21 ; set units to millimeters
G90 ; use absolute coordinates
M82 ; use absolute distances for extrusion
G92 E0
; Filament gcode
M107
;LAYER_CHANGE
;Z:0.35
;HEIGHT:0.35
G1 E-.5 F240
G1 Z.35 F9000
EXCLUDE_OBJECT_START NAME='6mm_gt2_belt_clip_4'
G92 E0
G1 X128.76 Y111.101
G1 E.5 F240
G92 E0
;TYPE:External perimeter
;WIDTH:0.723009
G1 F1800
G1 X128.966 Y111.025 E.01967
;WIDTH:0.675
G1 X131.441 Y111.025 E.22491
;WIDTH:0.693771
G1 X131.655 Y111.102 E.24436
;WIDTH:0.743131
G1 X131.71 Y111.157 E.25154
;WIDTH:0.792491
G1 X131.765 Y111.212 E.25925
;WIDTH:0.841851
G1 X131.82 Y111.267 E.26749
G1 X131.822 Y111.325 E.27364
;WIDTH:0.837558
G1 X131.822 Y118.9 E1.07204
;WIDTH:0.847609
G1 X131.813 Y119.003 E1.08308
G1 X131.756 Y119.059 E1.09161
;WIDTH:0.798102
G1 X131.699 Y119.115 E1.0996
;WIDTH:0.748596
G1 X131.57 Y119.157 E1.11223
;WIDTH:0.711798
G1 X131.441 Y119.2 E1.1242
;WIDTH:0.675
G1 X128.965 Y119.2 E1.32953
;WIDTH:0.700768
G1 X128.852 Y119.167 E1.33971
;WIDTH:0.726536
G1 X128.74 Y119.134 E1.35022
;WIDTH:0.766855
G1 X128.692 Y119.094 E1.35619
;WIDTH:0.807174
G1 X128.644 Y119.053 E1.36258
;WIDTH:0.847493
G1 X128.596 Y119.012 E1.36932
G1 X128.584 Y118.9 E1.38135
;WIDTH:0.837559
G1 X128.584 Y111.325 E2.17975
;WIDTH:0.842591
G1 X128.587 Y111.263 E2.18634
G1 X128.63 Y111.214 E2.19326
;WIDTH:0.80273
G1 X128.673 Y111.166 E2.19974
;WIDTH:0.762869
G1 X128.687 Y111.15 E2.20176
G1 X129.277 Y111.038 F9000
G1 E1.70176 F240
G92 E0
G1 X130.329 Y108.721 F9000
G1 E.5 F240
;WIDTH:0.675
G1 F1800
G1 X130.683 Y108.748 E.52944
G1 X131.124 Y108.892 E.56791
G1 X131.667 Y109.2 E.61968
G1 X132.09 Y109.601 E.66802
G1 X132.405 Y110.085 E.71591
;WIDTH:0.693771
G1 X132.589 Y110.634 E.76543
;WIDTH:0.743131
G1 X132.586 Y110.826 E.78316
;WIDTH:0.792491
G1 X132.584 Y111.018 E.8022
;WIDTH:0.841851
G1 X132.582 Y111.21 E.82255
G1 X132.584 Y111.325 E.83474
;WIDTH:0.837558
G1 X132.585 Y119.193 E1.66402
;WIDTH:0.793077
G1 X132.585 Y119.486 E1.6931
;WIDTH:0.748596
G1 X132.54 Y119.714 E1.71474
;WIDTH:0.711798
G1 X132.495 Y119.942 E1.73519
;WIDTH:0.675
G1 X132.286 Y120.36 E1.77395
G1 X132.002 Y120.731 E1.8127
G1 X131.649 Y121.043 E1.85177
G1 X131.241 Y121.284 E1.89107
G1 X130.791 Y121.443 E1.93065
G1 X130.299 Y121.514 E1.97187
G1 X129.849 Y121.498 E2.00921
G1 X129.262 Y121.335 E2.05973
G1 X128.738 Y121.038 E2.10968
G1 X128.299 Y120.62 E2.15995
G1 X128.006 Y120.15 E2.20588
;WIDTH:0.700768
G1 X127.92 Y119.869 E2.2313
;WIDTH:0.726536
G1 X127.834 Y119.587 E2.25785
;WIDTH:0.763543
G1 X127.83 Y119.358 E2.27965
;WIDTH:0.800551
G1 X127.826 Y119.129 E2.30262
;WIDTH:0.837559
G1 X127.817 Y111.129 E3.14581
;WIDTH:0.799375
G1 X127.813 Y110.933 E3.16544
;WIDTH:0.761192
G1 X127.808 Y110.737 E3.18404
;WIDTH:0.723009
G1 X127.911 Y110.282 E3.22582
;WIDTH:0.675
G1 X128.12 Y109.864 E3.26458
G1 X128.404 Y109.493 E3.30333
G1 X128.757 Y109.181 E3.3424
G1 X129.165 Y108.94 E3.3817
G1 X129.598 Y108.786 E3.41981
G1 X130.215 Y108.713 E3.47133
G1 X130.24 Y108.715 E3.47341
G1 X130.832 Y108.81 F9000
G1 E2.97341 F240
G92 E0
G1 X128.438 Y119.603 F9000
G1 E.5 F240
;TYPE:Perimeter
G1 F1800
G1 X128.72 Y119.765 E.52697
G1 X128.963 Y119.799 E.54732
G1 X131.441 Y119.799 E.75281
G1 X131.845 Y119.704 E.78723
G1 X131.971 Y119.603 E.80062
G1 X131.917 Y119.778 E.81581
G1 X131.642 Y120.224 E.85926
G1 X131.269 Y120.58 E.90202
G1 X130.958 Y120.755 E.93161
G1 X130.512 Y120.89 E.97025
G1 X130.007 Y120.908 E1.01215
G1 X129.553 Y120.793 E1.05099
G1 X129.142 Y120.578 E1.08945
G1 X128.784 Y120.254 E1.12949
G1 X128.578 Y119.959 E1.15933
G1 X128.471 Y119.687 E1.18357
G1 E.68357 F240
G92 E0
G1 X128.471 Y119.687 F9000
G1 X130.458 Y120.346
G1 E.5 F240
;WIDTH:0.584919
G1 F1800
G1 X130.048 Y120.354 E.5289
G1 E.0289 F240
G92 E0
G1 X130.048 Y120.354 F9000
G1 X128.435 Y110.621
G1 E.5 F240
;WIDTH:0.675
G1 F1800
G1 X128.489 Y110.446 E.51519
G1 X128.765 Y110 E.55868
G1 X129.137 Y109.645 E.60132
G1 X129.448 Y109.469 E.63095
G1 X129.772 Y109.36 E.6593
G1 X130.314 Y109.307 E.70446
G1 X130.758 Y109.391 E.74193
G1 X131.186 Y109.595 E.78125
G1 X131.55 Y109.891 E.82016
G1 X131.831 Y110.275 E.85962
G1 X131.968 Y110.62 E.8904
G1 X131.697 Y110.462 E.91641
G1 X131.441 Y110.425 E.93786
G1 X128.966 Y110.425 E1.1431
G1 X128.561 Y110.521 E1.17762
G1 X128.505 Y110.565 E1.18353
G1 X128.505 Y110.565 F9000
G1 X129.93 Y109.881
;WIDTH:0.571141
G1 F1800
G1 X130.459 Y109.877 E1.2198
G1 E.7198 F240
G92 E0
G1 X130.459 Y109.877 F9000
EXCLUDE_OBJECT_END NAME='6mm_gt2_belt_clip_4'
EXCLUDE_OBJECT_START NAME='6mm_gt2_belt_clip_1'
G92 E0
G1 X120.889 Y111.556
G1 E.5 F240
;TYPE:External perimeter
;WIDTH:0.723007
G1 F1800
G1 X121.095 Y111.479 E.5197
;WIDTH:0.675
G1 X123.57 Y111.479 E.72494
;WIDTH:0.693758
G1 X123.785 Y111.557 E.7445
;WIDTH:0.743112
G1 X123.839 Y111.612 E.75162
;WIDTH:0.792466
G1 X123.894 Y111.667 E.75933
;WIDTH:0.841821
G1 X123.949 Y111.722 E.76757
G1 X123.951 Y111.779 E.77362
;WIDTH:0.837558
G1 X123.951 Y119.355 E1.57212
;WIDTH:0.84761
G1 X123.942 Y119.458 E1.58316
G1 X123.885 Y119.514 E1.59169
;WIDTH:0.798095
G1 X123.829 Y119.57 E1.59961
;WIDTH:0.74858
G1 X123.699 Y119.612 E1.61233
;WIDTH:0.71179
G1 X123.57 Y119.654 E1.62427
;WIDTH:0.675
G1 X121.094 Y119.654 E1.8296
;WIDTH:0.700776
G1 X120.982 Y119.622 E1.83967
;WIDTH:0.726553
G1 X120.869 Y119.589 E1.85027
;WIDTH:0.766867
G1 X120.821 Y119.549 E1.85624
;WIDTH:0.807181
G1 X120.773 Y119.508 E1.86263
;WIDTH:0.847495
G1 X120.726 Y119.467 E1.86929
G1 X120.714 Y119.355 E1.88132
;WIDTH:0.837559
G1 X120.714 Y111.779 E2.67982
;WIDTH:0.842588
G1 X120.716 Y111.718 E2.6863
G1 X120.76 Y111.669 E2.69329
;WIDTH:0.802727
G1 X120.803 Y111.621 E2.69977
;WIDTH:0.762867
G1 X120.817 Y111.605 E2.70179
G1 X121.406 Y111.493 F9000
G1 E2.20179 F240
G92 E0
G1 X122.459 Y109.176 F9000
G1 E.5 F240
;WIDTH:0.675
G1 F1800
G1 X122.813 Y109.203 E.52944
G1 X123.254 Y109.347 E.56791
G1 X123.796 Y109.655 E.61961
G1 X124.219 Y110.056 E.66795
G1 X124.534 Y110.54 E.71584
;WIDTH:0.693758
G1 X124.718 Y111.09 E.76544
;WIDTH:0.743112
G1 X124.716 Y111.282 E.78317
;WIDTH:0.792466
G1 X124.714 Y111.474 E.80221
;WIDTH:0.841821
G1 X124.712 Y111.665 E.82245
G1 X124.714 Y111.779 E.83453
;WIDTH:0.837558
G1 X124.714 Y119.648 E1.66391
;WIDTH:0.793069
G1 X124.715 Y119.941 E1.69299
;WIDTH:0.74858
G1 X124.67 Y120.169 E1.71463
;WIDTH:0.71179
G1 X124.625 Y120.397 E1.73508
;WIDTH:0.675
G1 X124.416 Y120.815 E1.77384
G1 X124.131 Y121.186 E1.81264
G1 X123.779 Y121.498 E1.85165
G1 X123.371 Y121.739 E1.89095
G1 X122.921 Y121.898 E1.93053
G1 X122.429 Y121.969 E1.97175
G1 X121.979 Y121.952 E2.00909
G1 X121.391 Y121.79 E2.05967
G1 X120.867 Y121.493 E2.10962
G1 X120.428 Y121.075 E2.15989
G1 X120.135 Y120.605 E2.20582
;WIDTH:0.700776
G1 X120.049 Y120.324 E2.23124
;WIDTH:0.726553
G1 X119.963 Y120.042 E2.25779
;WIDTH:0.763555
G1 X119.959 Y119.813 E2.27959
;WIDTH:0.800557
G1 X119.955 Y119.584 E2.30256
;WIDTH:0.837559
G1 X119.947 Y111.584 E3.14575
;WIDTH:0.799375
G1 X119.942 Y111.388 E3.16538
;WIDTH:0.761191
G1 X119.937 Y111.192 E3.18398
;WIDTH:0.723007
G1 X120.04 Y110.737 E3.22576
;WIDTH:0.675
G1 X120.249 Y110.319 E3.26452
G1 X120.534 Y109.948 E3.30332
G1 X120.886 Y109.636 E3.34233
G1 X121.295 Y109.395 E3.3817
G1 X121.728 Y109.241 E3.41981
G1 X122.345 Y109.168 E3.47133
G1 X122.369 Y109.169 E3.47332
G1 X122.961 Y109.265 F9000
G1 E2.97332 F240
G92 E0
G1 X120.567 Y120.058 F9000
G1 E.5 F240
;TYPE:Perimeter
G1 F1800
G1 X120.849 Y120.22 E.52697
G1 X121.092 Y120.254 E.54732
G1 X123.57 Y120.254 E.75281
G1 X123.974 Y120.158 E.78725
G1 X124.101 Y120.058 E.80065
G1 X124.047 Y120.233 E.81584
G1 X123.771 Y120.679 E.85933
G1 X123.398 Y121.035 E.90209
G1 X123.088 Y121.21 E.93161
G1 X122.641 Y121.345 E.97033
G1 X122.136 Y121.363 E1.01223
G1 X121.683 Y121.248 E1.05099
G1 X121.272 Y121.033 E1.08945
G1 X120.913 Y120.709 E1.12955
G1 X120.708 Y120.414 E1.15934
G1 X120.6 Y120.142 E1.18361
G1 E.68361 F240
G92 E0
G1 X120.6 Y120.142 F9000
G1 X122.588 Y120.801
G1 E.5 F240
;WIDTH:0.584919
G1 F1800
G1 X122.177 Y120.809 E.52897
G1 E.02897 F240
G92 E0
G1 X122.177 Y120.809 F9000
G1 X120.564 Y111.076
G1 E.5 F240
;WIDTH:0.675
G1 F1800
G1 X120.618 Y110.901 E.51519
G1 X120.894 Y110.455 E.55868
G1 X121.267 Y110.099 E.60144
G1 X121.577 Y109.924 E.63096
G1 X121.902 Y109.815 E.65939
G1 X122.444 Y109.762 E.70455
G1 X122.888 Y109.846 E.74202
G1 X123.315 Y110.05 E.78126
G1 X123.679 Y110.346 E.82017
G1 X123.96 Y110.73 E.85963
G1 X124.097 Y111.075 E.89041
G1 X123.826 Y110.917 E.91642
G1 X123.57 Y110.88 E.93787
G1 X121.095 Y110.88 E1.14311
G1 X120.691 Y110.975 E1.17753
G1 X120.635 Y111.02 E1.18349
G1 X120.635 Y111.02 F9000
G1 X122.06 Y110.336
;WIDTH:0.571107
G1 F1800
G1 X122.589 Y110.332 E1.21976
G1 E.71976 F240
G92 E0
G1 X122.589 Y110.332 F9000
EXCLUDE_OBJECT_END NAME='6mm_gt2_belt_clip_1'
EXCLUDE_OBJECT_START NAME='6mm_gt2_belt_clip_2'
G92 E0
G1 X121.551 Y132.627
G1 E.5 F240
;TYPE:External perimeter
;WIDTH:0.723008
G1 F1800
G1 X121.756 Y132.55 E.51961
;WIDTH:0.675
G1 X124.232 Y132.55 E.72494
G1 X124.36 Y132.579 E.73582
;WIDTH:0.716644
G1 X124.441 Y132.624 E.74404
;WIDTH:0.758288
G1 X124.522 Y132.67 E.75284
;WIDTH:0.800813
G1 X124.566 Y132.727 E.76006
;WIDTH:0.843339
G1 X124.61 Y132.784 E.76771
G1 X124.613 Y132.85 E.77473
;WIDTH:0.837558
G1 X124.613 Y140.425 E1.57313
;WIDTH:0.847609
G1 X124.604 Y140.529 E1.58428
G1 X124.547 Y140.585 E1.59281
;WIDTH:0.798098
G1 X124.49 Y140.641 E1.6008
;WIDTH:0.748588
G1 X124.361 Y140.683 E1.61343
;WIDTH:0.711794
G1 X124.232 Y140.725 E1.62537
;WIDTH:0.675
G1 X121.756 Y140.725 E1.8307
;WIDTH:0.724268
G1 X121.609 Y140.669 E1.84482
;WIDTH:0.773536
G1 X121.462 Y140.613 E1.86001
;WIDTH:0.808436
G1 X121.42 Y140.552 E1.86752
;WIDTH:0.843336
G1 X121.378 Y140.491 E1.87539
G1 X121.375 Y140.425 E1.88241
;WIDTH:0.837559
G1 X121.375 Y132.85 E2.68081
;WIDTH:0.842591
G1 X121.378 Y132.788 E2.6874
G1 X121.421 Y132.74 E2.69424
;WIDTH:0.80273
G1 X121.464 Y132.691 E2.7008
;WIDTH:0.762869
G1 X121.478 Y132.675 E2.70282
G1 X122.068 Y132.563 F9000
G1 E2.20282 F240
G92 E0
G1 X123.12 Y130.248 F9000
G1 E.5 F240
;WIDTH:0.675
G1 F1800
G1 X123.233 Y130.244 E.50938
G1 X123.816 Y130.368 E.55881
G1 X124.361 Y130.642 E.6094
G1 X124.745 Y130.973 E.65144
G1 X125.067 Y131.371 E.69389
G1 X125.282 Y131.802 E.73383
;WIDTH:0.716644
G1 X125.329 Y132.049 E.75613
;WIDTH:0.758288
G1 X125.376 Y132.296 E.77988
;WIDTH:0.800813
G1 X125.374 Y132.506 E.80095
;WIDTH:0.843339
G1 X125.372 Y132.717 E.82336
G1 X125.375 Y132.85 E.83749
;WIDTH:0.837558
G1 X125.376 Y140.718 E1.66677
;WIDTH:0.793073
G1 X125.376 Y141.011 E1.69585
;WIDTH:0.748588
G1 X125.331 Y141.239 E1.71749
;WIDTH:0.711794
G1 X125.286 Y141.468 E1.73803
;WIDTH:0.675
G1 X125.077 Y141.886 E1.77679
G1 X124.793 Y142.256 E1.81547
G1 X124.44 Y142.569 E1.85459
G1 X124.032 Y142.81 E1.89389
G1 X123.474 Y143.001 E1.9428
G1 X122.891 Y143.041 E1.99126
G1 X122.396 Y142.969 E2.03274
G1 X121.833 Y142.744 E2.08302
G1 X121.344 Y142.413 E2.13199
G1 X120.949 Y141.954 E2.18221
G1 X120.707 Y141.474 E2.22679
;WIDTH:0.724268
G1 X120.657 Y141.206 E2.25125
;WIDTH:0.773536
G1 X120.608 Y140.938 E2.27755
;WIDTH:0.805547
G1 X120.61 Y140.681 E2.3035
;WIDTH:0.837559
G1 X120.608 Y132.654 E3.14954
;WIDTH:0.799375
G1 X120.604 Y132.458 E3.16917
;WIDTH:0.761191
G1 X120.599 Y132.263 E3.18767
;WIDTH:0.723008
G1 X120.702 Y131.807 E3.22954
;WIDTH:0.675
G1 X120.911 Y131.389 E3.2683
G1 X121.195 Y131.019 E3.30698
G1 X121.548 Y130.706 E3.3461
G1 X122.052 Y130.414 E3.3944
G1 X122.637 Y130.265 E3.44446
G1 X123.03 Y130.251 E3.47707
G1 X123.625 Y130.333 F9000
G1 E2.97707 F240
G92 E0
G1 X121.225 Y141.138 F9000
G1 E.5 F240
;TYPE:Perimeter
G1 F1800
G1 X121.639 Y141.317 E.5374
G1 X121.756 Y141.325 E.54713
G1 X124.232 Y141.325 E.75246
G1 X124.636 Y141.229 E.7869
G1 X124.762 Y141.128 E.80029
G1 X124.708 Y141.303 E.81548
G1 X124.432 Y141.75 E.85905
G1 X124.06 Y142.105 E.90169
G1 X123.749 Y142.281 E.93132
G1 X123.408 Y142.394 E.96111
G1 X122.983 Y142.447 E.99663
G1 X122.527 Y142.384 E1.0348
G1 X122.076 Y142.195 E1.07535
G1 X121.788 Y141.996 E1.10438
G1 X121.44 Y141.597 E1.14828
G1 X121.264 Y141.219 E1.18286
G1 E.68286 F240
G92 E0
G1 X121.264 Y141.219 F9000
G1 X123.249 Y141.871
G1 E.5 F240
;WIDTH:0.582245
G1 F1800
G1 X122.803 Y141.878 E.53127
G1 E.03127 F240
G92 E0
G1 X122.803 Y141.878 F9000
G1 X121.226 Y132.147
G1 E.5 F240
;WIDTH:0.675
G1 F1800
G1 X121.28 Y131.972 E.51519
G1 X121.556 Y131.525 E.55876
G1 X121.928 Y131.17 E.6014
G1 X122.239 Y130.994 E.63103
G1 X122.563 Y130.886 E.65935
G1 X123.105 Y130.832 E.70452
G1 X123.549 Y130.916 E.74199
G1 X123.977 Y131.12 E.78131
G1 X124.353 Y131.427 E.82156
G1 X124.593 Y131.739 E.8542
G1 X124.76 Y132.165 E.89214
G1 X124.616 Y132.036 E.90817
G1 X124.232 Y131.95 E.9408
G1 X121.756 Y131.95 E1.14613
G1 X121.352 Y132.046 E1.18057
G1 X121.296 Y132.091 E1.18653
G1 X121.296 Y132.091 F9000
