; generated by PrusaSlicer 2.8.0+MacOS-arm64 on 2024-09-05 at 21:16:32 UTC


;
;

;
;
; 

; external perimeters extrusion width = 0.68mm
; perimeters extrusion width = 0.68mm
; infill extrusion width = 0.68mm
; solid infill extrusion width = 0.68mm
; top infill extrusion width = 0.60mm
; support material extrusion width = 0.60mm

; external perimeters extrusion width = 0.68mm
; perimeters extrusion width = 0.68mm
; infill extrusion width = 0.68mm
; solid infill extrusion width = 0.68mm
; top infill extrusion width = 0.60mm
; support material extrusion width = 0.60mm

; external perimeters extrusion width = 0.68mm
; perimeters extrusion width = 0.68mm
; infill extrusion width = 0.68mm
; solid infill extrusion width = 0.68mm
; top infill extrusion width = 0.60mm
; support material extrusion width = 0.60mm

; external perimeters extrusion width = 0.68mm
; perimeters extrusion width = 0.68mm
; infill extrusion width = 0.68mm
; solid infill extrusion width = 0.68mm
; top infill extrusion width = 0.60mm
; support material extrusion width = 0.60mm


EXCLUDE_OBJECT_DEFINE NAME='8mm_shoulder_cap_2' CENTER=134.742,111.900 POLYGON=[[143.136,105.866],[143.136,117.718],[141.136,119.718],[128.820,119.718],[125.820,116.718],[125.820,108.114],[130.068,103.866],[141.136,103.866]]
EXCLUDE_OBJECT_DEFINE NAME='8mm_shoulder_cap_3' CENTER=134.631,133.777 POLYGON=[[143.026,127.959],[143.026,139.811],[141.026,141.811],[129.957,141.811],[125.709,137.563],[125.709,128.959],[128.709,125.959],[141.026,125.959]]
EXCLUDE_OBJECT_DEFINE NAME='8mm_shoulder_cap_4' CENTER=109.951,110.921 POLYGON=[[118.873,107.135],[118.873,115.739],[115.873,118.739],[103.556,118.739],[101.556,116.739],[101.556,104.887],[103.556,102.887],[114.625,102.887]]
EXCLUDE_OBJECT_DEFINE NAME='8mm_shoulder_cap_1' CENTER=109.845,134.042 POLYGON=[[118.767,129.223],[118.767,137.827],[114.519,142.075],[103.450,142.075],[101.450,140.075],[101.450,128.223],[103.450,126.223],[115.767,126.223]]

;TYPE:Custom
START_PRINT BED_TEMP=65 HOTEND_TEMP=220 FILAMENT_TYPE=PLA EXTRUSION_MULTIPLIER=0.95 PERIMETER_SPEED=80
G21 ; set units to millimeters
G90 ; use absolute coordinates
M82 ; use absolute distances for extrusion
G92 E0
; Filament gcode
M107
;LAYER_CHANGE
;Z:0.35
;HEIGHT:0.35
G1 E-.5 F240
G1 Z.35 F9000
EXCLUDE_OBJECT_START NAME='8mm_shoulder_cap_4'
G92 E0
G1 X104.038 Y104.05
G1 E.5 F240
G92 E0
;TYPE:External perimeter
;WIDTH:0.675
G1 F1800
G1 X114.144 Y104.05 E.83806
G1 X117.71 Y107.617 E1.25633
G1 X117.71 Y110.139 E1.46547
G1 X117.71 Y115.258 E1.88997
G1 X115.391 Y117.577 E2.16193
G1 X104.038 Y117.577 E3.1034
G1 X102.719 Y116.258 E3.25809
G1 X102.719 Y105.369 E4.16108
G1 X103.974 Y104.113 E4.30832
G1 X104.571 Y104.056 F9000
G1 X104.286 Y104.65
;TYPE:Perimeter
G1 F1800
G1 X113.895 Y104.65 E5.10517
G1 X117.11 Y107.865 E5.48221
G1 X117.11 Y110.139 E5.67079
G1 X117.11 Y115.009 E6.07465
G1 X115.143 Y116.977 E6.30539
G1 X104.286 Y116.977 E7.20573
G1 X103.319 Y116.009 E7.3192
G1 X103.319 Y105.617 E8.18098
G1 X104.223 Y104.713 E8.287
G1 X104.223 Y104.713 F9000
G1 X104.535 Y105.25
G1 F1800
G1 X113.647 Y105.25 E9.04263
G1 X116.51 Y108.113 E9.37839
G1 X116.51 Y110.139 E9.5464
G1 X116.51 Y114.761 E9.92969
G1 X114.894 Y116.377 E10.11921
G1 X104.535 Y116.377 E10.97825
G1 X103.919 Y115.761 E11.05049
G1 X103.919 Y105.866 E11.87105
G1 X104.471 Y105.313 E11.93585
G1 X104.471 Y105.313 F9000
G1 X104.783 Y105.85
G1 F1800
G1 X113.398 Y105.85 E12.65027
G1 X115.911 Y108.362 E12.94493
G1 X115.911 Y110.139 E13.09229
G1 X115.911 Y114.512 E13.45493
G1 X114.646 Y115.777 E13.60328
G1 X104.783 Y115.777 E14.42119
G1 X104.519 Y115.512 E14.45221
G1 X104.519 Y106.114 E15.23156
G1 X104.72 Y105.913 E15.25513
G1 E14.75513 F240
G92 E0
G1 X104.72 Y105.913 F9000
G1 X112.93 Y106.029
G1 E.5 F240
;TYPE:Solid infill
;WIDTH:0.691139
G1 F1800
G1 X115.461 Y108.56 E.80481
G1 X115.461 Y109.431 E.87898
G1 X112.329 Y106.299 E1.25617
G1 X111.458 Y106.299 E1.33034
G1 X115.461 Y110.302 E1.81243
G1 X115.461 Y111.173 E1.8866
G1 X110.587 Y106.299 E2.47358
G1 X109.715 Y106.299 E2.54784
G1 X115.461 Y112.045 E3.23984
G1 X115.461 Y112.916 E3.31401
G1 X108.844 Y106.299 E4.11091
G1 X107.973 Y106.299 E4.18508
G1 X115.461 Y113.787 E5.08687
G1 X115.461 Y114.326 E5.13277
G1 X115.295 Y114.492 E5.15276
G1 X107.102 Y106.299 E6.13946
G1 X106.231 Y106.299 E6.21363
G1 X114.859 Y114.928 E7.25278
G1 X114.459 Y115.327 E7.30089
G1 X114.387 Y115.327 E7.30702
G1 X105.359 Y106.299 E8.39428
G1 X104.968 Y106.299 E8.42758
G1 X104.968 Y106.78 E8.46854
G1 X113.516 Y115.327 E9.49793
G1 X112.645 Y115.327 E9.5721
G1 X104.968 Y107.651 E10.49659
G1 X104.968 Y108.522 E10.57076
G1 X111.774 Y115.327 E11.39036
G1 X110.902 Y115.327 E11.46462
G1 X104.968 Y109.393 E12.17926
G1 X104.968 Y110.264 E12.25343
G1 X110.031 Y115.327 E12.86318
G1 X109.16 Y115.327 E12.93735
G1 X104.968 Y111.136 E13.44214
G1 X104.968 Y112.007 E13.51631
G1 X108.289 Y115.327 E13.9162
G1 X107.418 Y115.327 E13.99037
G1 X104.968 Y112.878 E14.28537
G1 X104.968 Y113.749 E14.35954
G1 X106.546 Y115.327 E14.54958
G1 X105.675 Y115.327 E14.62375
G1 X104.698 Y114.35 E14.74141
G1 E14.24141 F240
G92 E0
G1 X104.698 Y114.35 F9000
EXCLUDE_OBJECT_END NAME='8mm_shoulder_cap_4'
EXCLUDE_OBJECT_START NAME='8mm_shoulder_cap_1'
G92 E0
G1 X103.932 Y140.912
G1 E.5 F240
;TYPE:External perimeter
;WIDTH:0.675
G1 F1800
G1 X102.613 Y139.593 E.65469
G1 X102.613 Y128.704 E1.55768
G1 X103.932 Y127.385 E1.71237
G1 X115.285 Y127.385 E2.65384
G1 X117.604 Y129.704 E2.9258
G1 X117.604 Y131.344 E3.0618
G1 X117.604 Y137.346 E3.55953
G1 X114.037 Y140.912 E3.9778
G1 X104.022 Y140.912 E4.80832
G1 X103.559 Y140.531 F9000
G1 X104.18 Y140.312
;TYPE:Perimeter
G1 F1800
G1 X103.213 Y139.345 E4.92173
G1 X103.213 Y128.953 E5.78351
G1 X104.18 Y127.985 E5.89698
G1 X115.037 Y127.985 E6.79732
G1 X117.004 Y129.953 E7.02806
G1 X117.004 Y131.344 E7.14341
G1 X117.004 Y137.097 E7.62049
G1 X113.789 Y140.312 E7.99753
G1 X104.27 Y140.312 E8.78691
G1 X104.27 Y140.312 F9000
G1 X104.429 Y139.713
G1 F1800
G1 X103.813 Y139.096 E8.85921
G1 X103.813 Y129.201 E9.67977
G1 X104.429 Y128.585 E9.75201
G1 X114.788 Y128.585 E10.61105
G1 X116.404 Y130.201 E10.80057
G1 X116.404 Y131.344 E10.89536
G1 X116.404 Y136.849 E11.35187
G1 X113.541 Y139.713 E11.68769
G1 X104.519 Y139.713 E12.43586
G1 X104.519 Y139.713 F9000
G1 X104.677 Y139.113
G1 F1800
G1 X104.412 Y138.848 E12.46694
G1 X104.412 Y129.45 E13.24629
G1 X104.677 Y129.185 E13.27737
G1 X114.54 Y129.185 E14.09528
G1 X115.804 Y130.45 E14.24358
G1 X115.804 Y131.344 E14.31772
G1 X115.804 Y136.6 E14.75358
G1 X113.292 Y139.113 E15.04824
G1 X104.767 Y139.113 E15.75519
G1 E15.25519 F240
G92 E0
G1 X104.767 Y139.113 F9000
G1 X115.625 Y130.907
G1 E.5 F240
;TYPE:Solid infill
;WIDTH:0.675929
G1 F1800
G1 X114.353 Y129.635 E.64941
G1 X113.503 Y129.635 E.72001
G1 X115.355 Y131.487 E.93754
G1 X115.355 Y132.336 E1.00805
G1 X112.653 Y129.635 E1.32536
G1 X111.804 Y129.635 E1.39587
G1 X115.355 Y133.186 E1.81296
G1 X115.355 Y134.036 E1.88356
G1 X110.954 Y129.635 E2.40049
G1 X110.104 Y129.635 E2.47109
G1 X115.355 Y134.885 E3.0878
G1 X115.355 Y135.735 E3.1584
G1 X109.255 Y129.635 E3.8749
G1 X108.405 Y129.635 E3.9455
G1 X115.269 Y136.499 E4.75173
G1 X114.844 Y136.924 E4.80165
G1 X107.555 Y129.635 E5.6578
G1 X106.705 Y129.635 E5.7284
G1 X114.419 Y137.349 E6.63447
G1 X113.995 Y137.774 E6.68433
G1 X105.856 Y129.635 E7.64032
G1 X105.006 Y129.635 E7.71092
G1 X113.57 Y138.199 E8.71683
G1 X113.145 Y138.624 E8.76675
G1 X104.862 Y130.341 E9.73966
G1 X104.862 Y131.191 E9.81026
G1 X112.334 Y138.663 E10.68791
G1 X111.485 Y138.663 E10.75842
G1 X104.862 Y132.04 E11.53635
G1 X104.862 Y132.89 E11.60695
G1 X110.635 Y138.663 E12.28504
G1 X109.785 Y138.663 E12.35564
G1 X104.862 Y133.74 E12.93389
G1 X104.862 Y134.589 E13.0044
G1 X108.936 Y138.663 E13.48292
G1 X108.086 Y138.663 E13.55352
G1 X104.862 Y135.439 E13.93221
G1 X104.862 Y136.289 E14.00281
G1 X107.236 Y138.663 E14.28166
G1 X106.387 Y138.663 E14.35217
G1 X104.862 Y137.138 E14.53129
G1 X104.862 Y137.988 E14.60189
G1 X105.807 Y138.933 E14.71289
G1 E14.21289 F240
G92 E0
G1 X105.807 Y138.933 F9000
EXCLUDE_OBJECT_END NAME='8mm_shoulder_cap_1'
EXCLUDE_OBJECT_START NAME='8mm_shoulder_cap_3'
G92 E0
G1 X141.863 Y128.44
G1 E.5 F240
;TYPE:External perimeter
;WIDTH:0.675
G1 F1800
G1 X141.863 Y129.373 E.57737
G1 X141.863 Y139.329 E1.40299
G1 X140.544 Y140.648 E1.55768
G1 X130.438 Y140.648 E2.39574
G1 X126.872 Y137.081 E2.81401
G1 X126.872 Y129.44 E3.44766
G1 X129.191 Y127.121 E3.71962
G1 X140.544 Y127.121 E4.66109
G1 X141.799 Y128.377 E4.80833
G1 X141.857 Y128.974 F9000
G1 X141.263 Y128.689
;TYPE:Perimeter
G1 F1800
G1 X141.263 Y129.373 E4.86505
G1 X141.263 Y139.081 E5.67011
G1 X140.296 Y140.048 E5.78352
G1 X130.687 Y140.048 E6.58037
G1 X127.472 Y136.833 E6.95741
G1 X127.472 Y129.689 E7.54984
G1 X129.439 Y127.721 E7.78058
G1 X140.296 Y127.721 E8.68092
G1 X141.2 Y128.625 E8.78694
G1 X141.2 Y128.625 F9000
G1 X140.663 Y128.937
G1 F1800
G1 X140.663 Y129.373 E8.8231
G1 X140.663 Y138.832 E9.60751
G1 X140.047 Y139.448 E9.67975
G1 X130.935 Y139.448 E10.43538
G1 X128.071 Y136.585 E10.7712
G1 X128.071 Y129.937 E11.3225
G1 X129.688 Y128.321 E11.51208
G1 X140.047 Y128.321 E12.37112
G1 X140.6 Y128.874 E12.43597
G1 X140.6 Y128.874 F9000
G1 X140.063 Y129.186
G1 F1800
G1 X140.063 Y129.373 E12.45148
G1 X140.063 Y138.584 E13.21532
G1 X139.799 Y138.848 E13.24628
G1 X131.184 Y138.848 E13.9607
G1 X128.671 Y136.336 E14.25536
G1 X128.671 Y130.186 E14.76536
G1 X129.936 Y128.921 E14.91371
G1 X139.799 Y128.921 E15.73162
G1 X140 Y129.122 E15.75519
G1 X140 Y129.122 F9000
G1 X139.883 Y130.348
;TYPE:Solid infill
;WIDTH:0.69114
G1 F1800
G1 X138.907 Y129.371 E15.87279
G1 X138.035 Y129.371 E15.94705
G1 X139.613 Y130.949 E16.13709
G1 X139.613 Y131.82 E16.21126
G1 X137.164 Y129.371 E16.5062
G1 X136.293 Y129.371 E16.58037
G1 X139.613 Y132.691 E16.9802
G1 X139.613 Y133.563 E17.05446
G1 X135.422 Y129.371 E17.55925
G1 X134.551 Y129.371 E17.63342
G1 X139.613 Y134.434 E18.24311
G1 X139.613 Y135.305 E18.31728
G1 X133.679 Y129.371 E19.03192
G1 X132.808 Y129.371 E19.10609
G1 X139.613 Y136.176 E19.92563
G1 X139.613 Y137.047 E19.9998
G1 X131.937 Y129.371 E20.92424
G1 X131.066 Y129.371 E20.99841
G1 X139.613 Y137.919 E22.0278
G1 X139.613 Y138.399 E22.06868
G1 X139.222 Y138.399 E22.10198
G1 X130.195 Y129.371 E23.18918
G1 X130.123 Y129.371 E23.19531
G1 X129.723 Y129.77 E23.24342
G1 X138.351 Y138.399 E24.28257
G1 X137.48 Y138.399 E24.35674
G1 X129.287 Y130.206 E25.34344
G1 X129.121 Y130.372 E25.36343
G1 X129.121 Y130.911 E25.40933
G1 X136.609 Y138.399 E26.31112
G1 X135.738 Y138.399 E26.38529
G1 X129.121 Y131.782 E27.18219
G1 X129.121 Y132.654 E27.25645
G1 X134.866 Y138.399 E27.94833
G1 X133.995 Y138.399 E28.0225
G1 X129.121 Y133.525 E28.60949
G1 X129.121 Y134.396 E28.68366
G1 X133.124 Y138.399 E29.16575
G1 X132.253 Y138.399 E29.23992
G1 X129.121 Y135.267 E29.61711
G1 X129.121 Y136.138 E29.69128
G1 X131.651 Y138.669 E29.99603
G1 E29.49603 F240
G92 E0
G1 X131.651 Y138.669 F9000
EXCLUDE_OBJECT_END NAME='8mm_shoulder_cap_3'
EXCLUDE_OBJECT_START NAME='8mm_shoulder_cap_2'
G92 E0
G1 X140.655 Y105.029
G1 E.5 F240
;TYPE:External perimeter
;WIDTH:0.675
G1 F1800
G1 X141.974 Y106.348 E.65469
G1 X141.974 Y107.281 E.73206
G1 X141.974 Y117.237 E1.55768
G1 X140.655 Y118.556 E1.71237
G1 X129.301 Y118.556 E2.65392
G1 X126.982 Y116.237 E2.92588
G1 X126.982 Y108.595 E3.55961
G1 X130.549 Y105.029 E3.97788
G1 X140.565 Y105.029 E4.80848
G1 X141.028 Y105.411 F9000
G1 X140.406 Y105.629
;TYPE:Perimeter
G1 F1800
G1 X141.374 Y106.596 E4.92195
G1 X141.374 Y107.281 E4.97876
G1 X141.374 Y116.988 E5.78373
G1 X140.406 Y117.956 E5.89725
G1 X129.55 Y117.956 E6.79751
G1 X127.582 Y115.988 E7.02831
G1 X127.582 Y108.844 E7.62074
G1 X130.798 Y105.629 E7.99784
G1 X140.316 Y105.629 E8.78714
G1 X140.316 Y105.629 F9000
G1 X140.158 Y106.229
G1 F1800
G1 X140.774 Y106.845 E8.85938
G1 X140.774 Y107.281 E8.89554
G1 X140.774 Y116.74 E9.67995
G1 X140.158 Y117.356 E9.75219
G1 X129.798 Y117.356 E10.61131
G1 X128.182 Y115.74 E10.80083
G1 X128.182 Y109.092 E11.35213
G1 X131.046 Y106.229 E11.68795
G1 X140.068 Y106.229 E12.43612
G1 X140.068 Y106.229 F9000
G1 X139.909 Y106.828
G1 F1800
G1 X140.174 Y107.093 E12.4672
G1 X140.174 Y107.281 E12.48279
G1 X140.174 Y116.491 E13.24655
G1 X139.909 Y116.756 E13.27763
G1 X130.047 Y116.756 E14.09546
G1 X128.782 Y115.491 E14.24381
G1 X128.782 Y109.341 E14.75381
G1 X131.295 Y106.828 E15.04853
G1 X139.819 Y106.828 E15.7554
G1 X139.819 Y106.828 F9000
G1 X138.78 Y107.008
;TYPE:Solid infill
;WIDTH:0.67593
G1 F1800
G1 X139.724 Y107.953 E15.86634
G1 X139.724 Y108.803 E15.93694
G1 X138.2 Y107.278 E16.11601
G1 X137.35 Y107.278 E16.18661
G1 X139.724 Y109.652 E16.46546
G1 X139.724 Y110.502 E16.53606
G1 X136.5 Y107.278 E16.91475
G1 X135.651 Y107.278 E16.98526
G1 X139.724 Y111.352 E17.46373
G1 X139.724 Y112.202 E17.53433
G1 X134.801 Y107.278 E18.11264
G1 X133.951 Y107.278 E18.18324
G1 X139.724 Y113.051 E18.86133
G1 X139.724 Y113.901 E18.93193
G1 X133.102 Y107.278 E19.7098
G1 X132.252 Y107.278 E19.7804
G1 X139.724 Y114.751 E20.65811
G1 X139.724 Y115.6 E20.72862
G1 X131.442 Y107.318 E21.70141
G1 X131.017 Y107.743 E21.75133
G1 X139.58 Y116.306 E22.75713
G1 X138.731 Y116.306 E22.82764
G1 X130.592 Y108.167 E23.78363
G1 X130.167 Y108.592 E23.83355
G1 X137.881 Y116.306 E24.73962
G1 X137.031 Y116.306 E24.81022
G1 X129.742 Y109.017 E25.66637
G1 X129.317 Y109.442 E25.71629
G1 X136.182 Y116.306 E26.52258
G1 X135.332 Y116.306 E26.59318
G1 X129.232 Y110.206 E27.30968
G1 X129.232 Y111.056 E27.38028
G1 X134.482 Y116.306 E27.99694
G1 X133.633 Y116.306 E28.06745
G1 X129.232 Y111.906 E28.58433
G1 X129.232 Y112.755 E28.65484
G1 X132.783 Y116.306 E29.07193
G1 X131.933 Y116.306 E29.14253
G1 X129.232 Y113.605 E29.45979
G1 X129.232 Y114.455 E29.53039
G1 X131.084 Y116.306 E29.74786
G1 X130.234 Y116.306 E29.81846
G1 X128.962 Y115.034 E29.96787
;LAYER_CHANGE
;Z:0.55
;HEIGHT:0.2
G1 Z.55 F9000
M104 S215 ; set temperature
G1 E29.46787 F240
G92 E0
G1 X128.962 Y115.034 Z.55 F9000
EXCLUDE_OBJECT_END NAME='8mm_shoulder_cap_2'
EXCLUDE_OBJECT_START NAME='8mm_shoulder_cap_4'
G92 E0
G1 X116.173 Y105.69
G1 E.5 F240
G92 E0
;TYPE:External perimeter
;WIDTH:0.674999
G1 F1920
G1 X117.985 Y107.503 E.12798
G1 X117.985 Y110.139 E.25959
G1 X117.985 Y115.372 E.52087
G1 X115.505 Y117.852 E.69599
G1 X103.924 Y117.852 E1.27423
G1 X102.444 Y116.372 E1.37873
G1 X102.444 Y105.255 E1.9338
G1 X103.924 Y103.775 E2.0383
G1 X114.257 Y103.775 E2.55422
G1 X116.109 Y105.626 E2.68496
G1 X116.533 Y106.051 F9000
G1 X115.726 Y106.137
;TYPE:Perimeter
G1 F4800
G1 X117.353 Y107.764 E2.79984
G1 X117.353 Y110.139 E2.91842
G1 X117.353 Y115.11 E3.16662
G1 X115.243 Y117.22 E3.31561
G1 X104.186 Y117.22 E3.86768
G1 X103.076 Y116.11 E3.94606
G1 X103.076 Y105.517 E4.47497
G1 X104.186 Y104.407 E4.55335
G1 X113.996 Y104.407 E5.04316
G1 X115.662 Y106.073 E5.1608
G1 X115.662 Y106.073 F9000
G1 X115.279 Y106.584
G1 F4800
G1 X116.721 Y108.026 E5.26262
G1 X116.721 Y110.139 E5.36812
G1 X116.721 Y114.848 E5.60324
G1 X114.981 Y116.588 E5.7261
G1 X104.448 Y116.588 E6.25201
G1 X103.708 Y115.848 E6.30426
G1 X103.708 Y105.779 E6.807
G1 X104.448 Y105.039 E6.85925
G1 X113.734 Y105.039 E7.3229
G1 X115.215 Y106.52 E7.42748
G1 X115.215 Y106.52 F9000
G1 X114.832 Y107.031
G1 F4800
G1 X116.089 Y108.288 E7.51624
G1 X116.089 Y110.139 E7.60866
G1 X116.089 Y114.586 E7.8307
G1 X114.72 Y115.956 E7.9274
G1 X104.709 Y115.956 E8.42725
G1 X104.34 Y115.586 E8.45334
G1 X104.34 Y106.04 E8.92997
G1 X104.709 Y105.671 E8.95603
G1 X113.472 Y105.671 E9.39356
G1 X114.768 Y106.967 E9.48507
G1 E8.98507 F240
G92 E0
G1 X114.768 Y106.967 F9000
G1 X104.656 Y106.171
G1 E.5 F240
;TYPE:Solid infill
;WIDTH:0.55292
G1 F2880
G1 X104.84 Y105.987 E.51048
;WIDTH:0.593613
G1 X105.011 Y106.04 E.51827
;WIDTH:0.634306
G1 X105.182 Y106.092 E.52662
;WIDTH:0.674999
G1 X105.353 Y106.145 E.53556
G1 X104.814 Y106.684 E.57362
G1 X104.814 Y107.578 E.61826
G1 X106.247 Y106.145 E.71945
G1 X107.141 Y106.145 E.76409
G1 X104.814 Y108.472 E.9284
G1 X104.814 Y109.365 E.97299
G1 X108.034 Y106.145 E1.20036
G1 X108.928 Y106.145 E1.245
