; generated by PrusaSlicer 2.8.0+MacOS-arm64 on 2024-09-05 at 12:16:06 UTC


;
;

;
;
; 

; external perimeters extrusion width = 0.68mm
; perimeters extrusion width = 0.68mm
; infill extrusion width = 0.68mm
; solid infill extrusion width = 0.68mm
; top infill extrusion width = 0.60mm

; external perimeters extrusion width = 0.68mm
; perimeters extrusion width = 0.68mm
; infill extrusion width = 0.68mm
; solid infill extrusion width = 0.68mm
; top infill extrusion width = 0.60mm


EXCLUDE_OBJECT_DEFINE NAME='lister_name_tag_back_l' CENTER=122.802,116.208 POLYGON=[[166.847,106.309],[167.226,106.404],[167.539,106.636],[167.722,106.925],[167.798,107.308],[167.797,125.157],[167.740,125.445],[167.571,125.742],[167.312,125.966],[166.993,126.089],[78.798,126.108],[78.461,126.049],[78.164,125.881],[77.940,125.622],[77.817,125.303],[77.799,107.259],[77.874,106.925],[78.057,106.636],[78.327,106.426],[78.603,106.327]]
EXCLUDE_OBJECT_DEFINE NAME='lister_name_tag_back_r' CENTER=122.278,141.518 POLYGON=[[166.324,131.619],[166.702,131.714],[167.015,131.946],[167.198,132.235],[167.275,132.618],[167.273,150.467],[167.198,150.801],[167.048,151.052],[166.789,151.276],[166.470,151.399],[78.275,151.418],[77.938,151.360],[77.640,151.191],[77.417,150.932],[77.294,150.613],[77.276,132.569],[77.351,132.235],[77.534,131.946],[77.803,131.736],[78.079,131.637]]

;TYPE:Custom
START_PRINT BED_TEMP=65 HOTEND_TEMP=220 FILAMENT_TYPE=PLA EXTRUSION_MULTIPLIER=0.95 PERIMETER_SPEED=70
G21 ; set units to millimeters
G90 ; use absolute coordinates
M82 ; use absolute distances for extrusion
G92 E0
; Filament gcode
M107
;LAYER_CHANGE
;Z:0.35
;HEIGHT:0.35
G1 E-.5 F240
G1 Z.35 F9000
EXCLUDE_OBJECT_START NAME='lister_name_tag_back_l'
G92 E0
G1 X163.743 Y118.088
G1 E.5 F240
G92 E0
;TYPE:External perimeter
;WIDTH:0.675
G1 F1800
G1 X163.441 Y118.06 E.02515
G1 X163.081 Y117.953 E.05629
G1 X162.75 Y117.776 E.08742
G1 X162.46 Y117.537 E.11858
G1 X162.223 Y117.246 E.1497
G1 X162.048 Y116.913 E.1809
G1 X161.943 Y116.553 E.212
G1 X161.915 Y116.161 E.24459
G1 X162.011 Y115.613 E.29073
G1 X162.204 Y115.199 E.32861
G1 X162.436 Y114.903 E.3598
G1 X162.721 Y114.659 E.39091
G1 X163.05 Y114.476 E.42213
G1 X163.349 Y114.376 E.44828
G1 X163.781 Y114.322 E.48438
G1 X164.155 Y114.356 E.51552
G1 X164.515 Y114.463 E.54666
G1 X164.846 Y114.639 E.57775
G1 X165.147 Y114.893 E.61041
G1 X165.472 Y115.344 E.65651
G1 X165.633 Y115.771 E.69435
G1 X165.683 Y116.144 E.72556
G1 X165.659 Y116.519 E.75672
G1 X165.56 Y116.881 E.78784
G1 X165.392 Y117.217 E.81899
G1 X165.16 Y117.513 E.85018
G1 X164.875 Y117.757 E.88129
G1 X164.547 Y117.939 E.9124
G1 X164.189 Y118.053 E.94356
G1 X163.833 Y118.092 E.97326
G1 X163.241 Y117.99 F9000
G1 X163.713 Y118.686
;TYPE:Perimeter
G1 F1800
G1 X163.279 Y118.638 E1.00947
G1 X162.807 Y118.487 E1.05057
G1 X162.376 Y118.245 E1.09156
G1 X162 Y117.923 E1.13261
G1 X161.696 Y117.533 E1.17362
G1 X161.475 Y117.09 E1.21467
G1 X161.347 Y116.613 E1.25563
G1 X161.324 Y116.057 E1.30178
G1 X161.42 Y115.51 E1.34783
G1 X161.633 Y114.99 E1.39443
G1 X161.917 Y114.585 E1.43545
G1 X162.276 Y114.244 E1.47651
G1 X162.695 Y113.981 E1.51753
G1 X163.158 Y113.807 E1.55855
G1 X163.729 Y113.721 E1.60644
G1 X164.317 Y113.778 E1.65543
G1 X164.789 Y113.929 E1.69653
G1 X165.22 Y114.17 E1.73748
G1 X165.633 Y114.542 E1.78357
G1 X165.958 Y114.993 E1.82967
;WIDTH:0.685938
G1 X166.187 Y115.506 E1.87711
G1 X166.271 Y115.995 E1.91901
;WIDTH:0.68019
G1 X166.257 Y116.601 E1.96971
G1 X166.101 Y117.141 E2.01673
;WIDTH:0.675
G1 X165.87 Y117.579 E2.05779
G1 X165.557 Y117.963 E2.09887
G1 X165.175 Y118.276 E2.13982
G1 X164.738 Y118.508 E2.18085
G1 X164.263 Y118.649 E2.22194
G1 X163.803 Y118.69 E2.26024
G1 E1.76024 F240
G92 E0
G1 X163.803 Y118.69 F9000
G1 X82.133 Y114.354
G1 E.5 F240
;TYPE:External perimeter
G1 F1800
G1 X82.155 Y114.356 E.50183
G1 X82.515 Y114.463 E.53297
G1 X82.846 Y114.639 E.56406
G1 X83.147 Y114.893 E.59672
G1 X83.472 Y115.344 E.64282
G1 X83.633 Y115.771 E.68066
G1 X83.683 Y116.144 E.71187
G1 X83.659 Y116.519 E.74303
G1 X83.56 Y116.881 E.77415
G1 X83.392 Y117.217 E.8053
G1 X83.16 Y117.513 E.83649
G1 X82.875 Y117.757 E.8676
G1 X82.547 Y117.939 E.89871
G1 X82.189 Y118.053 E.92987
G1 X81.815 Y118.094 E.96107
G1 X81.441 Y118.06 E.99221
G1 X81.081 Y117.953 E1.02335
G1 X80.75 Y117.776 E1.05448
G1 X80.46 Y117.537 E1.08564
G1 X80.256 Y117.295 E1.11189
G1 X80.048 Y116.913 E1.14796
G1 X79.943 Y116.553 E1.17906
G1 X79.915 Y116.161 E1.21165
G1 X80.011 Y115.613 E1.25779
G1 X80.204 Y115.199 E1.29567
G1 X80.436 Y114.903 E1.32686
G1 X80.721 Y114.659 E1.35797
G1 X81.05 Y114.476 E1.38919
G1 X81.407 Y114.362 E1.42027
G1 X81.781 Y114.322 E1.45146
G1 X82.044 Y114.345 E1.47335
G1 X82.614 Y114.532 F9000
G1 X82.251 Y113.771
;TYPE:Perimeter
G1 F1800
G1 X82.317 Y113.778 E1.47885
G1 X82.789 Y113.929 E1.51995
G1 X83.22 Y114.17 E1.5609
G1 X83.633 Y114.542 E1.60699
G1 X83.958 Y114.993 E1.65309
G1 X84.182 Y115.508 E1.69966
G1 X84.282 Y116.068 E1.74683
G1 X84.258 Y116.575 E1.78892
G1 X84.101 Y117.141 E1.83763
G1 X83.87 Y117.579 E1.87869
G1 X83.557 Y117.963 E1.91977
G1 X83.175 Y118.276 E1.96072
G1 X82.738 Y118.508 E2.00175
G1 X82.263 Y118.649 E2.04284
G1 X81.77 Y118.692 E2.08388
G1 X81.279 Y118.638 E2.12484
G1 X80.807 Y118.487 E2.16594
G1 X80.376 Y118.245 E2.20693
G1 X80 Y117.923 E2.24798
G1 X79.797 Y117.681 E2.27417
G1 X79.545 Y117.255 E2.31522
;WIDTH:0.68713
G1 X79.35 Y116.679 E2.36667
G1 X79.326 Y116.058 E2.41925
;WIDTH:0.719389
G1 X79.398 Y115.506 E2.46883
G1 X79.633 Y114.99 E2.51933
;WIDTH:0.675
G1 X79.917 Y114.585 E2.56035
G1 X80.276 Y114.244 E2.60141
G1 X80.695 Y113.981 E2.64243
G1 X81.158 Y113.807 E2.68345
G1 X81.806 Y113.722 E2.73765
G1 X82.161 Y113.761 E2.76727
G1 E2.26727 F240
G92 E0
G1 X82.161 Y113.761 F9000
G1 X166.888 Y106.676
G1 E.5 F240
;TYPE:External perimeter
G1 F1800
G1 X167.046 Y106.699 E.51324
G1 X167.262 Y106.844 E.53481
G1 X167.404 Y107.057 E.55604
G1 X167.461 Y107.415 E.5861
G1 X167.459 Y125.002 E2.04454
G1 X167.375 Y125.42 E2.0799
G1 X167.133 Y125.667 E2.10858
G1 X166.767 Y125.77 E2.14011
G1 X78.89 Y125.77 E9.4275
G1 X78.576 Y125.727 E9.45378
G1 X78.38 Y125.616 E9.47246
G1 X78.234 Y125.446 E9.49104
G1 X78.136 Y125.091 E9.52158
G1 X78.137 Y107.375 E10.99072
G1 X78.19 Y107.056 E11.01754
G1 X78.311 Y106.866 E11.03622
G1 X78.488 Y106.727 E11.05488
G1 X78.815 Y106.645 E11.08284
G1 X166.692 Y106.647 E18.37023
G1 X166.799 Y106.662 E18.37919
G1 X167.316 Y106.966 F9000
G1 X166.794 Y107.259
;TYPE:Perimeter
G1 F1800
G1 X166.806 Y107.26 E18.38019
G1 X166.861 Y107.415 E18.39383
G1 X166.86 Y114.146 E18.95201
;WIDTH:0.675968
G1 X166.86 Y115.073 E19.02901
;WIDTH:0.693634
G1 X166.866 Y116.188 E19.12435
;WIDTH:0.679394
G1 X166.86 Y117.315 E19.21849
;WIDTH:0.675
G1 X166.859 Y125.002 E19.85595
G1 X166.831 Y125.133 E19.86706
G1 X166.708 Y125.171 E19.87774
G1 X78.89 Y125.171 E27.16023
G1 X78.79 Y125.155 E27.16863
G1 X78.735 Y125.062 E27.17759
G1 X78.736 Y117.777 E27.78171
;WIDTH:0.677543
G1 X78.737 Y117.201 E27.82968
;WIDTH:0.681073
G1 X78.734 Y116.006 E27.92978
;WIDTH:0.719389
G1 X78.758 Y115.451 E27.97926
G1 X78.736 Y114.785 E28.03861
;WIDTH:0.675
G1 X78.737 Y107.375 E28.6531
G1 X78.751 Y107.298 E28.65959
G1 X78.844 Y107.245 E28.66847
G1 X166.692 Y107.246 E35.95345
G1 X166.705 Y107.248 E35.95454
G1 X166.063 Y107.726 F9000
;TYPE:Solid infill
;WIDTH:0.675
G1 F1800
G1 X157.581 Y116.208 E36.94928
G1 X166.064 Y124.691 E37.94414
G1 X166.064 Y124.691 F9000
G1 X166.379 Y124.158
G1 F1800
G1 X158.429 Y116.208 E38.87649
G1 X166.381 Y108.257 E39.80902
G1 E39.30902 F240
G92 E0
G1 X166.381 Y108.257 F9000
G1 X166.38 Y114.196
G1 E.5 F240
G1 F1800
G1 X166.145 Y114.431 E.52756
G1 X165.749 Y113.978 F9000
G1 F1800
G1 X166.38 Y113.347 E.60156
G1 X166.38 Y113.347 F9000
G1 X166.38 Y112.499
G1 F1800
G1 X165.252 Y113.627 E.73385
G1 X165.252 Y113.627 F9000
G1 X164.656 Y113.375
G1 F1800
G1 X166.38 Y111.651 E.93604
G1 X166.38 Y111.651 F9000
G1 X166.381 Y110.802
G1 F1800
G1 X163.933 Y113.25 E1.22313
G1 X163.933 Y113.25 F9000
G1 X162.959 Y113.375
G1 F1800
G1 X166.381 Y109.954 E1.62439
G1 X166.381 Y109.954 F9000
G1 X166.381 Y109.105
G1 F1800
G1 X159.278 Y116.208 E2.45741
G1 X166.379 Y123.309 E3.29019
G1 X166.379 Y123.309 F9000
G1 X166.378 Y122.46
G1 F1800
G1 X162.967 Y119.048 E3.69028
G1 X162.967 Y119.048 F9000
G1 X163.934 Y119.168
G1 F1800
G1 X166.378 Y121.611 E3.97685
G1 X166.378 Y121.611 F9000
G1 X166.377 Y120.762
G1 F1800
G1 X164.656 Y119.042 E4.17862
G1 X164.656 Y119.042 F9000
G1 X165.25 Y118.787
G1 F1800
G1 X166.377 Y119.914 E4.31079
G1 X166.377 Y119.914 F9000
G1 X166.376 Y119.065
G1 F1800
G1 X165.747 Y118.435 E4.38462
G1 X165.747 Y118.435 F9000
G1 X166.156 Y117.996
G1 F1800
G1 X166.376 Y118.216 E4.41042
G1 E3.91042 F240
G92 E0
G1 X166.376 Y118.216 F9000
G1 X160.966 Y117.048
G1 E.5 F240
G1 F1800
G1 X160.126 Y116.208 E.59851
G1 X160.963 Y115.371 E.69667
G1 E.19667 F240
G92 E0
G1 X160.963 Y115.371 F9000
G1 X158.428 Y124.691
G1 E.5 F240
G1 F1800
G1 X149.946 Y116.208 E1.4948
G1 X158.428 Y107.726 E2.48954
G1 X158.428 Y107.726 F9000
G1 X159.276 Y107.726
G1 F1800
G1 X150.794 Y116.208 E3.48428
G1 X159.277 Y124.691 E4.47914
G1 E3.97914 F240
G92 E0
G1 X159.277 Y124.691 F9000
G1 X165.215 Y124.691
G1 E.5 F240
G1 F1800
G1 X156.733 Y116.208 E1.4948
G1 X165.214 Y107.726 E2.48948
G1 X165.214 Y107.726 F9000
G1 X164.366 Y107.726
G1 F1800
G1 X155.884 Y116.208 E3.48422
G1 X164.367 Y124.691 E4.47908
G1 X164.367 Y124.691 F9000
G1 X163.518 Y124.691
G1 F1800
G1 X155.036 Y116.208 E5.47388
G1 X163.518 Y107.726 E6.46862
G1 X163.518 Y107.726 F9000
G1 X162.669 Y107.726
G1 F1800
G1 X154.188 Y116.208 E7.4633
G1 X162.67 Y124.691 E8.4581
G1 X162.67 Y124.691 F9000
G1 X161.822 Y124.691
G1 F1800
G1 X153.339 Y116.208 E9.45296
G1 X161.821 Y107.726 E10.4477
G1 X161.821 Y107.726 F9000
G1 X160.973 Y107.726
G1 F1800
G1 X152.491 Y116.208 E11.44244
G1 X160.973 Y124.691 E12.43724
G1 X160.973 Y124.691 F9000
G1 X160.125 Y124.691
G1 F1800
G1 X151.642 Y116.208 E13.4321
G1 X160.124 Y107.726 E14.42684
G1 E13.92684 F240
G92 E0
G1 X160.124 Y107.726 F9000
G1 X157.579 Y107.726
G1 E.5 F240
G1 F1800
G1 X149.097 Y116.208 E1.49474
G1 X157.58 Y124.691 E2.4896
G1 X157.58 Y124.691 F9000
G1 X156.731 Y124.691
G1 F1800
G1 X148.249 Y116.208 E3.4844
G1 X156.731 Y107.726 E4.47914
G1 X156.731 Y107.726 F9000
G1 X155.882 Y107.726
G1 F1800
G1 X147.401 Y116.208 E5.47382
G1 X155.883 Y124.691 E6.46862
G1 X155.883 Y124.691 F9000
G1 X155.035 Y124.691
G1 F1800
G1 X146.552 Y116.208 E7.46348
G1 X155.034 Y107.726 E8.45822
G1 X155.034 Y107.726 F9000
G1 X154.186 Y107.726
G1 F1800
G1 X145.704 Y116.208 E9.45296
G1 X154.186 Y124.691 E10.44776
G1 X154.186 Y124.691 F9000
G1 X153.338 Y124.691
G1 F1800
G1 X144.855 Y116.208 E11.44262
G1 X153.337 Y107.726 E12.43736
G1 X153.337 Y107.726 F9000
G1 X152.489 Y107.726
G1 F1800
G1 X144.007 Y116.208 E13.4321
G1 X152.49 Y124.691 E14.42696
G1 X152.49 Y124.691 F9000
G1 X151.641 Y124.691
G1 F1800
G1 X143.159 Y116.208 E15.42176
G1 X151.641 Y107.726 E16.4165
G1 X151.641 Y107.726 F9000
G1 X150.792 Y107.726
G1 F1800
G1 X142.31 Y116.208 E17.41124
G1 X150.793 Y124.691 E18.4061
G1 X150.793 Y124.691 F9000
G1 X149.945 Y124.691
G1 F1800
G1 X141.462 Y116.208 E19.40096
G1 X149.944 Y107.726 E20.3957
G1 X149.944 Y107.726 F9000
G1 X149.096 Y107.726
G1 F1800
G1 X140.614 Y116.208 E21.39044
G1 X149.096 Y124.691 E22.38524
G1 X149.096 Y124.691 F9000
G1 X148.248 Y124.691
G1 F1800
G1 X139.765 Y116.208 E23.3801
G1 X148.247 Y107.726 E24.37484
G1 X148.247 Y107.726 F9000
G1 X147.399 Y107.726
G1 F1800
G1 X138.917 Y116.208 E25.36958
G1 X147.399 Y124.691 E26.36438
G1 X147.399 Y124.691 F9000
G1 X146.551 Y124.691
G1 F1800
G1 X138.069 Y116.208 E27.35918
G1 X146.551 Y107.726 E28.35392
G1 X146.551 Y107.726 F9000
G1 X145.702 Y107.726
G1 F1800
G1 X137.22 Y116.208 E29.34866
G1 X145.703 Y124.691 E30.34352
G1 X145.703 Y124.691 F9000
G1 X144.854 Y124.691
G1 F1800
G1 X136.372 Y116.208 E31.33832
G1 X144.854 Y107.726 E32.33306
G1 X144.854 Y107.726 F9000
G1 X144.005 Y107.726
G1 F1800
G1 X135.523 Y116.208 E33.3278
G1 X144.006 Y124.691 E34.32266
G1 E33.82266 F240
G92 E0
G1 X144.006 Y124.691 F9000
G1 X123.645 Y124.691
G1 E.5 F240
G1 F1800
G1 X122.798 Y123.843 E.59939
G1 X121.951 Y124.691 E.69878
G1 X121.951 Y124.691 F9000
G1 X121.102 Y124.691
G1 F1800
G1 X122.798 Y122.995 E.89768
G1 X124.493 Y124.691 E1.09652
G1 X124.493 Y124.691 F9000
G1 X125.342 Y124.691
G1 F1800
G1 X122.798 Y122.147 E1.39487
G1 X120.254 Y124.691 E1.69322
G1 X120.254 Y124.691 F9000
G1 X119.406 Y124.691
G1 F1800
G1 X122.798 Y121.298 E2.09108
G1 X126.19 Y124.691 E2.48894
G1 X126.19 Y124.691 F9000
G1 X126.397 Y124.691
G1 F1800
G1 X126.397 Y119.807 E2.89396
G1 X131.487 Y119.807 E3.31606
G1 X127.888 Y116.208 E3.73814
G1 X131.487 Y112.609 E4.16022
G1 X126.397 Y112.609 E4.58232
G1 X126.397 Y107.726 E4.98725
G1 X126.397 Y107.726 F9000
G1 X126.19 Y107.726
G1 F1800
G1 X122.798 Y111.118 E5.38505
G1 X119.406 Y107.726 E5.78285
G1 X119.406 Y107.726 F9000
G1 X119.198 Y107.726
G1 F1800
G1 X119.198 Y112.609 E6.18778
G1 X114.108 Y112.609 E6.60988
G1 X117.708 Y116.208 E7.03202
G1 X114.108 Y119.807 E7.45416
G1 X119.198 Y119.807 E7.87626
G1 X119.198 Y124.049 E8.22804
G1 X122.798 Y120.45 E8.65018
G1 X125.797 Y123.449 E9.00189
G1 X125.797 Y119.208 E9.35358
G1 X130.039 Y119.208 E9.70536
G1 X127.04 Y116.208 E10.05713
G1 X130.039 Y113.209 E10.40884
G1 X125.797 Y113.209 E10.76062
G1 X125.797 Y108.967 E11.1124
G1 X122.798 Y111.966 E11.46411
G1 X119.798 Y108.967 E11.81588
G1 X119.798 Y113.209 E12.16766
G1 X115.557 Y113.209 E12.51935
G1 X118.556 Y116.208 E12.87106
G1 X115.557 Y119.208 E13.22283
G1 X119.798 Y119.208 E13.57452
G1 X119.798 Y122.601 E13.85589
G1 X122.798 Y119.602 E14.20766
G1 X125.197 Y122.001 E14.48901
G1 X125.197 Y118.608 E14.77038
G1 X128.591 Y118.608 E15.05183
G1 X126.191 Y116.208 E15.33329
G1 X128.591 Y113.809 E15.6147
G1 X125.197 Y113.809 E15.89615
G1 X125.197 Y110.415 E16.1776
G1 X122.798 Y112.815 E16.45901
G1 X120.398 Y110.415 E16.74047
G1 X120.398 Y113.809 E17.02192
G1 X117.005 Y113.809 E17.30329
G1 X119.404 Y116.208 E17.58464
G1 X117.005 Y118.608 E17.86605
G1 X120.398 Y118.608 E18.14742
G1 X120.398 Y121.153 E18.35847
G1 X122.798 Y118.753 E18.63993
G1 X124.597 Y120.553 E18.85097
G1 X124.597 Y118.008 E19.06202
G1 X127.143 Y118.008 E19.27315
G1 X125.343 Y116.208 E19.48425
G1 X127.143 Y114.408 E19.69535
G1 X124.597 Y114.408 E19.90648
G1 X124.597 Y111.863 E20.11753
G1 X122.798 Y113.663 E20.32857
G1 X120.998 Y111.863 E20.53967
G1 X120.998 Y114.408 E20.75072
G1 X118.453 Y114.408 E20.96177
G1 X120.253 Y116.208 E21.17287
G1 X118.453 Y118.008 E21.38397
G1 X120.998 Y118.008 E21.59502
G1 X120.998 Y119.704 E21.73566
G1 X122.798 Y117.905 E21.9467
G1 X123.998 Y119.105 E22.08743
G1 X123.998 Y117.408 E22.22816
G1 X125.694 Y117.408 E22.3688
G1 X124.495 Y116.208 E22.50947
G1 X125.694 Y115.008 E22.65014
G1 X123.998 Y115.008 E22.79078
G1 X123.998 Y113.312 E22.93142
G1 X122.798 Y114.511 E23.07209
G1 X121.598 Y113.312 E23.21276
G1 X121.598 Y115.008 E23.3534
G1 X119.901 Y115.008 E23.49413
G1 X121.101 Y116.208 E23.63486
G1 X119.901 Y117.408 E23.77559
G1 X121.598 Y117.408 E23.91632
G1 X121.598 Y118.256 E23.98664
G1 X122.798 Y117.056 E24.12737
G1 X123.398 Y117.656 E24.19774
G1 X123.398 Y116.808 E24.26806
G1 X124.246 Y116.808 E24.33838
G1 X123.646 Y116.208 E24.40875
G1 X124.246 Y115.608 E24.47912
G1 X123.398 Y115.608 E24.54944
G1 X123.398 Y114.76 E24.61976
G1 X122.798 Y115.36 E24.69013
G1 X122.198 Y114.76 E24.7605
G1 X122.198 Y115.608 E24.83082
G1 X121.35 Y115.608 E24.90114
G1 X121.949 Y116.208 E24.97145
G1 X121.35 Y116.808 E25.04176
G1 X122.198 Y116.808 E25.11208
G1 X122.798 Y116.208 E25.18245
G1 E24.68245 F240
G92 E0
G1 X122.798 Y116.208 F9000
G1 X128.797 Y107.726
G1 E.5 F240
G1 F1800
G1 X128.797 Y110.209 E.70591
G1 X137.28 Y110.209 E1.40938
G1 X131.282 Y116.208 E2.11286
G1 X137.28 Y122.207 E2.81634
G1 X128.797 Y122.207 E3.51981
G1 X128.797 Y124.691 E3.7258
G1 X128.797 Y124.691 F9000
G1 X129.397 Y124.691
G1 F1800
G1 X129.397 Y122.807 E3.88203
G1 X138.729 Y122.807 E4.65591
G1 X132.13 Y116.208 E5.42982
G1 X138.729 Y109.609 E6.20373
G1 X129.397 Y109.609 E6.97761
