; generated by PrusaSlicer 2.8.1+MacOS-arm64 on 2024-10-11 at 05:15:29 UTC


;
;

;
;
; 

; external perimeters extrusion width = 0.68mm
; perimeters extrusion width = 0.68mm
; infill extrusion width = 0.68mm
; solid infill extrusion width = 0.68mm
; top infill extrusion width = 0.60mm


EXCLUDE_OBJECT_DEFINE NAME='main_controller_base' CENTER=124.965,126.895 POLYGON=[[129.844,27.772],[130.379,27.978],[130.583,28.215],[130.696,28.506],[130.713,32.212],[226.247,32.216],[226.828,32.302],[227.275,32.501],[227.729,32.873],[228.011,33.273],[228.187,33.730],[228.247,34.216],[228.259,220.216],[228.199,220.702],[228.023,221.159],[227.674,221.630],[227.288,221.932],[226.840,222.130],[226.259,222.216],[23.741,222.229],[23.255,222.170],[22.798,221.993],[22.398,221.711],[22.025,221.258],[21.801,220.715],[21.741,220.229],[21.741,34.208],[21.801,33.722],[21.977,33.265],[22.259,32.865],[22.713,32.493],[23.160,32.294],[23.741,32.208],[101.086,32.211],[101.103,28.506],[101.353,28.038],[101.866,27.780]]

;TYPE:Custom
START_PRINT BED_TEMP=70 HOTEND_TEMP=230 FILAMENT_TYPE=PET EXTRUSION_MULTIPLIER=0.95 PERIMETER_SPEED=70
G21 ; set units to millimeters
G90 ; use absolute coordinates
M82 ; use absolute distances for extrusion
G92 E0
; Filament gcode
; ########################### NOTE OFFSET CHANGES ####################################
; Prevents PETG buildup on nozzle.
; SET_GCODE_OFFSET Z=0.06
; ####################################################################################
M107
;LAYER_CHANGE
;Z:0.35
;HEIGHT:0.35
G1 E-.5 F240
G1 Z.35 F9000
EXCLUDE_OBJECT_START NAME='main_controller_base'
G92 E0
G1 X159.742 Y127.985
G1 E.5 F240
;TYPE:External perimeter
;WIDTH:0.675
G1 F1800
G1 X159.172 Y128.116 E.5485
G1 X138.667 Y128.116 E2.24892
G1 X138.112 Y128.01 E2.29578
G1 X137.589 Y127.796 E2.34264
G1 X137.119 Y127.482 E2.38951
G1 X136.72 Y127.082 E2.43636
G1 X136.409 Y126.611 E2.48317
G1 X136.201 Y126.099 E2.529
G1 X136.107 Y125.666 E2.56574
G1 X136.089 Y125.108 E2.61204
G1 X136.181 Y124.551 E2.65886
G1 X136.382 Y124.024 E2.70563
G1 X136.634 Y123.61 E2.74582
G1 X136.968 Y123.232 E2.78765
G1 X137.45 Y122.874 E2.83744
G1 X137.845 Y122.665 E2.8745
G1 X138.328 Y122.517 E2.91639
G1 X138.918 Y122.453 E2.9656
G1 X159.172 Y122.465 E4.64521
G1 X159.727 Y122.572 E4.69208
G1 X160.249 Y122.785 E4.73883
G1 X160.719 Y123.099 E4.7857
G1 X161.118 Y123.499 E4.83255
G1 X161.429 Y123.97 E4.87936
G1 X161.641 Y124.494 E4.92624
G1 X161.745 Y125.049 E4.97307
G1 X161.737 Y125.614 E5.01993
G1 X161.617 Y126.165 E5.06669
G1 X161.433 Y126.605 E5.10624
G1 X161.205 Y126.97 E5.14193
G1 X160.864 Y127.357 E5.1847
G1 X160.499 Y127.647 E5.22336
G1 X159.884 Y127.952 E5.28029
G1 X159.83 Y127.965 E5.2849
G1 X159.244 Y128.096 F9000
G1 X159.907 Y128.573
;TYPE:Perimeter
G1 F1800
G1 X159.35 Y128.698 E5.33224
G1 X159.172 Y128.716 E5.34708
G1 X138.667 Y128.716 E7.0475
G1 X137.993 Y128.598 E7.10424
G1 X137.483 Y128.402 E7.14955
G1 X137.199 Y128.263 E7.17577
G1 X136.781 Y127.978 E7.21772
G1 X136.291 Y127.501 E7.27443
G1 X135.905 Y126.937 E7.33111
G1 X135.643 Y126.319 E7.38677
G1 X135.52 Y125.786 E7.43213
G1 X135.489 Y125.123 E7.48717
G1 X135.59 Y124.447 E7.54385
G1 X135.823 Y123.805 E7.60049
G1 X136.091 Y123.34 E7.645
G1 X136.518 Y122.835 E7.69984
G1 X136.929 Y122.49 E7.74434
G1 X137.503 Y122.162 E7.79916
G1 X138.151 Y121.943 E7.85588
G1 X138.918 Y121.853 E7.91992
G1 X159.172 Y121.866 E9.59953
G1 X159.846 Y121.984 E9.65627
G1 X160.482 Y122.233 E9.71291
G1 X161.057 Y122.603 E9.76961
G1 X161.547 Y123.08 E9.82632
G1 X161.868 Y123.544 E9.87311
G1 X162.015 Y123.804 E9.89788
G1 X162.2 Y124.274 E9.93977
G1 X162.336 Y124.945 E9.99655
G1 X162.337 Y125.629 E10.05327
G1 X162.202 Y126.299 E10.10995
G1 X162.007 Y126.798 E10.15438
G1 X161.747 Y127.241 E10.19698
G1 X161.329 Y127.737 E10.25077
G1 X160.912 Y128.089 E10.29602
G1 X160.47 Y128.356 E10.33884
G1 X159.996 Y128.553 E10.38141
G1 X159.996 Y128.553 F9000
G1 X160.069 Y129.146
G1 F1800
G1 X159.469 Y129.286 E10.4325
G1 X159.172 Y129.315 E10.45725
G1 X138.667 Y129.315 E12.15767
G1 X137.874 Y129.186 E12.2243
G1 X137.25 Y128.955 E12.27948
G1 X136.861 Y128.758 E12.31564
G1 X136.443 Y128.474 E12.35755
G1 X135.862 Y127.92 E12.42412
G1 X135.534 Y127.468 E12.47043
G1 X135.266 Y126.999 E12.51522
G1 X135.068 Y126.494 E12.5602
G1 X134.932 Y125.907 E12.61017
G1 X134.889 Y125.138 E12.67404
G1 X134.999 Y124.343 E12.7406
G1 X135.265 Y123.585 E12.80722
G1 X135.579 Y123.027 E12.86032
G1 X136.068 Y122.438 E12.9238
G1 X136.555 Y122.021 E12.97697
G1 X137.216 Y121.635 E13.04045
G1 X137.974 Y121.37 E13.10704
G1 X138.918 Y121.253 E13.18592
G1 X159.173 Y121.266 E14.86561
G1 X159.737 Y121.35 E14.9129
G1 X160.25 Y121.484 E14.95687
G1 X160.716 Y121.68 E14.99879
G1 X161.395 Y122.107 E15.06531
G1 X161.977 Y122.661 E15.13194
G1 X162.372 Y123.219 E15.18863
G1 X162.574 Y123.585 E15.2233
G1 X162.758 Y124.055 E15.26516
G1 X162.927 Y124.841 E15.33183
G1 X162.937 Y125.643 E15.39834
G1 X162.787 Y126.432 E15.46494
G1 X162.559 Y127.031 E15.51809
G1 X162.259 Y127.554 E15.56809
G1 X161.78 Y128.133 E15.63041
G1 X161.287 Y128.557 E15.68433
G1 X160.77 Y128.876 E15.73471
G1 X160.215 Y129.112 E15.78472
G1 X160.156 Y129.125 E15.78973
G1 E15.28973 F240
G92 E0
G1 X160.156 Y129.125 F9000
G1 X161.743 Y138.657
G1 E.5 F240
;TYPE:External perimeter
G1 F1800
G1 X161.737 Y139.042 E.53193
G1 X161.617 Y139.594 E.57877
G1 X161.433 Y140.033 E.61824
G1 X161.205 Y140.399 E.654
G1 X160.864 Y140.785 E.69671
G1 X160.499 Y141.076 E.73542
G1 X159.986 Y141.337 E.78315
G1 X159.598 Y141.474 E.81727
G1 X159.171 Y141.544 E.85315
G1 X138.667 Y141.544 E2.55349
G1 X138.19 Y141.46 E2.59365
G1 X137.716 Y141.287 E2.63549
G1 X137.231 Y140.998 E2.68231
G1 X136.812 Y140.618 E2.72922
G1 X136.478 Y140.163 E2.77603
G1 X136.24 Y139.651 E2.82285
G1 X136.109 Y139.101 E2.86974
G1 X136.089 Y138.537 E2.91654
G1 X136.181 Y137.98 E2.96336
G1 X136.389 Y137.435 E3.01173
G1 X136.669 Y136.999 E3.0547
G1 X137.012 Y136.62 E3.09709
G1 X137.415 Y136.315 E3.139
G1 X137.921 Y136.064 E3.18584
G1 X138.387 Y135.933 E3.22598
G1 X138.888 Y135.883 E3.26773
G1 X159.172 Y135.894 E4.94982
G1 X159.726 Y136 E4.9966
G1 X160.249 Y136.214 E5.04346
G1 X160.719 Y136.527 E5.09029
G1 X161.118 Y136.927 E5.13714
G1 X161.429 Y137.399 E5.18401
G1 X161.641 Y137.922 E5.23081
G1 X161.745 Y138.477 E5.27764
G1 X161.744 Y138.567 E5.2851
G1 X161.698 Y139.165 F9000
G1 X162.336 Y138.657
;TYPE:Perimeter
G1 F1800
G1 X162.337 Y139.057 E5.31827
G1 X162.237 Y139.577 E5.36218
G1 X162.154 Y139.876 E5.38791
G1 X161.945 Y140.346 E5.43057
G1 X161.655 Y140.795 E5.4749
G1 X161.284 Y141.213 E5.52125
G1 X160.887 Y141.537 E5.56374
G1 X160.432 Y141.806 E5.60757
G1 X159.854 Y142.024 E5.6588
G1 X159.328 Y142.13 E5.7033
G1 X159.171 Y142.144 E5.71637
G1 X138.667 Y142.144 E7.41671
G1 X138.136 Y142.064 E7.46124
G1 X137.51 Y141.851 E7.51608
G1 X136.918 Y141.51 E7.57273
G1 X136.404 Y141.058 E7.62949
G1 X135.991 Y140.513 E7.6862
G1 X135.693 Y139.897 E7.74295
G1 X135.524 Y139.235 E7.79961
G1 X135.489 Y138.552 E7.85632
G1 X135.59 Y137.876 E7.913
G1 X135.854 Y137.163 E7.97605
G1 X136.124 Y136.719 E8.01914
G1 X136.518 Y136.263 E8.06911
G1 X137.053 Y135.836 E8.12587
G1 X137.536 Y135.584 E8.17105
G1 X138.173 Y135.365 E8.22691
G1 X138.828 Y135.286 E8.28162
G1 X159.172 Y135.294 E9.96869
G1 X159.845 Y135.412 E10.02535
G1 X160.482 Y135.661 E10.08207
G1 X161.057 Y136.032 E10.13882
G1 X161.547 Y136.509 E10.19553
G1 X161.869 Y136.973 E10.24237
G1 X162.015 Y137.233 E10.2671
G1 X162.2 Y137.703 E10.30899
G1 X162.336 Y138.373 E10.36568
G1 X162.336 Y138.567 E10.38177
G1 X162.336 Y138.567 F9000
G1 X162.937 Y138.657
G1 F1800
G1 X162.942 Y138.842 E10.39712
G1 X162.899 Y139.368 E10.44089
G1 X162.787 Y139.861 E10.48281
G1 X162.559 Y140.459 E10.53588
G1 X162.259 Y140.983 E10.58595
G1 X161.78 Y141.562 E10.64827
G1 X161.287 Y141.986 E10.70219
G1 X160.77 Y142.304 E10.75252
G1 X160.059 Y142.588 E10.81601
G1 X159.537 Y142.703 E10.86034
G1 X159.171 Y142.744 E10.89088
G1 X138.667 Y142.744 E12.59122
G1 X138.032 Y142.655 E12.64439
G1 X137.305 Y142.415 E12.70788
G1 X136.605 Y142.022 E12.77445
G1 X135.996 Y141.498 E12.84107
G1 X135.504 Y140.864 E12.90762
G1 X135.147 Y140.144 E12.97426
G1 X134.939 Y139.368 E13.04088
G1 X134.897 Y138.862 E13.08299
G1 X134.912 Y138.269 E13.13218
G1 X134.999 Y137.771 E13.1741
G1 X135.169 Y137.257 E13.219
G1 X135.32 Y136.89 E13.25191
G1 X135.577 Y136.459 E13.29352
G1 X136.069 Y135.867 E13.35735
G1 X136.69 Y135.358 E13.42394
G1 X137.276 Y135.043 E13.47911
G1 X137.645 Y134.891 E13.5122
G1 X138.207 Y134.747 E13.56031
G1 X138.768 Y134.689 E13.60708
G1 X159.173 Y134.694 E15.29921
G1 X159.964 Y134.824 E15.36569
G1 X160.493 Y135.015 E15.41233
G1 X160.978 Y135.251 E15.45706
G1 X161.395 Y135.536 E15.49895
G1 X161.977 Y136.09 E15.56558
G1 X162.373 Y136.648 E15.62232
G1 X162.574 Y137.013 E15.65687
G1 X162.758 Y137.484 E15.6988
G1 X162.927 Y138.269 E15.76539
G1 X162.935 Y138.567 E15.79011
G1 E15.29011 F240
G92 E0
G1 X162.935 Y138.567 F9000
G1 X158.927 Y149.322
G1 E.5 F240
;TYPE:External perimeter
G1 F1800
G1 X159.172 Y149.323 E.52032
G1 X159.727 Y149.429 E.56718
G1 X160.249 Y149.643 E.61396
G1 X160.719 Y149.956 E.66079
G1 X161.118 Y150.356 E.70764
G1 X161.429 Y150.827 E.75445
G1 X161.641 Y151.351 E.80133
G1 X161.745 Y151.906 E.84816
G1 X161.737 Y152.471 E.89502
G1 X161.617 Y153.022 E.94178
G1 X161.433 Y153.462 E.98133
G1 X161.204 Y153.828 E1.01713
G1 X160.871 Y154.206 E1.05891
G1 X160.492 Y154.508 E1.0991
G1 X160.049 Y154.749 E1.14092
G1 X159.598 Y154.902 E1.18041
G1 X159.171 Y154.973 E1.21631
G1 X138.667 Y154.973 E2.91665
G1 X138.112 Y154.867 E2.96351
G1 X137.661 Y154.69 E3.00369
G1 X137.231 Y154.427 E3.04549
G1 X136.812 Y154.047 E3.0924
G1 X136.478 Y153.592 E3.13921
G1 X136.24 Y153.079 E3.18611
G1 X136.109 Y152.53 E3.23292
G1 X136.089 Y151.966 E3.27972
G1 X136.181 Y151.408 E3.32662
G1 X136.382 Y150.881 E3.37339
G1 X136.634 Y150.467 E3.41358
G1 X136.968 Y150.089 E3.45541
G1 X137.414 Y149.743 E3.50222
G1 X137.846 Y149.522 E3.54246
G1 X138.328 Y149.374 E3.58427
G1 X138.918 Y149.31 E3.63348
G1 X158.837 Y149.322 E5.28531
G1 X159.434 Y149.381 F9000
G1 X158.942 Y148.723
;TYPE:Perimeter
G1 F1800
G1 X159.172 Y148.723 E5.30438
G1 X159.846 Y148.841 E5.36112
G1 X160.482 Y149.09 E5.41776
G1 X161.057 Y149.46 E5.47446
G1 X161.547 Y149.937 E5.53117
G1 X161.866 Y150.397 E5.57759
G1 X162.067 Y150.793 E5.61442
G1 X162.248 Y151.304 E5.65938
G1 X162.336 Y151.803 E5.7014
G1 X162.337 Y152.486 E5.75804
G1 X162.202 Y153.156 E5.81472
G1 X162.007 Y153.655 E5.85915
G1 X161.747 Y154.099 E5.90182
G1 X161.329 Y154.593 E5.95548
G1 X160.909 Y154.948 E6.00108
G1 X160.336 Y155.276 E6.05583
G1 X159.832 Y155.46 E6.10032
G1 X159.328 Y155.559 E6.14291
G1 X159.171 Y155.573 E6.15598
G1 X138.667 Y155.573 E7.85632
G1 X137.993 Y155.455 E7.91306
G1 X137.489 Y155.272 E7.95753
G1 X136.918 Y154.938 E8.01239
G1 X136.404 Y154.487 E8.0691
G1 X135.991 Y153.942 E8.12581
G1 X135.693 Y153.326 E8.18256
G1 X135.524 Y152.664 E8.23922
G1 X135.489 Y151.98 E8.29602
G1 X135.59 Y151.304 E8.3527
G1 X135.823 Y150.662 E8.40934
G1 X136.091 Y150.197 E8.45385
G1 X136.518 Y149.692 E8.50869
G1 X137.052 Y149.265 E8.56539
G1 X137.523 Y149.008 E8.60988
G1 X138.151 Y148.8 E8.66474
G1 X138.918 Y148.71 E8.72878
G1 X158.852 Y148.723 E10.38185
G1 X158.852 Y148.723 F9000
G1 X158.957 Y148.123
G1 F1800
G1 X159.173 Y148.123 E10.39976
G1 X159.737 Y148.207 E10.44705
G1 X160.25 Y148.341 E10.49102
G1 X160.715 Y148.537 E10.53287
G1 X161.395 Y148.965 E10.5995
G1 X161.977 Y149.518 E10.66608
G1 X162.37 Y150.072 E10.72241
G1 X162.625 Y150.574 E10.7691
G1 X162.839 Y151.2 E10.82396
G1 X162.927 Y151.699 E10.86598
G1 X162.937 Y152.501 E10.93249
G1 X162.787 Y153.289 E10.99901
G1 X162.559 Y153.888 E11.05216
G1 X162.259 Y154.411 E11.10216
G1 X161.779 Y154.99 E11.16453
G1 X161.283 Y155.417 E11.2188
G1 X160.623 Y155.803 E11.28221
G1 X160.023 Y156.029 E11.33538
G1 X159.432 Y156.15 E11.38541
G1 X159.171 Y156.173 E11.40714
G1 X138.667 Y156.173 E13.10748
G1 X137.875 Y156.043 E13.17404
G1 X137.27 Y155.83 E13.22723
G1 X136.605 Y155.45 E13.29075
G1 X135.996 Y154.926 E13.35737
G1 X135.504 Y154.292 E13.42392
G1 X135.147 Y153.573 E13.49049
G1 X134.939 Y152.797 E13.55711
G1 X134.889 Y151.995 E13.62375
G1 X134.999 Y151.2 E13.69031
G1 X135.265 Y150.442 E13.75693
G1 X135.579 Y149.884 E13.81003
G1 X136.069 Y149.295 E13.87357
G1 X136.69 Y148.787 E13.9401
G1 X137.25 Y148.475 E13.99326
G1 X137.974 Y148.227 E14.05672
G1 X138.918 Y148.11 E14.1356
G1 X158.867 Y148.123 E15.78991
G1 E15.28991 F240
G92 E0
G1 X158.867 Y148.123 F9000
G1 X136.245 Y164.669
G1 E.5 F240
;TYPE:External perimeter
G1 F1800
G1 X136.382 Y164.309 E.53194
G1 X136.634 Y163.896 E.57206
G1 X136.968 Y163.518 E.61389
G1 X137.414 Y163.172 E.6607
G1 X137.846 Y162.951 E.70094
G1 X138.328 Y162.802 E.74278
G1 X138.918 Y162.739 E.79199
G1 X159.172 Y162.751 E2.4716
G1 X159.727 Y162.857 E2.51846
G1 X160.249 Y163.071 E2.56524
G1 X160.719 Y163.384 E2.61207
G1 X161.109 Y163.775 E2.65787
G1 X161.429 Y164.256 E2.70578
G1 X161.641 Y164.779 E2.75258
G1 X161.745 Y165.335 E2.79949
G1 X161.737 Y165.899 E2.84627
G1 X161.617 Y166.451 E2.89311
G1 X161.429 Y166.897 E2.93325
G1 X161.156 Y167.321 E2.97507
G1 X160.832 Y167.671 E3.01462
G1 X160.492 Y167.937 E3.05042
G1 X160.049 Y168.178 E3.09224
G1 X159.598 Y168.331 E3.13173
G1 X159.171 Y168.401 E3.16761
G1 X138.667 Y168.401 E4.86795
G1 X138.19 Y168.317 E4.90811
G1 X137.716 Y168.145 E4.94993
G1 X137.231 Y167.855 E4.99679
G1 X136.812 Y167.475 E5.0437
G1 X136.478 Y167.02 E5.09051
G1 X136.24 Y166.508 E5.13733
G1 X136.109 Y165.959 E5.18414
G1 X136.089 Y165.394 E5.23102
G1 X136.181 Y164.837 E5.27784
G1 X136.213 Y164.753 E5.28529
G1 X136.458 Y164.206 F9000
G1 X135.687 Y164.466
;TYPE:Perimeter
G1 F1800
G1 X135.823 Y164.09 E5.31845
G1 X136.091 Y163.625 E5.36296
G1 X136.518 Y163.121 E5.41774
G1 X137.052 Y162.694 E5.47444
G1 X137.523 Y162.437 E5.51893
G1 X138.151 Y162.229 E5.57379
G1 X138.918 Y162.139 E5.63783
G1 X159.172 Y162.151 E7.31744
G1 X159.846 Y162.269 E7.37418
G1 X160.482 Y162.518 E7.43082
G1 X161.057 Y162.889 E7.48757
G1 X161.539 Y163.357 E7.54328
G1 X161.933 Y163.93 E7.60095
G1 X162.2 Y164.56 E7.65769
G1 X162.336 Y165.23 E7.71438
G1 X162.337 Y165.914 E7.7711
G1 X162.202 Y166.584 E7.82778
G1 X162.006 Y167.084 E7.87232
G1 X161.659 Y167.646 E7.92709
G1 X161.305 Y168.049 E7.97157
G1 X160.909 Y168.377 E8.01421
G1 X160.336 Y168.705 E8.06896
G1 X159.832 Y168.888 E8.11343
G1 X159.328 Y168.988 E8.15604
G1 X158.284 Y169.001 E8.24262
G1 X138.667 Y169.001 E9.8694
G1 X138.136 Y168.922 E9.91392
G1 X137.51 Y168.708 E9.96878
G1 X136.918 Y168.367 E10.02543
G1 X136.404 Y167.915 E10.08219
G1 X135.991 Y167.37 E10.1389
G1 X135.693 Y166.755 E10.19557
G1 X135.524 Y166.092 E10.25231
G1 X135.489 Y165.409 E10.30902
G1 X135.59 Y164.733 E10.3657
G1 X135.656 Y164.551 E10.38175
G1 X135.656 Y164.551 F9000
G1 X135.128 Y164.263
G1 F1800
G1 X135.265 Y163.871 E10.41619
G1 X135.579 Y163.313 E10.46929
G1 X136.069 Y162.724 E10.53283
G1 X136.69 Y162.216 E10.59936
G1 X137.25 Y161.903 E10.65256
G1 X137.974 Y161.656 E10.716
G1 X138.918 Y161.539 E10.79488
G1 X159.173 Y161.551 E12.47457
G1 X159.737 Y161.635 E12.52186
G1 X160.222 Y161.758 E12.56335
G1 X160.716 Y161.966 E12.6078
G1 X161.395 Y162.393 E12.67432
G1 X161.968 Y162.938 E12.7399
G1 X162.437 Y163.605 E12.80752
G1 X162.758 Y164.341 E12.87411
G1 X162.927 Y165.126 E12.9407
G1 X162.937 Y165.929 E13.0073
G1 X162.787 Y166.718 E13.0739
G1 X162.559 Y167.317 E13.12705
G1 X162.163 Y167.972 E13.19052
G1 X161.745 Y168.457 E13.24362
G1 X161.283 Y168.846 E13.2937
G1 X160.623 Y169.232 E13.35711
G1 X160.023 Y169.457 E13.41025
G1 X159.432 Y169.578 E13.46028
G1 X158.284 Y169.601 E13.5555
G1 X138.667 Y169.601 E15.18228
G1 X138.032 Y169.512 E15.23545
G1 X137.305 Y169.272 E15.29894
G1 X136.605 Y168.879 E15.36551
G1 X135.996 Y168.355 E15.43213
G1 X135.504 Y167.721 E15.49868
G1 X135.147 Y167.001 E15.56532
G1 X134.939 Y166.226 E15.63186
G1 X134.889 Y165.424 E15.6985
G1 X134.999 Y164.628 E15.76514
G1 X135.098 Y164.347 E15.78985
G1 E15.28985 F240
G92 E0
G1 X135.098 Y164.347 F9000
G1 X212.461 Y148.715
G1 E.5 F240
;TYPE:External perimeter
