; generated by PrusaSlicer 2.8.1+MacOS-arm64 on 2024-11-27 at 04:57:20 UTC


;
;

;
;
; 

; external perimeters extrusion width = 0.55mm
; perimeters extrusion width = 0.60mm
; infill extrusion width = 0.60mm
; solid infill extrusion width = 0.60mm
; top infill extrusion width = 0.55mm
; first layer extrusion width = 0.60mm

M73 P0 R235

EXCLUDE_OBJECT_DEFINE NAME='main_controller_base' CENTER=124.965,126.895 POLYGON=[[129.844,27.772],[130.379,27.978],[130.583,28.215],[130.696,28.506],[130.713,32.212],[226.247,32.216],[226.828,32.302],[227.275,32.501],[227.729,32.873],[228.011,33.273],[228.187,33.730],[228.247,34.216],[228.259,220.216],[228.199,220.702],[228.023,221.159],[227.674,221.630],[227.288,221.932],[226.840,222.130],[226.259,222.216],[23.741,222.229],[23.255,222.170],[22.798,221.993],[22.398,221.711],[22.025,221.258],[21.801,220.715],[21.741,220.229],[21.741,34.208],[21.801,33.722],[21.977,33.265],[22.259,32.865],[22.713,32.493],[23.160,32.294],[23.741,32.208],[101.086,32.211],[101.103,28.506],[101.353,28.038],[101.866,27.780]]

M190 S70 ; set bed temperature and wait for it to be reached
M104 S245 ; set temperature
;TYPE:Custom
START_PRINT BED_TEMP=70 HOTEND_TEMP=245 FILAMENT_TYPE=PET EXTRUSION_MULTIPLIER=0.96
M109 S245 ; set temperature and wait for it to be reached
G21 ; set units to millimeters
G90 ; use absolute coordinates
M82 ; use absolute distances for extrusion
G92 E0
; Filament gcode
; ########################### NOTE OFFSET CHANGES ####################################
; Prevents PETG buildup on nozzle.
; PETG does not like to be touching the nozzle, this causes buildup on nozzle
; Once the bed z distance is finaly chuned a small offset for PETG works perfectly
SET_GCODE_OFFSET Z=0.06
; ####################################################################################
M107
;LAYER_CHANGE
;Z:0.3
;HEIGHT:0.3
G1 E-.55 F600
G1 Z.8 F9000
EXCLUDE_OBJECT_START NAME='main_controller_base'
G92 E0
G1 X138.919 Y121.855
G1 Z.3
G1 E.6 F1200
;TYPE:Perimeter
;WIDTH:0.6
G1 F1800
G1 X158.922 Y121.855 E1.88286
G1 X159.668 Y121.942 E1.93103
G1 X160.336 Y122.164 E1.97617
G1 X161.047 Y122.599 E2.02963
G1 X161.427 Y122.96 E2.06324
G3 X161.937 Y123.654 I-2.582 J2.43 E2.11861
G1 X162.201 Y124.284 E2.16242
G1 X162.335 Y124.954 E2.20624
G1 X162.334 Y125.638 E2.25011
G1 X162.198 Y126.308 E2.29396
G1 X161.854 Y127.067 E2.3474
G1 X161.326 Y127.736 E2.40206
G3 X160.436 Y128.364 I-3.901 J-4.58 E2.47201
G1 X159.862 Y128.589 E2.51155
G3 X158.921 Y128.726 I-2.06 J-10.864 E2.57255
G1 X138.917 Y128.726 E3.85547
G1 X138.375 Y128.682 E3.89034
G1 X137.821 Y128.543 E3.92697
G1 X137.22 Y128.271 E3.96928
G3 X136.513 Y127.736 I3.064 J-4.785 E4.0262
G1 X136.093 Y127.235 E4.06813
G1 X135.754 Y126.619 E4.11322
G1 X135.589 Y126.052 E4.15109
G3 X135.491 Y125.114 I3.176 J-.805 E4.21179
G1 X135.497 Y124.994 E4.2195
G1 X135.594 Y124.438 E4.2557
G1 X135.829 Y123.796 E4.29955
G3 X136.414 Y122.946 I5.818 J3.379 E4.36579
G1 X136.904 Y122.514 E4.40768
G1 X137.513 Y122.159 E4.45289
G1 X138.161 Y121.943 E4.4967
G1 X138.845 Y121.863 E4.54087
G1 X138.845 Y121.863 F9000
G1 X138.919 Y122.391
;TYPE:External perimeter
G1 F1800
G1 X158.922 Y122.391 E5.82373
G1 X159.601 Y122.474 E5.8676
G1 X160.153 Y122.667 E5.9051
G1 X160.756 Y123.049 E5.95088
G1 X161.169 Y123.462 E5.98834
G1 X161.487 Y123.944 E6.02537
G1 X161.702 Y124.48 E6.06241
G1 X161.808 Y125.047 E6.0994
G1 X161.799 Y125.625 E6.13647
G1 X161.675 Y126.189 E6.1735
G1 X161.372 Y126.835 E6.21926
G1 X160.915 Y127.392 E6.26547
G1 X160.334 Y127.82 E6.31175
G1 X159.667 Y128.091 E6.35792
G1 X159.139 Y128.165 E6.39211
G1 X158.921 Y128.191 E6.40619
G1 X138.917 Y128.191 E7.68911
G3 X137.953 Y128.024 I.122 J-3.573 E7.75205
G1 X137.452 Y127.789 E7.78754
G1 X137.014 Y127.469 E7.82233
G1 X136.503 Y126.891 E7.87181
G1 X136.231 Y126.374 E7.90928
G1 X136.048 Y125.684 E7.95506
G1 X136.029 Y125.06 E7.9951
G1 X136.122 Y124.531 E8.02955
G1 X136.328 Y123.991 E8.06662
G1 X136.768 Y123.348 E8.11659
G1 X137.259 Y122.915 E8.15857
G1 X137.769 Y122.63 E8.19604
G1 X138.319 Y122.455 E8.23306
G1 X138.845 Y122.398 E8.26699
G1 X139.345 Y122.392 F9000
G1 E7.71699 F600
G92 E0
G1 X137.725 Y115.076 Z.431 F9000
G1 Z.3
G1 E.6 F1200
;TYPE:Perimeter
G1 F1800
G3 X137.358 Y114.919 I1.092 J-3.051 E.62562
G1 X136.911 Y114.646 E.65921
G1 X136.3 Y114.078 E.71271
G1 X135.976 Y113.631 E.74812
G1 X135.692 Y113.031 E.79069
G1 X135.524 Y112.368 E.83455
G1 X135.491 Y111.685 E.8784
G1 X135.594 Y111.01 E.92219
G1 X135.829 Y110.367 E.9661
G1 X136.282 Y109.668 E1.01952
G1 X136.726 Y109.228 E1.05961
G3 X137.66 Y108.669 I3.601 J4.954 E1.12951
G1 X138.161 Y108.514 E1.16314
G1 X138.917 Y108.426 E1.21195
G1 X158.922 Y108.426 E2.49493
G1 X159.461 Y108.47 E2.52961
G1 X160.018 Y108.61 E2.56644
G1 X160.64 Y108.892 E2.61024
G3 X161.325 Y109.416 I-3.283 J5 E2.6656
G1 X161.746 Y109.918 E2.70762
G1 X162.084 Y110.534 E2.75268
G1 X162.285 Y111.187 E2.7965
G1 X162.352 Y111.868 E2.84039
G1 X162.283 Y112.548 E2.88422
G1 X162.017 Y113.337 E2.93762
G1 X161.652 Y113.939 E2.98277
G3 X160.91 Y114.656 I-5.334 J-4.776 E3.049
G1 X160.344 Y114.983 E3.09092
G1 X159.825 Y115.174 E3.12639
G1 X158.921 Y115.298 E3.18491
G1 X138.917 Y115.298 E4.46783
G1 X138.401 Y115.239 E4.50114
G3 X137.796 Y115.101 I.416 J-3.214 E4.541
G1 X137.796 Y115.101 F9000
G1 X137.925 Y114.566
;TYPE:External perimeter
G1 F1800
G1 X137.637 Y114.462 E4.56064
G1 X137.19 Y114.189 E4.59423
G1 X136.674 Y113.695 E4.64004
G3 X136.179 Y112.808 I2.773 J-2.131 E4.70542
G1 X136.046 Y112.249 E4.74227
G1 X136.027 Y111.672 E4.77929
G1 X136.122 Y111.103 E4.81629
G1 X136.328 Y110.563 E4.85336
G1 X136.724 Y109.969 E4.89914
G1 X137.091 Y109.62 E4.93162
G1 X137.762 Y109.205 E4.98222
G1 X138.319 Y109.026 E5.01974
G1 X138.917 Y108.962 E5.05831
G1 X158.922 Y108.962 E6.34129
G3 X159.886 Y109.129 I-.123 J3.574 E6.40423
G1 X160.408 Y109.375 E6.44124
G1 X160.872 Y109.719 E6.47828
G1 X161.335 Y110.261 E6.524
G1 X161.608 Y110.778 E6.5615
G1 X161.769 Y111.332 E6.5985
G1 X161.818 Y111.908 E6.63557
G1 X161.751 Y112.481 E6.67257
G1 X161.513 Y113.154 E6.71835
G1 X161.202 Y113.648 E6.75579
G1 X160.696 Y114.152 E6.80159
G1 X160.076 Y114.52 E6.84783
G1 X159.602 Y114.679 E6.87989
G1 X158.921 Y114.762 E6.92389
G1 X138.917 Y114.762 E8.20681
G1 X138.236 Y114.679 E8.25081
G1 X137.995 Y114.591 E8.26726
G1 X137.538 Y114.39 F9000
G1 E7.71726 F600
G92 E0
G1 X162.068 Y99.598 Z.8 F9000
G1 X162.155 Y99.545
G1 Z.3
G1 E.6 F1200
;TYPE:Perimeter
G1 F1800
G1 X161.854 Y100.21 E.64681
G1 X161.326 Y100.879 E.70147
G3 X160.436 Y101.507 I-3.903 J-4.583 E.77142
G1 X159.862 Y101.732 E.81096
G3 X158.921 Y101.869 I-2.06 J-10.864 E.87196
G1 X138.917 Y101.869 E2.15488
G1 X138.364 Y101.823 E2.19047
G1 X137.679 Y101.632 E2.23608
G1 X137.052 Y101.314 E2.28117
G1 X136.578 Y100.937 E2.32001
G1 X136.08 Y100.362 E2.36879
G1 X135.754 Y99.762 E2.41258
G1 X135.554 Y99.108 E2.45644
G1 X135.492 Y98.277 E2.50988
G1 X135.594 Y97.581 E2.55499
G1 X135.829 Y96.937 E2.59896
G1 X136.281 Y96.241 E2.65218
G1 X136.783 Y95.746 E2.69739
G1 X137.474 Y95.324 E2.74932
G1 X137.993 Y95.138 E2.78468
G3 X138.917 Y94.998 I1.013 J3.58 E2.84477
G1 X158.922 Y94.998 E4.12775
G3 X160.49 Y95.381 I-.071 J3.687 E4.23211
G1 X161.064 Y95.753 E4.27598
G1 X161.427 Y96.102 E4.30827
G3 X161.937 Y96.797 I-2.582 J2.431 E4.36369
G1 X162.201 Y97.427 E4.4075
G1 X162.335 Y98.097 E4.45132
G1 X162.334 Y98.781 E4.49519
G1 X162.198 Y99.451 E4.53904
G1 X162.186 Y99.477 E4.54088
G1 X162.186 Y99.477 F9000
G1 X161.66 Y99.365
;TYPE:External perimeter
G1 F1800
G1 X161.372 Y99.978 E4.58432
G1 X160.915 Y100.534 E4.63048
G1 X160.334 Y100.963 E4.6768
G1 X159.667 Y101.234 E4.72297
G1 X158.921 Y101.333 E4.77123
G1 X138.917 Y101.333 E6.05415
G1 X138.454 Y101.294 E6.08395
G1 X137.824 Y101.117 E6.12592
G1 X137.308 Y100.843 E6.16339
G1 X136.863 Y100.477 E6.20034
G1 X136.499 Y100.029 E6.23736
G1 X136.231 Y99.517 E6.27442
G1 X136.069 Y98.963 E6.31144
G1 X136.027 Y98.251 E6.35718
G1 X136.122 Y97.674 E6.39468
G1 X136.324 Y97.141 E6.43124
G1 X136.724 Y96.541 E6.47749
G1 X137.148 Y96.139 E6.51496
G1 X137.742 Y95.788 E6.55921
G1 X138.319 Y95.597 E6.59819
G1 X138.89 Y95.535 E6.63503
G1 X158.922 Y95.533 E7.91975
G1 X159.371 Y95.569 E7.94864
G3 X160.282 Y95.875 I-.665 J3.495 E8.01046
G1 X160.762 Y96.196 E8.04749
G1 X161.169 Y96.605 E8.08449
G1 X161.487 Y97.087 E8.12152
G1 X161.702 Y97.623 E8.15856
G1 X161.808 Y98.19 E8.19555
G1 X161.799 Y98.767 E8.23256
G1 X161.684 Y99.294 E8.26715
G1 X161.478 Y99.75 F9000
G1 E7.71715 F600
G92 E0
G1 X136.992 Y84.884 Z.8 F9000
G1 X135.624 Y84.054
G1 Z.3
G1 E.6 F1200
;TYPE:Perimeter
G1 F1800
G1 X135.829 Y83.51 E.63728
G1 X136.282 Y82.81 E.69075
G1 X136.783 Y82.318 E.73578
G1 X137.474 Y81.896 E.78771
G1 X137.993 Y81.709 E.82309
G3 X138.917 Y81.569 I1.014 J3.58 E.88318
G1 X158.922 Y81.569 E2.16616
G3 X159.952 Y81.736 I-.092 J3.833 E2.23329
G1 X160.641 Y82.035 E2.28146
G1 X161.305 Y82.539 E2.33492
G1 X161.759 Y83.076 E2.38002
G1 X162.084 Y83.677 E2.42384
G1 X162.285 Y84.33 E2.46766
G1 X162.352 Y85.01 E2.51148
G1 X162.283 Y85.691 E2.55538
G1 X162.017 Y86.48 E2.60878
G1 X161.652 Y87.082 E2.65393
G3 X160.911 Y87.798 I-5.358 J-4.799 E2.72007
G1 X160.343 Y88.126 E2.76214
G1 X159.825 Y88.317 E2.79755
G3 X158.921 Y88.44 I-2.21 J-12.836 E2.85607
G1 X138.917 Y88.44 E4.13899
G1 X138.375 Y88.397 E4.17386
G1 X137.821 Y88.257 E4.21051
G1 X137.22 Y87.985 E4.25282
G1 X136.643 Y87.575 E4.29822
G1 X136.093 Y86.949 E4.35166
G1 X135.754 Y86.333 E4.39675
G1 X135.554 Y85.68 E4.44055
G1 X135.492 Y84.849 E4.49399
G1 X135.6 Y84.124 E4.541
G1 X135.6 Y84.124 F9000
G1 X136.133 Y84.21
;TYPE:External perimeter
G1 F1800
G1 X136.328 Y83.706 E4.57566
G1 X136.724 Y83.112 E4.62144
G1 X137.148 Y82.71 E4.65891
G1 X137.741 Y82.36 E4.70307
G1 X138.319 Y82.169 E4.74211
G1 X138.89 Y82.106 E4.77895
G1 X158.922 Y82.105 E6.06367
G3 X159.886 Y82.272 I-.123 J3.573 E6.12661
G1 X160.408 Y82.518 E6.16362
G1 X160.971 Y82.958 E6.20945
G1 X161.34 Y83.41 E6.24687
G1 X161.608 Y83.921 E6.28388
G1 X161.769 Y84.475 E6.32088
G1 X161.818 Y85.05 E6.35789
G1 X161.751 Y85.624 E6.39495
G1 X161.513 Y86.297 E6.44073
G1 X161.202 Y86.791 E6.47817
G1 X160.696 Y87.295 E6.52397
G1 X160.076 Y87.662 E6.57018
G1 X159.602 Y87.821 E6.60224
G1 X158.921 Y87.905 E6.64625
G1 X138.917 Y87.905 E7.92917
G3 X137.953 Y87.738 I.122 J-3.573 E7.99211
M73 P0 R234
G1 X137.452 Y87.503 E8.0276
G1 X136.967 Y87.148 E8.06615
G1 X136.503 Y86.605 E8.11196
G1 X136.231 Y86.089 E8.14937
G1 X136.069 Y85.534 E8.18645
G1 X136.027 Y84.822 E8.23219
G1 X136.116 Y84.283 E8.26723
G1 X136.288 Y83.814 F9000
G1 E7.71723 F600
G92 E0
G1 X158.943 Y68.141 Z.781 F9000
G1 Z.3
G1 E.6 F1200
;TYPE:Perimeter
G1 F1800
G3 X160.018 Y68.324 I-.178 J4.302 E.67012
G1 X160.769 Y68.686 E.72359
G1 X161.32 Y69.123 E.76869
G1 X161.731 Y69.612 E.80966
G1 X162.04 Y70.161 E.85006
G1 X162.228 Y70.699 E.88661
G3 X162.352 Y71.582 I-3.414 J.929 E.94395
G1 X162.248 Y72.409 E.99741
G1 X162.074 Y72.933 E1.03282
G1 X161.752 Y73.515 E1.07548
G1 X161.2 Y74.139 E1.12891
G1 X160.497 Y74.623 E1.18365
G1 X159.761 Y74.896 E1.23399
G3 X158.921 Y75.012 I-1.26 J-6.047 E1.28842
G1 X138.917 Y75.012 E2.57134
G1 X138.375 Y74.968 E2.60621
G1 X137.76 Y74.81 E2.64693
G1 X137.22 Y74.557 E2.68517
G1 X136.643 Y74.146 E2.7306
G1 X136.093 Y73.521 E2.78399
G1 X135.754 Y72.904 E2.82914
G1 X135.554 Y72.251 E2.87294
G1 X135.492 Y71.42 E2.92638
G1 X135.594 Y70.724 E2.97149
G1 X135.823 Y70.094 E3.01448
G1 X136.281 Y69.384 E3.06867
G3 X136.928 Y68.782 I4.084 J3.748 E3.12541
G1 X137.495 Y68.455 E3.16739
G1 X138.161 Y68.228 E3.21252
G1 X138.917 Y68.141 E3.26132
G1 X158.868 Y68.141 E4.54084
G1 X158.868 Y68.141 F9000
G1 X158.929 Y68.677
;TYPE:External perimeter
G1 F1800
G3 X159.886 Y68.843 I-.13 J3.574 E4.60332
G1 X160.524 Y69.163 E4.6491
G1 X160.976 Y69.533 E4.68656
G1 X161.312 Y69.946 E4.72071
G1 X161.563 Y70.405 E4.75426
G1 X161.769 Y71.047 E4.7975
G1 X161.818 Y71.622 E4.83451
G1 X161.718 Y72.329 E4.8803
G3 X161.288 Y73.247 I-3.34 J-1.004 E4.94554
G1 X160.808 Y73.775 E4.9913
G1 X160.207 Y74.173 E5.03753
G1 X159.591 Y74.388 E5.07937
G1 X158.948 Y74.475 E5.12098
G1 X138.917 Y74.476 E6.40563
G3 X137.933 Y74.303 I.127 J-3.611 E6.46991
G1 X137.452 Y74.074 E6.50408
G1 X136.967 Y73.719 E6.54263
G1 X136.503 Y73.176 E6.58844
G1 X136.231 Y72.66 E6.62585
G1 X136.069 Y72.106 E6.66287
G1 X136.027 Y71.393 E6.70868
G1 X136.122 Y70.817 E6.74612
G1 X136.322 Y70.288 E6.78239
G1 X136.724 Y69.684 E6.82892
G1 X137.097 Y69.329 E6.86194
G1 X137.762 Y68.919 E6.91204
G1 X138.319 Y68.74 E6.94956
G1 X138.917 Y68.676 E6.98813
G1 X158.854 Y68.676 E8.26675
G1 X159.352 Y68.723 F9000
G1 E7.71675 F600
G92 E0
G1 X163.781 Y40.422 Z.8 F9000
G1 X163.827 Y40.131
G1 Z.3
G1 E.6 F1200
;TYPE:Perimeter
G1 F1800
G1 X164.248 Y40.162 E.62707
G1 X164.9 Y40.308 E.66992
G1 X165.417 Y40.521 E.70578
G1 X166.101 Y40.983 E.75872
G1 X166.684 Y41.622 E.81419
G1 X167.094 Y42.383 E.86963
G1 X167.258 Y42.917 E.90546
G1 X167.336 Y43.584 E.94853
G1 X167.34 Y57.467 E1.83889
G1 X167.252 Y58.227 E1.88796
G1 X166.963 Y59.042 E1.94342
G1 X166.677 Y59.522 E1.97925
G3 X164.552 Y60.919 I-2.924 J-2.135 E2.1459
G3 X163.752 Y61.001 I-1.355 J-9.323 E2.19749
G1 X158.002 Y61.001 E2.56626
G1 X157.56 Y60.968 E2.59469
G1 X156.908 Y60.821 E2.63755
G1 X156.391 Y60.609 E2.67339
G1 X155.628 Y60.084 E2.73279
G1 X155.124 Y59.508 E2.78188
G1 X154.714 Y58.747 E2.83732
G1 X154.55 Y58.213 E2.87315
G1 X154.472 Y57.546 E2.91622
G1 X154.468 Y43.663 E3.80658
G1 X154.556 Y42.902 E3.85571
G1 X154.845 Y42.088 E3.91111
G1 X155.323 Y41.367 E3.96659
G1 X155.961 Y40.785 E4.02197
G1 X156.58 Y40.432 E4.06767
G1 X157.238 Y40.216 E4.11209
G1 X157.923 Y40.133 E4.15634
G1 X163.752 Y40.129 E4.53017
G1 X163.752 Y40.129 F9000
G1 X163.814 Y40.665
;TYPE:External perimeter
G1 F1800
G1 X164.13 Y40.685 E4.55048
G1 X164.783 Y40.831 E4.59339
G1 X165.246 Y41.036 E4.62586
G1 X165.793 Y41.421 E4.66876
G1 X166.278 Y41.972 E4.71584
G1 X166.616 Y42.624 E4.76294
G3 X166.803 Y43.637 I-3.418 J1.154 E4.82923
G1 X166.804 Y57.467 E5.71619
G1 X166.72 Y58.161 E5.76102
G1 X166.464 Y58.849 E5.8081
G1 X166.201 Y59.268 E5.83983
G3 X164.796 Y60.296 I-2.472 J-1.905 E5.95298
G3 X163.752 Y60.465 I-1.098 J-3.47 E6.02105
G1 X158.002 Y60.465 E6.38982
G1 X157.678 Y60.445 E6.41064
G1 X157.025 Y60.299 E6.45355
G1 X156.562 Y60.094 E6.48602
G1 X155.989 Y59.688 E6.53106
G1 X155.53 Y59.158 E6.57603
G1 X155.192 Y58.506 E6.62313
G3 X155.005 Y57.493 I3.418 J-1.154 E6.68942
G1 X155.004 Y43.663 E7.57638
G1 X155.088 Y42.968 E7.62128
G1 X155.344 Y42.281 E7.6683
G1 X155.761 Y41.676 E7.71542
G1 X156.311 Y41.191 E7.76245
G1 X156.832 Y40.905 E7.80057
G1 X157.393 Y40.729 E7.83828
G1 X158.002 Y40.665 E7.87755
G1 X163.739 Y40.665 E8.24548
G1 X164.236 Y40.717 F9000
G1 E7.69548 F600
G92 E0
G1 X192.71 Y43.846 Z.8 F9000
G1 X199.942 Y44.641
G1 Z.3
G1 E.6 F1200
;TYPE:Perimeter
G1 F1800
G3 X201.548 Y44.995 I-.105 J4.294 E.70613
G3 X202.488 Y45.601 I-4.357 J7.796 E.7779
G1 X203.017 Y46.156 E.82707
G1 X203.3 Y46.575 E.8595
G3 X203.748 Y47.671 I-7.327 J3.632 E.9355
G3 X203.855 Y49.121 I-9.409 J1.422 E1.02884
G1 X203.852 Y122.133 E5.71133
;WIDTH:0.631781
G1 X203.868 Y122.391 E5.72889
;WIDTH:0.663562
G1 X203.884 Y122.649 E5.74744
;WIDTH:0.706863
G1 X203.905 Y122.739 E5.75455
;WIDTH:0.750164
G1 X203.927 Y122.83 E5.76224
;WIDTH:0.793465
G1 X203.949 Y122.921 E5.77041
;WIDTH:0.836767
G1 X203.97 Y123.012 E5.77905
G1 X203.96 Y123.329 E5.80838
;WIDTH:0.817142
G1 X203.96 Y124.779 E5.93907
;WIDTH:0.846571
G1 X203.975 Y125.275 E5.98554
G1 X203.95 Y125.401 E5.99757
;WIDTH:0.797256
G1 X203.926 Y125.528 E6.00891
;WIDTH:0.747942
G1 X203.901 Y125.655 E6.0195
;WIDTH:0.698628
G1 X203.876 Y125.782 E6.02933
;WIDTH:0.649314
G1 X203.852 Y125.909 E6.03838
;WIDTH:0.6
G1 X203.851 Y138.601 E6.85236
G1 X203.792 Y139.121 E6.88592
G1 X203.587 Y139.86 E6.9351
G1 X203.134 Y140.709 E6.99681
G1 X202.618 Y141.308 E7.04751
G1 X201.858 Y141.866 E7.10798
G1 X200.969 Y142.235 E7.16971
G1 X199.922 Y142.383 E7.23752
G1 X184.917 Y142.383 E8.19984
G1 X184.06 Y142.283 E8.25518
G1 X183.154 Y141.959 E8.31689
G1 X182.623 Y141.642 E8.35655
G1 X181.944 Y141.016 E8.41578
