; generated by PrusaSlicer 2.8.1+MacOS-arm64 on 2024-10-29 at 09:35:07 UTC


;
;

;
;
; 

; external perimeters extrusion width = 0.55mm
; perimeters extrusion width = 0.60mm
; infill extrusion width = 0.60mm
; solid infill extrusion width = 0.60mm
; top infill extrusion width = 0.55mm
; first layer extrusion width = 0.60mm

M73 P0 R240

EXCLUDE_OBJECT_DEFINE NAME='main_controller_base' CENTER=107.965,111.895 POLYGON=[[112.844,12.772],[113.379,12.978],[113.583,13.215],[113.696,13.506],[113.713,17.212],[209.247,17.216],[209.828,17.302],[210.275,17.501],[210.729,17.873],[211.011,18.273],[211.187,18.730],[211.247,19.216],[211.259,205.216],[211.199,205.702],[211.023,206.159],[210.674,206.630],[210.288,206.932],[209.840,207.130],[209.259,207.216],[6.741,207.229],[6.255,207.170],[5.798,206.993],[5.398,206.711],[5.025,206.258],[4.801,205.715],[4.741,205.229],[4.741,19.208],[4.801,18.722],[4.977,18.265],[5.259,17.865],[5.713,17.493],[6.160,17.294],[6.741,17.208],[84.086,17.211],[84.103,13.506],[84.353,13.038],[84.866,12.780]]

M190 S70 ; set bed temperature and wait for it to be reached
M104 S230 ; set temperature
;TYPE:Custom
START_PRINT BED_TEMP=70 HOTEND_TEMP=230 FILAMENT_TYPE=PET EXTRUSION_MULTIPLIER=0.96
M109 S230 ; set temperature and wait for it to be reached
G21 ; set units to millimeters
G90 ; use absolute coordinates
M82 ; use absolute distances for extrusion
G92 E0
; Filament gcode
; ########################### NOTE OFFSET CHANGES ####################################
; Prevents PETG buildup on nozzle.
; PETG does not like to be touching the nozzle, this causes buildup on nozzle
; Once the bed z distance is finaly chuned a small offset for PETG works perfectly
SET_GCODE_OFFSET Z=0.2
; ####################################################################################
M107
;LAYER_CHANGE
;Z:0.3
;HEIGHT:0.3
G1 E-.55 F600
G1 Z.8 F9000
EXCLUDE_OBJECT_START NAME='main_controller_base'
G92 E0
G1 X143.341 Y115.116
G1 Z.3
G1 E.6 F1200
;TYPE:Perimeter
;WIDTH:0.6
G1 F1800
G3 X141.921 Y115.333 I-1.657 J-6.079 E.69233
G1 X121.917 Y115.333 E1.97525
G1 X121.347 Y115.297 E2.01188
G3 X120.103 Y114.994 I1.391 J-8.401 E2.09407
G3 X119.091 Y114.458 I2.723 J-6.366 E2.1676
G3 X117.563 Y112.818 I3.088 J-4.41 E2.31241
G3 X116.972 Y111.213 I4.746 J-2.66 E2.42256
G3 X116.903 Y109.793 I5.529 J-.98 E2.51398
G3 X117.333 Y108.209 I5.575 J.664 E2.61962
G3 X118.841 Y106.309 I4.813 J2.271 E2.77657
G3 X119.744 Y105.748 I3.476 J4.59 E2.84485
G3 X120.851 Y105.363 I3.32 J7.758 E2.92008
G3 X121.917 Y105.248 I1.765 J11.379 E2.98887
G1 X141.922 Y105.248 E4.27185
G1 X142.869 Y105.348 E4.33292
G3 X143.886 Y105.654 I-1.143 J5.642 E4.40113
G3 X144.918 Y106.249 I-2.715 J5.906 E4.47764
G3 X146.764 Y111.666 I-3.008 J4.048 E4.86792
G3 X145.556 Y113.769 I-5.098 J-1.529 E5.02484
G3 X144.585 Y114.559 I-4.037 J-3.971 E5.10528
G3 X143.45 Y115.085 I-3.124 J-5.257 E5.18565
G3 X143.414 Y115.095 I-1.766 J-6.048 E5.18805
G1 X143.414 Y115.095 F9000
G1 X143.197 Y114.602
G1 F1800
G3 X141.921 Y114.797 I-1.51 J-5.596 E5.27101
G1 X121.917 Y114.797 E6.55393
G3 X119.733 Y114.226 I.115 J-4.894 E6.70002
G1 X119.095 Y113.789 E6.74961
G3 X118.272 Y112.924 I3.407 J-4.066 E6.82635
G3 X117.801 Y112.107 I4.232 J-2.988 E6.88691
G3 X117.491 Y111.081 I5.573 J-2.242 E6.95574
G3 X117.434 Y109.86 I5.027 J-.844 E7.03432
G3 X117.832 Y108.404 I4.954 J.571 E7.1315
G3 X118.397 Y107.493 I6.511 J3.403 E7.20031
G3 X119.196 Y106.71 I4.271 J3.562 E7.27218
G3 X120.207 Y106.122 I3.837 J5.432 E7.34728
G1 X120.845 Y105.919 E7.39022
G3 X121.917 Y105.784 I1.78 J9.779 E7.45955
G1 X141.922 Y105.784 E8.74253
G1 X142.802 Y105.88 E8.7993
G3 X143.702 Y106.157 I-1.06 J5.036 E8.85978
G3 X144.628 Y106.699 I-2.559 J5.435 E8.92868
G3 X146.242 Y111.546 I-2.717 J3.597 E9.277
G3 X145.819 Y112.532 I-5.705 J-1.862 E9.3459
G3 X144.804 Y113.742 I-4.238 J-2.525 E9.44763
G3 X143.269 Y114.581 I-3.083 J-3.815 E9.56042
G1 X143.269 Y114.581 F9000
G1 X143.053 Y114.089
G1 F1800
G3 X141.921 Y114.262 I-1.377 J-5.233 E9.634
G1 X121.917 Y114.262 E10.91692
G3 X120.859 Y114.105 I.067 J-4.104 E10.98571
G3 X119.966 Y113.743 I1.131 J-4.073 E11.04764
G3 X119.103 Y113.08 I3.048 J-4.863 E11.11754
G1 X118.682 Y112.579 E11.15951
G3 X118.277 Y111.863 I3.902 J-2.678 E11.21233
G3 X117.97 Y110.683 I7.115 J-2.483 E11.29061
G3 X117.966 Y109.927 I7.297 J-.419 E11.33912
G1 X118.067 Y109.345 E11.377
G1 X118.331 Y108.6 E11.42769
G3 X118.839 Y107.794 I6.298 J3.414 E11.48884
G3 X119.624 Y107.051 I5.745 J5.28 E11.55821
G1 X120.256 Y106.689 E11.60492
G1 X121.003 Y106.431 E11.6556
G3 X121.917 Y106.319 I1.699 J10.117 E11.71468
G1 X141.922 Y106.319 E12.99766
G1 X142.735 Y106.411 E13.05013
G3 X143.788 Y106.794 I-1.407 J5.506 E13.12211
G1 X144.337 Y107.149 E13.16404
G1 X144.81 Y107.586 E13.20534
G3 X145.386 Y108.363 I-3.085 J2.888 E13.26751
G1 X145.7 Y109.088 E13.31818
G1 X145.863 Y109.861 E13.36885
G1 X145.87 Y110.651 E13.41952
G1 X145.72 Y111.427 E13.47021
G3 X145.337 Y112.3 I-5.425 J-1.861 E13.53142
G3 X144.736 Y113.081 I-4.407 J-2.771 E13.59472
G3 X143.96 Y113.69 I-3.583 J-3.767 E13.65808
G3 X143.124 Y114.065 I-2.708 J-4.91 E13.71691
G1 X143.124 Y114.065 F9000
G1 X142.908 Y113.572
G1 F1800
G1 X142.862 Y113.589 E13.72006
G3 X141.921 Y113.726 I-2.06 J-10.864 E13.78106
G1 X121.917 Y113.726 E15.06398
G1 X121.375 Y113.682 E15.09885
G1 X120.821 Y113.543 E15.13548
G1 X120.22 Y113.271 E15.17779
G3 X119.513 Y112.736 I3.064 J-4.785 E15.23471
G1 X119.093 Y112.235 E15.27664
G1 X118.754 Y111.619 E15.32173
G1 X118.589 Y111.052 E15.3596
G3 X118.491 Y110.114 I3.176 J-.805 E15.4203
G1 X118.497 Y109.994 E15.42801
G1 X118.594 Y109.438 E15.46421
G1 X118.829 Y108.796 E15.50806
G3 X119.414 Y107.946 I5.818 J3.379 E15.5743
G1 X119.904 Y107.514 E15.61619
G1 X120.513 Y107.159 E15.6614
G1 X121.161 Y106.943 E15.70521
G1 X121.917 Y106.855 E15.75402
G1 X141.922 Y106.855 E17.037
G1 X142.668 Y106.942 E17.08517
G1 X143.336 Y107.164 E17.13031
G1 X144.047 Y107.599 E17.18377
G1 X144.427 Y107.96 E17.21738
G3 X144.937 Y108.654 I-2.582 J2.43 E17.27275
G1 X145.201 Y109.284 E17.31656
G1 X145.335 Y109.954 E17.36038
G1 X145.334 Y110.638 E17.40425
G1 X145.198 Y111.308 E17.4481
G1 X144.854 Y112.067 E17.50154
G1 X144.326 Y112.736 E17.5562
G3 X143.436 Y113.364 I-3.901 J-4.58 E17.62615
G1 X142.977 Y113.544 E17.65777
G1 X142.977 Y113.544 F9000
G1 X142.761 Y113.052
;TYPE:External perimeter
G1 F1800
G1 X142.667 Y113.091 E17.6643
G1 X142.139 Y113.165 E17.69849
G1 X141.921 Y113.191 E17.71257
G1 X121.917 Y113.191 E18.99549
G3 X120.953 Y113.024 I.122 J-3.573 E19.05843
G1 X120.452 Y112.789 E19.09392
G1 X120.014 Y112.469 E19.12871
G1 X119.503 Y111.891 E19.17819
G1 X119.231 Y111.374 E19.21566
G1 X119.048 Y110.684 E19.26144
G1 X119.029 Y110.06 E19.30148
G1 X119.122 Y109.531 E19.33593
G1 X119.328 Y108.991 E19.373
G1 X119.768 Y108.348 E19.42297
G1 X120.259 Y107.915 E19.46495
G1 X120.769 Y107.63 E19.50242
G1 X121.319 Y107.455 E19.53944
G1 X121.917 Y107.391 E19.57801
G1 X141.922 Y107.391 E20.86099
G1 X142.601 Y107.474 E20.90486
G1 X143.153 Y107.667 E20.94236
G1 X143.756 Y108.049 E20.98814
G1 X144.169 Y108.462 E21.0256
G1 X144.487 Y108.944 E21.06263
G1 X144.702 Y109.48 E21.09967
G1 X144.808 Y110.047 E21.13666
G1 X144.799 Y110.625 E21.17373
G1 X144.675 Y111.189 E21.21076
G1 X144.372 Y111.835 E21.25652
G1 X143.915 Y112.392 E21.30273
G1 X143.334 Y112.82 E21.34901
G1 X142.831 Y113.024 E21.38382
G1 X142.342 Y113.131 F9000
G1 E20.83382 F600
G92 E0
G1 X120.139 Y101.567 Z.737 F9000
G1 Z.3
G1 E.6 F1200
;TYPE:Perimeter
G1 F1800
G3 X119.52 Y101.29 I2.448 J-6.297 E.64351
G1 X119.073 Y101.017 E.6771
G3 X118.178 Y100.229 I3.833 J-5.253 E.75368
G3 X117.588 Y99.444 I4.245 J-3.805 E.81674
G1 X117.227 Y98.692 E.87024
G3 X117.012 Y95.73 I4.783 J-1.837 E1.06347
G3 X118.306 Y93.353 I5.086 J1.23 E1.23903
G3 X119.691 Y92.349 I3.846 J3.848 E1.34919
G3 X121.917 Y91.82 I2.304 J4.74 E1.4971
G1 X141.922 Y91.82 E2.78008
G1 X142.492 Y91.856 E2.81671
G1 X143.414 Y92.053 E2.87718
G3 X144.503 Y92.532 I-2.301 J6.704 E2.95357
G3 X145.481 Y93.298 I-4.557 J6.828 E3.03332
G1 X145.977 Y93.884 E3.08256
G3 X146.954 Y96.748 I-4.096 J2.997 E3.27963
G3 X146.002 Y99.811 I-5.171 J.072 E3.48879
G3 X144.147 Y101.375 I-4.268 J-3.18 E3.64578
G3 X143.111 Y101.761 I-2.526 J-5.189 E3.71679
G3 X141.921 Y101.904 I-2.01 J-11.699 E3.79369
G1 X121.917 Y101.904 E5.07661
G3 X120.631 Y101.737 I.843 J-11.491 E5.15982
G3 X120.209 Y101.594 I1.956 J-6.467 E5.1884
G1 X120.334 Y101.07 F9000
G1 F1800
G3 X119.8 Y100.833 I2.242 J-5.796 E5.22588
G1 X119.352 Y100.56 E5.25953
G3 X118.482 Y99.773 I5.468 J-6.922 E5.33482
G1 X118.091 Y99.235 E5.37747
G1 X117.715 Y98.471 E5.43208
G3 X117.64 Y95.464 I4.269 J-1.611 E5.62867
G3 X118.671 Y93.746 I4.554 J1.563 E5.75811
G3 X120.947 Y92.462 I3.393 J3.357 E5.92787
G3 X121.917 Y92.355 I1.608 J10.12 E5.99048
G1 X141.922 Y92.355 E7.27346
G1 X142.452 Y92.39 E7.30752
G1 X143.282 Y92.572 E7.36202
G3 X144.234 Y92.995 I-2.185 J6.193 E7.4289
G1 X144.723 Y93.348 E7.46758
G3 X145.567 Y94.229 I-3.347 J4.05 E7.546
G3 X146.346 Y97.681 I-3.669 J2.642 E7.77919
G3 X146.023 Y98.704 I-5.869 J-1.287 E7.84808
G3 X145.552 Y99.521 I-4.679 J-2.157 E7.90865
G3 X144.817 Y100.302 I-4.725 J-3.703 E7.97752
G3 X143.879 Y100.911 I-3.482 J-4.34 E8.04937
G1 X143.27 Y101.155 E8.09145
G3 X141.921 Y101.369 I-1.595 J-5.698 E8.17924
G1 X121.917 Y101.369 E9.46216
G3 X120.773 Y101.22 I.926 J-11.628 E9.53618
G3 X120.405 Y101.096 I1.803 J-5.946 E9.56109
G1 X120.405 Y101.096 F9000
G1 X120.529 Y100.573
G1 F1800
G3 X120.079 Y100.376 I1.313 J-3.614 E9.59262
G1 X119.632 Y100.103 E9.62621
G3 X118.876 Y99.41 I5.535 J-6.796 E9.69202
G1 X118.533 Y98.933 E9.7297
G1 X118.204 Y98.251 E9.77826
G1 X118.002 Y97.487 E9.82894
G1 X117.956 Y96.699 E9.87956
G1 X118.067 Y95.917 E9.93021
G1 X118.331 Y95.171 E9.98096
G3 X118.839 Y94.366 I5.086 J2.649 E10.04208
G1 X119.362 Y93.835 E10.08988
G3 X120.227 Y93.277 I3.06 J3.793 E10.15602
G1 X121.003 Y93.002 E10.20882
G3 X121.917 Y92.891 I1.973 J12.362 E10.26788
M73 P0 R239
G1 X141.922 Y92.891 E11.55086
G1 X142.56 Y92.943 E11.59191
G1 X143.15 Y93.091 E11.63092
G1 X143.873 Y93.409 E11.68158
G3 X144.736 Y94.072 I-3.088 J4.915 E11.75148
G1 X145.156 Y94.573 E11.79341
G3 X145.561 Y95.289 I-3.875 J2.664 E11.84623
G1 X145.801 Y96.042 E11.89692
G1 X145.886 Y96.828 E11.94762
G1 X145.814 Y97.614 E11.99824
G3 X145.52 Y98.52 I-5.59 J-1.313 E12.0594
G1 X145.102 Y99.229 E12.11218
G3 X144.26 Y100.069 I-6.04 J-5.22 E12.18853
G1 X143.611 Y100.447 E12.2367
G1 X143.099 Y100.647 E12.27195
G3 X141.921 Y100.833 I-1.413 J-5.127 E12.3486
G1 X121.917 Y100.833 E13.63152
G1 X121.334 Y100.771 E13.66912
G3 X120.6 Y100.598 I.508 J-3.812 E13.71756
G1 X120.6 Y100.598 F9000
G1 X120.725 Y100.076
G1 F1800
G3 X120.358 Y99.919 I1.092 J-3.051 E13.74318
G1 X119.911 Y99.646 E13.77677
G1 X119.3 Y99.078 E13.83027
G1 X118.976 Y98.631 E13.86568
G1 X118.692 Y98.031 E13.90825
G1 X118.524 Y97.368 E13.95211
G1 X118.491 Y96.685 E13.99596
G1 X118.594 Y96.01 E14.03975
G1 X118.829 Y95.367 E14.08366
G1 X119.282 Y94.668 E14.13708
G1 X119.726 Y94.228 E14.17717
G3 X120.66 Y93.669 I3.601 J4.954 E14.24707
G1 X121.161 Y93.514 E14.2807
G1 X121.917 Y93.426 E14.32951
G1 X141.922 Y93.426 E15.61249
G1 X142.461 Y93.47 E15.64717
G1 X143.018 Y93.61 E15.684
G1 X143.64 Y93.892 E15.7278
G3 X144.325 Y94.416 I-3.283 J5 E15.78316
G1 X144.746 Y94.918 E15.82518
G1 X145.084 Y95.534 E15.87024
G1 X145.285 Y96.187 E15.91406
G1 X145.352 Y96.868 E15.95795
G1 X145.283 Y97.548 E16.00178
G1 X145.017 Y98.337 E16.05518
G1 X144.652 Y98.939 E16.10033
G3 X143.91 Y99.656 I-5.334 J-4.776 E16.16656
G1 X143.344 Y99.983 E16.20848
G1 X142.825 Y100.174 E16.24395
G1 X141.921 Y100.298 E16.30247
G1 X121.917 Y100.298 E17.58539
G1 X121.401 Y100.239 E17.6187
G3 X120.796 Y100.101 I.416 J-3.214 E17.65856
G1 X120.796 Y100.101 F9000
G1 X120.925 Y99.566
;TYPE:External perimeter
G1 F1800
G1 X120.637 Y99.462 E17.6782
G1 X120.19 Y99.189 E17.71179
G1 X119.674 Y98.695 E17.7576
G3 X119.179 Y97.808 I2.773 J-2.131 E17.82298
G1 X119.046 Y97.249 E17.85983
G1 X119.027 Y96.672 E17.89685
G1 X119.122 Y96.103 E17.93385
G1 X119.328 Y95.563 E17.97092
G1 X119.724 Y94.969 E18.0167
G1 X120.091 Y94.62 E18.04918
G1 X120.762 Y94.205 E18.09978
G1 X121.319 Y94.026 E18.1373
G1 X121.917 Y93.962 E18.17587
G1 X141.922 Y93.962 E19.45885
G3 X142.886 Y94.129 I-.123 J3.574 E19.52179
G1 X143.408 Y94.375 E19.5588
G1 X143.872 Y94.719 E19.59584
G1 X144.335 Y95.261 E19.64156
G1 X144.608 Y95.778 E19.67906
G1 X144.769 Y96.332 E19.71606
G1 X144.818 Y96.908 E19.75313
G1 X144.751 Y97.481 E19.79013
G1 X144.513 Y98.154 E19.83591
G1 X144.202 Y98.648 E19.87335
G1 X143.696 Y99.152 E19.91915
G1 X143.076 Y99.52 E19.96539
G1 X142.602 Y99.679 E19.99745
G1 X141.921 Y99.762 E20.04145
G1 X121.917 Y99.762 E21.32437
G1 X121.236 Y99.679 E21.36837
G1 X120.995 Y99.591 E21.38482
G1 X120.538 Y99.39 F9000
G1 E20.83482 F600
G92 E0
G1 X143.973 Y82.918 Z.8 F9000
G1 X146.426 Y81.194
G1 Z.3
G1 E.6 F1200
;TYPE:Perimeter
G1 F1800
G3 X146.764 Y84.808 I-4.522 J2.246 E.83812
G3 X145.556 Y86.912 I-5.098 J-1.528 E.99509
G3 X144.585 Y87.702 I-4.038 J-3.972 E1.07553
G3 X143.449 Y88.228 I-3.123 J-5.256 E1.15596
G3 X141.921 Y88.476 I-1.765 J-6.048 E1.25549
G1 X121.917 Y88.476 E2.53841
G1 X121.346 Y88.44 E2.5751
G3 X120.244 Y88.179 I1.059 J-6.938 E2.64781
G3 X117.149 Y85.048 I1.685 J-4.761 E2.93996
G3 X116.887 Y83.358 I5.178 J-1.667 E3.0501
G3 X117.343 Y81.326 I5.193 J.098 E3.18457
G3 X118.306 Y79.925 I5.36 J2.654 E3.29397
G3 X119.691 Y78.921 I3.847 J3.848 E3.40413
G3 X121.917 Y78.391 I2.304 J4.739 E3.55206
G1 X141.922 Y78.391 E4.83504
G3 X143.231 Y78.568 I-.21 J6.476 E4.9199
G1 X144.114 Y78.901 E4.98042
G3 X146.392 Y81.127 I-2.21 J4.539 E5.18823
G1 X146.392 Y81.127 F9000
G1 X145.943 Y81.426
G1 F1800
G3 X146.242 Y84.689 I-4.019 J2.013 E5.40333
G3 X145.819 Y85.675 I-5.705 J-1.862 E5.47223
G3 X144.804 Y86.885 I-4.238 J-2.526 E5.57396
G3 X143.254 Y87.729 I-3.082 J-3.814 E5.68777
G3 X141.921 Y87.94 I-1.567 J-5.581 E5.77452
G1 X121.917 Y87.94 E7.05744
G1 X121.386 Y87.906 E7.09156
G3 X120.161 Y87.583 I1.708 J-8.979 E7.17287
G1 X119.54 Y87.255 E7.21791
G3 X117.522 Y84.398 I2.417 J-3.848 E7.44818
G3 X117.422 Y83.331 I5.907 J-1.094 E7.517
G3 X117.838 Y81.53 I4.646 J.125 E7.63634
G3 X118.394 Y80.64 I5.8 J3.003 E7.70371
G3 X119.055 Y79.961 I3.976 J3.21 E7.76457
G3 X119.959 Y79.385 I3.669 J4.758 E7.83341
G3 X120.845 Y79.062 I2.197 J4.656 E7.89397
G3 X121.917 Y78.927 I1.56 J8.042 E7.96331
G1 X141.922 Y78.927 E9.24629
G3 X143.112 Y79.09 I-.184 J5.745 E9.32346
G1 X143.906 Y79.394 E9.37799
G3 X144.667 Y79.868 I-2.553 J4.949 E9.43555
G1 X145.194 Y80.354 E9.48153
G3 X145.909 Y81.359 I-3.27 J3.085 E9.56088
G1 X145.909 Y81.359 F9000
G1 X145.454 Y81.662
G1 F1800
G1 X145.7 Y82.231 E9.60064
G1 X145.863 Y83.004 E9.65131
G1 X145.87 Y83.794 E9.70198
G1 X145.72 Y84.57 E9.75267
G3 X145.337 Y85.443 I-5.424 J-1.861 E9.81388
G3 X144.736 Y86.224 I-4.406 J-2.771 E9.87718
G3 X143.96 Y86.832 I-3.583 J-3.767 E9.9405
G3 X143.058 Y87.231 I-2.706 J-4.904 E10.00384
G3 X141.921 Y87.405 I-1.382 J-5.232 E10.07775
G1 X121.917 Y87.405 E11.36067
G1 X121.352 Y87.364 E11.397
G1 X120.534 Y87.148 E11.45126
G1 X119.796 Y86.784 E11.50403
G1 X119.234 Y86.347 E11.54969
G3 X118.661 Y85.696 I3.032 J-3.245 E11.6054
G1 X118.277 Y85.006 E11.65604
G1 X118.038 Y84.253 E11.70671
G3 X117.957 Y83.304 I5.661 J-.961 E11.76786
G3 X118.067 Y82.488 I4.696 J.216 E11.82073
G1 X118.334 Y81.733 E11.87209
G1 X118.837 Y80.94 E11.93232
G3 X119.419 Y80.354 I3.583 J2.971 E11.98536
G3 X120.227 Y79.848 I3.439 J4.6 E12.04657
G1 X120.835 Y79.626 E12.08808
G3 X121.917 Y79.462 I1.198 J4.269 E12.15844
G1 X141.922 Y79.462 E13.44142
G3 X143.083 Y79.636 I-.142 J4.9 E13.51689
G1 X143.698 Y79.888 E13.55951
G1 X144.365 Y80.311 E13.61016
G1 X144.81 Y80.728 E13.64927
G3 X145.386 Y81.506 I-3.085 J2.889 E13.71149
G1 X145.424 Y81.593 E13.71758
G1 X144.976 Y81.892 F9000
G1 F1800
G1 X145.201 Y82.427 E13.7548
G1 X145.335 Y83.097 E13.79862
G1 X145.334 Y83.781 E13.84249
G1 X145.198 Y84.451 E13.88634
G1 X144.854 Y85.21 E13.93978
G1 X144.326 Y85.879 E13.99444
G3 X143.436 Y86.507 I-3.903 J-4.583 E14.06439
G1 X142.862 Y86.732 E14.10393
