; generated by PrusaSlicer 2.8.1+MacOS-arm64 on 2024-10-29 at 14:12:47 UTC


;
;

;
;
; 

; external perimeters extrusion width = 0.55mm
; perimeters extrusion width = 0.60mm
; infill extrusion width = 0.60mm
; solid infill extrusion width = 0.60mm
; top infill extrusion width = 0.55mm
; first layer extrusion width = 0.60mm

M73 P0 R237

EXCLUDE_OBJECT_DEFINE NAME='main_controller_base' CENTER=107.965,111.895 POLYGON=[[112.844,12.772],[113.379,12.978],[113.583,13.215],[113.696,13.506],[113.713,17.212],[209.247,17.216],[209.828,17.302],[210.275,17.501],[210.729,17.873],[211.011,18.273],[211.187,18.730],[211.247,19.216],[211.259,205.216],[211.199,205.702],[211.023,206.159],[210.674,206.630],[210.288,206.932],[209.840,207.130],[209.259,207.216],[6.741,207.229],[6.255,207.170],[5.798,206.993],[5.398,206.711],[5.025,206.258],[4.801,205.715],[4.741,205.229],[4.741,19.208],[4.801,18.722],[4.977,18.265],[5.259,17.865],[5.713,17.493],[6.160,17.294],[6.741,17.208],[84.086,17.211],[84.103,13.506],[84.353,13.038],[84.866,12.780]]

M190 S70 ; set bed temperature and wait for it to be reached
M104 S230 ; set temperature
;TYPE:Custom
START_PRINT BED_TEMP=70 HOTEND_TEMP=230 FILAMENT_TYPE=PET EXTRUSION_MULTIPLIER=0.96
M109 S230 ; set temperature and wait for it to be reached
G21 ; set units to millimeters
G90 ; use absolute coordinates
M82 ; use absolute distances for extrusion
G92 E0
; Filament gcode
; ########################### NOTE OFFSET CHANGES ####################################
; Prevents PETG buildup on nozzle.
; PETG does not like to be touching the nozzle, this causes buildup on nozzle
; Once the bed z distance is finaly chuned a small offset for PETG works perfectly
SET_GCODE_OFFSET Z=0.24
; ####################################################################################
M107
;LAYER_CHANGE
;Z:0.3
;HEIGHT:0.3
G1 E-.55 F600
G1 Z.8 F9000
EXCLUDE_OBJECT_START NAME='main_controller_base'
G92 E0
G1 X143.053 Y114.089
G1 Z.3
G1 E.6 F1200
;TYPE:Perimeter
;WIDTH:0.6
G1 F1800
G3 X141.921 Y114.262 I-1.377 J-5.233 E.67358
G1 X121.917 Y114.262 E1.9565
G3 X120.859 Y114.105 I.067 J-4.104 E2.02529
G3 X119.966 Y113.743 I1.131 J-4.073 E2.08722
G3 X119.103 Y113.08 I3.048 J-4.863 E2.15712
G1 X118.682 Y112.579 E2.19909
G3 X118.277 Y111.863 I3.902 J-2.678 E2.25191
G3 X117.97 Y110.683 I7.115 J-2.483 E2.33019
G3 X117.966 Y109.927 I7.297 J-.419 E2.3787
G1 X118.067 Y109.345 E2.41658
G1 X118.331 Y108.6 E2.46727
G3 X118.839 Y107.794 I6.298 J3.414 E2.52842
G3 X119.624 Y107.051 I5.745 J5.28 E2.59779
G1 X120.256 Y106.689 E2.6445
G1 X121.003 Y106.431 E2.69518
G3 X121.917 Y106.319 I1.699 J10.117 E2.75426
G1 X141.922 Y106.319 E4.03724
G1 X142.735 Y106.411 E4.08971
G3 X143.788 Y106.794 I-1.407 J5.506 E4.16169
G1 X144.337 Y107.149 E4.20362
G1 X144.81 Y107.586 E4.24492
G3 X145.386 Y108.363 I-3.085 J2.888 E4.30709
G1 X145.7 Y109.088 E4.35776
G1 X145.863 Y109.861 E4.40843
G1 X145.87 Y110.651 E4.4591
G1 X145.72 Y111.427 E4.50979
G3 X145.337 Y112.3 I-5.425 J-1.861 E4.571
G3 X144.736 Y113.081 I-4.407 J-2.771 E4.6343
G3 X143.96 Y113.69 I-3.583 J-3.767 E4.69766
G3 X143.124 Y114.065 I-2.708 J-4.91 E4.75649
G1 X143.124 Y114.065 F9000
G1 X142.908 Y113.572
G1 F1800
G1 X142.862 Y113.589 E4.75964
G3 X141.921 Y113.726 I-2.06 J-10.864 E4.82064
G1 X121.917 Y113.726 E6.10356
G1 X121.375 Y113.682 E6.13843
G1 X120.821 Y113.543 E6.17506
G1 X120.22 Y113.271 E6.21737
G3 X119.513 Y112.736 I3.064 J-4.785 E6.27429
G1 X119.093 Y112.235 E6.31622
G1 X118.754 Y111.619 E6.36131
G1 X118.589 Y111.052 E6.39918
G3 X118.491 Y110.114 I3.176 J-.805 E6.45988
G1 X118.497 Y109.994 E6.46759
G1 X118.594 Y109.438 E6.50379
G1 X118.829 Y108.796 E6.54764
G3 X119.414 Y107.946 I5.818 J3.379 E6.61388
G1 X119.904 Y107.514 E6.65577
G1 X120.513 Y107.159 E6.70098
G1 X121.161 Y106.943 E6.74479
G1 X121.917 Y106.855 E6.7936
G1 X141.922 Y106.855 E8.07658
G1 X142.668 Y106.942 E8.12475
M73 P0 R236
G1 X143.336 Y107.164 E8.16989
G1 X144.047 Y107.599 E8.22335
G1 X144.427 Y107.96 E8.25696
G3 X144.937 Y108.654 I-2.582 J2.43 E8.31233
G1 X145.201 Y109.284 E8.35614
G1 X145.335 Y109.954 E8.39996
G1 X145.334 Y110.638 E8.44383
G1 X145.198 Y111.308 E8.48768
G1 X144.854 Y112.067 E8.54112
G1 X144.326 Y112.736 E8.59578
G3 X143.436 Y113.364 I-3.901 J-4.58 E8.66573
G1 X142.977 Y113.544 E8.69735
G1 X142.977 Y113.544 F9000
G1 X142.761 Y113.052
;TYPE:External perimeter
G1 F1800
G1 X142.667 Y113.091 E8.70388
G1 X142.139 Y113.165 E8.73807
G1 X141.921 Y113.191 E8.75215
G1 X121.917 Y113.191 E10.03507
G3 X120.953 Y113.024 I.122 J-3.573 E10.09801
G1 X120.452 Y112.789 E10.1335
G1 X120.014 Y112.469 E10.16829
G1 X119.503 Y111.891 E10.21777
G1 X119.231 Y111.374 E10.25524
G1 X119.048 Y110.684 E10.30102
G1 X119.029 Y110.06 E10.34106
G1 X119.122 Y109.531 E10.37551
G1 X119.328 Y108.991 E10.41258
G1 X119.768 Y108.348 E10.46255
G1 X120.259 Y107.915 E10.50453
G1 X120.769 Y107.63 E10.542
G1 X121.319 Y107.455 E10.57902
G1 X121.917 Y107.391 E10.61759
G1 X141.922 Y107.391 E11.90057
G1 X142.601 Y107.474 E11.94444
G1 X143.153 Y107.667 E11.98194
G1 X143.756 Y108.049 E12.02772
G1 X144.169 Y108.462 E12.06518
G1 X144.487 Y108.944 E12.10221
G1 X144.702 Y109.48 E12.13925
G1 X144.808 Y110.047 E12.17624
G1 X144.799 Y110.625 E12.21331
G1 X144.675 Y111.189 E12.25034
G1 X144.372 Y111.835 E12.2961
G1 X143.915 Y112.392 E12.34231
G1 X143.334 Y112.82 E12.38859
G1 X142.831 Y113.024 E12.4234
G1 X142.342 Y113.131 F9000
G1 E11.8734 F600
G92 E0
G1 X120.529 Y100.573 Z.739 F9000
G1 Z.3
G1 E.6 F1200
;TYPE:Perimeter
G1 F1800
G3 X120.079 Y100.376 I1.313 J-3.614 E.63153
G1 X119.632 Y100.103 E.66512
G3 X118.876 Y99.41 I5.535 J-6.796 E.73093
G1 X118.533 Y98.933 E.76861
G1 X118.204 Y98.251 E.81717
G1 X118.002 Y97.487 E.86785
G1 X117.956 Y96.699 E.91847
G1 X118.067 Y95.917 E.96912
G1 X118.331 Y95.171 E1.01987
G3 X118.839 Y94.366 I5.086 J2.649 E1.08099
G1 X119.362 Y93.835 E1.12879
G3 X120.227 Y93.277 I3.06 J3.793 E1.19493
G1 X121.003 Y93.002 E1.24773
G3 X121.917 Y92.891 I1.973 J12.362 E1.30679
G1 X141.922 Y92.891 E2.58977
G1 X142.56 Y92.943 E2.63082
G1 X143.15 Y93.091 E2.66983
G1 X143.873 Y93.409 E2.72049
G3 X144.736 Y94.072 I-3.088 J4.915 E2.79039
G1 X145.156 Y94.573 E2.83232
G3 X145.561 Y95.289 I-3.875 J2.664 E2.88514
G1 X145.801 Y96.042 E2.93583
G1 X145.886 Y96.828 E2.98653
G1 X145.814 Y97.614 E3.03715
G3 X145.52 Y98.52 I-5.59 J-1.313 E3.09831
G1 X145.102 Y99.229 E3.15109
G3 X144.26 Y100.069 I-6.04 J-5.22 E3.22744
G1 X143.611 Y100.447 E3.27561
G1 X143.099 Y100.647 E3.31086
G3 X141.921 Y100.833 I-1.413 J-5.127 E3.38751
G1 X121.917 Y100.833 E4.67043
G1 X121.334 Y100.771 E4.70803
G3 X120.6 Y100.598 I.508 J-3.812 E4.75647
G1 X120.6 Y100.598 F9000
G1 X120.725 Y100.076
G1 F1800
G3 X120.358 Y99.919 I1.092 J-3.051 E4.78209
G1 X119.911 Y99.646 E4.81568
G1 X119.3 Y99.078 E4.86918
G1 X118.976 Y98.631 E4.90459
G1 X118.692 Y98.031 E4.94716
G1 X118.524 Y97.368 E4.99102
G1 X118.491 Y96.685 E5.03487
G1 X118.594 Y96.01 E5.07866
G1 X118.829 Y95.367 E5.12257
G1 X119.282 Y94.668 E5.17599
G1 X119.726 Y94.228 E5.21608
G3 X120.66 Y93.669 I3.601 J4.954 E5.28598
G1 X121.161 Y93.514 E5.31961
G1 X121.917 Y93.426 E5.36842
G1 X141.922 Y93.426 E6.6514
G1 X142.461 Y93.47 E6.68608
G1 X143.018 Y93.61 E6.72291
G1 X143.64 Y93.892 E6.76671
G3 X144.325 Y94.416 I-3.283 J5 E6.82207
G1 X144.746 Y94.918 E6.86409
G1 X145.084 Y95.534 E6.90915
G1 X145.285 Y96.187 E6.95297
G1 X145.352 Y96.868 E6.99686
G1 X145.283 Y97.548 E7.04069
G1 X145.017 Y98.337 E7.09409
G1 X144.652 Y98.939 E7.13924
G3 X143.91 Y99.656 I-5.334 J-4.776 E7.20547
G1 X143.344 Y99.983 E7.24739
G1 X142.825 Y100.174 E7.28286
G1 X141.921 Y100.298 E7.34138
G1 X121.917 Y100.298 E8.6243
G1 X121.401 Y100.239 E8.65761
G3 X120.796 Y100.101 I.416 J-3.214 E8.69747
G1 X120.796 Y100.101 F9000
G1 X120.925 Y99.566
;TYPE:External perimeter
G1 F1800
G1 X120.637 Y99.462 E8.71711
G1 X120.19 Y99.189 E8.7507
G1 X119.674 Y98.695 E8.79651
G3 X119.179 Y97.808 I2.773 J-2.131 E8.86189
G1 X119.046 Y97.249 E8.89874
G1 X119.027 Y96.672 E8.93576
G1 X119.122 Y96.103 E8.97276
G1 X119.328 Y95.563 E9.00983
G1 X119.724 Y94.969 E9.05561
G1 X120.091 Y94.62 E9.08809
G1 X120.762 Y94.205 E9.13869
G1 X121.319 Y94.026 E9.17621
G1 X121.917 Y93.962 E9.21478
G1 X141.922 Y93.962 E10.49776
G3 X142.886 Y94.129 I-.123 J3.574 E10.5607
G1 X143.408 Y94.375 E10.59771
G1 X143.872 Y94.719 E10.63475
G1 X144.335 Y95.261 E10.68047
G1 X144.608 Y95.778 E10.71797
G1 X144.769 Y96.332 E10.75497
G1 X144.818 Y96.908 E10.79204
G1 X144.751 Y97.481 E10.82904
G1 X144.513 Y98.154 E10.87482
G1 X144.202 Y98.648 E10.91226
G1 X143.696 Y99.152 E10.95806
G1 X143.076 Y99.52 E11.0043
G1 X142.602 Y99.679 E11.03636
G1 X141.921 Y99.762 E11.08036
G1 X121.917 Y99.762 E12.36328
G1 X121.236 Y99.679 E12.40728
G1 X120.995 Y99.591 E12.42373
G1 X120.538 Y99.39 F9000
G1 E11.87373 F600
G92 E0
G1 X143.878 Y82.783 Z.8 F9000
G1 X145.454 Y81.662
G1 Z.3
G1 E.6 F1200
;TYPE:Perimeter
G1 F1800
G1 X145.7 Y82.231 E.63976
G1 X145.863 Y83.004 E.69043
G1 X145.87 Y83.794 E.7411
G1 X145.72 Y84.57 E.79179
G3 X145.337 Y85.443 I-5.424 J-1.861 E.853
G3 X144.736 Y86.224 I-4.406 J-2.771 E.9163
G3 X143.96 Y86.832 I-3.583 J-3.767 E.97962
G3 X143.058 Y87.231 I-2.706 J-4.904 E1.04296
G3 X141.921 Y87.405 I-1.382 J-5.232 E1.11687
G1 X121.917 Y87.405 E2.39979
G1 X121.352 Y87.364 E2.43612
G1 X120.534 Y87.148 E2.49038
G1 X119.796 Y86.784 E2.54315
G1 X119.234 Y86.347 E2.58881
G3 X118.661 Y85.696 I3.032 J-3.245 E2.64452
G1 X118.277 Y85.006 E2.69516
G1 X118.038 Y84.253 E2.74583
G3 X117.957 Y83.304 I5.661 J-.961 E2.80698
G3 X118.067 Y82.488 I4.696 J.216 E2.85985
G1 X118.334 Y81.733 E2.91121
G1 X118.837 Y80.94 E2.97144
G3 X119.419 Y80.354 I3.583 J2.971 E3.02448
G3 X120.227 Y79.848 I3.439 J4.6 E3.08569
G1 X120.835 Y79.626 E3.1272
G3 X121.917 Y79.462 I1.198 J4.269 E3.19756
G1 X141.922 Y79.462 E4.48054
G3 X143.083 Y79.636 I-.142 J4.9 E4.55601
G1 X143.698 Y79.888 E4.59863
G1 X144.365 Y80.311 E4.64928
G1 X144.81 Y80.728 E4.68839
G3 X145.386 Y81.506 I-3.085 J2.889 E4.75061
G1 X145.424 Y81.593 E4.7567
G1 X144.976 Y81.892 F9000
G1 F1800
G1 X145.201 Y82.427 E4.79392
G1 X145.335 Y83.097 E4.83774
G1 X145.334 Y83.781 E4.88161
G1 X145.198 Y84.451 E4.92546
G1 X144.854 Y85.21 E4.9789
G1 X144.326 Y85.879 E5.03356
G3 X143.436 Y86.507 I-3.903 J-4.583 E5.10351
G1 X142.862 Y86.732 E5.14305
G3 X141.921 Y86.869 I-2.06 J-10.864 E5.20405
G1 X121.917 Y86.869 E6.48697
G1 X121.364 Y86.823 E6.52256
G1 X120.679 Y86.632 E6.56817
G1 X120.052 Y86.314 E6.61326
G1 X119.578 Y85.937 E6.6521
G1 X119.08 Y85.362 E6.70088
G1 X118.754 Y84.762 E6.74467
G1 X118.554 Y84.108 E6.78853
G1 X118.492 Y83.277 E6.84197
G1 X118.594 Y82.581 E6.88708
G1 X118.829 Y81.937 E6.93105
G1 X119.281 Y81.241 E6.98427
G1 X119.783 Y80.746 E7.02948
G1 X120.474 Y80.324 E7.08141
G1 X120.993 Y80.138 E7.11677
G3 X121.917 Y79.998 I1.013 J3.58 E7.17686
G1 X141.922 Y79.998 E8.45984
G3 X143.49 Y80.381 I-.071 J3.687 E8.5642
G1 X144.064 Y80.753 E8.60807
G1 X144.427 Y81.102 E8.64036
G3 X144.937 Y81.797 I-2.582 J2.431 E8.69578
G1 X144.947 Y81.823 E8.69757
G1 X144.947 Y81.823 F9000
G1 X144.5 Y82.121
;TYPE:External perimeter
G1 F1800
G1 X144.702 Y82.623 E8.73227
G1 X144.808 Y83.19 E8.76926
G1 X144.799 Y83.767 E8.80627
G1 X144.675 Y84.332 E8.84337
G1 X144.372 Y84.978 E8.88913
G1 X143.915 Y85.535 E8.93534
G1 X143.334 Y85.963 E8.98162
G1 X142.667 Y86.234 E9.02779
G1 X141.921 Y86.333 E9.07605
G1 X121.917 Y86.333 E10.35897
G1 X121.454 Y86.294 E10.38877
G1 X120.824 Y86.117 E10.43074
G1 X120.308 Y85.843 E10.46821
G1 X119.863 Y85.477 E10.50516
G1 X119.499 Y85.029 E10.54218
G1 X119.231 Y84.517 E10.57924
G1 X119.069 Y83.963 E10.61626
G1 X119.027 Y83.251 E10.662
G1 X119.122 Y82.674 E10.6995
G1 X119.324 Y82.141 E10.73606
G1 X119.724 Y81.541 E10.78231
G1 X120.148 Y81.139 E10.81978
G1 X120.742 Y80.788 E10.86403
G1 X121.319 Y80.597 E10.90301
G1 X121.89 Y80.535 E10.93985
G1 X141.922 Y80.533 E12.22457
G1 X142.371 Y80.569 E12.25346
G3 X143.282 Y80.875 I-.665 J3.495 E12.31528
G1 X143.762 Y81.196 E12.35231
G1 X144.169 Y81.605 E12.38931
G1 X144.465 Y82.055 E12.42385
G1 X144.659 Y82.516 F9000
G1 E11.87385 F600
G92 E0
G1 X143.848 Y66.539 Z.579 F9000
G1 Z.3
G1 E.6 F1200
;TYPE:Perimeter
G1 F1800
G3 X143.873 Y66.553 I-2.119 J3.962 E.60184
G3 X144.639 Y67.12 I-3.023 J4.876 E.66303
G3 X145.177 Y67.742 I-3.27 J3.378 E.71584
G1 X145.561 Y68.432 E.76648
G1 X145.801 Y69.185 E.81717
G1 X145.886 Y69.97 E.86781
G1 X145.814 Y70.757 E.91849
G3 X145.52 Y71.663 I-5.59 J-1.313 E.97965
G1 X145.102 Y72.372 E1.03243
G3 X144.287 Y73.193 I-6.473 J-5.617 E1.10668
G1 X143.611 Y73.59 E1.15696
G1 X142.995 Y73.825 E1.19924
G3 X141.921 Y73.976 I-2.064 J-10.785 E1.26882
G1 X121.917 Y73.976 E2.55174
G3 X120.859 Y73.819 I.067 J-4.104 E2.62053
G3 X119.966 Y73.457 I1.131 J-4.073 E2.68246
G1 X119.32 Y73.002 E2.73313
G3 X118.682 Y72.294 I3.928 J-4.181 E2.79432
G3 X118.277 Y71.577 I3.875 J-2.663 E2.8472
G1 X118.038 Y70.825 E2.89781
G3 X117.957 Y69.875 I5.661 J-.962 E2.95903
G3 X118.08 Y68.994 I5.041 J.254 E3.01615
G1 X118.331 Y68.314 E3.06264
G3 X118.839 Y67.509 I5.088 J2.65 E3.12376
G3 X119.419 Y66.925 I3.613 J3.008 E3.17661
G3 X120.227 Y66.42 I3.438 J4.598 E3.23779
G1 X120.835 Y66.197 E3.27932
G3 X121.917 Y66.034 I1.198 J4.27 E3.34967
G1 X141.922 Y66.034 E4.63265
G1 X142.487 Y66.074 E4.66898
G1 X143.084 Y66.217 E4.70835
G3 X143.781 Y66.504 I-1.356 J4.283 E4.75675
G1 X143.781 Y66.504 F9000
G1 X143.577 Y67.007
G1 F1800
G1 X143.641 Y67.035 E4.76123
G1 X144.305 Y67.539 E4.81469
G1 X144.759 Y68.076 E4.85979
G1 X145.084 Y68.677 E4.90361
G1 X145.285 Y69.33 E4.94743
G1 X145.352 Y70.01 E4.99125
G1 X145.283 Y70.691 E5.03515
G1 X145.017 Y71.48 E5.08855
G1 X144.652 Y72.082 E5.1337
G3 X143.911 Y72.798 I-5.358 J-4.799 E5.19984
G1 X143.343 Y73.126 E5.24191
G1 X142.825 Y73.317 E5.27732
G3 X141.921 Y73.44 I-2.21 J-12.836 E5.33584
G1 X121.917 Y73.44 E6.61876
G1 X121.375 Y73.397 E6.65363
G1 X120.821 Y73.257 E6.69028
G1 X120.22 Y72.985 E6.73259
G1 X119.643 Y72.575 E6.77799
G1 X119.093 Y71.949 E6.83143
G1 X118.754 Y71.333 E6.87652
G1 X118.554 Y70.68 E6.92032
G1 X118.492 Y69.849 E6.97376
G1 X118.602 Y69.113 E7.02149
G1 X118.829 Y68.51 E7.06281
G1 X119.282 Y67.81 E7.11628
G1 X119.783 Y67.318 E7.16131
G1 X120.474 Y66.896 E7.21324
G1 X120.993 Y66.709 E7.24862
G3 X121.917 Y66.569 I1.014 J3.58 E7.30871
G1 X141.922 Y66.569 E8.59169
G3 X142.952 Y66.736 I-.092 J3.833 E8.65882
G1 X143.508 Y66.978 E8.69771
G1 X143.508 Y66.978 F9000
G1 X143.31 Y67.471
;TYPE:External perimeter
G1 F1800
G1 X143.408 Y67.518 E8.70468
G1 X143.971 Y67.958 E8.75051
G1 X144.34 Y68.41 E8.78793
G1 X144.608 Y68.921 E8.82494
G1 X144.769 Y69.475 E8.86194
G1 X144.818 Y70.05 E8.89895
G1 X144.751 Y70.624 E8.93601
G1 X144.513 Y71.297 E8.98179
G1 X144.202 Y71.791 E9.01923
G1 X143.696 Y72.295 E9.06503
G1 X143.076 Y72.662 E9.11124
G1 X142.602 Y72.821 E9.1433
G1 X141.921 Y72.905 E9.18731
G1 X121.917 Y72.905 E10.47023
G3 X120.953 Y72.738 I.122 J-3.573 E10.53317
G1 X120.452 Y72.503 E10.56866
G1 X119.967 Y72.148 E10.60721
G1 X119.503 Y71.605 E10.65302
G1 X119.231 Y71.089 E10.69043
G1 X119.069 Y70.534 E10.72751
G1 X119.027 Y69.822 E10.77325
G1 X119.124 Y69.232 E10.8116
G1 X119.328 Y68.706 E10.84778
G1 X119.724 Y68.112 E10.89356
G1 X120.148 Y67.71 E10.93103
G1 X120.741 Y67.36 E10.97519
G1 X121.319 Y67.169 E11.01423
G1 X121.89 Y67.106 E11.05107
G1 X141.922 Y67.105 E12.33579
G3 X142.886 Y67.272 I-.123 J3.573 E12.39873
G1 X143.242 Y67.439 E12.42395
G1 X143.657 Y67.719 F9000
G1 E11.87395 F600
G92 E0
G1 X141.956 Y52.608 Z.565 F9000
G1 Z.3
G1 E.6 F1200
;TYPE:Perimeter
G1 F1800
G1 X142.642 Y52.676 E.64421
G1 X143.15 Y52.805 E.67782
G1 X144.013 Y53.21 E.73896
G1 X144.664 Y53.713 E.79172
G1 X145.149 Y54.278 E.83947
G1 X145.516 Y54.916 E.88667
G3 X145.801 Y55.756 I-3.964 J1.81 E.94366
G1 X145.886 Y56.542 E.99436
G3 X145.777 Y57.489 I-5.742 J-.18 E1.05557
G1 X145.577 Y58.116 E1.09778
G1 X145.216 Y58.783 E1.14642
G3 X144.593 Y59.504 I-4.637 J-3.379 E1.2076
G3 X143.788 Y60.073 I-3.393 J-3.945 E1.27092
G3 X142.867 Y60.426 I-2.313 J-4.656 E1.33427
G3 X141.921 Y60.548 I-1.419 J-7.285 E1.39548
G1 X121.917 Y60.548 E2.6784
G3 X120.859 Y60.391 I.068 J-4.107 E2.74719
