; generated by PrusaSlicer 2.8.1+MacOS-arm64 on 2024-10-11 at 05:16:04 UTC


;
;

;
;
; 

; external perimeters extrusion width = 0.68mm
; perimeters extrusion width = 0.68mm
; infill extrusion width = 0.68mm
; solid infill extrusion width = 0.68mm
; top infill extrusion width = 0.60mm


EXCLUDE_OBJECT_DEFINE NAME='main_controller_lid' CENTER=125.005,125.000 POLYGON=[[224.813,32.391],[225.229,32.495],[225.574,32.751],[225.795,33.119],[225.859,33.489],[225.859,216.511],[225.774,216.934],[225.494,217.329],[225.173,217.530],[224.759,217.611],[25.241,217.598],[24.817,217.513],[24.422,217.232],[24.222,216.911],[24.141,216.497],[24.153,33.497],[24.237,33.076],[24.514,32.682],[24.882,32.462],[25.253,32.397]]

;TYPE:Custom
START_PRINT BED_TEMP=70 HOTEND_TEMP=230 FILAMENT_TYPE=PET EXTRUSION_MULTIPLIER=0.95 PERIMETER_SPEED=70
G21 ; set units to millimeters
G90 ; use absolute coordinates
M82 ; use absolute distances for extrusion
G92 E0
; Filament gcode
; ########################### NOTE OFFSET CHANGES ####################################
; Prevents PETG buildup on nozzle.
; SET_GCODE_OFFSET Z=0.06
; ####################################################################################
M107
;LAYER_CHANGE
;Z:0.35
;HEIGHT:0.35
G1 E-.5 F240
G1 Z.35 F9000
EXCLUDE_OBJECT_START NAME='main_controller_lid'
G92 E0
G1 X125.577 Y125.805
G1 E.5 F240
;TYPE:External perimeter
;WIDTH:0.675
G1 F1800
G1 X125.469 Y125.823 E.50908
G1 X124.752 Y125.43 E.57688
G1 X113.692 Y119.12 E1.63282
G1 X113.563 Y118.972 E1.6491
G1 X113.544 Y118.812 E1.66246
G1 X113.64 Y118.636 E1.67909
G1 X113.689 Y118.601 E1.68408
G1 X130.172 Y108.971 E3.26715
G1 X130.339 Y108.931 E3.28139
G1 X130.527 Y109.01 E3.2983
G1 X130.62 Y109.187 E3.31488
G1 X130.761 Y110.153 E3.39584
G1 X130.852 Y111.084 E3.47341
G1 X130.899 Y112.019 E3.55104
G1 X130.9 Y112.955 E3.62866
G1 X130.875 Y113.504 E3.67423
G1 X130.768 Y114.822 E3.78389
G1 X130.635 Y115.748 E3.86147
G1 X130.458 Y116.667 E3.93908
G1 X130.237 Y117.577 E4.01674
G1 X129.973 Y118.475 E4.09436
G1 X129.666 Y119.359 E4.17196
G1 X129.403 Y120.013 E4.23042
G1 X128.927 Y121.078 E4.32716
G1 X128.496 Y121.909 E4.40479
G1 X128.026 Y122.719 E4.48245
G1 X127.518 Y123.505 E4.56006
G1 X126.736 Y124.564 E4.66923
G1 X126.392 Y124.999 E4.71522
G1 X125.681 Y125.789 E4.80336
G1 X125.666 Y125.791 E4.80461
G1 X125.095 Y125.606 F9000
G1 X125.693 Y126.489
;TYPE:Perimeter
;WIDTH:0.865721
G1 F1800
G1 X125.523 Y126.524 E4.82358
;WIDTH:0.864302
G1 X125.326 Y126.502 E4.84521
;WIDTH:0.863853
G1 X125.157 Y126.451 E4.86446
G1 X124.981 Y126.327 E4.88793
;WIDTH:0.819808
G1 X124.804 Y126.204 E4.91012
;WIDTH:0.775763
G1 X124.628 Y126.08 E4.93097
;WIDTH:0.731718
G1 X124.451 Y125.957 E4.95053
;WIDTH:0.687674
G1 X113.392 Y119.647 E6.02871
G1 X113.007 Y119.198 E6.07879
;WIDTH:0.675
G1 X112.952 Y118.717 E6.11894
G1 X113.077 Y118.384 E6.14844
G1 X113.239 Y118.19 E6.1694
G1 X113.387 Y118.083 E6.18454
G1 X118.15 Y115.3 E6.642
;WIDTH:0.68767
G1 X129.867 Y108.448 E7.79138
G1 X130.371 Y108.332 E7.83517
;WIDTH:0.675
G1 X130.751 Y108.438 E7.86789
G1 X131.022 Y108.663 E7.8971
G1 X131.19 Y108.988 E7.92744
G1 X131.355 Y110.066 E8.01788
G1 X131.449 Y111.026 E8.09787
G1 X131.498 Y111.99 E8.17791
G1 X131.5 Y112.955 E8.25793
G1 X131.474 Y113.532 E8.30583
G1 X131.365 Y114.879 E8.4179
G1 X131.229 Y115.834 E8.49789
G1 X131.047 Y116.781 E8.57786
G1 X130.82 Y117.719 E8.65789
G1 X130.548 Y118.644 E8.73785
G1 X130.233 Y119.556 E8.81786
G1 X129.96 Y120.237 E8.8787
G1 X129.472 Y121.328 E8.97781
G1 X129.029 Y122.185 E9.05781
G1 X128.545 Y123.02 E9.13785
G1 X128.022 Y123.83 E9.21781
G1 X127.572 Y124.459 E9.28195
G1 X126.862 Y125.372 E9.37786
;WIDTH:0.7015
G1 X126.512 Y125.794 E9.42533
;WIDTH:0.749358
G1 X126.446 Y125.905 E9.43737
;WIDTH:0.797217
G1 X126.379 Y126.017 E9.4504
;WIDTH:0.845076
G1 X126.313 Y126.129 E9.46424
;WIDTH:0.892935
G1 X126.246 Y126.24 E9.4789
G1 X126.372 Y126.218 E9.49336
;WIDTH:0.845076
G1 X126.498 Y126.195 E9.50699
;WIDTH:0.797217
G1 X126.624 Y126.173 E9.51976
;WIDTH:0.749358
G1 X126.75 Y126.151 E9.53168
;WIDTH:0.7015
G1 X127.252 Y126.083 E9.57555
;WIDTH:0.675
G1 X127.894 Y126.135 E9.62896
G1 X128.355 Y126.283 E9.66911
G1 X128.779 Y126.52 E9.70939
G1 X129.146 Y126.836 E9.74955
G1 X129.444 Y127.219 E9.78979
G1 X129.674 Y127.703 E9.83423
G1 X129.796 Y128.238 E9.87973
G1 X129.802 Y128.789 E9.92543
G1 X129.694 Y129.285 E9.96753
G1 X129.472 Y129.772 E10.01191
G1 X129.149 Y130.195 E10.05605
G1 X128.756 Y130.528 E10.09877
G1 X128.302 Y130.77 E10.14143
G1 X127.837 Y130.907 E10.18163
G1 X127.354 Y130.95 E10.22184
G1 X126.872 Y130.896 E10.26206
G1 X126.411 Y130.748 E10.30221
G1 X125.988 Y130.511 E10.34242
G1 X125.62 Y130.195 E10.38264
G1 X125.284 Y129.742 E10.42941
G1 X125.106 Y129.378 E10.46301
G1 X124.977 Y128.843 E10.50865
G1 X124.963 Y128.309 E10.55295
G1 X125.077 Y127.77 E10.59864
;WIDTH:0.695804
G1 X125.131 Y127.609 E10.61321
;WIDTH:0.738988
G1 X125.185 Y127.448 E10.62879
;WIDTH:0.782172
G1 X125.24 Y127.286 E10.64551
;WIDTH:0.825356
G1 X125.294 Y127.125 E10.66312
;WIDTH:0.863853
G1 X125.463 Y126.869 E10.69657
;WIDTH:0.865298
G1 X125.827 Y126.521 E10.75158
;WIDTH:0.865721
G1 X125.932 Y126.44 E10.76607
G1 X125.781 Y126.471 E10.78292
G1 X125.781 Y126.471 F9000
G1 X125.932 Y126.44
;WIDTH:0.892935
G1 F1800
G1 X126.246 Y126.24 E10.82501
G1 E10.32501 F240
G92 E0
G1 X126.246 Y126.24 F9000
G1 X129.203 Y128.606
G1 E.5 F240
;TYPE:External perimeter
;WIDTH:0.675
G1 F1800
G1 X129.194 Y128.819 E.51768
G1 X129.098 Y129.171 E.54794
G1 X128.934 Y129.498 E.57828
G1 X128.709 Y129.786 E.60859
G1 X128.431 Y130.024 E.63894
G1 X128.166 Y130.177 E.66432
G1 X127.763 Y130.312 E.69956
G1 X127.399 Y130.352 E.72993
G1 X127.035 Y130.318 E.76025
G1 X126.685 Y130.214 E.79053
G1 X126.362 Y130.042 E.82088
G1 X126.08 Y129.809 E.85122
G1 X125.811 Y129.455 E.88809
G1 X125.68 Y129.201 E.91179
G1 X125.576 Y128.828 E.9439
G1 X125.563 Y128.294 E.9882
G1 X125.668 Y127.859 E1.02531
G1 X125.877 Y127.473 E1.06171
G1 X126.058 Y127.245 E1.08585
G1 X126.372 Y126.986 E1.1196
G1 X126.655 Y126.829 E1.14644
G1 X127.004 Y126.719 E1.17679
G1 X127.367 Y126.679 E1.20707
G1 X127.841 Y126.743 E1.24673
G1 X128.082 Y126.817 E1.26764
G1 X128.405 Y126.989 E1.29799
G1 X128.687 Y127.222 E1.32833
G1 X128.987 Y127.633 E1.37053
G1 X129.092 Y127.851 E1.3906
G1 X129.211 Y128.372 E1.43492
G1 X129.206 Y128.516 E1.44687
G1 X129.103 Y129.108 F9000
G1 E.94687 F240
G92 E0
G1 X123.982 Y127.257 F9000
G1 E.5 F240
G1 F1800
G1 X123.972 Y127.399 E.5118
G1 X123.884 Y127.511 E.52361
G1 X123.114 Y128.119 E.60497
G1 X122.54 Y128.53 E.66351
G1 X121.879 Y128.969 E.72931
G1 X121.045 Y129.473 E.81012
G1 X119.927 Y130.068 E.91514
G1 X119.076 Y130.457 E.99273
G1 X118.54 Y130.672 E1.04062
G1 X117.322 Y131.112 E1.14801
G1 X116.423 Y131.375 E1.22569
G1 X115.513 Y131.595 E1.30333
G1 X114.593 Y131.771 E1.38101
G1 X113.666 Y131.903 E1.45866
G1 X112.734 Y131.99 E1.53628
G1 X111.799 Y132.033 E1.6139
G1 X110.862 Y132.03 E1.6916
G1 X109.927 Y131.983 E1.76923
G1 X108.995 Y131.891 E1.84689
G1 X108.069 Y131.754 E1.92452
G1 X107.048 Y131.542 E2.01099
G1 X106.91 Y131.405 E2.02712
G1 X106.877 Y130.762 E2.08051
G1 X106.82 Y117.818 E3.15393
G1 X106.883 Y117.632 E3.17022
G1 X107.013 Y117.536 E3.18362
G1 X107.213 Y117.532 E3.20021
G1 X107.268 Y117.556 E3.20519
G1 X123.847 Y127.015 E4.78807
G1 X123.971 Y127.172 E4.80466
G1 X123.653 Y127.681 F9000
G1 X124.604 Y127.216
;TYPE:Perimeter
;WIDTH:0.783196
G1 F1800
G1 X124.602 Y127.234 E4.80643
;WIDTH:0.742868
G1 X124.591 Y127.33 E4.81535
;WIDTH:0.70254
G1 X124.579 Y127.425 E4.82366
;WIDTH:0.664529
G1 X124.424 Y127.799 E4.85665
;WIDTH:0.675
G1 X124.256 Y127.982 E4.87725
G1 X123.49 Y128.587 E4.9582
G1 X122.889 Y129.018 E5.01953
G1 X122.204 Y129.473 E5.08772
G1 X121.345 Y129.992 E5.17095
G1 X120.203 Y130.601 E5.27828
G1 X119.325 Y131.003 E5.35836
G1 X118.763 Y131.229 E5.40859
G1 X117.518 Y131.679 E5.51837
G1 X116.592 Y131.951 E5.5984
G1 X115.654 Y132.178 E5.67843
G1 X114.706 Y132.361 E5.7585
G1 X113.751 Y132.497 E5.83849
G1 X112.79 Y132.588 E5.91854
G1 X111.826 Y132.632 E5.99856
G1 X110.861 Y132.63 E6.07858
G1 X109.897 Y132.582 E6.15862
G1 X108.936 Y132.487 E6.2387
G1 X107.981 Y132.347 E6.31874
G1 X107.005 Y132.155 E6.40123
G1 X106.784 Y132.081 E6.42056
G1 X106.496 Y131.858 E6.45077
G1 X106.372 Y131.67 E6.46945
;WIDTH:0.677403
G1 X106.278 Y131.277 E6.50309
;WIDTH:0.693348
G1 X106.272 Y130.553 E6.56497
;WIDTH:0.68858
G1 X106.213 Y117.821 E7.64471
G1 X106.41 Y117.263 E7.69489
;WIDTH:0.675
G1 X106.799 Y116.976 E7.73498
G1 X107.15 Y116.917 E7.7645
G1 X107.399 Y116.961 E7.78547
G1 X107.566 Y117.035 E7.80062
G1 X112.355 Y119.768 E8.25788
;WIDTH:0.687668
G1 X124.148 Y126.489 E9.40728
;WIDTH:0.723881
G1 X124.283 Y126.606 E9.4233
;WIDTH:0.760088
G1 X124.419 Y126.723 E9.44029
;WIDTH:0.796295
G1 X124.555 Y126.84 E9.45818
;WIDTH:0.830074
G1 X124.596 Y126.893 E9.46517
;WIDTH:0.863853
G1 X124.637 Y126.947 E9.47256
G1 X124.625 Y127.042 E9.483
;WIDTH:0.823524
G1 X124.615 Y127.127 E9.49185
G1 E8.99185 F240
G92 E0
G1 X124.615 Y127.127 F9000
G1 X96.67 Y127.208
G1 E.5 F240
;TYPE:External perimeter
;WIDTH:0.675
G1 F1800
G1 X96.687 Y127.222 E.50183
G1 X96.927 Y127.525 E.53388
G1 X97.147 Y128.012 E.5782
G1 X97.219 Y128.454 E.61534
G1 X97.194 Y128.819 E.64568
G1 X97.098 Y129.171 E.67594
G1 X96.934 Y129.498 E.70628
G1 X96.709 Y129.786 E.73659
G1 X96.431 Y130.024 E.76694
G1 X96.12 Y130.198 E.79649
G1 X95.632 Y130.329 E.83839
G1 X95.399 Y130.352 E.85781
G1 X95.035 Y130.318 E.88813
G1 X94.685 Y130.214 E.91841
G1 X94.362 Y130.042 E.94876
G1 X94.053 Y129.778 E.98246
G1 X93.849 Y129.526 E1.00935
G1 X93.677 Y129.187 E1.04087
G1 X93.555 Y128.66 E1.08573
G1 X93.572 Y128.212 E1.12291
G1 X93.668 Y127.859 E1.15325
G1 X93.864 Y127.49 E1.1879
G1 X94.058 Y127.245 E1.21382
G1 X94.434 Y126.95 E1.25345
G1 X94.655 Y126.829 E1.27434
G1 X95.004 Y126.719 E1.30469
G1 X95.43 Y126.684 E1.34014
G1 X95.731 Y126.712 E1.36521
G1 X96.082 Y126.817 E1.39559
G1 X96.404 Y126.989 E1.42586
G1 X96.6 Y127.151 E1.44695
G1 X96.957 Y127.633 F9000
G1 E.94695 F240
G92 E0
G1 X87.533 Y134.114 F9000
G1 E.5 F240
G1 F1800
G1 X87.478 Y134.199 E.5084
G1 X87.296 Y134.26 E.52432
G1 X39.952 Y134.248 E4.45042
G1 X39.399 Y134.142 E4.49711
G1 X38.877 Y133.928 E4.54389
G1 X38.407 Y133.615 E4.59072
G1 X38.06 Y133.277 E4.63089
G1 X37.766 Y132.867 E4.67273
G1 X37.556 Y132.431 E4.71286
G1 X37.419 Y131.945 E4.75473
G1 X37.371 Y131.382 E4.80159
G1 X37.435 Y130.821 E4.84841
G1 X37.609 Y130.283 E4.8953
G1 X37.887 Y129.791 E4.94216
G1 X38.256 Y129.364 E4.98896
G1 X38.634 Y129.062 E5.02908
G1 X39.078 Y128.821 E5.07097
G1 X39.616 Y128.649 E5.11781
G1 X40.175 Y128.587 E5.16445
G1 X85.236 Y128.585 E8.90123
G1 X85.431 Y128.657 E8.91847
G1 X85.517 Y128.782 E8.93105
G1 X86.142 Y130.491 E9.08195
G1 X86.814 Y132.148 E9.23023
G1 X87.132 Y132.858 E9.29474
G1 X87.571 Y133.84 E9.38394
G1 X87.589 Y134.027 E9.39952
G1 X87.582 Y134.038 E9.4006
G1 X87.02 Y134.249 F9000
G1 X88.037 Y134.44
;TYPE:Perimeter
G1 F1800
G1 X87.946 Y134.583 E9.41466
G1 X87.666 Y134.781 E9.4431
G1 X87.351 Y134.858 E9.46999
G1 X39.947 Y134.848 E13.40107
G1 X39.28 Y134.73 E13.45724
G1 X38.644 Y134.481 E13.51388
G1 X38.069 Y134.11 E13.57063
G1 X37.676 Y133.746 E13.61505
G1 X37.279 Y133.217 E13.6699
G1 X37.034 Y132.74 E13.71437
G1 X36.841 Y132.107 E13.76925
G1 X36.773 Y131.427 E13.82592
G1 X36.84 Y130.746 E13.88267
G1 X37.041 Y130.092 E13.93941
G1 X37.367 Y129.491 E13.99611
G1 X37.806 Y128.967 E14.0528
G1 X38.217 Y128.622 E14.0973
G1 X38.791 Y128.294 E14.15212
G1 X39.439 Y128.075 E14.20884
G1 X40.115 Y127.99 E14.26534
G1 X85.236 Y127.985 E18.00709
G1 X85.594 Y128.06 E18.03742
G1 X85.868 Y128.245 E18.06484
G1 X86.069 Y128.545 E18.09479
G1 X86.702 Y130.276 E18.24763
G1 X87.366 Y131.912 E18.39405
G1 X87.68 Y132.613 E18.45775
G1 X88.118 Y133.593 E18.54677
G1 X88.196 Y133.926 E18.57513
G1 X88.137 Y134.281 E18.60497
G1 X88.085 Y134.364 E18.61309
G1 X88.085 Y134.364 F9000
G1 X88.539 Y134.766
G1 F1800
G1 X88.4 Y134.976 E18.63397
G1 X88.067 Y135.247 E18.66957
G1 X87.659 Y135.415 E18.70616
G1 X87.296 Y135.46 E18.73649
G1 X39.954 Y135.447 E22.66243
G1 X39.162 Y135.318 E22.72897
G1 X38.411 Y135.033 E22.79558
G1 X37.731 Y134.606 E22.86217
G1 X37.257 Y134.175 E22.9153
G1 X36.792 Y133.567 E22.97878
G1 X36.493 Y133 E23.03194
G1 X36.264 Y132.269 E23.09546
G1 X36.174 Y131.471 E23.16206
G1 X36.245 Y130.671 E23.22866
G1 X36.472 Y129.901 E23.29523
G1 X36.848 Y129.191 E23.36185
G1 X37.174 Y128.777 E23.40555
G1 X37.545 Y128.39 E23.45001
G1 X37.989 Y128.05 E23.49639
G1 X38.504 Y127.767 E23.54512
G1 X39.262 Y127.502 E23.61171
G1 X40.056 Y127.393 E23.67817
G1 X85.236 Y127.385 E27.42482
G1 X85.667 Y127.449 E27.46095
G1 X86.042 Y127.621 E27.49516
G1 X86.371 Y127.905 E27.5312
G1 X86.624 Y128.318 E27.57136
G1 X87.261 Y130.06 E27.72517
G1 X87.918 Y131.677 E27.86991
G1 X88.227 Y132.368 E27.93268
G1 X88.665 Y133.348 E28.0217
G1 X88.781 Y133.747 E28.05616
G1 X88.786 Y134.136 E28.08842
G1 X88.662 Y134.579 E28.12657
G1 X88.589 Y134.691 E28.13766
G1 E27.63766 F240
G92 E0
G1 X88.589 Y134.691 F9000
G1 X104.917 Y130.793
G1 E.5 F240
;TYPE:External perimeter
G1 F1800
G1 X104.844 Y130.848 E.50758
G1 X104.647 Y130.84 E.52393
G1 X103.74 Y130.479 E.60488
G1 X102.888 Y130.092 E.68248
G1 X102.055 Y129.664 E.76014
G1 X100.933 Y128.998 E.86834
G1 X100.456 Y128.692 E.91534
G1 X99.713 Y128.164 E.99093
G1 X98.861 Y127.489 E1.08107
G1 X98.25 Y126.959 E1.14814
G1 X97.504 Y126.241 E1.234
G1 X96.927 Y125.635 E1.30339
G1 X96.128 Y124.689 E1.40608
G1 X95.787 Y124.254 E1.45192
G1 X95.309 Y123.585 E1.5201
G1 X94.867 Y122.913 E1.5868
G1 X94.351 Y122.047 E1.6704
G1 X93.799 Y120.994 E1.76899
G1 X93.413 Y120.141 E1.84663
G1 X93.068 Y119.271 E1.92424
G1 X92.755 Y118.357 E2.00436
G1 X92.758 Y118.158 E2.02086
G1 X92.888 Y118.002 E2.0377
G1 X104.509 Y111.213 E3.1538
G1 X104.702 Y111.174 E3.17013
G1 X104.85 Y111.239 E3.18353
G1 X104.954 Y111.41 E3.20013
G1 X104.96 Y111.47 E3.20513
G1 X105.058 Y130.56 E4.78823
G1 X105.01 Y130.724 E4.8024
G1 X104.989 Y130.739 E4.80454
G1 X104.39 Y130.725 F9000
G1 X105.262 Y131.293
;TYPE:Perimeter
;WIDTH:0.677403
G1 F1800
G1 X105.222 Y131.332 E4.80919
;WIDTH:0.675
G1 X104.89 Y131.451 E4.83844
G1 X104.53 Y131.431 E4.86834
G1 X103.615 Y131.075 E4.94976
G1 X102.64 Y130.638 E5.03836
G1 X101.743 Y130.177 E5.12199
G1 X100.945 Y129.717 E5.19837
G1 X99.711 Y128.899 E5.32114
G1 X98.586 Y128.043 E5.43837
G1 X98.001 Y127.537 E5.50251
;WIDTH:0.712977
G1 X97.793 Y127.372 E5.52592
;WIDTH:0.750955
G1 X97.586 Y127.208 E5.55059
;WIDTH:0.790819
G1 X97.425 Y127.081 E5.57088
G1 X97.489 Y127.251 E5.58885
;WIDTH:0.754962
G1 X97.554 Y127.421 E5.60595
;WIDTH:0.719106
G1 X97.619 Y127.59 E5.62207
;WIDTH:0.68325
G1 X97.763 Y128.002 E5.65876
;WIDTH:0.675
G1 X97.818 Y128.484 E5.69899
G1 X97.776 Y128.967 E5.73919
G1 X97.639 Y129.432 E5.77939
G1 X97.413 Y129.861 E5.8196
G1 X97.106 Y130.236 E5.85979
G1 X96.731 Y130.543 E5.89998
G1 X96.302 Y130.77 E5.94023
G1 X95.837 Y130.907 E5.98043
G1 X95.354 Y130.95 E6.02064
G1 X94.872 Y130.896 E6.06086
G1 X94.411 Y130.748 E6.10101
G1 X93.988 Y130.511 E6.14122
G1 X93.594 Y130.163 E6.18481
G1 X93.323 Y129.813 E6.22152
G1 X93.092 Y129.322 E6.26652
G1 X92.971 Y128.795 E6.31136
G1 X92.964 Y128.241 E6.35731
G1 X93.094 Y127.678 E6.40523
G1 X93.328 Y127.206 E6.44892
G1 X93.657 Y126.798 E6.49238
G1 X94.134 Y126.431 E6.54229
G1 X94.464 Y126.261 E6.57307
G1 X94.929 Y126.123 E6.61329
G1 X95.475 Y126.086 E6.65867
G1 X95.894 Y126.135 E6.69365
;WIDTH:0.715061
G1 X96.27 Y126.261 E6.72873
;WIDTH:0.755122
G1 X96.646 Y126.387 E6.76601
;WIDTH:0.793609
G1 X96.815 Y126.474 E6.78489
G1 X96.661 Y126.276 E6.8098
;WIDTH:0.743667
G1 X96.507 Y126.077 E6.83306
;WIDTH:0.693726
G1 X96.179 Y125.687 E6.87664
;WIDTH:0.675
G1 X95.835 Y125.287 E6.92039
G1 X95.315 Y124.624 E6.99026
G1 X94.821 Y123.934 E7.06063
G1 X94.361 Y123.236 E7.12995
G1 X93.831 Y122.345 E7.21592
G1 X93.265 Y121.267 E7.31689
G1 X92.866 Y120.389 E7.39687
G1 X92.51 Y119.492 E7.4769
G1 X92.188 Y118.551 E7.55938
G1 X92.141 Y118.21 E7.58793
G1 X92.194 Y117.952 E7.60977
G1 X92.297 Y117.752 E7.62843
;WIDTH:0.677759
G1 X92.585 Y117.482 E7.66132
;WIDTH:0.696859
