; generated by PrusaSlicer 2.8.1+MacOS-arm64 on 2024-10-29 at 08:54:18 UTC


;
;

;
;
; 

; external perimeters extrusion width = 0.55mm
; perimeters extrusion width = 0.60mm
; infill extrusion width = 0.60mm
; solid infill extrusion width = 0.60mm
; top infill extrusion width = 0.55mm
; first layer extrusion width = 0.60mm

; external perimeters extrusion width = 0.55mm
; perimeters extrusion width = 0.60mm
; infill extrusion width = 0.60mm
; solid infill extrusion width = 0.60mm
; top infill extrusion width = 0.55mm
; first layer extrusion width = 0.60mm

M73 P0 R272

EXCLUDE_OBJECT_DEFINE NAME='b_lid' CENTER=60.637,113.878 POLYGON=[[32.332,34.755],[32.999,34.905],[33.577,35.271],[33.997,35.810],[34.212,36.459],[34.234,49.539],[34.116,50.356],[33.845,50.989],[33.526,51.438],[32.687,52.309],[32.182,53.166],[31.904,54.121],[31.893,55.313],[32.083,56.087],[32.324,56.634],[32.766,57.296],[33.180,57.728],[33.822,58.198],[34.359,58.462],[34.928,58.644],[35.717,58.750],[36.512,58.698],[37.281,58.489],[37.822,58.235],[38.473,57.776],[38.894,57.352],[39.349,56.698],[39.665,55.967],[39.830,55.188],[39.814,54.194],[39.554,53.234],[39.065,52.368],[38.003,51.142],[37.723,50.513],[37.605,49.835],[37.611,36.556],[37.754,35.987],[38.055,35.484],[38.410,35.146],[38.928,34.869],[39.602,34.752],[102.754,34.752],[103.334,34.839],[103.782,35.037],[104.236,35.409],[104.562,35.897],[104.754,36.752],[104.754,189.452],[104.694,189.938],[104.469,190.481],[104.097,190.934],[103.609,191.260],[102.754,191.452],[15.854,191.452],[15.854,44.752],[25.854,34.752]]
EXCLUDE_OBJECT_DEFINE NAME='a_lid' CENTER=148.693,104.867 POLYGON=[[196.059,36.435],[196.816,36.624],[197.375,37.018],[197.769,37.577],[197.958,38.334],[197.961,103.413],[167.961,103.413],[167.961,168.681],[197.961,168.681],[197.961,182.232],[197.901,182.718],[197.725,183.175],[197.443,183.575],[196.989,183.948],[196.447,184.172],[195.961,184.232],[131.964,184.232],[131.472,183.907],[131.149,183.536],[130.927,183.096],[130.818,182.616],[130.812,169.337],[130.930,168.658],[131.210,168.029],[132.272,166.804],[132.761,165.938],[133.021,164.978],[133.037,163.984],[132.872,163.205],[132.556,162.474],[132.101,161.820],[131.680,161.396],[131.200,161.039],[130.488,160.682],[129.719,160.474],[128.924,160.422],[128.135,160.528],[127.566,160.709],[126.860,161.079],[126.242,161.581],[125.736,162.196],[125.441,162.716],[125.228,163.274],[125.077,164.056],[125.111,165.050],[125.389,166.005],[125.894,166.862],[126.733,167.734],[127.052,168.183],[127.323,168.816],[127.427,169.357],[127.441,182.419],[127.287,183.188],[126.849,183.839],[126.285,184.232],[119.061,184.232],[109.061,174.232],[109.061,36.432]]

M190 S70 ; set bed temperature and wait for it to be reached
M104 S230 ; set temperature
;TYPE:Custom
START_PRINT BED_TEMP=70 HOTEND_TEMP=230 FILAMENT_TYPE=PET EXTRUSION_MULTIPLIER=0.96
M109 S230 ; set temperature and wait for it to be reached
G21 ; set units to millimeters
G90 ; use absolute coordinates
M82 ; use absolute distances for extrusion
G92 E0
; Filament gcode
; ########################### NOTE OFFSET CHANGES ####################################
; Prevents PETG buildup on nozzle.
; PETG does not like to be touching the nozzle, this causes buildup on nozzle
; Once the bed z distance is finaly chuned a small offset for PETG works perfectly
SET_GCODE_OFFSET Z=0.2
; ####################################################################################
M107
;LAYER_CHANGE
;Z:0.3
;HEIGHT:0.3
G1 E-.55 F600
G1 Z.8 F9000
EXCLUDE_OBJECT_START NAME='a_lid'
G92 E0
G1 X174.414 Y62.041
G1 Z.3
G1 E.6 F1200
;TYPE:Perimeter
;WIDTH:0.6
G1 F1800
G3 X174.381 Y61.671 I3.459 J-.495 E.62383
G3 X174.498 Y60.911 I3.49 J.15 E.67325
G3 X174.834 Y60.22 I3.291 J1.172 E.72263
G3 X175.359 Y59.658 I2.8 J2.089 E.77205
G3 X176.027 Y59.276 I2.059 J2.821 E.8215
G3 X177.167 Y59.103 I1.019 J2.876 E.8959
G1 X177.791 Y59.238 E.93684
G3 X178.647 Y59.725 I-1.787 J4.132 E1.00013
G1 X179.026 Y60.124 E1.03542
G1 X179.341 Y60.686 E1.07674
G3 X179.528 Y61.432 I-3.275 J1.219 E1.12616
G3 X179.487 Y62.2 I-3.486 J.199 E1.17558
G3 X179.222 Y62.922 I-3.391 J-.838 E1.225
G3 X178.755 Y63.533 I-2.994 J-1.8 E1.27442
G3 X178.13 Y63.98 I-2.33 J-2.603 E1.3238
G3 X177.4 Y64.222 I-1.46 J-3.174 E1.37322
G1 X176.74 Y64.252 E1.41559
G1 X176.01 Y64.078 E1.46372
G3 X175.346 Y63.691 I1.414 J-3.194 E1.51311
G3 X174.824 Y63.126 I2.292 J-2.635 E1.56254
G3 X174.493 Y62.432 I2.968 J-1.843 E1.61195
G3 X174.426 Y62.115 I3.38 J-.886 E1.63274
G1 X174.426 Y62.115 F9000
G1 X174.957 Y61.973
;TYPE:External perimeter
G1 F1800
G1 X174.914 Y61.618 E1.65567
G1 X175.023 Y61.018 E1.69478
G1 X175.305 Y60.476 E1.73396
G1 X175.733 Y60.041 E1.7731
G1 X176.271 Y59.752 E1.81227
G1 X176.87 Y59.635 E1.85141
G1 X177.118 Y59.636 E1.86732
G1 X177.671 Y59.76 E1.90367
G1 X178.206 Y60.055 E1.94285
G1 X178.573 Y60.417 E1.97591
G1 X178.871 Y60.942 E2.01463
G1 X179.003 Y61.538 E2.05378
G1 X178.954 Y62.147 E2.09296
G1 X178.728 Y62.714 E2.13211
G1 X178.345 Y63.189 E2.17124
G1 X177.839 Y63.53 E2.21037
G1 X177.255 Y63.706 E2.24949
G1 X176.74 Y63.716 E2.28252
G1 X176.155 Y63.563 E2.3213
G1 X175.636 Y63.241 E2.36047
G1 X175.235 Y62.782 E2.39956
G1 X174.987 Y62.224 E2.43872
G1 X174.966 Y62.047 E2.45015
G1 X174.943 Y61.548 F9000
G1 E1.90015 F600
G92 E0
G1 X195.412 Y42.961 Z.783 F9000
G1 Z.3
G1 E.6 F1200
;TYPE:Perimeter
G1 F1800
G3 X195.222 Y43.422 I-3.317 J-1.099 E.63201
G1 X194.755 Y44.033 E.68133
G1 X194.13 Y44.48 E.73061
G1 X193.4 Y44.722 E.77993
G1 X192.74 Y44.752 E.8223
G1 X192.01 Y44.578 E.87043
G3 X191.3 Y44.16 I1.927 J-4.081 E.92334
G1 X190.824 Y43.626 E.96922
G3 X190.493 Y42.932 I2.968 J-1.843 E1.01863
G3 X190.381 Y42.171 I3.38 J-.886 E1.06806
G3 X190.498 Y41.411 I3.49 J.15 E1.11748
G1 X190.834 Y40.72 E1.16676
G1 X191.359 Y40.158 E1.21608
G1 X192.027 Y39.776 E1.26543
G1 X192.777 Y39.607 E1.31474
G1 X193.273 Y39.62 E1.34656
G1 X193.791 Y39.738 E1.38063
G1 X194.474 Y40.091 E1.42994
G1 X194.956 Y40.543 E1.47232
G1 X195.341 Y41.186 E1.52038
G1 X195.528 Y41.932 E1.5697
G3 X195.487 Y42.7 I-3.486 J.199 E1.61912
G3 X195.435 Y42.89 I-3.392 J-.838 E1.63176
G1 X195.435 Y42.89 F9000
G1 X194.898 Y42.788
;TYPE:External perimeter
G1 F1800
G1 X194.728 Y43.214 E1.66118
G1 X194.345 Y43.689 E1.70031
G1 X193.839 Y44.03 E1.73944
G1 X193.255 Y44.206 E1.77856
G1 X192.74 Y44.216 E1.81159
G1 X192.155 Y44.063 E1.85037
G1 X191.64 Y43.744 E1.88922
G1 X191.235 Y43.282 E1.92862
G1 X190.987 Y42.724 E1.96778
G1 X190.914 Y42.118 E2.00693
G1 X191.023 Y41.518 E2.04604
G1 X191.305 Y40.976 E2.08522
G1 X191.733 Y40.541 E2.12436
G1 X192.271 Y40.252 E2.16353
G1 X192.87 Y40.135 E2.20267
G1 X193.153 Y40.142 E2.22083
G1 X193.671 Y40.26 E2.2549
G1 X194.206 Y40.555 E2.29408
G1 X194.573 Y40.917 E2.32714
G1 X194.871 Y41.443 E2.36591
G1 X195.003 Y42.038 E2.405
G1 X194.954 Y42.647 E2.44418
G1 X194.926 Y42.718 E2.44907
G1 X194.731 Y43.179 F9000
G1 E1.89907 F600
G92 E0
G1 X191.385 Y71.627 Z.8 F9000
G1 X178.431 Y181.764
G1 Z.3
G1 E.6 F1200
;TYPE:Perimeter
G1 F1800
G1 X178.13 Y181.98 E.62376
G1 X177.4 Y182.222 E.67308
G1 X176.74 Y182.252 E.71545
G1 X176.01 Y182.078 E.76358
G1 X175.346 Y181.691 E.81287
G1 X174.824 Y181.126 E.8622
G1 X174.493 Y180.432 E.91151
G1 X174.381 Y179.671 E.96084
G3 X174.498 Y178.911 I3.49 J.15 E1.01026
G3 X174.834 Y178.22 I3.291 J1.171 E1.05964
G3 X175.359 Y177.658 I2.8 J2.09 E1.10906
G3 X176.027 Y177.276 I2.059 J2.821 E1.15851
G3 X176.777 Y177.107 I1.137 J3.308 E1.20792
G1 X177.273 Y177.12 E1.23974
G1 X177.791 Y177.238 E1.27381
G3 X178.474 Y177.591 I-1.253 J3.26 E1.32322
G1 X178.956 Y178.043 E1.3656
G1 X179.341 Y178.686 E1.41366
G3 X179.528 Y179.432 I-3.275 J1.219 E1.46308
G3 X179.487 Y180.2 I-3.486 J.199 E1.5125
G1 X179.222 Y180.922 E1.56182
G1 X178.755 Y181.533 E1.61114
G1 X178.492 Y181.721 E1.63187
G1 X178.492 Y181.721 F9000
G1 X178.135 Y181.33
;TYPE:External perimeter
G1 F1800
G1 X177.839 Y181.53 E1.65478
G1 X177.255 Y181.706 E1.6939
G1 X176.74 Y181.716 E1.72693
G1 X176.155 Y181.563 E1.76571
G1 X175.636 Y181.241 E1.80488
G1 X175.235 Y180.782 E1.84397
G1 X174.987 Y180.224 E1.88313
G1 X174.914 Y179.618 E1.92228
G1 X175.023 Y179.018 E1.96139
G1 X175.305 Y178.476 E2.00057
G1 X175.733 Y178.041 E2.03971
G1 X176.271 Y177.752 E2.07888
G1 X176.87 Y177.635 E2.11802
G1 X177.153 Y177.642 E2.13618
G1 X177.671 Y177.76 E2.17025
G1 X178.206 Y178.055 E2.20943
G1 X178.573 Y178.417 E2.24249
G1 X178.871 Y178.943 E2.28126
G1 X179.003 Y179.538 E2.32035
G1 X178.954 Y180.147 E2.35953
G1 X178.728 Y180.714 E2.39868
G1 X178.345 Y181.189 E2.43781
G1 X178.197 Y181.288 E2.44923
G1 X177.763 Y181.536 F9000
G1 E1.89923 F600
G92 E0
G1 X193.002 Y181.24 Z.566 F9000
G1 Z.3
G1 E.6 F1200
;TYPE:Perimeter
G1 F1800
G1 X192.74 Y181.252 E.61682
G1 X192.01 Y181.078 E.66495
G1 X191.346 Y180.691 E.71424
G1 X190.824 Y180.126 E.76357
G1 X190.493 Y179.432 E.81288
G3 X190.381 Y178.671 I3.38 J-.886 E.86231
G3 X190.498 Y177.911 I3.49 J.15 E.91173
G3 X190.834 Y177.22 I3.291 J1.172 E.96111
G3 X191.359 Y176.658 I2.801 J2.09 E1.01053
G3 X192.027 Y176.276 I2.059 J2.821 E1.05998
G3 X192.777 Y176.107 I1.137 J3.308 E1.10939
G1 X193.273 Y176.12 E1.14121
G1 X193.791 Y176.238 E1.17528
G1 X194.474 Y176.591 E1.22459
G1 X194.956 Y177.043 E1.26697
G1 X195.341 Y177.686 E1.31503
G1 X195.528 Y178.432 E1.36435
G3 X195.487 Y179.2 I-3.486 J.199 E1.41377
G3 X195.222 Y179.922 I-3.392 J-.838 E1.46319
G1 X194.755 Y180.533 E1.51251
G1 X194.634 Y180.65 E1.5233
G1 X194.13 Y180.98 E1.56194
G1 X193.4 Y181.222 E1.61126
G1 X193.077 Y181.237 E1.632
G1 X193.077 Y181.237 F9000
G1 X193.002 Y180.711
;TYPE:External perimeter
G1 F1800
G1 X192.74 Y180.716 E1.64881
G1 X192.155 Y180.563 E1.68759
G1 X191.636 Y180.241 E1.72676
G1 X191.235 Y179.782 E1.76585
G1 X190.987 Y179.224 E1.80501
G1 X190.914 Y178.618 E1.84416
G1 X191.023 Y178.018 E1.88327
G1 X191.305 Y177.476 E1.92245
G1 X191.733 Y177.041 E1.96159
G1 X192.271 Y176.752 E2.00076
G1 X192.87 Y176.635 E2.0399
G1 X193.153 Y176.642 E2.05806
G1 X193.671 Y176.76 E2.09213
G1 X194.206 Y177.055 E2.13131
G1 X194.573 Y177.417 E2.16437
G1 X194.871 Y177.943 E2.20314
G1 X195.003 Y178.538 E2.24223
G1 X194.954 Y179.147 E2.28141
G1 X194.728 Y179.714 E2.32056
G1 X194.305 Y180.228 E2.36325
G1 X193.839 Y180.53 E2.39886
G1 X193.255 Y180.706 E2.43798
G1 X193.077 Y180.71 E2.4494
G1 X192.579 Y180.663 F9000
G1 E1.8994 F600
G92 E0
G1 X164.399 Y175.525 Z.8 F9000
G1 X135.771 Y170.305
G1 Z.3
G1 E.6 F1200
G1 F1800
G3 X134.956 Y171.551 I-1.888 J-.345 E.69806
G3 X133.129 Y171.696 I-1.049 J-1.622 E.82053
G1 X132.652 Y171.389 E.85691
G1 X132.351 Y171.054 E.88579
;WIDTH:0.640949
G1 X132.235 Y170.848 E.90211
;WIDTH:0.681898
G1 X132.12 Y170.641 E.91962
;WIDTH:0.722847
G1 X132.004 Y170.435 E.93826
;WIDTH:0.730419
G1 X131.943 Y170.008 E.97266
;WIDTH:0.768203
G1 X131.987 Y169.499 E1.01572
;WIDTH:0.777503
G1 X132.032 Y169.322 E1.03131
G1 X132.106 Y169.22 E1.04207
;WIDTH:0.733127
G1 X132.18 Y169.118 E1.05216
;WIDTH:0.688751
G1 X132.253 Y169.016 E1.06154
;WIDTH:0.644375
G1 X132.327 Y168.914 E1.07029
;WIDTH:0.6
G1 X132.676 Y168.531 E1.10352
G1 X133.085 Y168.261 E1.13495
G1 X133.578 Y168.098 E1.16825
G1 X133.948 Y168.071 E1.19204
G1 X134.512 Y168.169 E1.22875
G1 X134.921 Y168.361 E1.25773
G3 X135.65 Y169.21 I-1.128 J1.705 E1.33043
G3 X135.783 Y170.231 I-1.767 J.75 E1.39728
G1 X135.639 Y170.71 F9000
G1 E.84728 F600
G92 E0
G1 X164.259 Y169.512 Z.8 F9000
G1 X167.269 Y169.385
G1 Z.3
G1 E.6 F1200
;TYPE:Perimeter
G1 F1800
G1 X167.505 Y169.548 E.61839
G1 X167.829 Y169.617 E.63964
G1 X197.025 Y169.617 E2.51207
G1 X197.025 Y172.885 E2.72166
G1 X197.025 Y181.817 E3.2945
G1 X196.987 Y182.49 E3.33773
G1 X196.826 Y182.828 E3.36174
G1 X196.503 Y183.138 E3.39045
G3 X195.909 Y183.297 I-.648 J-1.233 E3.43021
G1 X132.24 Y183.297 E7.5135
G1 X131.993 Y183.082 E7.5345
G1 X131.844 Y182.821 E7.55377
G1 X131.747 Y182.442 E7.57886
G1 X131.747 Y171.08 E8.30754
G1 X131.98 Y171.452 E8.33569
G1 X132.362 Y171.839 E8.37056
G1 X132.839 Y172.146 E8.40694
G1 X133.348 Y172.335 E8.44176
G1 X133.828 Y172.399 E8.47282
G1 X134.311 Y172.366 E8.50387
G1 X134.779 Y172.239 E8.53497
G1 X135.212 Y172.021 E8.56606
G1 X135.593 Y171.722 E8.59712
G1 X135.907 Y171.354 E8.62814
G1 X136.142 Y170.93 E8.65923
G1 X136.289 Y170.468 E8.69032
G1 X136.341 Y169.986 E8.72141
G1 X136.297 Y169.504 E8.75245
G1 X136.144 Y169.002 E8.78611
G1 X135.88 Y168.537 E8.8204
G1 X135.531 Y168.152 E8.85373
G1 X135.108 Y167.85 E8.88706
G1 X134.604 Y167.642 E8.92203
G1 X134.04 Y167.543 E8.95875
G1 X133.524 Y167.566 E8.99188
G1 X133.037 Y167.695 E9.02419
;WIDTH:0.61786
G1 X132.466 Y167.996 E9.06697
G1 X132.792 Y167.642 E9.09886
;WIDTH:0.600235
G1 X133.103 Y167.244 E9.13127
;WIDTH:0.6
G2 X133.653 Y166.218 I-9.568 J-5.796 E9.20596
G2 X133.944 Y164.991 I-5.62 J-1.98 E9.28699
G1 X133.991 Y164.293 E9.33186
G1 X133.869 Y163.319 E9.39481
G1 X133.555 Y162.388 E9.45782
G1 X133.077 Y161.553 E9.51952
G1 X132.604 Y160.986 E9.56688
G1 X132.036 Y160.486 E9.61541
G1 X131.199 Y159.974 E9.67834
G1 X130.276 Y159.639 E9.74131
G1 X129.304 Y159.493 E9.80435
G1 X128.343 Y159.538 E9.86605
G1 X127.605 Y159.707 E9.91461
G1 X126.7 Y160.088 E9.97758
G1 X125.889 Y160.642 E10.04057
G1 X125.214 Y161.33 E10.10238
G1 X124.783 Y161.964 E10.15155
G1 X124.39 Y162.83 E10.21254
G1 X124.203 Y163.564 E10.26112
G1 X124.128 Y164.523 E10.32281
G1 X124.199 Y165.257 E10.3701
G1 X124.386 Y165.991 E10.41868
G1 X124.778 Y166.869 E10.48035
G1 X125.211 Y167.501 E10.52948
G3 X126.189 Y168.574 I-8.361 J8.602 E10.62265
G1 X126.392 Y168.992 E10.65245
G1 X126.505 Y169.654 E10.69552
G1 X126.505 Y182.358 E11.51027
G1 X126.405 Y182.835 E11.54153
G1 X126.178 Y183.166 E11.56727
G1 X126.009 Y183.297 E11.58098
G1 X119.448 Y183.297 E12.00176
G1 X109.996 Y173.845 E12.85904
G1 X109.996 Y37.368 E21.61174
G1 X195.884 Y37.37 E27.12001
G1 X196.258 Y37.418 E27.14419
G1 X196.547 Y37.555 E27.1647
G3 X196.912 Y37.972 I-1.293 J1.5 E27.20036
G1 X197.023 Y38.38 E27.22748
G1 X197.025 Y102.477 E31.33822
G1 X167.829 Y102.477 E33.21065
G1 X167.579 Y102.517 E33.22689
G1 X167.297 Y102.678 E33.24772
G1 X167.098 Y102.947 E33.26918
G1 X167.025 Y103.281 E33.29111
G1 X167.025 Y168.813 E37.49388
G1 X167.08 Y169.104 E37.51287
G1 X167.223 Y169.328 E37.52991
G1 E36.97991 F600
G92 E0
G1 X167.223 Y169.328 F9000
G1 X138.582 Y168.865 Z.8
G1 X131.856 Y168.756
G1 Z.3
G1 E.6 F1200
;WIDTH:0.529371
G1 F1800
G1 X131.992 Y168.548 E.61384
;WIDTH:0.557213
G1 X132.128 Y168.34 E.6285
;WIDTH:0.587537
G1 X132.297 Y168.168 E.6436
;WIDTH:0.61786
G1 X132.466 Y167.996 E.65958
G1 E.10958 F600
G92 E0
G1 X132.466 Y167.996 F9000
G1 X161.1 Y168.801 Z.8
G1 X167.638 Y168.985
G1 Z.3
G1 E.6 F1200
M73 P0 R271
;TYPE:External perimeter
;WIDTH:0.6
G1 F1800
G1 X167.655 Y169.017 E.60232
G1 X167.829 Y169.081 E.61421
G1 X197.561 Y169.081 E2.52102
G1 X197.561 Y172.885 E2.76498
G1 X197.561 Y182.108 E3.35648
G1 X197.511 Y182.621 E3.38954
G1 X197.37 Y182.986 E3.41463
G1 X197.147 Y183.302 E3.43943
G1 X196.782 Y183.602 E3.46973
G1 X196.346 Y183.782 E3.49998
G1 X195.942 Y183.832 E3.52609
G1 X132.078 Y183.832 E7.62189
G1 X131.842 Y183.675 E7.64007
G1 X131.485 Y183.314 E7.67263
G1 X131.28 Y182.882 E7.7033
G1 X131.211 Y182.488 E7.72895
G1 X131.212 Y171.034 E8.46353
;WIDTH:0.640949
G1 X131.232 Y170.874 E8.47466
;WIDTH:0.681898
G1 X131.253 Y170.714 E8.48659
;WIDTH:0.722847
G1 X131.273 Y170.555 E8.49922
;WIDTH:0.730419
G1 X131.277 Y170.008 E8.54284
;WIDTH:0.755469
G3 X131.342 Y168.968 I8.594 J.012 E8.62912
;WIDTH:0.718857
G1 X131.365 Y168.832 E8.63993
;WIDTH:0.679238
G1 X131.388 Y168.695 E8.65016
;WIDTH:0.639619
G1 X131.412 Y168.558 E8.65974
;WIDTH:0.6
G1 X131.594 Y168.187 E8.68624
G3 X132.327 Y167.366 I4.628 J3.395 E8.75693
G2 X132.874 Y166.577 I-3.118 J-2.742 E8.81864
G1 X133.14 Y166.065 E8.85564
G1 X133.343 Y165.386 E8.90109
G2 X133.459 Y164.351 I-8.869 J-1.522 E8.96792
G1 X133.358 Y163.481 E9.02409
G1 X133.087 Y162.648 E9.08027
G1 X132.661 Y161.891 E9.13598
G1 X132.244 Y161.382 E9.17818
G1 X131.75 Y160.938 E9.22078
G1 X131.007 Y160.475 E9.27693
G1 X130.187 Y160.167 E9.33311
G1 X129.323 Y160.028 E9.38923
G1 X128.454 Y160.062 E9.445
G1 X127.805 Y160.203 E9.48759
G1 X126.995 Y160.536 E9.54376
