; generated by PrusaSlicer 2.8.0+MacOS-arm64 on 2024-10-04 at 11:18:36 UTC


;
;

;
;
; 

; external perimeters extrusion width = 0.68mm
; perimeters extrusion width = 0.68mm
; infill extrusion width = 0.68mm
; solid infill extrusion width = 0.68mm
; top infill extrusion width = 0.60mm
; support material extrusion width = 0.60mm

; external perimeters extrusion width = 0.68mm
; perimeters extrusion width = 0.68mm
; infill extrusion width = 0.68mm
; solid infill extrusion width = 0.68mm
; top infill extrusion width = 0.60mm
; support material extrusion width = 0.60mm


EXCLUDE_OBJECT_DEFINE NAME='b_lid' CENTER=73.701,125.835 POLYGON=[[45.396,46.711],[46.063,46.861],[46.641,47.227],[47.062,47.766],[47.276,48.415],[47.298,61.496],[47.180,62.312],[46.910,62.945],[46.590,63.394],[45.751,64.266],[45.246,65.123],[44.968,66.078],[44.957,67.270],[45.147,68.043],[45.388,68.590],[45.831,69.252],[46.244,69.684],[46.887,70.155],[47.423,70.419],[48.187,70.642],[48.782,70.707],[49.576,70.654],[50.345,70.446],[50.886,70.191],[51.537,69.732],[51.958,69.308],[52.413,68.655],[52.729,67.924],[52.894,67.144],[52.879,66.150],[52.618,65.190],[52.129,64.324],[51.068,63.099],[50.787,62.470],[50.669,61.791],[50.675,48.513],[50.818,47.943],[51.120,47.440],[51.474,47.102],[51.992,46.826],[52.666,46.709],[115.818,46.709],[116.398,46.795],[116.929,47.046],[117.300,47.366],[117.626,47.854],[117.818,48.709],[117.818,201.409],[117.758,201.895],[117.533,202.437],[117.161,202.891],[116.673,203.217],[115.818,203.409],[28.918,203.409],[28.918,56.709],[38.918,46.709]]
EXCLUDE_OBJECT_DEFINE NAME='a_lid' CENTER=164.662,118.215 POLYGON=[[212.028,49.783],[212.785,49.973],[213.344,50.366],[213.738,50.926],[213.927,51.683],[213.930,116.761],[183.930,116.761],[183.930,182.029],[213.930,182.029],[213.930,195.581],[213.870,196.067],[213.693,196.523],[213.412,196.924],[212.958,197.296],[212.416,197.521],[211.930,197.581],[147.933,197.581],[147.516,197.320],[147.175,196.964],[146.896,196.445],[146.787,195.965],[146.781,182.685],[146.899,182.007],[147.179,181.378],[148.241,180.152],[148.730,179.286],[148.990,178.326],[149.006,177.332],[148.841,176.553],[148.525,175.822],[148.070,175.168],[147.649,174.744],[147.169,174.388],[146.457,174.031],[145.688,173.822],[144.893,173.770],[144.104,173.876],[143.535,174.058],[142.829,174.427],[142.211,174.929],[141.705,175.544],[141.410,176.064],[141.197,176.623],[141.046,177.405],[141.080,178.399],[141.358,179.354],[141.863,180.211],[142.702,181.082],[143.021,181.531],[143.292,182.164],[143.396,182.705],[143.410,195.768],[143.256,196.537],[142.886,197.117],[142.254,197.581],[135.030,197.581],[125.030,187.581],[125.030,49.781]]

;TYPE:Custom
START_PRINT BED_TEMP=70 HOTEND_TEMP=235 FILAMENT_TYPE=PET EXTRUSION_MULTIPLIER=0.92 PERIMETER_SPEED=70
G21 ; set units to millimeters
G90 ; use absolute coordinates
M82 ; use absolute distances for extrusion
G92 E0
; Filament gcode
; ########################### NOTE OFFSET CHANGES ####################################
; Prevents PETG buildup on nozzle.
; SET_GCODE_OFFSET Z=0.06
; ####################################################################################
M107
;LAYER_CHANGE
;Z:0.35
;HEIGHT:0.35
G1 E-.5 F240
G1 Z.35 F9000
EXCLUDE_OBJECT_START NAME='a_lid'
G92 E0
G1 X170.237 Y124.6
G1 E.5 F240
G92 E0
;TYPE:External perimeter
;WIDTH:0.675
G1 F1800
G1 X170.237 Y123.743 E.06882
G1 X170.317 Y123.453 E.09298
G1 X170.567 Y123.209 E.12103
;WIDTH:0.646516
G1 X170.639 Y123.172 E.12722
;WIDTH:0.638737
G1 X171.63 Y122.771 E.20788
;WIDTH:0.65543
G1 X171.872 Y122.725 E.22702
;WIDTH:0.675
G1 X172.154 Y122.782 E.25012
G1 X172.39 Y122.962 E.27396
G1 X172.53 Y123.269 E.30106
G1 X172.543 Y125.513 E.48127
G1 X173.893 Y126.051 E.59798
G1 X174.18 Y126.267 E.62683
G1 X174.303 Y126.637 E.65814
G1 X174.303 Y127.864 E.75668
G1 X174.233 Y128.147 E.78009
G1 X174.029 Y128.344 E.80286
G1 X173.687 Y128.419 E.83098
G1 X173.425 Y128.364 E.85248
G1 X166.535 Y125.589 E1.449
G1 X165.807 Y125.296 E1.51202
G1 X165.361 Y125.053 E1.55281
G1 X164.999 Y124.706 E1.59308
G1 X164.719 Y124.132 E1.64437
G1 X164.657 Y123.655 E1.683
G1 X164.696 Y123.315 E1.71048
G1 X164.827 Y122.949 E1.7417
G1 X165.13 Y122.523 E1.78368
G1 X165.696 Y122.136 E1.83874
G1 X173.453 Y118.997 E2.51076
G1 X173.884 Y118.962 E2.54549
G1 X174.155 Y119.123 E2.5708
G1 X174.298 Y119.441 E2.5988
G1 X174.303 Y119.495 E2.60316
G1 X174.302 Y120.719 E2.70146
G1 X174.197 Y121.04 E2.72858
G1 X173.96 Y121.25 E2.75401
G1 X171.564 Y122.198 E2.96094
;WIDTH:0.647556
G1 X171.419 Y122.25 E2.97274
;WIDTH:0.638737
G1 X170.428 Y122.649 E3.05335
;WIDTH:0.675
G1 X169.765 Y122.935 E3.11134
G1 X167.918 Y123.678 E3.27122
G1 X170.154 Y124.567 E3.46446
G1 X170.241 Y123.973 F9000
G1 E2.96446 F240
G92 E0
G1 X168.132 Y120.503 F9000
G1 E.5 F240
;TYPE:Perimeter
G1 F1800
G1 X173.228 Y118.441 E.94148
G1 X173.492 Y118.378 E.96328
G1 X173.99 Y118.371 E1.00328
G1 X174.308 Y118.499 E1.03081
G1 X174.579 Y118.698 E1.05781
G1 X174.787 Y119.021 E1.08866
G1 X174.888 Y119.334 E1.11507
G1 X174.903 Y119.495 E1.12806
G1 X174.902 Y120.719 E1.22636
G1 X174.817 Y121.127 E1.25983
G1 X174.676 Y121.402 E1.28465
G1 X174.325 Y121.735 E1.32351
G1 X172.676 Y122.412 E1.46666
G1 X172.789 Y122.514 E1.47889
G1 X173.052 Y122.924 E1.51801
G1 X173.142 Y123.356 E1.55345
G1 X173.143 Y125.106 E1.69399
G1 X174.115 Y125.494 E1.77804
G1 X174.521 Y125.76 E1.81702
G1 X174.709 Y125.98 E1.84026
G1 X174.89 Y126.481 E1.88304
G1 X174.903 Y127.864 E1.99411
G1 X174.81 Y128.327 E2.03204
G1 X174.596 Y128.646 E2.06289
G1 X174.311 Y128.873 E2.09215
G1 X173.875 Y129.008 E2.1288
G1 X173.557 Y129.005 E2.15434
G1 X173.201 Y128.92 E2.18373
G1 X166.311 Y126.146 E2.78022
G1 X165.583 Y125.853 E2.84324
G1 X165.072 Y125.579 E2.8898
G1 X164.838 Y125.404 E2.91327
G1 X164.483 Y125.021 E2.95521
G1 X164.173 Y124.381 E3.01232
G1 X164.098 Y124.109 E3.03498
G1 X164.059 Y123.599 E3.07606
G1 X164.124 Y123.132 E3.11393
G1 X164.302 Y122.657 E3.15467
G1 X164.641 Y122.176 E3.20193
G1 X164.882 Y121.944 E3.22879
G1 X165.316 Y121.66 E3.27044
G1 X165.471 Y121.58 E3.28445
G1 X168.048 Y120.537 E3.50771
G1 E3.00771 F240
G92 E0
G1 X168.048 Y120.537 F9000
G1 X169.652 Y123.604
G1 E.5 F240
;WIDTH:0.732521
G1 F1800
G1 X169.57 Y123.604 E.50722
G1 X169.529 Y123.675 E.51444
G1 X169.57 Y123.746 E.52166
G1 X169.652 Y123.746 E.52888
G1 X169.693 Y123.675 E.5361
G1 E.0361 F240
G92 E0
G1 X169.693 Y123.675 F9000
G1 X191.037 Y75.604
G1 E.5 F240
;TYPE:External perimeter
;WIDTH:0.675
G1 F1800
G1 X190.998 Y75.49 E.50968
G1 X190.944 Y75.098 E.54146
G1 X190.97 Y74.703 E.57325
G1 X191.073 Y74.321 E.60502
G1 X191.25 Y73.967 E.6368
G1 X191.494 Y73.656 E.66855
G1 X191.794 Y73.398 E.70033
G1 X192.14 Y73.206 E.73211
G1 X192.517 Y73.086 E.76388
G1 X192.91 Y73.042 E.79564
G1 X193.304 Y73.078 E.82741
G1 X193.683 Y73.191 E.85917
G1 X194.032 Y73.376 E.89089
G1 X194.333 Y73.622 E.92211
G1 X194.531 Y73.853 E.94654
G1 X194.732 Y74.194 E.97833
G1 X194.862 Y74.567 E1.01005
G1 X194.915 Y74.959 E1.04182
G1 X194.889 Y75.354 E1.07361
G1 X194.786 Y75.736 E1.10538
G1 X194.609 Y76.09 E1.13716
G1 X194.365 Y76.401 E1.16891
G1 X194.065 Y76.659 E1.20069
G1 X193.719 Y76.851 E1.23247
G1 X193.343 Y76.972 E1.26419
G1 X192.957 Y77.015 E1.29538
G1 X192.653 Y76.996 E1.31984
G1 X192.269 Y76.902 E1.35159
G1 X191.911 Y76.734 E1.38335
G1 X191.593 Y76.498 E1.41515
G1 X191.328 Y76.204 E1.44694
G1 X191.127 Y75.863 E1.47873
G1 X191.067 Y75.689 E1.49351
G1 X190.964 Y75.098 F9000
G1 X190.463 Y75.765
;TYPE:Perimeter
G1 F1800
G1 X190.408 Y75.6 E1.50748
G1 X190.344 Y75.096 E1.54828
G1 X190.389 Y74.555 E1.59188
G1 X190.533 Y74.061 E1.6332
G1 X190.772 Y73.605 E1.67455
G1 X191.097 Y73.206 E1.71588
G1 X191.495 Y72.879 E1.75725
G1 X191.949 Y72.637 E1.79857
G1 X192.442 Y72.49 E1.83988
G1 X192.955 Y72.444 E1.88124
G1 X193.466 Y72.5 E1.92252
G1 X193.957 Y72.657 E1.96392
G1 X194.406 Y72.907 E2.00519
G1 X194.782 Y73.225 E2.04474
G1 X195.043 Y73.541 E2.07765
G1 X195.296 Y73.989 E2.11897
G1 X195.455 Y74.478 E2.16026
G1 X195.514 Y74.989 E2.20157
G1 X195.471 Y75.502 E2.24291
G1 X195.326 Y75.996 E2.28426
G1 X195.087 Y76.452 E2.32561
G1 X194.762 Y76.851 E2.36694
G1 X194.365 Y77.178 E2.40825
G1 X193.91 Y77.42 E2.44964
G1 X193.417 Y77.567 E2.49095
G1 X192.927 Y77.614 E2.53048
G1 X192.519 Y77.58 E2.56336
G1 X192.027 Y77.451 E2.60421
G1 X191.56 Y77.221 E2.64602
G1 X191.153 Y76.906 E2.68735
G1 X190.816 Y76.517 E2.72868
G1 X190.569 Y76.082 E2.76885
G1 X190.491 Y75.851 E2.78843
G1 E2.28843 F240
G92 E0
G1 X190.491 Y75.851 F9000
G1 X210.872 Y55.144
G1 E.5 F240
;TYPE:External perimeter
G1 F1800
G1 X210.915 Y55.459 E.52553
G1 X210.889 Y55.854 E.55732
G1 X210.786 Y56.236 E.58909
G1 X210.609 Y56.59 E.62087
G1 X210.365 Y56.901 E.65262
G1 X210.065 Y57.159 E.6844
G1 X209.719 Y57.351 E.71618
G1 X209.342 Y57.472 E.74798
G1 X208.957 Y57.515 E.77909
G1 X208.653 Y57.496 E.80355
G1 X208.269 Y57.402 E.8353
G1 X207.911 Y57.234 E.86706
G1 X207.593 Y56.998 E.89886
G1 X207.347 Y56.731 E.92802
G1 X207.127 Y56.363 E.96245
G1 X206.998 Y55.99 E.99415
G1 X206.944 Y55.598 E1.02593
G1 X206.97 Y55.203 E1.05772
G1 X207.073 Y54.821 E1.08949
G1 X207.25 Y54.467 E1.12127
G1 X207.494 Y54.156 E1.15302
G1 X207.794 Y53.898 E1.1848
G1 X208.14 Y53.706 E1.21658
G1 X208.517 Y53.586 E1.24835
G1 X208.91 Y53.542 E1.28011
G1 X209.304 Y53.578 E1.31188
G1 X209.683 Y53.691 E1.34364
G1 X210.111 Y53.939 E1.38337
G1 X210.5 Y54.311 E1.4266
G1 X210.732 Y54.694 E1.46256
G1 X210.858 Y55.056 E1.49334
G1 X210.892 Y55.655 F9000
G1 X211.462 Y55.04
;TYPE:Perimeter
G1 F1800
G1 X211.514 Y55.489 E1.52964
G1 X211.471 Y56.002 E1.57098
G1 X211.326 Y56.496 E1.61233
G1 X211.087 Y56.952 E1.65368
G1 X210.762 Y57.351 E1.69501
G1 X210.365 Y57.678 E1.73632
G1 X209.91 Y57.92 E1.77771
G1 X209.417 Y58.067 E1.81902
G1 X208.927 Y58.114 E1.85855
G1 X208.519 Y58.08 E1.89143
G1 X208.022 Y57.949 E1.93271
G1 X207.56 Y57.721 E1.97408
G1 X207.153 Y57.406 E2.01541
G1 X206.873 Y57.098 E2.04884
G1 X206.587 Y56.628 E2.09302
G1 X206.404 Y56.079 E2.13949
G1 X206.345 Y55.568 E2.1808
G1 X206.389 Y55.055 E2.22215
G1 X206.533 Y54.561 E2.26347
G1 X206.772 Y54.105 E2.30482
G1 X207.097 Y53.706 E2.34615
G1 X207.495 Y53.379 E2.38752
G1 X207.949 Y53.137 E2.42884
G1 X208.442 Y52.99 E2.47015
G1 X208.955 Y52.944 E2.51151
G1 X209.466 Y53 E2.55279
G1 X209.957 Y53.157 E2.59419
G1 X210.406 Y53.407 E2.63546
G1 X210.782 Y53.725 E2.67501
G1 X211.043 Y54.041 E2.70792
G1 X211.296 Y54.489 E2.74924
G1 X211.447 Y54.952 E2.78835
G1 E2.28835 F240
G92 E0
G1 X211.447 Y54.952 F9000
G1 X210.5 Y193.229
G1 E.5 F240
;TYPE:External perimeter
G1 F1800
G1 X210.365 Y193.401 E.51756
G1 X210.065 Y193.659 E.54934
G1 X209.719 Y193.851 E.58112
G1 X209.343 Y193.972 E.61284
G1 X208.957 Y194.015 E.64403
G1 X208.704 Y194.003 E.66437
G1 X208.269 Y193.902 E.70023
G1 X207.911 Y193.734 E.73199
G1 X207.593 Y193.498 E.76379
G1 X207.328 Y193.204 E.79558
G1 X207.127 Y192.863 E.82737
G1 X206.998 Y192.49 E.85907
G1 X206.944 Y192.098 E.89085
G1 X207.001 Y191.581 E.93262
G1 X207.073 Y191.321 E.95429
G1 X207.25 Y190.967 E.98607
G1 X207.494 Y190.656 E1.01782
G1 X207.794 Y190.398 E1.0496
G1 X208.14 Y190.206 E1.08138
G1 X208.517 Y190.086 E1.11315
G1 X208.91 Y190.042 E1.14491
G1 X209.304 Y190.078 E1.17668
G1 X209.683 Y190.191 E1.20844
G1 X210.032 Y190.376 E1.24016
G1 X210.333 Y190.622 E1.27138
G1 X210.531 Y190.854 E1.29587
G1 X210.732 Y191.194 E1.32759
G1 X210.862 Y191.567 E1.35931
G1 X210.915 Y191.959 E1.39108
G1 X210.889 Y192.354 E1.42287
G1 X210.786 Y192.736 E1.45464
G1 X210.609 Y193.09 E1.48642
G1 X210.556 Y193.158 E1.49334
G1 X210.137 Y193.587 F9000
G1 X210.966 Y193.6
;TYPE:Perimeter
G1 F1800
G1 X210.762 Y193.851 E1.51932
G1 X210.365 Y194.178 E1.56063
G1 X209.91 Y194.42 E1.60202
G1 X209.417 Y194.567 E1.64333
G1 X208.927 Y194.614 E1.68286
G1 X208.674 Y194.602 E1.7032
G1 X208.022 Y194.449 E1.75698
G1 X207.56 Y194.221 E1.79835
G1 X207.153 Y193.906 E1.83968
G1 X206.816 Y193.517 E1.88101
G1 X206.563 Y193.069 E1.92233
G1 X206.404 Y192.579 E1.9637
G1 X206.345 Y192.068 E2.00501
G1 X206.389 Y191.555 E2.04636
G1 X206.533 Y191.061 E2.08768
G1 X206.772 Y190.605 E2.12903
G1 X207.097 Y190.206 E2.17036
G1 X207.495 Y189.879 E2.21173
G1 X207.949 Y189.637 E2.25305
G1 X208.442 Y189.49 E2.29436
G1 X208.955 Y189.444 E2.33572
G1 X209.466 Y189.5 E2.377
G1 X209.957 Y189.657 E2.4184
G1 X210.406 Y189.907 E2.45967
G1 X210.782 Y190.225 E2.49922
G1 X211.043 Y190.541 E2.53213
G1 X211.296 Y190.989 E2.57345
G1 X211.455 Y191.478 E2.61474
G1 X211.514 Y191.989 E2.65605
G1 X211.471 Y192.502 E2.69739
G1 X211.326 Y192.996 E2.73874
G1 X211.087 Y193.452 E2.78009
G1 X211.023 Y193.53 E2.78819
G1 E2.28819 F240
G92 E0
G1 X211.023 Y193.53 F9000
G1 X191.343 Y194.22
G1 E.5 F240
;TYPE:External perimeter
G1 F1800
G1 X191.328 Y194.204 E.50176
G1 X191.127 Y193.863 E.53355
G1 X190.998 Y193.49 E.56525
G1 X190.944 Y193.098 E.59703
G1 X190.97 Y192.703 E.62882
G1 X191.073 Y192.321 E.66059
G1 X191.25 Y191.967 E.69237
G1 X191.494 Y191.656 E.72412
G1 X191.794 Y191.398 E.7559
G1 X192.14 Y191.206 E.78768
G1 X192.517 Y191.086 E.81945
G1 X192.91 Y191.042 E.85121
G1 X193.304 Y191.078 E.88298
G1 X193.683 Y191.191 E.91474
G1 X194.032 Y191.376 E.94646
G1 X194.333 Y191.622 E.97768
G1 X194.531 Y191.854 E1.00217
G1 X194.775 Y192.312 E1.04385
G1 X194.862 Y192.567 E1.06549
G1 X194.915 Y192.959 E1.09726
G1 X194.889 Y193.354 E1.12905
G1 X194.786 Y193.736 E1.16082
G1 X194.609 Y194.09 E1.1926
G1 X194.365 Y194.401 E1.22435
G1 X194.065 Y194.659 E1.25613
G1 X193.719 Y194.851 E1.28791
G1 X193.343 Y194.972 E1.31963
G1 X192.957 Y195.015 E1.35082
G1 X192.653 Y194.996 E1.37528
G1 X192.269 Y194.902 E1.40703
G1 X191.911 Y194.734 E1.43879
G1 X191.593 Y194.498 E1.47059
G1 X191.403 Y194.287 E1.49339
G1 X191.109 Y193.764 F9000
G1 X190.86 Y194.567
;TYPE:Perimeter
G1 F1800
G1 X190.816 Y194.517 E1.49874
G1 X190.563 Y194.069 E1.54006
G1 X190.404 Y193.579 E1.58143
G1 X190.345 Y193.068 E1.62274
G1 X190.389 Y192.555 E1.66409
G1 X190.533 Y192.061 E1.70541
G1 X190.772 Y191.605 E1.74676
G1 X191.097 Y191.206 E1.78809
G1 X191.495 Y190.879 E1.82946
G1 X191.949 Y190.637 E1.87078
G1 X192.442 Y190.49 E1.91209
G1 X192.955 Y190.444 E1.95345
G1 X193.466 Y190.5 E1.99473
G1 X193.957 Y190.657 E2.03613
G1 X194.406 Y190.907 E2.0774
G1 X194.782 Y191.225 E2.11695
G1 X195.043 Y191.541 E2.14986
G1 X195.296 Y191.989 E2.19118
G1 X195.455 Y192.478 E2.23247
G1 X195.514 Y192.989 E2.27378
G1 X195.471 Y193.502 E2.31512
G1 X195.326 Y193.996 E2.35647
G1 X195.087 Y194.452 E2.39782
G1 X194.762 Y194.851 E2.43915
G1 X194.365 Y195.178 E2.48046
;WIDTH:0.69073
G1 X193.913 Y195.427 E2.52299
;WIDTH:0.736719
G1 X193.827 Y195.478 E2.53185
;WIDTH:0.782708
G1 X193.741 Y195.529 E2.54132
;WIDTH:0.828697
G1 X193.654 Y195.58 E2.55149
;WIDTH:0.874686
G1 X193.568 Y195.63 E2.56214
;WIDTH:0.920675
G1 X193.482 Y195.681 E2.57346
G1 X192.972 Y195.723 E2.63139
;WIDTH:0.913273
G1 X192.493 Y195.697 E2.68522
G1 X192.398 Y195.647 E2.69727
;WIDTH:0.865618
G1 X192.304 Y195.597 E2.70854
;WIDTH:0.817963
G1 X192.21 Y195.548 E2.71908
;WIDTH:0.770309
G1 X192.116 Y195.498 E2.72899
;WIDTH:0.722654
G1 X192.022 Y195.449 E2.73818
;WIDTH:0.675
G1 X191.56 Y195.221 E2.77955
G1 X191.153 Y194.906 E2.82088
G1 X190.919 Y194.636 E2.84957
G1 E2.34957 F240
G92 E0
G1 X190.919 Y194.636 F9000
G1 X148.934 Y181.757
G1 E.5 F240
;TYPE:External perimeter
G1 F1800
G1 X148.996 Y181.711 E.5062
G1 X149.484 Y181.522 E.54823
G1 X149.925 Y181.482 E.58379
G1 X150.455 Y181.575 E.627
G1 X150.9 Y181.795 E.66687
G1 X151.148 Y181.99 E.69221
G1 X151.385 Y182.268 E.72155
G1 X151.563 Y182.587 E.75089
G1 X151.674 Y182.936 E.7803
G1 X151.713 Y183.3 E.8097
G1 X151.68 Y183.664 E.83905
G1 X151.575 Y184.014 E.8684
G1 X151.403 Y184.337 E.89779
G1 X151.171 Y184.619 E.92712
G1 X150.887 Y184.849 E.95647
G1 X150.563 Y185.019 E.98585
G1 X150.211 Y185.121 E1.01528
G1 X149.847 Y185.152 E1.04462
G1 X149.484 Y185.109 E1.07398
G1 X149.117 Y184.985 E1.10509
G1 X148.668 Y184.695 E1.14802
G1 X148.369 Y184.363 E1.1839
;WIDTH:0.724466
G1 X148.253 Y184.168 E1.20362
;WIDTH:0.773932
G1 X148.138 Y183.972 E1.22488
;WIDTH:0.823399
G1 X148.023 Y183.777 E1.24756
;WIDTH:0.83848
G1 X147.961 Y183.401 E1.2865
