; generated by PrusaSlicer 2.8.0+MacOS-arm64 on 2024-09-28 at 04:33:17 UTC


;
;

;
;
; 

; external perimeters extrusion width = 0.68mm
; perimeters extrusion width = 0.68mm
; infill extrusion width = 0.68mm
; solid infill extrusion width = 0.68mm
; top infill extrusion width = 0.60mm
; support material extrusion width = 0.60mm

; external perimeters extrusion width = 0.68mm
; perimeters extrusion width = 0.68mm
; infill extrusion width = 0.68mm
; solid infill extrusion width = 0.68mm
; top infill extrusion width = 0.60mm
; support material extrusion width = 0.60mm


EXCLUDE_OBJECT_DEFINE NAME='b_lid' CENTER=80.102,119.188 POLYGON=[[51.797,40.064],[52.464,40.214],[53.042,40.580],[53.463,41.119],[53.677,41.768],[53.699,54.848],[53.582,55.665],[53.311,56.298],[52.991,56.747],[52.152,57.619],[51.647,58.476],[51.369,59.431],[51.359,60.623],[51.548,61.396],[51.789,61.943],[52.232,62.605],[52.645,63.037],[53.288,63.508],[53.824,63.772],[54.589,63.995],[55.183,64.059],[55.977,64.007],[56.558,63.865],[57.287,63.544],[57.938,63.085],[58.359,62.661],[58.814,62.007],[59.130,61.276],[59.295,60.497],[59.280,59.503],[59.020,58.543],[58.530,57.677],[57.469,56.452],[57.189,55.823],[57.070,55.144],[57.077,41.866],[57.219,41.296],[57.521,40.793],[57.876,40.455],[58.393,40.179],[59.067,40.062],[122.219,40.062],[122.800,40.148],[123.330,40.399],[123.701,40.719],[124.027,41.207],[124.219,42.062],[124.219,194.762],[124.159,195.248],[123.935,195.790],[123.562,196.244],[123.074,196.570],[122.219,196.762],[35.319,196.762],[35.319,50.062],[45.319,40.062]]
EXCLUDE_OBJECT_DEFINE NAME='a_lid' CENTER=169.902,110.476 POLYGON=[[217.268,42.044],[218.025,42.234],[218.584,42.628],[218.977,43.187],[219.167,43.944],[219.169,109.022],[189.169,109.022],[189.169,174.290],[219.169,174.290],[219.169,187.842],[219.110,188.328],[218.933,188.785],[218.651,189.185],[218.198,189.557],[217.655,189.782],[217.169,189.842],[153.173,189.842],[152.681,189.517],[152.358,189.145],[152.135,188.706],[152.027,188.226],[152.021,174.946],[152.139,174.268],[152.419,173.639],[153.481,172.413],[153.970,171.547],[154.230,170.588],[154.246,169.593],[154.081,168.814],[153.764,168.083],[153.310,167.429],[152.888,167.005],[152.409,166.649],[151.697,166.292],[150.928,166.083],[150.133,166.031],[149.344,166.137],[148.774,166.319],[148.069,166.688],[147.451,167.191],[146.944,167.805],[146.650,168.326],[146.437,168.884],[146.286,169.666],[146.320,170.660],[146.597,171.615],[147.102,172.472],[147.942,173.343],[148.261,173.792],[148.532,174.425],[148.636,174.966],[148.649,188.029],[148.496,188.798],[148.126,189.378],[147.494,189.842],[140.269,189.842],[130.269,179.842],[130.269,42.042]]

;TYPE:Custom
START_PRINT BED_TEMP=75 HOTEND_TEMP=240 FILAMENT_TYPE=PET EXTRUSION_MULTIPLIER=0.88 PERIMETER_SPEED=70
G21 ; set units to millimeters
G90 ; use absolute coordinates
M82 ; use absolute distances for extrusion
G92 E0
; Filament gcode
; ########################### NOTE OFFSET CHANGES ####################################
; Prevents PETG buildup on nozzle.
; SET_GCODE_OFFSET Z=0.06
; ####################################################################################
M107
;LAYER_CHANGE
;Z:0.35
;HEIGHT:0.35
G1 E-.5 F240
G1 Z.35 F9000
EXCLUDE_OBJECT_START NAME='a_lid'
G92 E0
G1 X175.477 Y116.861
G1 E.5 F240
G92 E0
;TYPE:External perimeter
;WIDTH:0.675
G1 F1800
G1 X175.477 Y116.004 E.06583
G1 X175.557 Y115.714 E.08894
G1 X175.807 Y115.471 E.11572
;WIDTH:0.646516
G1 X175.879 Y115.433 E.12168
;WIDTH:0.638737
G1 X176.87 Y115.032 E.19884
;WIDTH:0.65543
G1 X177.112 Y114.986 E.21715
;WIDTH:0.675
G1 X177.394 Y115.043 E.23925
G1 X177.63 Y115.223 E.26205
G1 X177.769 Y115.53 E.28794
G1 X177.783 Y117.774 E.46032
G1 X179.133 Y118.312 E.57195
G1 X179.42 Y118.528 E.59954
G1 X179.543 Y118.898 E.62949
G1 X179.543 Y120.125 E.72374
G1 X179.472 Y120.408 E.74615
G1 X179.268 Y120.605 E.76793
G1 X178.927 Y120.68 E.79475
G1 X178.665 Y120.625 E.81531
G1 X171.774 Y117.85 E1.38596
G1 X171.047 Y117.558 E1.44614
G1 X170.601 Y117.315 E1.48516
G1 X170.239 Y116.968 E1.52368
G1 X169.959 Y116.393 E1.57281
G1 X169.897 Y115.916 E1.60976
G1 X169.935 Y115.576 E1.63604
G1 X170.067 Y115.21 E1.66593
G1 X170.37 Y114.784 E1.70609
G1 X170.936 Y114.397 E1.75876
G1 X178.693 Y111.258 E2.40157
G1 X179.124 Y111.223 E2.43479
G1 X179.395 Y111.384 E2.459
G1 X179.538 Y111.702 E2.48578
G1 X179.543 Y111.756 E2.48995
G1 X179.542 Y112.98 E2.58397
G1 X179.437 Y113.301 E2.60991
G1 X179.2 Y113.511 E2.63423
G1 X176.804 Y114.459 E2.83217
;WIDTH:0.647556
G1 X176.659 Y114.511 E2.84346
;WIDTH:0.638737
G1 X175.668 Y114.911 E2.92059
;WIDTH:0.675
G1 X175.005 Y115.196 E2.97603
G1 X173.157 Y115.939 E3.12903
G1 X175.393 Y116.828 E3.31387
G1 X175.481 Y116.235 F9000
G1 E2.81387 F240
G92 E0
G1 X173.371 Y112.764 F9000
G1 E.5 F240
;TYPE:Perimeter
G1 F1800
G1 X178.468 Y110.702 E.92236
G1 X178.732 Y110.64 E.94319
G1 X179.229 Y110.632 E.98137
G1 X179.547 Y110.76 E1.0077
G1 X179.818 Y110.959 E1.03353
G1 X180.027 Y111.282 E1.06308
G1 X180.128 Y111.595 E1.08834
G1 X180.143 Y111.756 E1.10076
G1 X180.142 Y112.981 E1.19486
G1 X180.057 Y113.388 E1.2268
G1 X179.916 Y113.663 E1.25054
G1 X179.564 Y113.996 E1.28776
G1 X177.915 Y114.673 E1.42469
G1 X178.029 Y114.775 E1.43644
G1 X178.291 Y115.185 E1.47382
G1 X178.382 Y115.617 E1.50773
G1 X178.383 Y117.367 E1.64216
G1 X179.355 Y117.755 E1.72255
G1 X179.761 Y118.021 E1.75984
G1 X179.949 Y118.241 E1.78207
G1 X180.13 Y118.742 E1.82299
G1 X180.143 Y120.125 E1.92923
G1 X180.05 Y120.589 E1.96558
G1 X179.836 Y120.907 E1.99502
G1 X179.551 Y121.134 E2.02301
G1 X179.115 Y121.27 E2.05809
G1 X178.797 Y121.266 E2.08252
G1 X178.441 Y121.181 E2.11064
G1 X171.55 Y118.407 E2.68126
G1 X170.823 Y118.114 E2.74147
G1 X170.312 Y117.84 E2.78601
G1 X170.078 Y117.665 E2.80846
G1 X169.723 Y117.282 E2.84858
G1 X169.413 Y116.642 E2.90321
G1 X169.338 Y116.371 E2.92481
G1 X169.299 Y115.86 E2.96418
G1 X169.364 Y115.393 E3.0004
G1 X169.541 Y114.918 E3.03934
G1 X169.881 Y114.437 E3.08459
G1 X170.122 Y114.205 E3.11029
G1 X170.556 Y113.922 E3.15009
G1 X170.711 Y113.841 E3.16352
G1 X173.288 Y112.798 E3.37708
G1 E2.87708 F240
G92 E0
G1 X173.288 Y112.798 F9000
G1 X174.892 Y115.865
G1 E.5 F240
;WIDTH:0.732521
G1 F1800
G1 X174.81 Y115.865 E.5069
G1 X174.769 Y115.936 E.5138
G1 X174.81 Y116.007 E.5207
G1 X174.892 Y116.007 E.5276
G1 X174.933 Y115.936 E.5345
G1 E.0345 F240
G92 E0
G1 X174.933 Y115.936 F9000
G1 X196.277 Y67.865
G1 E.5 F240
;TYPE:External perimeter
;WIDTH:0.675
G1 F1800
G1 X196.237 Y67.751 E.50928
G1 X196.184 Y67.359 E.53967
G1 X196.21 Y66.964 E.57008
G1 X196.313 Y66.582 E.60047
G1 X196.49 Y66.228 E.63087
G1 X196.734 Y65.917 E.66124
G1 X197.034 Y65.66 E.69158
G1 X197.38 Y65.467 E.72201
G1 X197.757 Y65.347 E.7524
G1 X198.15 Y65.303 E.78278
G1 X198.544 Y65.339 E.81317
G1 X198.923 Y65.452 E.84355
G1 X199.272 Y65.637 E.87389
G1 X199.572 Y65.883 E.90369
G1 X199.771 Y66.115 E.92717
G1 X199.972 Y66.455 E.95751
G1 X200.102 Y66.828 E.98785
G1 X200.155 Y67.22 E1.01824
G1 X200.129 Y67.615 E1.04865
G1 X200.026 Y67.997 E1.07904
G1 X199.849 Y68.351 E1.10944
G1 X199.605 Y68.662 E1.13981
G1 X199.305 Y68.92 E1.1702
G1 X198.959 Y69.112 E1.2006
G1 X198.582 Y69.233 E1.23101
G1 X198.197 Y69.276 E1.26077
G1 X197.892 Y69.257 E1.28424
G1 X197.509 Y69.163 E1.31453
G1 X197.15 Y68.995 E1.34498
G1 X196.833 Y68.759 E1.37534
G1 X196.568 Y68.465 E1.40574
G1 X196.367 Y68.124 E1.43615
G1 X196.306 Y67.95 E1.45031
G1 X196.204 Y67.359 F9000
G1 X195.703 Y68.026
;TYPE:Perimeter
G1 F1800
G1 X195.648 Y67.861 E1.46367
G1 X195.584 Y67.357 E1.5027
G1 X195.629 Y66.816 E1.5444
G1 X195.773 Y66.322 E1.58393
G1 X196.012 Y65.866 E1.62348
G1 X196.337 Y65.467 E1.66301
G1 X196.734 Y65.14 E1.70252
G1 X197.189 Y64.898 E1.74211
G1 X197.682 Y64.751 E1.78163
G1 X198.195 Y64.705 E1.8212
G1 X198.706 Y64.761 E1.86069
G1 X199.197 Y64.918 E1.90029
G1 X199.646 Y65.168 E1.93977
G1 X200.022 Y65.486 E1.9776
G1 X200.283 Y65.802 E2.00908
G1 X200.536 Y66.25 E2.0486
G1 X200.695 Y66.739 E2.0881
G1 X200.754 Y67.25 E2.12761
G1 X200.71 Y67.763 E2.16716
G1 X200.566 Y68.257 E2.20669
G1 X200.327 Y68.713 E2.24624
G1 X200.002 Y69.112 E2.28577
G1 X199.605 Y69.439 E2.32528
G1 X199.15 Y69.681 E2.36487
G1 X198.657 Y69.828 E2.40439
G1 X198.167 Y69.876 E2.44221
G1 X197.759 Y69.841 E2.47367
G1 X197.267 Y69.712 E2.51274
G1 X196.8 Y69.482 E2.55273
G1 X196.393 Y69.167 E2.59226
G1 X196.056 Y68.778 E2.6318
G1 X195.808 Y68.343 E2.67026
G1 X195.731 Y68.112 E2.68896
G1 E2.18896 F240
G92 E0
G1 X195.731 Y68.112 F9000
G1 X216.112 Y47.405
G1 E.5 F240
;TYPE:External perimeter
G1 F1800
G1 X216.155 Y47.72 E.52442
G1 X216.129 Y48.115 E.55483
G1 X216.026 Y48.497 E.58522
G1 X215.849 Y48.851 E.61562
G1 X215.605 Y49.163 E.64605
G1 X215.305 Y49.42 E.67639
G1 X214.959 Y49.612 E.70679
G1 X214.582 Y49.733 E.7372
G1 X214.197 Y49.776 E.76696
G1 X213.892 Y49.757 E.79043
G1 X213.509 Y49.663 E.82072
G1 X213.15 Y49.495 E.85117
G1 X212.833 Y49.259 E.88153
G1 X212.587 Y48.992 E.90942
G1 X212.367 Y48.624 E.94235
G1 X212.237 Y48.251 E.97269
G1 X212.184 Y47.859 E1.00308
G1 X212.21 Y47.464 E1.03349
G1 X212.313 Y47.082 E1.06388
G1 X212.49 Y46.728 E1.09428
G1 X212.734 Y46.417 E1.12465
G1 X213.034 Y46.16 E1.15499
G1 X213.38 Y45.967 E1.18542
G1 X213.757 Y45.847 E1.21581
G1 X214.15 Y45.803 E1.24619
G1 X214.544 Y45.839 E1.27658
G1 X214.923 Y45.952 E1.30696
G1 X215.351 Y46.2 E1.34496
G1 X215.74 Y46.573 E1.38636
G1 X215.972 Y46.955 E1.42069
G1 X216.098 Y47.317 E1.45013
G1 X216.132 Y47.916 F9000
G1 X216.702 Y47.301
;TYPE:Perimeter
G1 F1800
G1 X216.754 Y47.75 E1.48485
G1 X216.71 Y48.263 E1.5244
G1 X216.566 Y48.757 E1.56393
G1 X216.327 Y49.213 E1.60348
G1 X216.002 Y49.612 E1.64301
G1 X215.605 Y49.939 E1.68252
G1 X215.15 Y50.181 E1.72211
G1 X214.657 Y50.328 E1.76163
G1 X214.167 Y50.376 E1.79945
G1 X213.759 Y50.341 E1.83091
G1 X213.262 Y50.21 E1.87039
G1 X212.8 Y49.982 E1.90997
G1 X212.393 Y49.667 E1.9495
G1 X212.113 Y49.359 E1.98147
G1 X211.827 Y48.889 E2.02373
G1 X211.644 Y48.34 E2.06818
G1 X211.585 Y47.829 E2.10769
G1 X211.629 Y47.316 E2.14724
G1 X211.773 Y46.822 E2.18677
G1 X212.012 Y46.366 E2.22632
G1 X212.337 Y45.967 E2.26585
G1 X212.734 Y45.64 E2.30536
G1 X213.189 Y45.398 E2.34495
G1 X213.682 Y45.251 E2.38447
G1 X214.195 Y45.205 E2.42404
G1 X214.706 Y45.261 E2.46353
G1 X215.197 Y45.418 E2.50313
G1 X215.646 Y45.668 E2.54261
G1 X216.022 Y45.986 E2.58044
G1 X216.283 Y46.302 E2.61192
G1 X216.536 Y46.75 E2.65144
G1 X216.686 Y47.213 E2.68883
G1 E2.18883 F240
G92 E0
G1 X216.686 Y47.213 F9000
G1 X215.74 Y185.49
G1 E.5 F240
;TYPE:External perimeter
G1 F1800
G1 X215.605 Y185.662 E.5168
G1 X215.305 Y185.92 E.54719
G1 X214.959 Y186.112 E.57759
G1 X214.582 Y186.233 E.608
G1 X214.197 Y186.276 E.63776
G1 X213.944 Y186.264 E.65722
G1 X213.509 Y186.163 E.69152
G1 X213.15 Y185.995 E.72197
G1 X212.833 Y185.759 E.75233
G1 X212.568 Y185.465 E.78273
G1 X212.367 Y185.124 E.81314
G1 X212.237 Y184.751 E.84348
G1 X212.184 Y184.359 E.87387
G1 X212.241 Y183.842 E.91382
G1 X212.313 Y183.582 E.93454
G1 X212.49 Y183.229 E.96487
G1 X212.734 Y182.917 E.9953
G1 X213.034 Y182.66 E1.02564
G1 X213.38 Y182.467 E1.05607
G1 X213.757 Y182.347 E1.08646
G1 X214.15 Y182.303 E1.11684
G1 X214.544 Y182.339 E1.14723
G1 X214.923 Y182.452 E1.17761
G1 X215.272 Y182.637 E1.20795
G1 X215.572 Y182.883 E1.23775
G1 X215.771 Y183.115 E1.26123
G1 X215.972 Y183.455 E1.29157
G1 X216.102 Y183.828 E1.32191
G1 X216.155 Y184.22 E1.3523
G1 X216.129 Y184.615 E1.38271
G1 X216.026 Y184.997 E1.4131
G1 X215.849 Y185.351 E1.4435
G1 X215.796 Y185.419 E1.45012
G1 X215.376 Y185.848 F9000
G1 X216.206 Y185.861
;TYPE:Perimeter
G1 F1800
G1 X216.002 Y186.112 E1.47497
G1 X215.605 Y186.439 E1.51448
G1 X215.15 Y186.681 E1.55407
G1 X214.657 Y186.828 E1.59359
G1 X214.167 Y186.876 E1.63141
G1 X213.914 Y186.863 E1.65087
G1 X213.262 Y186.71 E1.70231
G1 X212.8 Y186.482 E1.74189
G1 X212.393 Y186.167 E1.78142
G1 X212.056 Y185.778 E1.82096
G1 X211.803 Y185.33 E1.86048
G1 X211.644 Y184.84 E1.90005
G1 X211.585 Y184.329 E1.93956
G1 X211.629 Y183.816 E1.97911
G1 X211.773 Y183.322 E2.01864
G1 X212.012 Y182.866 E2.05819
G1 X212.337 Y182.467 E2.09772
G1 X212.734 Y182.14 E2.13723
G1 X213.189 Y181.898 E2.17682
G1 X213.682 Y181.751 E2.21634
G1 X214.195 Y181.705 E2.25591
G1 X214.706 Y181.761 E2.2954
G1 X215.197 Y181.918 E2.335
G1 X215.646 Y182.168 E2.37448
G1 X216.022 Y182.486 E2.41231
G1 X216.283 Y182.802 E2.44379
G1 X216.536 Y183.25 E2.48331
G1 X216.695 Y183.739 E2.52281
G1 X216.754 Y184.25 E2.56232
G1 X216.71 Y184.763 E2.60187
G1 X216.566 Y185.257 E2.6414
G1 X216.327 Y185.713 E2.68095
G1 X216.263 Y185.792 E2.68876
G1 E2.18876 F240
G92 E0
G1 X216.263 Y185.792 F9000
G1 X196.583 Y186.481
G1 E.5 F240
;TYPE:External perimeter
G1 F1800
G1 X196.568 Y186.465 E.50168
G1 X196.367 Y186.124 E.53209
G1 X196.237 Y185.751 E.56243
G1 X196.184 Y185.359 E.59282
G1 X196.21 Y184.964 E.62323
G1 X196.313 Y184.582 E.65362
G1 X196.49 Y184.229 E.68395
G1 X196.734 Y183.917 E.71438
G1 X197.034 Y183.66 E.74472
G1 X197.38 Y183.467 E.77515
G1 X197.757 Y183.347 E.80554
G1 X198.15 Y183.303 E.83592
G1 X198.544 Y183.339 E.86631
G1 X198.923 Y183.452 E.89669
G1 X199.272 Y183.637 E.92703
G1 X199.572 Y183.883 E.95683
G1 X199.771 Y184.115 E.98031
G1 X200.015 Y184.573 E1.02017
G1 X200.102 Y184.828 E1.04087
G1 X200.155 Y185.22 E1.07126
G1 X200.129 Y185.615 E1.10167
G1 X200.026 Y185.997 E1.13206
G1 X199.849 Y186.351 E1.16246
G1 X199.605 Y186.662 E1.19283
G1 X199.305 Y186.92 E1.22322
G1 X198.959 Y187.112 E1.25362
G1 X198.582 Y187.233 E1.28403
G1 X198.197 Y187.276 E1.31379
G1 X197.892 Y187.257 E1.33726
G1 X197.509 Y187.163 E1.36755
G1 X197.15 Y186.995 E1.398
G1 X196.833 Y186.759 E1.42836
G1 X196.643 Y186.548 E1.45017
G1 X196.349 Y186.025 F9000
G1 X196.1 Y186.829
;TYPE:Perimeter
G1 F1800
G1 X196.056 Y186.778 E1.45534
G1 X195.803 Y186.33 E1.49486
G1 X195.644 Y185.84 E1.53443
G1 X195.585 Y185.329 E1.57394
G1 X195.629 Y184.816 E1.61349
G1 X195.773 Y184.322 E1.65302
G1 X196.012 Y183.866 E1.69257
G1 X196.337 Y183.467 E1.7321
G1 X196.734 Y183.14 E1.77161
G1 X197.189 Y182.898 E1.8112
G1 X197.682 Y182.751 E1.85072
G1 X198.195 Y182.705 E1.89029
G1 X198.706 Y182.761 E1.92978
G1 X199.197 Y182.918 E1.96938
G1 X199.646 Y183.168 E2.00886
G1 X200.022 Y183.486 E2.04669
G1 X200.283 Y183.802 E2.07817
G1 X200.536 Y184.25 E2.11769
G1 X200.695 Y184.739 E2.15719
G1 X200.754 Y185.25 E2.1967
G1 X200.71 Y185.763 E2.23625
G1 X200.566 Y186.257 E2.27578
G1 X200.327 Y186.713 E2.31533
G1 X200.002 Y187.112 E2.35486
G1 X199.605 Y187.439 E2.39437
;WIDTH:0.69073
G1 X199.153 Y187.688 E2.43505
;WIDTH:0.736719
G1 X199.067 Y187.739 E2.44352
;WIDTH:0.782708
G1 X198.98 Y187.79 E2.45266
;WIDTH:0.828697
G1 X198.894 Y187.841 E2.46231
;WIDTH:0.874686
G1 X198.808 Y187.892 E2.47255
;WIDTH:0.920675
G1 X198.722 Y187.942 E2.48332
G1 X198.212 Y187.984 E2.53873
;WIDTH:0.913273
G1 X197.732 Y187.958 E2.59032
G1 X197.638 Y187.908 E2.60175
;WIDTH:0.865618
G1 X197.544 Y187.858 E2.61253
;WIDTH:0.817963
G1 X197.45 Y187.809 E2.62261
;WIDTH:0.770309
G1 X197.356 Y187.759 E2.63209
;WIDTH:0.722654
G1 X197.262 Y187.71 E2.64088
;WIDTH:0.675
G1 X196.8 Y187.482 E2.68046
G1 X196.393 Y187.167 E2.71999
G1 X196.159 Y186.897 E2.74744
G1 E2.24744 F240
G92 E0
G1 X196.159 Y186.897 F9000
G1 X154.174 Y174.018
G1 E.5 F240
;TYPE:External perimeter
G1 F1800
G1 X154.236 Y173.972 E.50593
G1 X154.724 Y173.783 E.54613
G1 X155.165 Y173.743 E.58015
G1 X155.694 Y173.836 E.62141
G1 X156.14 Y174.056 E.65961
G1 X156.388 Y174.251 E.68384
G1 X156.625 Y174.529 E.7119
G1 X156.803 Y174.849 E.74003
G1 X156.914 Y175.197 E.76809
G1 X156.953 Y175.561 E.79621
G1 X156.92 Y175.925 E.82429
G1 X156.815 Y176.275 E.85236
G1 X156.643 Y176.598 E.88047
G1 X156.41 Y176.88 E.90857
G1 X156.126 Y177.11 E.93664
G1 X155.802 Y177.28 E.96475
G1 X155.451 Y177.382 E.99283
G1 X155.087 Y177.413 E1.02089
G1 X154.724 Y177.37 E1.04897
G1 X154.357 Y177.246 E1.07873
G1 X153.908 Y176.956 E1.11979
G1 X153.608 Y176.624 E1.15416
;WIDTH:0.724466
G1 X153.493 Y176.429 E1.17298
;WIDTH:0.773932
G1 X153.378 Y176.233 E1.19332
;WIDTH:0.823399
G1 X153.263 Y176.038 E1.21501
;WIDTH:0.83848
G1 X153.201 Y175.662 E1.25226
;WIDTH:0.872823
