; generated by PrusaSlicer 2.8.1+MacOS-arm64 on 2024-10-29 at 13:53:33 UTC


;
;

;
;
; 

; external perimeters extrusion width = 0.55mm
; perimeters extrusion width = 0.60mm
; infill extrusion width = 0.60mm
; solid infill extrusion width = 0.60mm
; top infill extrusion width = 0.55mm
; first layer extrusion width = 0.60mm

; external perimeters extrusion width = 0.55mm
; perimeters extrusion width = 0.60mm
; infill extrusion width = 0.60mm
; solid infill extrusion width = 0.60mm
; top infill extrusion width = 0.55mm
; first layer extrusion width = 0.60mm

M73 P0 R272

EXCLUDE_OBJECT_DEFINE NAME='a_lid' CENTER=57.290,103.191 POLYGON=[[104.656,34.759],[105.323,34.909],[105.972,35.342],[106.366,35.902],[106.556,36.658],[106.558,101.737],[76.558,101.737],[76.558,167.005],[106.558,167.005],[106.558,180.557],[106.498,181.043],[106.322,181.499],[106.040,181.900],[105.586,182.272],[105.044,182.497],[104.558,182.557],[40.562,182.557],[40.069,182.231],[39.746,181.860],[39.524,181.421],[39.416,180.941],[39.409,167.661],[39.528,166.983],[39.808,166.354],[40.869,165.128],[41.358,164.262],[41.619,163.302],[41.634,162.308],[41.469,161.529],[41.246,160.974],[40.824,160.299],[40.277,159.720],[39.797,159.363],[39.085,159.007],[38.316,158.798],[37.522,158.746],[36.732,158.852],[35.980,159.113],[35.294,159.517],[34.839,159.905],[34.333,160.520],[34.039,161.040],[33.825,161.599],[33.675,162.381],[33.708,163.375],[33.986,164.330],[34.491,165.187],[35.330,166.058],[35.650,166.507],[35.921,167.140],[36.025,167.681],[36.038,180.743],[35.884,181.513],[35.446,182.164],[34.882,182.557],[27.658,182.557],[17.658,172.557],[17.658,34.757]]
EXCLUDE_OBJECT_DEFINE NAME='b_lid' CENTER=154.933,107.772 POLYGON=[[126.627,28.649],[127.295,28.799],[127.872,29.165],[128.293,29.704],[128.508,30.353],[128.529,43.433],[128.412,44.250],[128.141,44.883],[127.821,45.332],[126.982,46.203],[126.477,47.060],[126.200,48.015],[126.189,49.207],[126.379,49.981],[126.620,50.528],[127.062,51.190],[127.476,51.622],[128.118,52.092],[128.654,52.357],[129.224,52.538],[130.013,52.644],[130.808,52.592],[131.576,52.383],[132.117,52.129],[132.768,51.670],[133.190,51.246],[133.644,50.592],[133.961,49.861],[134.126,49.082],[134.110,48.088],[133.850,47.128],[133.361,46.262],[132.299,45.036],[132.019,44.407],[131.901,43.729],[131.907,30.451],[132.050,29.881],[132.351,29.378],[132.706,29.040],[133.224,28.763],[133.897,28.647],[197.049,28.647],[197.535,28.706],[198.078,28.931],[198.531,29.303],[198.857,29.791],[199.049,30.647],[199.049,183.347],[198.990,183.833],[198.765,184.375],[198.393,184.828],[197.905,185.155],[197.049,185.347],[110.149,185.347],[110.149,38.647],[120.149,28.647]]

M190 S70 ; set bed temperature and wait for it to be reached
M104 S230 ; set temperature
;TYPE:Custom
START_PRINT BED_TEMP=70 HOTEND_TEMP=230 FILAMENT_TYPE=PET EXTRUSION_MULTIPLIER=0.96
M109 S230 ; set temperature and wait for it to be reached
G21 ; set units to millimeters
G90 ; use absolute coordinates
M82 ; use absolute distances for extrusion
G92 E0
; Filament gcode
; ########################### NOTE OFFSET CHANGES ####################################
; Prevents PETG buildup on nozzle.
; PETG does not like to be touching the nozzle, this causes buildup on nozzle
; Once the bed z distance is finaly chuned a small offset for PETG works perfectly
SET_GCODE_OFFSET Z=0.24
; ####################################################################################
M107
;LAYER_CHANGE
;Z:0.3
;HEIGHT:0.3
G1 E-.55 F600
G1 Z.8 F9000
EXCLUDE_OBJECT_START NAME='a_lid'
G92 E0
G1 X83.012 Y60.365
G1 Z.3
G1 E.6 F1200
;TYPE:Perimeter
;WIDTH:0.6
G1 F1800
G3 X82.979 Y59.996 I3.458 J-.495 E.62377
G3 X83.096 Y59.236 I3.49 J.149 E.67319
G3 X83.432 Y58.544 I3.29 J1.171 E.72263
G3 X83.957 Y57.982 I2.799 J2.089 E.77205
G3 X84.624 Y57.6 I2.059 J2.822 E.82145
G3 X85.765 Y57.427 I1.019 J2.876 E.89591
G1 X86.388 Y57.562 E.93679
G3 X87.244 Y58.05 I-1.787 J4.133 E1.00011
G1 X87.623 Y58.448 E1.03536
G1 X87.938 Y59.011 E1.07673
G3 X88.126 Y59.756 I-3.275 J1.218 E1.12611
G3 X88.085 Y60.524 I-3.487 J.199 E1.17553
G3 X87.819 Y61.246 I-3.392 J-.838 E1.22498
G3 X87.353 Y61.857 I-2.993 J-1.8 E1.27436
G3 X86.727 Y62.304 I-2.33 J-2.603 E1.32379
G3 X85.997 Y62.546 I-1.459 J-3.174 E1.37321
G1 X85.337 Y62.576 E1.41558
G1 X84.607 Y62.402 E1.46371
G3 X83.943 Y62.016 I1.414 J-3.194 E1.51307
G3 X83.422 Y61.45 I2.292 J-2.635 E1.56251
G3 X83.091 Y60.756 I2.967 J-1.842 E1.61192
G3 X83.023 Y60.439 I3.379 J-.886 E1.63272
G1 X83.023 Y60.439 F9000
G1 X83.554 Y60.297
;TYPE:External perimeter
G1 F1800
G1 X83.511 Y59.942 E1.65565
G1 X83.621 Y59.342 E1.69477
G1 X83.902 Y58.8 E1.73392
G1 X84.331 Y58.366 E1.77306
G1 X84.868 Y58.077 E1.81217
G1 X85.467 Y57.959 E1.85132
G1 X85.716 Y57.96 E1.86729
G1 X86.269 Y58.084 E1.90364
G1 X86.803 Y58.379 E1.94277
G1 X87.17 Y58.741 E1.97583
G1 X87.468 Y59.267 E2.0146
G1 X87.601 Y59.862 E2.0537
G1 X87.552 Y60.471 E2.09288
G1 X87.326 Y61.038 E2.13203
G1 X86.942 Y61.513 E2.1712
G1 X86.436 Y61.854 E2.21033
G1 X85.852 Y62.031 E2.24947
G1 X85.337 Y62.041 E2.2825
G1 X84.753 Y61.887 E2.32123
G1 X84.233 Y61.566 E2.36042
G1 X83.832 Y61.106 E2.39956
G1 X83.584 Y60.548 E2.43872
G1 X83.563 Y60.372 E2.45009
G1 X83.54 Y59.872 F9000
G1 E1.90009 F600
G92 E0
G1 X104.009 Y41.285 Z.783 F9000
G1 Z.3
G1 E.6 F1200
;TYPE:Perimeter
G1 F1800
G3 X103.819 Y41.746 I-3.316 J-1.099 E.63201
G1 X103.353 Y42.357 E.68129
G1 X102.727 Y42.804 E.73062
G1 X101.997 Y43.046 E.77994
G1 X101.337 Y43.076 E.82231
G1 X100.607 Y42.902 E.87044
G3 X99.898 Y42.484 I1.927 J-4.081 E.9233
G1 X99.422 Y41.95 E.96918
G3 X99.091 Y41.256 I2.967 J-1.842 E1.01859
G3 X98.979 Y40.496 I3.379 J-.886 E1.06796
G3 X99.096 Y39.736 I3.49 J.149 E1.11738
G1 X99.432 Y39.044 E1.16672
G1 X99.957 Y38.482 E1.21604
G1 X100.624 Y38.1 E1.26534
G1 X101.374 Y37.932 E1.31463
G1 X101.87 Y37.944 E1.34645
G1 X102.388 Y38.062 E1.38052
G1 X103.071 Y38.415 E1.42983
G1 X103.554 Y38.867 E1.47225
G1 X103.938 Y39.511 E1.52034
G1 X104.126 Y40.256 E1.56962
G3 X104.085 Y41.024 I-3.487 J.199 E1.61904
G3 X104.032 Y41.214 I-3.392 J-.838 E1.63169
G1 X104.032 Y41.214 F9000
G1 X103.495 Y41.112
;TYPE:External perimeter
G1 F1800
G1 X103.326 Y41.538 E1.66108
G1 X102.942 Y42.013 E1.70025
G1 X102.436 Y42.354 E1.73938
G1 X101.852 Y42.531 E1.77852
G1 X101.337 Y42.541 E1.81155
G1 X100.752 Y42.387 E1.85035
G1 X100.237 Y42.068 E1.8892
G1 X99.832 Y41.606 E1.9286
G1 X99.584 Y41.048 E1.96776
G1 X99.511 Y40.442 E2.00691
G1 X99.621 Y39.842 E2.04603
G1 X99.902 Y39.3 E2.08518
G1 X100.331 Y38.866 E2.12432
G1 X100.868 Y38.577 E2.16343
G1 X101.467 Y38.459 E2.20258
G1 X101.751 Y38.466 E2.2208
G1 X102.269 Y38.584 E2.25487
G1 X102.803 Y38.879 E2.294
G1 X103.17 Y39.241 E2.32706
G1 X103.468 Y39.767 E2.36583
G1 X103.601 Y40.363 E2.40499
G1 X103.552 Y40.971 E2.44411
G1 X103.523 Y41.043 E2.44909
G1 X103.328 Y41.503 F9000
G1 E1.89909 F600
G92 E0
G1 X99.982 Y69.952 Z.8 F9000
G1 X87.029 Y180.089
G1 Z.3
G1 E.6 F1200
;TYPE:Perimeter
G1 F1800
G1 X86.727 Y180.304 E.62378
G1 X85.997 Y180.546 E.6731
G1 X85.337 Y180.576 E.71547
G1 X84.607 Y180.402 E.7636
G1 X83.943 Y180.016 E.81286
G1 X83.422 Y179.45 E.8622
G1 X83.091 Y178.756 E.91151
G1 X82.979 Y177.996 E.96078
G3 X83.096 Y177.236 I3.49 J.149 E1.0102
G3 X83.432 Y176.544 I3.29 J1.171 E1.05964
G3 X83.957 Y175.982 I2.8 J2.09 E1.10906
G3 X84.624 Y175.6 I2.059 J2.821 E1.15846
G3 X85.375 Y175.431 I1.137 J3.309 E1.20793
G1 X85.87 Y175.444 E1.23969
G1 X86.388 Y175.562 E1.27376
G3 X87.071 Y175.915 I-1.253 J3.261 E1.32317
G1 X87.554 Y176.367 E1.36559
G1 X87.938 Y177.011 E1.41368
G3 X88.126 Y177.756 I-3.275 J1.218 E1.46306
G3 X88.085 Y178.524 I-3.487 J.199 E1.51248
G1 X87.819 Y179.246 E1.56183
G1 X87.353 Y179.857 E1.61111
G1 X87.09 Y180.045 E1.63184
G1 X87.09 Y180.045 F9000
G1 X86.733 Y179.654
;TYPE:External perimeter
G1 F1800
G1 X86.436 Y179.854 E1.6548
G1 X85.852 Y180.031 E1.69394
G1 X85.337 Y180.041 E1.72697
G1 X84.752 Y179.887 E1.76577
G1 X84.233 Y179.566 E1.80491
G1 X83.832 Y179.106 E1.84405
G1 X83.584 Y178.548 E1.88321
G1 X83.511 Y177.942 E1.92236
G1 X83.621 Y177.342 E1.96148
G1 X83.902 Y176.8 E2.00063
G1 X84.331 Y176.366 E2.03977
G1 X84.868 Y176.077 E2.07888
G1 X85.467 Y175.959 E2.11803
G1 X85.751 Y175.966 E2.13625
G1 X86.269 Y176.084 E2.17032
G1 X86.803 Y176.379 E2.20945
G1 X87.17 Y176.741 E2.24251
G1 X87.468 Y177.267 E2.28128
G1 X87.601 Y177.862 E2.32038
G1 X87.552 Y178.471 E2.35956
G1 X87.326 Y179.038 E2.39871
G1 X86.942 Y179.513 E2.43788
G1 X86.795 Y179.612 E2.44925
G1 X86.361 Y179.86 F9000
G1 E1.89925 F600
G92 E0
G1 X101.599 Y179.564 Z.566 F9000
G1 Z.3
G1 E.6 F1200
;TYPE:Perimeter
G1 F1800
G1 X101.337 Y179.576 E.61682
G1 X100.607 Y179.402 E.66495
G1 X99.943 Y179.016 E.71421
G1 X99.422 Y178.45 E.76355
G1 X99.091 Y177.756 E.81286
G3 X98.979 Y176.996 I3.379 J-.886 E.86223
G3 X99.096 Y176.236 I3.49 J.149 E.91165
G3 X99.432 Y175.544 I3.29 J1.171 E.96109
G3 X99.957 Y174.982 I2.8 J2.09 E1.01051
G3 X100.624 Y174.6 I2.058 J2.821 E1.05991
G3 X101.375 Y174.431 I1.137 J3.309 E1.10938
G1 X101.87 Y174.444 E1.14114
G1 X102.388 Y174.562 E1.17521
G1 X103.071 Y174.915 E1.22452
G1 X103.554 Y175.367 E1.26694
G1 X103.938 Y176.011 E1.31503
G1 X104.126 Y176.756 E1.36431
G3 X104.085 Y177.524 I-3.487 J.199 E1.41373
G3 X103.819 Y178.246 I-3.392 J-.838 E1.46318
G1 X103.353 Y178.857 E1.51246
G1 X103.232 Y178.974 E1.52325
G1 X102.727 Y179.304 E1.56194
G1 X101.997 Y179.546 E1.61126
G1 X101.674 Y179.561 E1.632
G1 X101.674 Y179.561 F9000
G1 X101.599 Y179.036
;TYPE:External perimeter
G1 F1800
G1 X101.337 Y179.041 E1.64881
G1 X100.752 Y178.887 E1.68761
G1 X100.233 Y178.566 E1.72675
G1 X99.832 Y178.106 E1.76589
G1 X99.584 Y177.548 E1.80505
G1 X99.511 Y176.942 E1.8442
G1 X99.621 Y176.342 E1.88332
G1 X99.902 Y175.8 E1.92247
G1 X100.331 Y175.366 E1.96161
G1 X100.868 Y175.077 E2.00072
G1 X101.467 Y174.959 E2.03987
G1 X101.751 Y174.966 E2.05809
G1 X102.269 Y175.084 E2.09216
G1 X102.803 Y175.379 E2.13129
G1 X103.17 Y175.741 E2.16435
G1 X103.468 Y176.267 E2.20312
G1 X103.601 Y176.862 E2.24222
G1 X103.552 Y177.471 E2.2814
G1 X103.326 Y178.038 E2.32055
G1 X102.902 Y178.552 E2.36328
G1 X102.436 Y178.854 E2.39889
G1 X101.852 Y179.031 E2.43803
G1 X101.674 Y179.034 E2.44945
G1 X101.176 Y178.987 F9000
G1 E1.89945 F600
G92 E0
G1 X72.996 Y173.849 Z.8 F9000
G1 X44.368 Y168.629
G1 Z.3
G1 E.6 F1200
G1 F1800
G3 X43.553 Y169.875 I-1.888 J-.345 E.69806
G3 X41.726 Y170.021 I-1.048 J-1.622 E.82053
G1 X41.25 Y169.713 E.85689
G1 X40.948 Y169.378 E.88582
;WIDTH:0.640949
G1 X40.833 Y169.172 E.90211
;WIDTH:0.681898
G1 X40.717 Y168.966 E.91959
;WIDTH:0.722847
G1 X40.602 Y168.759 E.93826
;WIDTH:0.730419
G1 X40.54 Y168.332 E.97267
;WIDTH:0.768203
G1 X40.584 Y167.824 E1.01564
;WIDTH:0.777503
G1 X40.629 Y167.646 E1.03132
G1 X40.703 Y167.544 E1.04208
;WIDTH:0.733127
G1 X40.777 Y167.443 E1.05211
;WIDTH:0.688751
G1 X40.851 Y167.341 E1.06153
;WIDTH:0.644375
G1 X40.925 Y167.239 E1.07028
;WIDTH:0.6
G1 X41.273 Y166.855 E1.10352
G1 X41.683 Y166.585 E1.135
G1 X42.176 Y166.423 E1.16828
G1 X42.546 Y166.395 E1.19208
G1 X43.11 Y166.494 E1.2288
G1 X43.518 Y166.685 E1.25769
G3 X44.247 Y167.535 I-1.128 J1.705 E1.33044
G3 X44.38 Y168.555 I-1.767 J.749 E1.39723
G1 X44.236 Y169.034 F9000
G1 E.84723 F600
G92 E0
G1 X72.856 Y167.836 Z.8 F9000
G1 X75.867 Y167.71
G1 Z.3
G1 E.6 F1200
;TYPE:Perimeter
G1 F1800
G1 X76.102 Y167.873 E.61834
G1 X76.426 Y167.941 E.63957
G1 X105.622 Y167.941 E2.512
G1 X105.622 Y171.209 E2.72159
G1 X105.622 Y180.141 E3.29443
G1 X105.584 Y180.814 E3.33766
G1 X105.423 Y181.152 E3.36167
G1 X105.101 Y181.462 E3.39034
G3 X104.506 Y181.621 I-.649 J-1.233 E3.43017
G1 X40.837 Y181.621 E7.51346
G1 X40.59 Y181.406 E7.53446
G1 X40.441 Y181.145 E7.55373
G1 X40.344 Y180.766 E7.57882
G1 X40.345 Y169.404 E8.3075
G1 X40.577 Y169.776 E8.33562
G1 X40.959 Y170.163 E8.37049
G1 X41.436 Y170.471 E8.4069
G1 X41.945 Y170.659 E8.4417
G1 X42.425 Y170.723 E8.47276
G1 X42.909 Y170.691 E8.50387
G1 X43.376 Y170.563 E8.53492
G1 X43.809 Y170.346 E8.56598
G1 X44.19 Y170.047 E8.59704
G1 X44.505 Y169.678 E8.62816
G1 X44.74 Y169.254 E8.65925
G1 X44.886 Y168.792 E8.69032
G1 X44.938 Y168.311 E8.72135
G1 X44.894 Y167.828 E8.75245
G1 X44.741 Y167.326 E8.78611
G1 X44.477 Y166.861 E8.8204
G1 X44.128 Y166.476 E8.85373
G1 X43.705 Y166.175 E8.88703
G1 X43.201 Y165.966 E8.92202
G1 X42.637 Y165.868 E8.95873
G1 X42.122 Y165.89 E8.99179
G1 X41.634 Y166.019 E9.02416
;WIDTH:0.61786
G1 X41.064 Y166.32 E9.06688
G1 X41.389 Y165.966 E9.09873
;WIDTH:0.600235
G1 X41.7 Y165.568 E9.13114
;WIDTH:0.6
G2 X42.251 Y164.542 I-9.568 J-5.796 E9.20586
G2 X42.541 Y163.316 I-5.621 J-1.98 E9.28681
G1 X42.589 Y162.617 E9.33174
G1 X42.466 Y161.643 E9.3947
G1 X42.153 Y160.712 E9.45769
G1 X41.674 Y159.877 E9.51943
G1 X41.202 Y159.311 E9.56669
G1 X40.634 Y158.81 E9.61526
G1 X39.796 Y158.299 E9.67821
G1 X38.873 Y157.963 E9.74121
G1 X37.902 Y157.817 E9.80418
G1 X36.94 Y157.862 E9.86594
G1 X36.202 Y158.031 E9.9145
G1 X35.298 Y158.413 E9.97744
G1 X34.486 Y158.966 E10.04045
G1 X33.811 Y159.654 E10.10226
G1 X33.38 Y160.288 E10.15143
G1 X32.987 Y161.154 E10.21242
G1 X32.8 Y161.888 E10.261
G1 X32.725 Y162.847 E10.32269
G1 X32.796 Y163.582 E10.37005
G1 X32.983 Y164.315 E10.41857
G1 X33.376 Y165.194 E10.48032
G1 X33.808 Y165.825 E10.52936
G3 X34.786 Y166.899 I-8.361 J8.602 E10.62257
G1 X34.989 Y167.316 E10.65231
G1 X35.102 Y167.978 E10.69538
G1 X35.102 Y180.682 E11.51013
G1 X35.002 Y181.159 E11.54139
G1 X34.775 Y181.49 E11.56713
G1 X34.607 Y181.621 E11.58079
G1 X28.046 Y181.621 E12.00157
G1 X18.594 Y172.169 E12.85885
G1 X18.594 Y35.692 E21.61155
G1 X104.481 Y35.695 E27.11975
G1 X104.856 Y35.742 E27.14399
G1 X105.144 Y35.879 E27.16444
G3 X105.509 Y36.296 I-1.293 J1.5 E27.2001
G1 X105.62 Y36.704 E27.22722
G1 X105.622 Y100.802 E31.33803
G1 X76.426 Y100.802 E33.21046
G1 X76.176 Y100.841 E33.22669
G1 X75.895 Y101.002 E33.24746
G1 X75.695 Y101.271 E33.26896
G1 X75.622 Y101.605 E33.29089
G1 X75.622 Y167.137 E37.49366
G1 X75.677 Y167.429 E37.51272
G1 X75.821 Y167.652 E37.52974
G1 E36.97974 F600
G92 E0
G1 X75.821 Y167.652 F9000
G1 X47.18 Y167.189 Z.8
G1 X40.453 Y167.08
G1 Z.3
G1 E.6 F1200
;WIDTH:0.529371
G1 F1800
G1 X40.589 Y166.872 E.61384
;WIDTH:0.557213
G1 X40.725 Y166.664 E.6285
;WIDTH:0.587537
G1 X40.894 Y166.492 E.6436
;WIDTH:0.61786
G1 X41.064 Y166.32 E.65963
G1 E.10963 F600
G92 E0
G1 X41.064 Y166.32 F9000
G1 X69.697 Y167.125 Z.8
G1 X76.235 Y167.309
G1 Z.3
G1 E.6 F1200
;TYPE:External perimeter
;WIDTH:0.6
G1 F1800
G1 X76.252 Y167.341 E.60232
G1 X76.426 Y167.405 E.61421
G1 X106.158 Y167.405 E2.52102
G1 X106.158 Y171.209 E2.76498
G1 X106.158 Y180.432 E3.35648
G1 X106.108 Y180.945 E3.38954
G1 X105.967 Y181.31 E3.41463
G1 X105.744 Y181.627 E3.43949
G1 X105.379 Y181.926 E3.46975
G1 X104.944 Y182.107 E3.49997
G1 X104.539 Y182.157 E3.52614
G1 X40.675 Y182.157 E7.62194
G1 X40.44 Y181.999 E7.6401
G1 X40.082 Y181.638 E7.67271
G1 X39.877 Y181.206 E7.70338
G1 X39.808 Y180.812 E7.72903
G1 X39.809 Y169.358 E8.46361
;WIDTH:0.640949
G1 X39.83 Y169.198 E8.47475
M73 P0 R271
;WIDTH:0.681898
G1 X39.85 Y169.039 E8.4866
;WIDTH:0.722847
G1 X39.871 Y168.879 E8.49932
;WIDTH:0.730419
G1 X39.874 Y168.332 E8.54294
;WIDTH:0.755469
G3 X39.939 Y167.293 I8.594 J.012 E8.62914
;WIDTH:0.718857
G1 X39.962 Y167.156 E8.64003
;WIDTH:0.679238
G1 X39.986 Y167.019 E8.65027
;WIDTH:0.639619
G1 X40.009 Y166.883 E8.65977
;WIDTH:0.6
G1 X40.191 Y166.511 E8.68633
G3 X40.925 Y165.69 I4.628 J3.396 E8.75707
G2 X41.471 Y164.901 I-3.119 J-2.742 E8.81874
G1 X41.737 Y164.389 E8.85574
G1 X41.94 Y163.71 E8.90119
G2 X42.056 Y162.676 I-8.868 J-1.522 E8.96796
G1 X41.956 Y161.805 E9.02419
G1 X41.685 Y160.973 E9.08031
G1 X41.258 Y160.215 E9.13611
G1 X40.841 Y159.707 E9.17826
G1 X40.347 Y159.263 E9.22086
G1 X39.605 Y158.799 E9.27699
G1 X38.785 Y158.491 E9.33317
G1 X37.92 Y158.352 E9.38936
G1 X37.051 Y158.386 E9.44513
G1 X36.402 Y158.528 E9.48774
G1 X35.592 Y158.86 E9.54388
G1 X34.864 Y159.346 E9.60002
G1 X34.25 Y159.962 E9.6558
G1 X33.865 Y160.516 E9.69907
G1 X33.504 Y161.294 E9.75408
G1 X33.334 Y161.937 E9.79673
G1 X33.259 Y162.803 E9.85248
G1 X33.317 Y163.458 E9.89465
G1 X33.475 Y164.103 E9.93724
