; generated by PrusaSlicer 2.8.1+MacOS-arm64 on 2024-10-11 at 05:18:44 UTC


;
;

;
;
; 

; external perimeters extrusion width = 0.68mm
; perimeters extrusion width = 0.68mm
; infill extrusion width = 0.68mm
; solid infill extrusion width = 0.68mm
; top infill extrusion width = 0.60mm

; external perimeters extrusion width = 0.68mm
; perimeters extrusion width = 0.68mm
; infill extrusion width = 0.68mm
; solid infill extrusion width = 0.68mm
; top infill extrusion width = 0.60mm


EXCLUDE_OBJECT_DEFINE NAME='b_lid' CENTER=177.844,131.201 POLYGON=[[149.538,52.078],[150.206,52.228],[150.783,52.594],[151.204,53.133],[151.419,53.782],[151.440,66.862],[151.323,67.679],[151.052,68.312],[150.732,68.761],[149.893,69.632],[149.388,70.489],[149.111,71.444],[149.100,72.636],[149.290,73.410],[149.531,73.957],[149.973,74.619],[150.387,75.051],[151.029,75.521],[151.565,75.786],[152.135,75.967],[152.924,76.073],[153.719,76.021],[154.299,75.879],[155.028,75.558],[155.679,75.099],[156.226,74.520],[156.648,73.845],[156.872,73.290],[157.037,72.511],[157.021,71.517],[156.761,70.557],[156.272,69.691],[155.210,68.465],[154.930,67.837],[154.812,67.158],[154.818,53.880],[154.961,53.310],[155.262,52.807],[155.617,52.469],[156.134,52.193],[156.808,52.076],[219.960,52.076],[220.541,52.162],[221.072,52.413],[221.442,52.732],[221.768,53.220],[221.960,54.076],[221.960,206.776],[221.900,207.262],[221.676,207.804],[221.304,208.258],[220.816,208.584],[219.960,208.776],[133.060,208.776],[133.060,62.076],[143.060,52.076]]
EXCLUDE_OBJECT_DEFINE NAME='a_lid' CENTER=75.787,118.520 POLYGON=[[123.153,50.088],[123.910,50.277],[124.469,50.671],[124.863,51.230],[125.053,51.987],[125.055,117.066],[95.055,117.066],[95.055,182.334],[125.055,182.334],[125.055,195.885],[124.995,196.371],[124.819,196.828],[124.537,197.229],[124.083,197.601],[123.541,197.826],[123.055,197.885],[59.059,197.885],[58.566,197.560],[58.243,197.189],[58.021,196.750],[57.913,196.269],[57.906,182.990],[58.024,182.311],[58.305,181.682],[59.366,180.457],[59.855,179.591],[60.116,178.631],[60.131,177.637],[59.966,176.858],[59.650,176.127],[59.195,175.473],[58.774,175.049],[58.294,174.692],[57.582,174.336],[56.813,174.127],[56.019,174.075],[55.229,174.181],[54.660,174.362],[53.954,174.732],[53.336,175.234],[52.830,175.849],[52.536,176.369],[52.322,176.928],[52.171,177.710],[52.205,178.704],[52.483,179.659],[52.988,180.516],[53.827,181.387],[54.147,181.836],[54.417,182.469],[54.522,183.010],[54.535,196.072],[54.381,196.842],[53.943,197.493],[53.379,197.885],[46.155,197.885],[36.155,187.885],[36.155,50.085]]

;TYPE:Custom
START_PRINT BED_TEMP=70 HOTEND_TEMP=230 FILAMENT_TYPE=PET EXTRUSION_MULTIPLIER=0.95 PERIMETER_SPEED=70
G21 ; set units to millimeters
G90 ; use absolute coordinates
M82 ; use absolute distances for extrusion
G92 E0
; Filament gcode
; ########################### NOTE OFFSET CHANGES ####################################
; Prevents PETG buildup on nozzle.
; SET_GCODE_OFFSET Z=0.06
; ####################################################################################
M107
;LAYER_CHANGE
;Z:0.35
;HEIGHT:0.35
G1 E-.5 F240
G1 Z.35 F9000
EXCLUDE_OBJECT_START NAME='a_lid'
G92 E0
G1 X102.073 Y75.424
G1 E.5 F240
;TYPE:External perimeter
;WIDTH:0.675
G1 F1800
G1 X102.07 Y75.402 E.50184
G1 X102.095 Y75.008 E.53458
G1 X102.199 Y74.626 E.56741
G1 X102.376 Y74.272 E.60023
G1 X102.619 Y73.96 E.63302
G1 X102.92 Y73.703 E.66584
G1 X103.265 Y73.511 E.69858
G1 X103.642 Y73.39 E.73141
G1 X104.035 Y73.347 E.76419
G1 X104.429 Y73.383 E.797
G1 X104.808 Y73.495 E.82977
G1 X105.158 Y73.681 E.86264
G1 X105.458 Y73.926 E.89476
G1 X105.657 Y74.158 E.92011
G1 X105.857 Y74.498 E.95282
G1 X105.987 Y74.872 E.98565
G1 X106.04 Y75.264 E1.01845
G1 X106.014 Y75.659 E1.05128
G1 X105.911 Y76.041 E1.08409
G1 X105.734 Y76.394 E1.11684
G1 X105.491 Y76.706 E1.14963
G1 X105.19 Y76.963 E1.18245
G1 X104.845 Y77.156 E1.21523
G1 X104.468 Y77.276 E1.24804
G1 X104.083 Y77.32 E1.28017
G1 X103.778 Y77.3 E1.30552
G1 X103.394 Y77.207 E1.33828
G1 X103.036 Y77.038 E1.37111
G1 X102.718 Y76.803 E1.4039
G1 X102.454 Y76.509 E1.43667
G1 X102.26 Y76.186 E1.46792
G1 X102.123 Y75.795 E1.50228
G1 X102.085 Y75.513 E1.52588
G1 X102.136 Y74.915 F9000
G1 X101.471 Y75.439
;TYPE:Perimeter
G1 F1800
G1 X101.47 Y75.428 E1.5268
G1 X101.505 Y74.897 E1.57093
G1 X101.643 Y74.4 E1.6137
G1 X101.87 Y73.948 E1.65564
G1 X102.188 Y73.542 E1.69841
G1 X102.568 Y73.216 E1.73993
G1 X103.017 Y72.963 E1.78267
G1 X103.508 Y72.805 E1.82544
G1 X104.013 Y72.746 E1.8676
G1 X104.534 Y72.791 E1.91097
G1 X105.037 Y72.94 E1.95447
G1 X105.483 Y73.176 E1.99631
G1 X105.882 Y73.501 E2.03899
G1 X106.168 Y73.845 E2.07609
G1 X106.421 Y74.293 E2.11876
G1 X106.58 Y74.783 E2.16148
G1 X106.639 Y75.294 E2.20414
G1 X106.596 Y75.807 E2.24683
G1 X106.452 Y76.301 E2.2895
G1 X106.212 Y76.757 E2.33223
G1 X105.888 Y77.156 E2.37485
G1 X105.49 Y77.483 E2.41757
G1 X105.036 Y77.725 E2.46023
G1 X104.542 Y77.872 E2.50297
G1 X104.053 Y77.919 E2.54371
G1 X103.644 Y77.885 E2.57774
G1 X103.152 Y77.756 E2.61992
G1 X102.686 Y77.526 E2.66301
G1 X102.279 Y77.211 E2.70569
G1 X101.942 Y76.822 E2.74837
G1 X101.71 Y76.427 E2.78636
G1 X101.541 Y75.944 E2.82879
G1 X101.483 Y75.529 E2.86354
G1 X101.483 Y75.529 F9000
G1 X100.887 Y75.453
G1 F1800
G1 X100.888 Y75.007 E2.90053
G1 X101.016 Y74.386 E2.95311
G1 X101.264 Y73.802 E3.00573
G1 X101.622 Y73.28 E3.05822
G1 X102.077 Y72.839 E3.11077
G1 X102.611 Y72.496 E3.1634
G1 X103.202 Y72.266 E3.21599
G1 X103.826 Y72.158 E3.26851
G1 X104.46 Y72.176 E3.32111
G1 X105.024 Y72.304 E3.36907
G1 X105.356 Y72.428 E3.39846
G1 X105.825 Y72.683 E3.44273
G1 X106.236 Y73.009 E3.48623
G1 X106.613 Y73.433 E3.53328
G1 X106.904 Y73.904 E3.57919
G1 X107.1 Y74.404 E3.62373
G1 X107.224 Y75.026 E3.67633
G1 X107.222 Y75.66 E3.72891
G1 X107.094 Y76.281 E3.78149
G1 X106.846 Y76.864 E3.83403
G1 X106.488 Y77.387 E3.88659
G1 X106.033 Y77.828 E3.93914
G1 X105.499 Y78.171 E3.99177
G1 X104.908 Y78.4 E4.04433
G1 X104.284 Y78.509 E4.09686
G1 X103.77 Y78.506 E4.13949
G1 X103.184 Y78.395 E4.18895
G1 X102.594 Y78.162 E4.24155
G1 X102.063 Y77.816 E4.29411
G1 X101.61 Y77.372 E4.34671
G1 X101.255 Y76.848 E4.3992
G1 X101.161 Y76.669 E4.41597
G1 X100.98 Y76.169 E4.46007
G1 X100.886 Y75.641 E4.50454
G1 X100.887 Y75.543 E4.51267
G1 E4.01267 F240
G92 E0
G1 X100.887 Y75.543 F9000
G1 X119.621 Y53.897
G1 E.5 F240
;TYPE:External perimeter
G1 F1800
G1 X119.642 Y53.89 E.50184
G1 X120.035 Y53.847 E.53462
G1 X120.429 Y53.882 E.56742
G1 X120.808 Y53.995 E.60022
G1 X121.236 Y54.244 E.64128
G1 X121.625 Y54.616 E.68591
G1 X121.857 Y54.998 E.72297
G1 X121.987 Y55.372 E.7558
G1 X122.04 Y55.764 E.7886
G1 X122.015 Y56.159 E.82142
G1 X121.911 Y56.541 E.85425
G1 X121.734 Y56.894 E.887
G1 X121.491 Y57.206 E.91979
G1 X121.19 Y57.463 E.95261
G1 X120.845 Y57.656 E.98539
G1 X120.468 Y57.776 E1.0182
G1 X120.083 Y57.82 E1.05033
G1 X119.778 Y57.8 E1.07568
G1 X119.394 Y57.707 E1.10844
G1 X119.036 Y57.538 E1.14127
G1 X118.718 Y57.303 E1.17406
G1 X118.454 Y57.009 E1.20683
G1 X118.252 Y56.668 E1.2397
G1 X118.123 Y56.294 E1.27251
G1 X118.07 Y55.902 E1.30531
G1 X118.095 Y55.508 E1.33805
G1 X118.199 Y55.126 E1.37088
G1 X118.376 Y54.772 E1.4037
G1 X118.619 Y54.461 E1.43643
G1 X118.92 Y54.203 E1.46931
G1 X119.265 Y54.011 E1.50205
G1 X119.536 Y53.924 E1.52565
G1 X120.133 Y53.871 F9000
G1 X119.503 Y53.314
;TYPE:Perimeter
G1 F1800
G1 X119.568 Y53.295 E1.53127
G1 X120.08 Y53.249 E1.5739
G1 X120.592 Y53.305 E1.61661
G1 X121.082 Y53.462 E1.65928
G1 X121.532 Y53.712 E1.70197
G1 X121.908 Y54.029 E1.74275
G1 X122.168 Y54.345 E1.77668
G1 X122.421 Y54.793 E1.81935
G1 X122.58 Y55.283 E1.86207
G1 X122.639 Y55.794 E1.90473
G1 X122.596 Y56.307 E1.94742
G1 X122.452 Y56.801 E1.99009
G1 X122.212 Y57.257 E2.03282
G1 X121.888 Y57.656 E2.07544
G1 X121.49 Y57.983 E2.11816
G1 X121.036 Y58.225 E2.16082
G1 X120.542 Y58.372 E2.20356
G1 X120.053 Y58.419 E2.2443
G1 X119.644 Y58.385 E2.27833
G1 X119.147 Y58.253 E2.32097
G1 X118.686 Y58.026 E2.36358
G1 X118.279 Y57.711 E2.40626
G1 X117.942 Y57.322 E2.44894
G1 X117.689 Y56.873 E2.49168
G1 X117.53 Y56.384 E2.53432
G1 X117.471 Y55.873 E2.57698
G1 X117.514 Y55.36 E2.61967
G1 X117.658 Y54.866 E2.66234
G1 X117.898 Y54.41 E2.70507
G1 X118.222 Y54.011 E2.74769
G1 X118.62 Y53.684 E2.79041
G1 X119.074 Y53.442 E2.83307
G1 X119.417 Y53.34 E2.86275
G1 E2.36275 F240
G92 E0
G1 X119.417 Y53.34 F9000
G1 X120.677 Y194.21
G1 E.5 F240
;TYPE:External perimeter
G1 F1800
G1 X120.468 Y194.276 E.51818
G1 X120.083 Y194.32 E.55031
G1 X119.83 Y194.307 E.57132
G1 X119.394 Y194.207 E.60842
G1 X119.036 Y194.038 E.64125
G1 X118.718 Y193.803 E.67404
G1 X118.454 Y193.509 E.70681
G1 X118.252 Y193.168 E.73968
G1 X118.123 Y192.794 E.77249
G1 X118.07 Y192.402 E.80529
G1 X118.126 Y191.886 E.84833
G1 X118.199 Y191.626 E.87072
G1 X118.376 Y191.272 E.90354
G1 X118.619 Y190.96 E.93633
G1 X118.92 Y190.703 E.96915
G1 X119.265 Y190.511 E1.00189
G1 X119.642 Y190.39 E1.03472
G1 X120.035 Y190.347 E1.0675
G1 X120.429 Y190.383 E1.10031
G1 X120.808 Y190.495 E1.13308
G1 X121.158 Y190.681 E1.16595
G1 X121.458 Y190.926 E1.19807
G1 X121.657 Y191.158 E1.22342
G1 X121.857 Y191.498 E1.25613
G1 X121.987 Y191.872 E1.28896
G1 X122.04 Y192.264 E1.32176
G1 X122.015 Y192.659 E1.35458
G1 X121.911 Y193.041 E1.38741
G1 X121.734 Y193.394 E1.42016
G1 X121.491 Y193.706 E1.45295
G1 X121.19 Y193.963 E1.48577
G1 X120.845 Y194.156 E1.51855
G1 X120.763 Y194.182 E1.52568
G1 X120.175 Y194.302 F9000
G1 X120.852 Y194.779
;TYPE:Perimeter
G1 F1800
G1 X120.542 Y194.872 E1.55252
G1 X120.053 Y194.919 E1.59326
G1 X119.8 Y194.907 E1.61426
G1 X119.147 Y194.753 E1.6699
G1 X118.686 Y194.526 E1.71251
G1 X118.279 Y194.211 E1.75519
G1 X117.942 Y193.822 E1.79787
G1 X117.689 Y193.373 E1.84061
G1 X117.53 Y192.884 E1.88325
G1 X117.471 Y192.373 E1.92591
G1 X117.514 Y191.86 E1.9686
G1 X117.658 Y191.366 E2.01127
G1 X117.898 Y190.91 E2.054
G1 X118.222 Y190.511 E2.09662
G1 X118.62 Y190.184 E2.13934
G1 X119.074 Y189.942 E2.182
G1 X119.567 Y189.795 E2.22466
G1 X120.08 Y189.749 E2.26737
G1 X120.592 Y189.805 E2.31008
G1 X121.082 Y189.961 E2.35272
G1 X121.532 Y190.212 E2.39545
G1 X121.908 Y190.529 E2.43623
G1 X122.168 Y190.845 E2.47016
G1 X122.421 Y191.293 E2.51283
G1 X122.58 Y191.783 E2.55555
G1 X122.639 Y192.294 E2.59821
G1 X122.596 Y192.807 E2.6409
G1 X122.452 Y193.301 E2.68357
G1 X122.212 Y193.757 E2.7263
G1 X121.888 Y194.156 E2.76892
G1 X121.49 Y194.483 E2.81164
G1 X121.036 Y194.725 E2.8543
G1 X120.939 Y194.754 E2.8627
G1 E2.3627 F240
G92 E0
G1 X120.939 Y194.754 F9000
G1 X102.468 Y194.525
G1 E.5 F240
;TYPE:External perimeter
G1 F1800
G1 X102.454 Y194.509 E.50176
G1 X102.252 Y194.168 E.53463
G1 X102.123 Y193.795 E.56736
G1 X102.07 Y193.402 E.60025
G1 X102.095 Y193.008 E.63299
G1 X102.199 Y192.626 E.66582
G1 X102.376 Y192.272 E.69864
G1 X102.619 Y191.96 E.73143
G1 X102.92 Y191.703 E.76425
G1 X103.265 Y191.511 E.79699
G1 X103.642 Y191.39 E.82982
G1 X104.035 Y191.347 E.8626
G1 X104.429 Y191.382 E.8954
G1 X104.808 Y191.495 E.9282
G1 X105.158 Y191.681 E.96107
G1 X105.458 Y191.926 E.99319
G1 X105.657 Y192.158 E1.01854
G1 X105.9 Y192.616 E1.06154
G1 X105.987 Y192.872 E1.08396
G1 X106.04 Y193.264 E1.11676
G1 X106.015 Y193.659 E1.14958
G1 X105.911 Y194.041 E1.18241
G1 X105.734 Y194.394 E1.21516
G1 X105.491 Y194.706 E1.24795
G1 X105.19 Y194.963 E1.28077
G1 X104.845 Y195.156 E1.31355
G1 X104.468 Y195.276 E1.34636
G1 X104.083 Y195.32 E1.37849
G1 X103.778 Y195.3 E1.40384
G1 X103.394 Y195.207 E1.4366
G1 X103.036 Y195.038 E1.46943
G1 X102.718 Y194.803 E1.50222
G1 X102.528 Y194.592 E1.52577
G1 X102.234 Y194.069 F9000
G1 X101.986 Y194.872
;TYPE:Perimeter
G1 F1800
G1 X101.942 Y194.822 E1.53129
G1 X101.689 Y194.373 E1.57403
G1 X101.53 Y193.884 E1.61667
G1 X101.471 Y193.373 E1.65933
G1 X101.514 Y192.86 E1.70202
G1 X101.658 Y192.366 E1.74469
G1 X101.898 Y191.91 E1.78742
G1 X102.222 Y191.511 E1.83004
G1 X102.62 Y191.184 E1.87276
G1 X103.074 Y190.942 E1.91542
G1 X103.568 Y190.795 E1.95816
G1 X104.08 Y190.749 E2.00079
G1 X104.592 Y190.805 E2.0435
G1 X105.082 Y190.961 E2.08614
G1 X105.532 Y191.212 E2.12887
G1 X105.908 Y191.529 E2.16965
G1 X106.168 Y191.845 E2.20358
G1 X106.421 Y192.293 E2.24625
G1 X106.58 Y192.783 E2.28897
G1 X106.639 Y193.294 E2.33163
G1 X106.596 Y193.807 E2.37432
G1 X106.452 Y194.301 E2.41699
G1 X106.212 Y194.757 E2.45972
G1 X105.888 Y195.156 E2.50234
G1 X105.49 Y195.483 E2.54506
;WIDTH:0.69073
G1 X105.038 Y195.732 E2.58898
;WIDTH:0.736719
G1 X104.952 Y195.783 E2.59812
;WIDTH:0.782708
G1 X104.866 Y195.834 E2.6079
;WIDTH:0.828697
G1 X104.78 Y195.884 E2.61826
;WIDTH:0.874686
G1 X104.693 Y195.935 E2.62941
;WIDTH:0.920675
G1 X104.607 Y195.986 E2.6411
G1 X104.098 Y196.027 E2.70079
;WIDTH:0.913273
G1 X103.618 Y196.001 E2.75649
G1 X103.524 Y195.952 E2.76877
;WIDTH:0.865618
G1 X103.43 Y195.902 E2.7804
;WIDTH:0.817963
G1 X103.336 Y195.853 E2.79129
;WIDTH:0.770309
G1 X103.241 Y195.803 E2.80161
;WIDTH:0.722654
G1 X103.147 Y195.753 E2.81114
;WIDTH:0.675
G1 X102.686 Y195.526 E2.85375
G1 X102.279 Y195.211 E2.89643
G1 X102.044 Y194.94 E2.92618
G1 E2.42618 F240
G92 E0
G1 X102.044 Y194.94 F9000
G1 X62.807 Y183.31
G1 E.5 F240
;TYPE:External perimeter
G1 F1800
G1 X62.839 Y183.604 E.52452
G1 X62.805 Y183.968 E.55484
G1 X62.701 Y184.319 E.5852
G1 X62.528 Y184.641 E.61551
G1 X62.296 Y184.924 E.64586
G1 X62.012 Y185.154 E.67617
G1 X61.688 Y185.324 E.70651
G1 X61.337 Y185.426 E.73682
G1 X60.972 Y185.456 E.76719
G1 X60.609 Y185.414 E.79749
G1 X60.243 Y185.289 E.82956
G1 X59.794 Y184.999 E.87389
G1 X59.494 Y184.668 E.91094
;WIDTH:0.724466
G1 X59.379 Y184.472 E.93134
;WIDTH:0.773932
G1 X59.264 Y184.277 E.95321
;WIDTH:0.823399
G1 X59.148 Y184.082 E.97668
;WIDTH:0.83848
G1 X59.086 Y183.706 E1.01689
;WIDTH:0.872823
G1 X59.125 Y183.168 E1.07637
;WIDTH:0.884662
G1 X59.184 Y182.938 E1.10294
G1 X59.259 Y182.85 E1.11588
;WIDTH:0.842729
G1 X59.333 Y182.762 E1.12808
;WIDTH:0.800797
G1 X59.407 Y182.675 E1.13954
;WIDTH:0.758864
G1 X59.481 Y182.587 E1.15041
;WIDTH:0.716932
G1 X59.556 Y182.499 E1.16067
;WIDTH:0.675
G1 X59.709 Y182.317 E1.18039
G1 X60.122 Y182.016 E1.22277
G1 X60.609 Y181.826 E1.26612
G1 X61.05 Y181.787 E1.30283
G1 X61.58 Y181.88 E1.34745
G1 X62.026 Y182.099 E1.38865
G1 X62.273 Y182.294 E1.41475
G1 X62.511 Y182.573 E1.44516
G1 X62.688 Y182.892 E1.47541
G1 X62.793 Y183.222 E1.50413
G1 X62.809 Y183.821 F9000
G1 E1.00413 F240
G92 E0
G1 X94.809 Y182.575 F9000
G1 E.5 F240
G1 F1800
G1 X94.823 Y182.6 E.50238
G1 X95.017 Y182.672 E.51954
G1 X124.717 Y182.672 E2.98248
G1 X124.717 Y186.537 E3.30299
G1 X124.717 Y195.756 E4.0675
G1 X124.665 Y196.289 E4.11191
G1 X124.519 Y196.668 E4.14559
G1 X124.287 Y196.997 E4.17897
G1 X123.908 Y197.309 E4.21968
G1 X123.458 Y197.495 E4.26006
G1 X123.035 Y197.548 E4.29541
G1 X59.154 Y197.548 E9.59288
G1 X58.953 Y197.422 E9.61255
G1 X58.526 Y196.999 E9.66239
G1 X58.341 Y196.634 E9.69632
G1 X58.25 Y196.233 E9.73042
G1 X58.245 Y184.697 E10.68707
;WIDTH:0.724466
G1 X58.269 Y184.537 E10.70159
;WIDTH:0.773932
G1 X58.294 Y184.377 E10.71723
;WIDTH:0.823399
G1 X58.319 Y184.217 E10.73398
;WIDTH:0.836621
G1 X58.325 Y183.602 E10.79872
;WIDTH:0.872823
G1 X58.349 Y182.992 E10.86604
G1 X58.394 Y182.684 E10.90036
;WIDTH:0.84305
G1 X58.44 Y182.377 E10.93331
;WIDTH:0.813277
G1 X58.493 Y182.202 E10.95197
;WIDTH:0.767184
G1 X58.546 Y182.026 E10.96955
;WIDTH:0.721092
G1 X58.599 Y181.851 E10.98588
;WIDTH:0.675
G1 X58.91 Y181.453 E11.02777
G1 X59.421 Y180.922 E11.08888
G1 X59.797 Y180.407 E11.14176
G1 X60.045 Y179.965 E11.18379
G1 X60.338 Y179.196 E11.25203
G1 X60.452 Y178.656 E11.2978
G1 X60.491 Y178.002 E11.35213
G1 X60.391 Y177.144 E11.42376
G1 X60.123 Y176.323 E11.49538
G1 X59.732 Y175.621 E11.56202
G1 X59.436 Y175.237 E11.60223
G1 X58.977 Y174.78 E11.65594
G1 X58.449 Y174.393 E11.71023
G1 X57.674 Y174.011 E11.78188
G1 X56.839 Y173.791 E11.85349
G1 X55.977 Y173.74 E11.9251
G1 X55.129 Y173.859 E11.99611
G1 X54.507 Y174.062 E12.05037
G1 X53.745 Y174.468 E12.12197
G1 X53.078 Y175.017 E12.19361
G1 X52.537 Y175.681 E12.26464
G1 X52.221 Y176.247 E12.3184
G1 X51.989 Y176.868 E12.37337
G1 X51.834 Y177.702 E12.44372
G1 X51.824 Y178.304 E12.49365
