; generated by PrusaSlicer 2.8.1+MacOS-arm64 on 2024-10-09 at 09:21:27 UTC


;
;

;
;
; 

; external perimeters extrusion width = 0.68mm
; perimeters extrusion width = 0.68mm
; infill extrusion width = 0.68mm
; solid infill extrusion width = 0.68mm
; top infill extrusion width = 0.60mm

; external perimeters extrusion width = 0.68mm
; perimeters extrusion width = 0.68mm
; infill extrusion width = 0.68mm
; solid infill extrusion width = 0.68mm
; top infill extrusion width = 0.60mm


EXCLUDE_OBJECT_DEFINE NAME='b_lid' CENTER=170.659,118.359 POLYGON=[[142.354,39.236],[143.021,39.385],[143.599,39.751],[144.020,40.290],[144.234,40.940],[144.256,54.020],[144.139,54.837],[143.868,55.469],[143.548,55.918],[142.709,56.790],[142.204,57.647],[141.926,58.602],[141.916,59.794],[142.105,60.568],[142.346,61.115],[142.789,61.777],[143.202,62.208],[143.845,62.679],[144.381,62.943],[144.951,63.125],[145.740,63.231],[146.535,63.179],[147.115,63.036],[147.844,62.716],[148.495,62.257],[149.042,61.678],[149.371,61.179],[149.687,60.448],[149.852,59.669],[149.837,58.674],[149.577,57.714],[149.087,56.848],[148.026,55.623],[147.746,54.994],[147.627,54.316],[147.634,41.037],[147.776,40.468],[148.078,39.964],[148.433,39.627],[148.950,39.350],[149.624,39.233],[212.776,39.233],[213.357,39.319],[213.887,39.570],[214.258,39.890],[214.584,40.378],[214.776,41.233],[214.776,193.933],[214.716,194.419],[214.492,194.961],[214.119,195.415],[213.631,195.741],[212.776,195.933],[125.876,195.933],[125.876,49.233],[135.876,39.233]]
EXCLUDE_OBJECT_DEFINE NAME='a_lid' CENTER=70.822,113.822 POLYGON=[[118.188,45.390],[118.855,45.540],[119.504,45.973],[119.897,46.532],[120.087,47.289],[120.089,112.368],[90.089,112.368],[90.089,177.636],[120.089,177.636],[120.089,191.187],[120.030,191.673],[119.853,192.130],[119.571,192.531],[119.118,192.903],[118.670,193.101],[118.089,193.187],[54.093,193.187],[53.601,192.862],[53.278,192.491],[53.055,192.051],[52.947,191.571],[52.941,178.292],[53.059,177.613],[53.339,176.984],[54.401,175.759],[54.890,174.893],[55.150,173.933],[55.166,172.939],[55.001,172.160],[54.684,171.429],[54.230,170.775],[53.808,170.351],[53.329,169.994],[52.616,169.637],[51.848,169.429],[51.053,169.377],[50.459,169.442],[49.694,169.664],[48.989,170.034],[48.371,170.536],[47.864,171.151],[47.570,171.671],[47.357,172.229],[47.206,173.011],[47.240,174.006],[47.517,174.961],[48.022,175.817],[48.862,176.689],[49.181,177.138],[49.452,177.771],[49.556,178.312],[49.569,191.374],[49.416,192.144],[48.978,192.794],[48.414,193.187],[41.189,193.187],[31.189,183.187],[31.189,45.387]]

;TYPE:Custom
START_PRINT BED_TEMP=70 HOTEND_TEMP=230 FILAMENT_TYPE=PET EXTRUSION_MULTIPLIER=0.95 PERIMETER_SPEED=70
G21 ; set units to millimeters
G90 ; use absolute coordinates
M82 ; use absolute distances for extrusion
G92 E0
; Filament gcode
; ########################### NOTE OFFSET CHANGES ####################################
; Prevents PETG buildup on nozzle.
; SET_GCODE_OFFSET Z=0.06
; ####################################################################################
M107
;LAYER_CHANGE
;Z:0.35
;HEIGHT:0.35
G1 E-.5 F240
G1 Z.35 F9000
EXCLUDE_OBJECT_START NAME='a_lid'
G92 E0
G1 X76.397 Y120.207
G1 E.5 F240
;TYPE:External perimeter
;WIDTH:0.675
G1 F1800
G1 X76.397 Y119.349 E.57115
G1 X76.477 Y119.059 E.5961
G1 X76.727 Y118.816 E.62501
;WIDTH:0.646516
G1 X76.799 Y118.779 E.6314
;WIDTH:0.638737
G1 X77.79 Y118.378 E.71469
;WIDTH:0.65543
G1 X78.032 Y118.331 E.73447
;WIDTH:0.675
G1 X78.314 Y118.389 E.75834
G1 X78.55 Y118.568 E.7829
G1 X78.689 Y118.876 E.81092
G1 X78.703 Y121.119 E.99693
G1 X80.053 Y121.658 E1.11747
G1 X80.34 Y121.874 E1.14726
G1 X80.463 Y122.243 E1.17952
G1 X80.463 Y123.47 E1.28127
G1 X80.392 Y123.754 E1.30555
G1 X80.188 Y123.95 E1.32901
G1 X79.847 Y124.025 E1.35796
G1 X79.585 Y123.97 E1.38016
G1 X72.694 Y121.196 E1.99617
G1 X71.967 Y120.903 E2.06117
G1 X71.521 Y120.66 E2.10329
G1 X71.159 Y120.313 E2.14487
G1 X70.879 Y119.739 E2.19783
G1 X70.817 Y119.262 E2.23772
G1 X70.855 Y118.922 E2.26609
G1 X70.987 Y118.555 E2.29843
G1 X71.29 Y118.13 E2.34171
G1 X71.856 Y117.742 E2.39862
G1 X79.613 Y114.604 E3.09253
G1 X80.044 Y114.569 E3.12839
G1 X80.315 Y114.73 E3.15453
G1 X80.458 Y115.047 E3.18337
G1 X80.463 Y115.101 E3.18787
G1 X80.462 Y116.326 E3.28946
G1 X80.357 Y116.647 E3.31747
G1 X80.12 Y116.856 E3.34367
G1 X77.724 Y117.804 E3.55735
;WIDTH:0.647556
G1 X77.579 Y117.857 E3.56957
;WIDTH:0.638737
G1 X76.588 Y118.256 E3.65281
;WIDTH:0.675
G1 X75.925 Y118.542 E3.71269
G1 X74.077 Y119.285 E3.87786
G1 X76.313 Y120.174 E4.0774
G1 X76.401 Y119.58 F9000
G1 E3.5774 F240
G92 E0
G1 X74.291 Y116.11 F9000
G1 E.5 F240
;TYPE:Perimeter
G1 F1800
G1 X79.388 Y114.048 E.95596
G1 X79.652 Y113.985 E.97847
G1 X80.149 Y113.978 E1.01969
G1 X80.467 Y114.106 E1.04812
G1 X80.738 Y114.305 E1.076
G1 X80.947 Y114.628 E1.1079
G1 X81.048 Y114.94 E1.1351
G1 X81.063 Y115.102 E1.14859
G1 X81.062 Y116.326 E1.25009
G1 X80.977 Y116.734 E1.28465
G1 X80.836 Y117.008 E1.3102
G1 X80.484 Y117.341 E1.35038
G1 X78.835 Y118.019 E1.49823
G1 X78.949 Y118.12 E1.51086
G1 X79.211 Y118.53 E1.55121
G1 X79.302 Y118.963 E1.5879
G1 X79.303 Y120.713 E1.73302
G1 X80.275 Y121.1 E1.81978
G1 X80.681 Y121.367 E1.86008
G1 X80.869 Y121.587 E1.88408
G1 X81.05 Y122.088 E1.92825
G1 X81.063 Y123.471 E2.04294
G1 X80.97 Y123.934 E2.0821
G1 X80.756 Y124.252 E2.11389
G1 X80.471 Y124.479 E2.1441
G1 X80.035 Y124.615 E2.18197
G1 X79.717 Y124.612 E2.20834
G1 X79.361 Y124.527 E2.23869
G1 X72.47 Y121.753 E2.8547
G1 X71.743 Y121.46 E2.9197
G1 X71.232 Y121.186 E2.96778
G1 X70.998 Y121.011 E2.99201
G1 X70.643 Y120.628 E3.03532
G1 X70.333 Y119.987 E3.09437
G1 X70.258 Y119.716 E3.11769
G1 X70.219 Y119.205 E3.16019
G1 X70.284 Y118.739 E3.19921
G1 X70.461 Y118.264 E3.24125
G1 X70.801 Y117.782 E3.29016
G1 X71.042 Y117.551 E3.31784
G1 X71.476 Y117.267 E3.36085
G1 X71.631 Y117.186 E3.37535
G1 X74.208 Y116.143 E3.60589
G1 E3.10589 F240
G92 E0
G1 X74.208 Y116.143 F9000
G1 X75.812 Y119.21
G1 E.5 F240
;WIDTH:0.732521
G1 F1800
G1 X75.73 Y119.21 E.50745
G1 X75.689 Y119.282 E.51498
G1 X75.73 Y119.353 E.52243
G1 X75.812 Y119.353 E.52988
G1 X75.853 Y119.282 E.53733
G1 E.03733 F240
G92 E0
G1 X75.853 Y119.282 F9000
G1 X73.949 Y115.601
G1 E.5 F240
;WIDTH:0.675
G1 F1800
G1 X79.163 Y113.492 E.96641
G1 X79.603 Y113.387 E1.00392
G1 X80.108 Y113.367 E1.04583
G1 X80.534 Y113.468 E1.08214
G1 X81.036 Y113.768 E1.13064
G1 X81.29 Y114.025 E1.1606
G1 X81.509 Y114.418 E1.19791
G1 X81.638 Y114.833 E1.23395
G1 X81.663 Y115.102 E1.25635
G1 X81.662 Y116.327 E1.35794
G1 X81.593 Y116.773 E1.39537
G1 X81.396 Y117.251 E1.43824
G1 X81.016 Y117.689 E1.48633
G1 X80.723 Y117.896 E1.51608
G1 X79.749 Y118.298 E1.60346
G1 X79.837 Y118.526 E1.62373
G1 X79.902 Y118.962 E1.66029
G1 X79.903 Y120.306 E1.77174
G1 X80.497 Y120.543 E1.82477
G1 X80.837 Y120.733 E1.85707
G1 X81.176 Y121.009 E1.89332
G1 X81.382 Y121.276 E1.92129
G1 X81.584 Y121.764 E1.96509
G1 X81.663 Y122.244 E2.00543
G1 X81.663 Y123.471 E2.10718
G1 X81.596 Y123.935 E2.14606
G1 X81.43 Y124.356 E2.18359
G1 X81.086 Y124.768 E2.2281
G1 X80.754 Y125.008 E2.26207
G1 X80.264 Y125.179 E2.30511
G1 X79.794 Y125.225 E2.34427
G1 X79.266 Y125.128 E2.38879
G1 X72.246 Y122.309 E3.01612
G1 X71.519 Y122.016 E3.08112
G1 X70.942 Y121.711 E3.13524
G1 X70.566 Y121.427 E3.17432
G1 X70.188 Y121.022 E3.22026
G1 X70.01 Y120.726 E3.2489
G1 X69.787 Y120.236 E3.29354
G1 X69.662 Y119.784 E3.33243
G1 X69.616 Y119.273 E3.37498
G1 X69.664 Y118.754 E3.4182
G1 X69.803 Y118.273 E3.45972
G1 X70.01 Y117.86 E3.49803
G1 X70.312 Y117.434 E3.54133
G1 X70.636 Y117.103 E3.57974
G1 X71.148 Y116.765 E3.63062
G1 X71.406 Y116.63 E3.65477
G1 X73.866 Y115.635 E3.87483
G1 E3.37483 F240
G92 E0
G1 X73.866 Y115.635 F9000
G1 X97.197 Y71.21
G1 E.5 F240
;TYPE:External perimeter
G1 F1800
G1 X97.157 Y71.096 E.51002
G1 X97.104 Y70.704 E.54282
G1 X97.13 Y70.31 E.57556
G1 X97.233 Y69.928 E.60837
G1 X97.41 Y69.574 E.64119
G1 X97.654 Y69.262 E.67404
G1 X97.954 Y69.005 E.7068
G1 X98.3 Y68.813 E.73961
G1 X98.677 Y68.692 E.77244
G1 X99.07 Y68.649 E.80522
G1 X99.464 Y68.684 E.83802
G1 X99.843 Y68.797 E.87082
G1 X100.192 Y68.983 E.90362
G1 X100.492 Y69.228 E.93574
G1 X100.691 Y69.46 E.96109
G1 X100.892 Y69.8 E.99384
G1 X101.022 Y70.174 E1.02667
G1 X101.075 Y70.566 E1.05947
G1 X101.049 Y70.961 E1.0923
G1 X100.946 Y71.343 E1.12511
G1 X100.769 Y71.696 E1.15786
G1 X100.525 Y72.008 E1.19071
G1 X100.225 Y72.265 E1.22347
G1 X99.879 Y72.458 E1.25632
G1 X99.502 Y72.578 E1.28913
G1 X99.117 Y72.622 E1.32126
G1 X98.812 Y72.602 E1.34661
G1 X98.429 Y72.508 E1.37931
G1 X98.07 Y72.34 E1.41218
G1 X97.753 Y72.105 E1.4449
G1 X97.488 Y71.811 E1.47772
G1 X97.287 Y71.47 E1.51055
G1 X97.226 Y71.295 E1.52592
G1 X97.124 Y70.704 F9000
G1 X96.623 Y71.372
;TYPE:Perimeter
G1 F1800
G1 X96.568 Y71.207 E1.54034
G1 X96.504 Y70.702 E1.58255
G1 X96.549 Y70.162 E1.62749
G1 X96.693 Y69.667 E1.67024
G1 X96.932 Y69.212 E1.71286
G1 X97.257 Y68.813 E1.75554
G1 X97.654 Y68.486 E1.79819
G1 X98.109 Y68.244 E1.84093
G1 X98.602 Y68.097 E1.88359
G1 X99.115 Y68.051 E1.9263
G1 X99.626 Y68.107 E1.96893
G1 X100.117 Y68.263 E2.01165
G1 X100.566 Y68.514 E2.05431
G1 X100.942 Y68.831 E2.09509
G1 X101.203 Y69.147 E2.12908
G1 X101.456 Y69.595 E2.17175
G1 X101.615 Y70.085 E2.21447
G1 X101.674 Y70.596 E2.25713
G1 X101.63 Y71.109 E2.29983
G1 X101.486 Y71.603 E2.3425
G1 X101.247 Y72.059 E2.38519
G1 X100.922 Y72.458 E2.42787
G1 X100.525 Y72.785 E2.47052
G1 X100.07 Y73.027 E2.51326
G1 X99.577 Y73.173 E2.5559
G1 X99.087 Y73.221 E2.59673
G1 X98.679 Y73.187 E2.63068
G1 X98.187 Y73.058 E2.67286
G1 X97.72 Y72.827 E2.71607
G1 X97.313 Y72.513 E2.7587
G1 X96.976 Y72.123 E2.80144
G1 X96.728 Y71.689 E2.84289
G1 X96.651 Y71.457 E2.86316
G1 X96.651 Y71.457 F9000
G1 X96.039 Y71.536
G1 F1800
G1 X95.921 Y70.943 E2.9133
G1 X95.923 Y70.309 E2.96588
G1 X95.967 Y70.014 E2.99061
G1 X96.103 Y69.522 E3.03294
G1 X96.331 Y69.041 E3.07708
G1 X96.657 Y68.582 E3.12377
G1 X97.112 Y68.14 E3.17637
G1 X97.646 Y67.798 E3.22896
G1 X98.236 Y67.568 E3.28147
G1 X98.861 Y67.46 E3.33407
G1 X99.495 Y67.478 E3.38667
G1 X100.059 Y67.605 E3.43461
G1 X100.39 Y67.73 E3.46395
G1 X100.859 Y67.985 E3.50822
G1 X101.27 Y68.311 E3.55172
G1 X101.648 Y68.734 E3.59876
G1 X101.938 Y69.206 E3.6447
G1 X102.134 Y69.706 E3.68924
G1 X102.258 Y70.328 E3.74184
G1 X102.256 Y70.962 E3.79442
G1 X102.129 Y71.583 E3.84698
G1 X101.881 Y72.166 E3.89952
G1 X101.522 Y72.689 E3.95213
G1 X101.067 Y73.13 E4.00468
G1 X100.533 Y73.472 E4.05727
G1 X99.943 Y73.702 E4.10978
G1 X99.319 Y73.81 E4.1623
G1 X98.804 Y73.808 E4.20501
G1 X98.218 Y73.697 E4.25447
G1 X97.629 Y73.464 E4.307
G1 X97.097 Y73.118 E4.35963
G1 X96.645 Y72.674 E4.41217
G1 X96.289 Y72.15 E4.4647
G1 X96.068 Y71.621 E4.51224
G1 E4.01224 F240
G92 E0
G1 X96.068 Y71.621 F9000
G1 X117.032 Y50.751
G1 E.5 F240
;TYPE:External perimeter
G1 F1800
G1 X117.075 Y51.066 E.52636
G1 X117.049 Y51.461 E.55919
G1 X116.946 Y51.843 E.592
G1 X116.769 Y52.196 E.62475
G1 X116.525 Y52.508 E.6576
G1 X116.225 Y52.765 E.69036
G1 X115.879 Y52.958 E.72321
G1 X115.502 Y53.078 E.75602
G1 X115.117 Y53.122 E.78815
G1 X114.812 Y53.102 E.8135
G1 X114.429 Y53.008 E.8462
G1 X114.07 Y52.84 E.87907
G1 X113.753 Y52.605 E.91179
G1 X113.507 Y52.338 E.9419
G1 X113.287 Y51.97 E.97745
G1 X113.157 Y51.596 E1.01028
G1 X113.104 Y51.204 E1.04308
G1 X113.13 Y50.81 E1.07582
G1 X113.233 Y50.428 E1.10863
G1 X113.41 Y50.074 E1.14145
G1 X113.654 Y49.762 E1.1743
G1 X113.954 Y49.505 E1.20706
G1 X114.3 Y49.313 E1.23987
G1 X114.677 Y49.192 E1.2727
G1 X115.07 Y49.149 E1.30548
G1 X115.464 Y49.184 E1.33828
G1 X115.843 Y49.297 E1.37108
G1 X116.271 Y49.546 E1.41214
G1 X116.66 Y49.918 E1.45677
G1 X116.892 Y50.3 E1.49383
G1 X117.018 Y50.662 E1.52562
G1 X117.052 Y51.261 F9000
G1 X117.622 Y50.647
;TYPE:Perimeter
G1 F1800
G1 X117.674 Y51.096 E1.5631
G1 X117.63 Y51.609 E1.6058
G1 X117.486 Y52.103 E1.64847
G1 X117.247 Y52.559 E1.69116
G1 X116.922 Y52.958 E1.73384
G1 X116.525 Y53.285 E1.77649
G1 X116.07 Y53.527 E1.81923
G1 X115.577 Y53.674 E1.86189
G1 X115.087 Y53.721 E1.90271
G1 X114.679 Y53.687 E1.93666
G1 X114.182 Y53.555 E1.9793
G1 X113.72 Y53.327 E2.02202
G1 X113.313 Y53.013 E2.06465
G1 X113.033 Y52.705 E2.09917
G1 X112.747 Y52.234 E2.14487
G1 X112.564 Y51.686 E2.19278
G1 X112.505 Y51.174 E2.23552
G1 X112.549 Y50.662 E2.27814
G1 X112.693 Y50.168 E2.32081
G1 X112.932 Y49.712 E2.3635
G1 X113.257 Y49.313 E2.40618
G1 X113.654 Y48.986 E2.44883
G1 X114.109 Y48.744 E2.49157
G1 X114.602 Y48.597 E2.53423
G1 X115.115 Y48.551 E2.57694
G1 X115.626 Y48.607 E2.61957
G1 X116.117 Y48.763 E2.66229
G1 X116.566 Y49.014 E2.70495
G1 X116.942 Y49.331 E2.74573
G1 X117.203 Y49.647 E2.77972
G1 X117.456 Y50.095 E2.82239
G1 X117.606 Y50.559 E2.86283
G1 E2.36283 F240
G92 E0
G1 X117.606 Y50.559 F9000
G1 X116.66 Y188.835
G1 E.5 F240
;TYPE:External perimeter
G1 F1800
G1 X116.525 Y189.008 E.5182
G1 X116.225 Y189.265 E.55096
G1 X115.879 Y189.458 E.58381
G1 X115.502 Y189.578 E.61662
G1 X115.117 Y189.622 E.64875
G1 X114.864 Y189.609 E.66976
G1 X114.429 Y189.508 E.70679
G1 X114.07 Y189.34 E.73966
G1 X113.753 Y189.105 E.77238
G1 X113.488 Y188.811 E.8052
G1 X113.287 Y188.47 E.83803
G1 X113.157 Y188.096 E.87086
G1 X113.104 Y187.704 E.90366
G1 X113.161 Y187.188 E.94671
G1 X113.233 Y186.928 E.96908
G1 X113.41 Y186.574 E1.0019
G1 X113.654 Y186.262 E1.03475
G1 X113.954 Y186.005 E1.06751
G1 X114.3 Y185.813 E1.10032
G1 X114.677 Y185.692 E1.13315
G1 X115.07 Y185.649 E1.16593
G1 X115.464 Y185.684 E1.19873
G1 X115.843 Y185.797 E1.23153
G1 X116.192 Y185.983 E1.26433
G1 X116.492 Y186.228 E1.29645
G1 X116.691 Y186.46 E1.3218
G1 X116.892 Y186.8 E1.35455
G1 X117.022 Y187.174 E1.38738
G1 X117.075 Y187.566 E1.42018
G1 X117.049 Y187.961 E1.45301
G1 X116.946 Y188.343 E1.48582
G1 X116.769 Y188.696 E1.51857
G1 X116.716 Y188.764 E1.52572
G1 X116.296 Y189.194 F9000
G1 X117.126 Y189.207
;TYPE:Perimeter
G1 F1800
G1 X116.922 Y189.458 E1.55254
G1 X116.525 Y189.785 E1.59519
G1 X116.07 Y190.027 E1.63793
G1 X115.577 Y190.173 E1.68057
G1 X115.087 Y190.221 E1.7214
G1 X114.834 Y190.208 E1.74241
G1 X114.182 Y190.055 E1.79795
G1 X113.72 Y189.827 E1.84067
G1 X113.313 Y189.513 E1.8833
G1 X112.976 Y189.123 E1.92604
G1 X112.723 Y188.675 E1.96871
G1 X112.564 Y188.186 E2.01135
G1 X112.505 Y187.674 E2.05409
G1 X112.549 Y187.162 E2.09671
G1 X112.693 Y186.668 E2.13938
G1 X112.932 Y186.212 E2.18207
G1 X113.257 Y185.813 E2.22475
G1 X113.654 Y185.486 E2.2674
G1 X114.109 Y185.244 E2.31014
G1 X114.602 Y185.097 E2.3528
G1 X115.115 Y185.051 E2.39551
G1 X115.626 Y185.107 E2.43814
G1 X116.117 Y185.263 E2.48086
G1 X116.566 Y185.514 E2.52352
G1 X116.942 Y185.831 E2.5643
G1 X117.203 Y186.147 E2.59829
G1 X117.456 Y186.595 E2.64096
G1 X117.615 Y187.085 E2.68368
G1 X117.674 Y187.596 E2.72634
G1 X117.63 Y188.109 E2.76904
G1 X117.486 Y188.603 E2.81171
G1 X117.247 Y189.059 E2.8544
G1 X117.183 Y189.137 E2.86277
G1 E2.36277 F240
G92 E0
G1 X97.503 Y189.827 F9000
G1 E.5 F240
;TYPE:External perimeter
G1 F1800
G1 X97.488 Y189.811 E.50182
G1 X97.287 Y189.47 E.53465
G1 X97.157 Y189.096 E.56748
G1 X97.104 Y188.704 E.60028
G1 X97.13 Y188.31 E.63302
G1 X97.233 Y187.928 E.66583
G1 X97.41 Y187.574 E.69865
G1 X97.654 Y187.262 E.7315
G1 X97.954 Y187.005 E.76426
G1 X98.3 Y186.813 E.79707
G1 X98.677 Y186.692 E.8299
G1 X99.07 Y186.649 E.86268
G1 X99.464 Y186.684 E.89548
G1 X99.843 Y186.797 E.92828
G1 X100.192 Y186.983 E.96108
G1 X100.492 Y187.228 E.9932
G1 X100.691 Y187.46 E1.01855
G1 X100.935 Y187.918 E1.06158
G1 X101.022 Y188.174 E1.084
G1 X101.075 Y188.566 E1.1168
G1 X101.049 Y188.961 E1.14963
G1 X100.946 Y189.343 E1.18244
G1 X100.769 Y189.696 E1.21519
G1 X100.525 Y190.008 E1.24804
G1 X100.225 Y190.265 E1.2808
G1 X99.879 Y190.458 E1.31365
G1 X99.502 Y190.578 E1.34646
G1 X99.117 Y190.622 E1.37859
G1 X98.812 Y190.602 E1.40394
G1 X98.429 Y190.508 E1.43664
G1 X98.07 Y190.34 E1.46951
G1 X97.753 Y190.105 E1.50223
G1 X97.563 Y189.894 E1.52578
G1 X97.269 Y189.371 F9000
G1 X97.02 Y190.174
;TYPE:Perimeter
G1 F1800
G1 X96.976 Y190.123 E1.53137
G1 X96.723 Y189.675 E1.57404
G1 X96.564 Y189.186 E1.61668
G1 X96.505 Y188.674 E1.65942
