; generated by PrusaSlicer 2.8.1+MacOS-arm64 on 2024-11-27 at 05:03:02 UTC


;
;

;
;
; 

; external perimeters extrusion width = 0.55mm
; perimeters extrusion width = 0.60mm
; infill extrusion width = 0.60mm
; solid infill extrusion width = 0.60mm
; top infill extrusion width = 0.55mm
; first layer extrusion width = 0.60mm

; external perimeters extrusion width = 0.55mm
; perimeters extrusion width = 0.60mm
; infill extrusion width = 0.60mm
; solid infill extrusion width = 0.60mm
; top infill extrusion width = 0.55mm
; first layer extrusion width = 0.60mm

M73 P0 R243

EXCLUDE_OBJECT_DEFINE NAME='a_lid' CENTER=72.394,120.437 POLYGON=[[119.760,52.005],[120.427,52.155],[121.076,52.588],[121.469,53.147],[121.659,53.904],[121.662,118.983],[91.662,118.983],[91.662,184.251],[121.662,184.251],[121.662,197.802],[121.602,198.288],[121.425,198.745],[121.143,199.146],[120.690,199.518],[120.242,199.716],[119.662,199.802],[55.665,199.802],[55.248,199.541],[54.907,199.186],[54.628,198.667],[54.519,198.186],[54.513,184.907],[54.631,184.229],[54.911,183.600],[55.973,182.374],[56.462,181.508],[56.722,180.548],[56.738,179.554],[56.573,178.775],[56.256,178.044],[55.802,177.390],[55.380,176.966],[54.901,176.609],[54.189,176.253],[53.420,176.044],[52.625,175.992],[51.836,176.098],[51.266,176.279],[50.561,176.649],[49.943,177.151],[49.436,177.766],[49.142,178.286],[48.929,178.845],[48.778,179.627],[48.812,180.621],[49.089,181.576],[49.594,182.433],[50.434,183.304],[50.753,183.753],[51.024,184.386],[51.128,184.927],[51.141,197.989],[50.988,198.759],[50.550,199.410],[49.986,199.802],[42.762,199.802],[32.762,189.802],[32.762,52.003]]
EXCLUDE_OBJECT_DEFINE NAME='b_lid' CENTER=171.533,126.433 POLYGON=[[143.228,47.309],[143.895,47.459],[144.473,47.825],[144.894,48.364],[145.108,49.013],[145.130,62.094],[145.013,62.910],[144.742,63.543],[144.422,63.992],[143.583,64.864],[143.078,65.721],[142.800,66.676],[142.790,67.868],[142.979,68.641],[143.220,69.188],[143.663,69.850],[144.076,70.282],[144.719,70.753],[145.255,71.017],[145.825,71.198],[146.614,71.305],[147.211,71.280],[147.989,71.110],[148.718,70.789],[149.369,70.330],[149.790,69.906],[150.245,69.253],[150.561,68.522],[150.726,67.742],[150.711,66.748],[150.451,65.788],[149.961,64.922],[148.900,63.697],[148.620,63.068],[148.501,62.389],[148.508,49.111],[148.615,48.633],[148.892,48.115],[149.307,47.700],[149.824,47.424],[150.498,47.307],[213.650,47.307],[214.231,47.393],[214.678,47.591],[215.132,47.964],[215.458,48.452],[215.650,49.307],[215.650,202.007],[215.590,202.493],[215.366,203.035],[214.993,203.489],[214.505,203.815],[213.650,204.007],[126.750,204.007],[126.750,57.307],[136.750,47.307]]

M190 S70 ; set bed temperature and wait for it to be reached
M104 S245 ; set temperature
;TYPE:Custom
START_PRINT BED_TEMP=70 HOTEND_TEMP=245 FILAMENT_TYPE=PET EXTRUSION_MULTIPLIER=0.96
M109 S245 ; set temperature and wait for it to be reached
G21 ; set units to millimeters
G90 ; use absolute coordinates
M82 ; use absolute distances for extrusion
G92 E0
; Filament gcode
; ########################### NOTE OFFSET CHANGES ####################################
; Prevents PETG buildup on nozzle.
; PETG does not like to be touching the nozzle, this causes buildup on nozzle
; Once the bed z distance is finaly chuned a small offset for PETG works perfectly
SET_GCODE_OFFSET Z=0.06
; ####################################################################################
M107
;LAYER_CHANGE
;Z:0.3
;HEIGHT:0.3
G1 E-.55 F600
G1 Z.8 F9000
EXCLUDE_OBJECT_START NAME='a_lid'
G92 E0
G1 X97.585 Y77.678
G1 Z.3
G1 E.6 F1200
;TYPE:Perimeter
;WIDTH:0.6
G1 F1800
G3 X97.549 Y77.295 I3.786 J-.545 E.62468
G3 X97.674 Y76.376 I3.825 J.052 E.68431
G3 X98.065 Y75.534 I3.64 J1.177 E.744
G3 X98.686 Y74.845 I3.131 J2.198 E.80363
G3 X99.483 Y74.369 I2.344 J3.023 E.86331
G3 X100.917 Y74.14 I1.269 J3.334 E.9571
G1 X101.611 Y74.286 E1.00258
G3 X102.442 Y74.697 I-1.269 J3.609 E1.06218
G3 X103.099 Y75.303 I-2.303 J3.157 E1.11963
G1 X103.512 Y76 E1.17159
G3 X103.754 Y76.896 I-3.546 J1.438 E1.23126
G3 X103.721 Y77.823 I-3.811 J.329 E1.2909
G3 X103.416 Y78.7 I-3.739 J-.809 E1.3506
G3 X102.867 Y79.447 I-3.334 J-1.876 E1.4102
G3 X102.121 Y80 I-2.634 J-2.775 E1.4699
G3 X101.246 Y80.308 I-1.698 J-3.428 E1.52954
G3 X100.335 Y80.354 I-.653 J-3.887 E1.58817
G1 X99.566 Y80.164 E1.63897
G3 X98.756 Y79.712 I1.446 J-3.541 E1.69861
G3 X98.115 Y79.04 I2.425 J-2.958 E1.75832
G3 X97.7 Y78.21 I3.19 J-2.111 E1.81798
G3 X97.596 Y77.752 I3.671 J-1.077 E1.84812
G1 X98.115 Y77.611 F9000
G1 F1800
G3 X98.082 Y77.242 I3.458 J-.495 E1.87189
G3 X98.199 Y76.482 I3.49 J.149 E1.92131
G3 X98.535 Y75.79 I3.291 J1.171 E1.97075
G3 X99.06 Y75.228 I2.8 J2.089 E2.02017
G3 X99.727 Y74.846 I2.059 J2.822 E2.06957
G3 X100.868 Y74.673 I1.02 J2.876 E2.14403
G1 X101.491 Y74.808 E2.18491
G3 X102.347 Y75.296 I-1.786 J4.132 E2.24823
G1 X102.727 Y75.694 E2.28352
G1 X103.042 Y76.257 E2.32489
G3 X103.229 Y77.002 I-3.276 J1.218 E2.37425
G3 X103.188 Y77.77 I-3.487 J.199 E2.42367
G3 X102.923 Y78.492 I-3.392 J-.838 E2.47309
G3 X102.456 Y79.103 I-2.994 J-1.8 E2.52251
G3 X101.83 Y79.55 I-2.33 J-2.603 E2.57194
G3 X101.101 Y79.792 I-1.459 J-3.174 E2.6213
G1 X100.44 Y79.822 E2.66374
G1 X99.711 Y79.648 E2.71181
G3 X99.046 Y79.262 I1.414 J-3.194 E2.76122
G3 X98.525 Y78.696 I2.293 J-2.636 E2.81066
G3 X98.194 Y78.002 I2.968 J-1.842 E2.86007
G3 X98.126 Y77.685 I3.379 J-.886 E2.88087
G1 X98.126 Y77.685 F9000
G1 X98.658 Y77.543
;TYPE:External perimeter
G1 F1800
G1 X98.615 Y77.188 E2.9038
G1 X98.724 Y76.588 E2.94291
G1 X99.006 Y76.046 E2.98209
G1 X99.434 Y75.612 E3.02118
G1 X99.972 Y75.323 E3.06035
G1 X100.571 Y75.205 E3.0995
G1 X100.819 Y75.206 E3.11541
G1 X101.372 Y75.33 E3.15176
G1 X101.907 Y75.625 E3.19094
G1 X102.274 Y75.987 E3.224
G1 X102.571 Y76.513 E3.26274
G1 X102.704 Y77.108 E3.30184
G1 X102.655 Y77.717 E3.34102
G1 X102.429 Y78.284 E3.38017
G1 X102.046 Y78.759 E3.4193
G1 X101.54 Y79.1 E3.45843
G1 X100.956 Y79.277 E3.49757
G1 X100.44 Y79.287 E3.53067
G1 X99.856 Y79.133 E3.5694
G1 X99.337 Y78.812 E3.60854
G1 X98.936 Y78.352 E3.64768
G1 X98.688 Y77.794 E3.68684
G1 X98.666 Y77.618 E3.69822
G1 X98.644 Y77.118 F9000
G1 E3.14822 F600
G92 E0
G1 X119.621 Y58.701 Z.787 F9000
G1 Z.3
G1 E.6 F1200
;TYPE:Perimeter
;WIDTH:0.59306
G1 F1800
G1 X119.619 Y58.709 E.60052
;WIDTH:0.6
G1 X119.416 Y59.2 E.63459
G3 X118.867 Y59.947 I-3.334 J-1.875 E.69419
G3 X118.121 Y60.5 I-2.634 J-2.775 E.75389
G3 X116.883 Y60.858 I-1.573 J-3.12 E.83702
G1 X116.243 Y60.843 E.87808
G1 X115.566 Y60.664 E.92299
G3 X114.756 Y60.212 I1.446 J-3.541 E.98263
G3 X114.115 Y59.54 I2.425 J-2.958 E1.04234
G3 X113.7 Y58.71 I3.19 J-2.111 E1.102
G3 X113.549 Y57.795 I3.671 J-1.077 E1.16162
G3 X113.674 Y56.875 I3.825 J.052 E1.22131
G3 X114.065 Y56.034 I3.64 J1.178 E1.28094
G3 X115.01 Y55.112 I2.801 J1.926 E1.36615
G3 X116.828 Y54.634 I1.723 J2.861 E1.48836
G1 X117.611 Y54.786 E1.53951
G3 X118.731 Y55.422 I-1.135 J3.304 E1.62259
G3 X119.649 Y56.875 I-2.205 J2.408 E1.73413
G1 X119.73 Y57.401 E1.76826
;WIDTH:0.551387
G1 X119.744 Y57.792 E1.79107
;WIDTH:0.566308
G1 X119.704 Y58.322 E1.82301
;WIDTH:0.59306
G1 X119.637 Y58.628 E1.84284
G1 X119.637 Y58.628 F9000
G1 X119.113 Y58.531
;WIDTH:0.6
G1 F1800
G3 X118.923 Y58.992 I-3.317 J-1.099 E1.87485
G1 X118.456 Y59.603 E1.92417
G1 X117.83 Y60.05 E1.9735
G1 X117.101 Y60.292 E2.02276
G1 X116.44 Y60.322 E2.0652
G1 X115.711 Y60.148 E2.11327
G3 X115.001 Y59.73 I1.926 J-4.081 E2.16618
G1 X114.525 Y59.196 E2.21206
G3 X114.194 Y58.502 I2.968 J-1.842 E2.26147
G3 X114.082 Y57.742 I3.38 J-.886 E2.31084
G3 X114.199 Y56.982 I3.49 J.149 E2.36026
G1 X114.535 Y56.29 E2.4096
G1 X115.06 Y55.728 E2.45892
G1 X115.727 Y55.346 E2.50822
G1 X116.478 Y55.177 E2.55759
G1 X116.973 Y55.19 E2.58935
G1 X117.491 Y55.308 E2.62342
G1 X118.174 Y55.661 E2.67273
G1 X118.657 Y56.113 E2.71515
G1 X119.042 Y56.757 E2.76327
G1 X119.229 Y57.502 E2.81253
G3 X119.188 Y58.27 I-3.486 J.199 E2.86195
G3 X119.136 Y58.46 I-3.392 J-.838 E2.87459
G1 X119.136 Y58.46 F9000
G1 X118.599 Y58.358
;TYPE:External perimeter
G1 F1800
G1 X118.429 Y58.784 E2.90401
G1 X118.046 Y59.259 E2.94314
G1 X117.54 Y59.6 E2.98227
G1 X116.956 Y59.777 E3.02141
G1 X116.44 Y59.787 E3.05451
G1 X115.856 Y59.633 E3.09324
G1 X115.341 Y59.314 E3.13209
G1 X114.936 Y58.852 E3.17149
G1 X114.688 Y58.294 E3.21065
G1 X114.615 Y57.688 E3.2498
G1 X114.724 Y57.088 E3.28891
G1 X115.006 Y56.546 E3.32809
G1 X115.434 Y56.112 E3.36718
G1 X115.972 Y55.823 E3.40635
G1 X116.571 Y55.705 E3.4455
G1 X116.854 Y55.712 E3.46366
G1 X117.372 Y55.83 E3.49773
G1 X117.907 Y56.125 E3.53691
G1 X118.274 Y56.487 E3.56997
G1 X118.571 Y57.013 E3.60871
G1 X118.704 Y57.608 E3.64781
G1 X118.655 Y58.217 E3.68699
G1 X118.627 Y58.288 E3.69188
G1 X118.431 Y58.749 F9000
G1 E3.14188 F600
G92 E0
G1 X115.086 Y87.198 Z.8 F9000
G1 X102.132 Y197.334
G1 Z.3
G1 E.6 F1200
;TYPE:Perimeter
G1 F1800
G1 X101.83 Y197.55 E.62381
G1 X101.101 Y197.792 E.67307
G1 X100.44 Y197.822 E.71551
G1 X99.711 Y197.648 E.76358
G1 X99.046 Y197.262 E.81289
G1 X98.525 Y196.696 E.86223
G1 X98.194 Y196.002 E.91154
G1 X98.082 Y195.242 E.96081
G3 X98.199 Y194.482 I3.49 J.149 E1.01023
G3 X98.535 Y193.79 I3.291 J1.171 E1.05967
G3 X99.06 Y193.228 I2.8 J2.09 E1.10909
G3 X99.727 Y192.846 I2.059 J2.821 E1.15849
G3 X100.478 Y192.677 I1.138 J3.308 E1.20796
G1 X100.973 Y192.69 E1.23972
G1 X101.491 Y192.808 E1.27379
G3 X102.174 Y193.161 I-1.253 J3.261 E1.3232
G1 X102.657 Y193.613 E1.36562
G1 X103.042 Y194.257 E1.41374
G3 X103.229 Y195.002 I-3.275 J1.218 E1.4631
G3 X103.188 Y195.77 I-3.487 J.199 E1.51252
G1 X102.923 Y196.492 E1.56184
G1 X102.456 Y197.103 E1.61116
G1 X102.193 Y197.291 E1.63189
G1 X102.193 Y197.291 F9000
G1 X101.836 Y196.9
;TYPE:External perimeter
G1 F1800
G1 X101.54 Y197.1 E1.6548
G1 X100.956 Y197.277 E1.69394
G1 X100.44 Y197.287 E1.72704
G1 X99.856 Y197.133 E1.76577
G1 X99.337 Y196.812 E1.80491
G1 X98.936 Y196.352 E1.84405
G1 X98.688 Y195.794 E1.88321
G1 X98.615 Y195.188 E1.92236
G1 X98.724 Y194.588 E1.96147
G1 X99.006 Y194.046 E2.00065
G1 X99.434 Y193.612 E2.03974
G1 X99.972 Y193.323 E2.07891
G1 X100.571 Y193.205 E2.11806
G1 X100.854 Y193.212 E2.13622
G1 X101.372 Y193.33 E2.17029
G1 X101.907 Y193.625 E2.20947
G1 X102.274 Y193.987 E2.24253
G1 X102.571 Y194.513 E2.28127
G1 X102.704 Y195.108 E2.32037
G1 X102.655 Y195.717 E2.35955
G1 X102.429 Y196.284 E2.3987
G1 X102.046 Y196.759 E2.43783
G1 X101.898 Y196.858 E2.44925
G1 X101.464 Y197.106 F9000
G1 E1.89925 F600
G92 E0
G1 X116.703 Y197.462 Z.566 F9000
G1 Z.3
M73 P0 R242
G1 E.6 F1200
;TYPE:Perimeter
;WIDTH:0.832738
G1 F1800
G1 X116.441 Y197.467 E.62411
;WIDTH:0.853619
G1 X116.043 Y197.43 E.66188
G1 X115.964 Y197.386 E.67043
;WIDTH:0.811349
G1 X115.884 Y197.341 E.67864
;WIDTH:0.769079
G1 X115.805 Y197.297 E.68627
;WIDTH:0.726809
G1 X115.725 Y197.253 E.69351
;WIDTH:0.684539
G1 X115.645 Y197.208 E.70033
;WIDTH:0.642269
G1 X115.566 Y197.164 E.70659
;WIDTH:0.6
G3 X114.756 Y196.712 I1.446 J-3.541 E.76623
G3 X114.115 Y196.04 I2.425 J-2.958 E.82594
G3 X113.7 Y195.21 I3.19 J-2.111 E.8856
G3 X113.549 Y194.295 I3.671 J-1.077 E.94522
G3 X113.674 Y193.376 I3.825 J.052 E1.00485
G3 X114.065 Y192.534 I3.639 J1.177 E1.06454
G3 X115.01 Y191.612 I2.801 J1.926 E1.14975
G3 X116.828 Y191.134 I1.723 J2.862 E1.27196
G1 X117.611 Y191.286 E1.32311
G3 X118.731 Y191.922 I-1.135 J3.304 E1.40619
G3 X119.649 Y193.375 I-2.205 J2.409 E1.51773
G1 X119.731 Y193.901 E1.55187
;WIDTH:0.552498
G1 X119.745 Y194.292 E1.57474
;WIDTH:0.56739
G1 X119.705 Y194.822 E1.60675
;WIDTH:0.593363
G1 X119.62 Y195.209 E1.63185
;WIDTH:0.6
G1 X119.416 Y195.7 E1.66595
G3 X118.665 Y196.642 I-3.272 J-1.839 E1.74355
G1 X118.121 Y197 E1.78532
;WIDTH:0.648526
G1 X117.836 Y197.126 E1.80712
;WIDTH:0.697053
G1 X117.551 Y197.252 E1.83073
;WIDTH:0.74558
G1 X117.266 Y197.378 E1.85615
;WIDTH:0.789159
G1 X117.2 Y197.415 E1.86272
;WIDTH:0.832738
G1 X117.135 Y197.452 E1.8696
G1 X116.778 Y197.46 E1.90245
G1 X116.778 Y197.46 F9000
G1 X116.703 Y196.81
;WIDTH:0.6
G1 F1800
G1 X116.44 Y196.822 E1.91933
G1 X115.711 Y196.648 E1.9674
G1 X115.046 Y196.262 E2.01671
G1 X114.525 Y195.696 E2.06605
G1 X114.194 Y195.002 E2.11536
G3 X114.082 Y194.242 I3.379 J-.886 E2.16473
G3 X114.199 Y193.482 I3.49 J.149 E2.21415
G3 X114.535 Y192.79 I3.291 J1.171 E2.26359
G3 X115.06 Y192.228 I2.8 J2.09 E2.31301
G3 X115.727 Y191.846 I2.059 J2.821 E2.36241
G3 X116.478 Y191.677 I1.138 J3.309 E2.41188
G1 X116.973 Y191.69 E2.44364
G1 X117.491 Y191.808 E2.47771
G1 X118.174 Y192.161 E2.52702
G1 X118.657 Y192.613 E2.56944
G1 X119.042 Y193.257 E2.61756
G1 X119.229 Y194.002 E2.66682
G3 X119.188 Y194.77 I-3.486 J.199 E2.71624
G3 X118.923 Y195.492 I-3.392 J-.838 E2.76566
G1 X118.456 Y196.103 E2.81498
G1 X118.335 Y196.22 E2.82577
G1 X117.83 Y196.55 E2.86446
G1 X117.101 Y196.792 E2.91372
G1 X116.778 Y196.807 E2.93446
G1 X116.778 Y196.807 F9000
G1 X116.703 Y196.282
;TYPE:External perimeter
G1 F1800
G1 X116.44 Y196.287 E2.95133
G1 X115.856 Y196.133 E2.99006
G1 X115.337 Y195.812 E3.0292
G1 X114.936 Y195.352 E3.06834
G1 X114.688 Y194.794 E3.1075
G1 X114.615 Y194.188 E3.14665
G1 X114.724 Y193.588 E3.18576
G1 X115.006 Y193.046 E3.22494
G1 X115.434 Y192.612 E3.26403
G1 X115.972 Y192.323 E3.3032
G1 X116.571 Y192.205 E3.34235
G1 X116.854 Y192.212 E3.36051
G1 X117.372 Y192.33 E3.39458
G1 X117.907 Y192.625 E3.43376
G1 X118.274 Y192.987 E3.46682
G1 X118.571 Y193.513 E3.50556
G1 X118.704 Y194.108 E3.54466
G1 X118.655 Y194.717 E3.58384
G1 X118.429 Y195.284 E3.62299
G1 X118.006 Y195.798 E3.66568
G1 X117.54 Y196.1 E3.70129
G1 X116.956 Y196.277 E3.74043
G1 X116.778 Y196.28 E3.75185
G1 X116.28 Y196.233 F9000
G1 E3.20185 F600
G92 E0
G1 X88.099 Y191.095 Z.8 F9000
G1 X59.472 Y185.875
G1 Z.3
G1 E.6 F1200
G1 F1800
G3 X58.656 Y187.121 I-1.888 J-.345 E.6981
G3 X56.83 Y187.267 I-1.048 J-1.622 E.8205
G1 X56.353 Y186.959 E.85691
G1 X56.051 Y186.624 E.88584
;WIDTH:0.640949
G1 X55.936 Y186.418 E.90213
;WIDTH:0.681898
G1 X55.821 Y186.212 E.91957
;WIDTH:0.722847
G1 X55.705 Y186.005 E.93828
;WIDTH:0.730419
G1 X55.644 Y185.578 E.97268
;WIDTH:0.768203
G1 X55.687 Y185.07 E1.01564
;WIDTH:0.777503
G1 X55.732 Y184.892 E1.03132
G1 X55.806 Y184.79 E1.04208
;WIDTH:0.733127
G1 X55.88 Y184.688 E1.05217
;WIDTH:0.688751
G1 X55.954 Y184.587 E1.06153
;WIDTH:0.644375
G1 X56.028 Y184.485 E1.07028
;WIDTH:0.6
G1 X56.377 Y184.101 E1.10356
G1 X56.786 Y183.831 E1.13499
G1 X57.279 Y183.669 E1.16827
G1 X57.649 Y183.641 E1.19207
G1 X58.213 Y183.739 E1.22878
G1 X58.622 Y183.931 E1.25776
G3 X59.351 Y184.781 I-1.128 J1.705 E1.33051
G3 X59.484 Y185.801 I-1.767 J.749 E1.3973
G1 X59.34 Y186.28 F9000
G1 E.8473 F600
G92 E0
G1 X86.862 Y194.222 Z.8 F9000
G1 X101.114 Y198.335
G1 Z.3
G1 E.6 F1200
;TYPE:Perimeter
;WIDTH:0.593517
G1 F1800
G1 X100.44 Y198.345 E.64271
;WIDTH:0.598589
G1 X100.257 Y198.332 E.65444
;WIDTH:0.623823
G1 X100.074 Y198.319 E.66673
G1 E.11673 F600
G92 E0
G1 X100.074 Y198.319 F9000
G1 X90.592 Y185.323 Z.581
G1 Z.3
G1 E.6 F1200
;WIDTH:0.6
G1 F1800
G1 X90.76 Y185.48 E.61475
G1 X91.117 Y185.657 E.64031
G1 X91.529 Y185.722 E.66706
G1 X120.19 Y185.722 E2.50518
G1 X120.19 Y188.455 E2.68046
G1 X120.19 Y193.321 E2.99253
G1 X120.205 Y193.818 E3.02442
;WIDTH:0.570435
G1 X120.22 Y194.316 E3.05461
;WIDTH:0.567116
G1 X120.207 Y194.82 E3.08496
;WIDTH:0.593363
G1 X120.194 Y195.325 E3.11696
;WIDTH:0.6
G1 X120.19 Y197.718 E3.27043
G1 X120.119 Y198.047 E3.29202
G1 X119.926 Y198.243 E3.30966
G1 X119.577 Y198.331 E3.33274
G1 X117.918 Y198.331 E3.43914
;WIDTH:0.646547
G1 X117.775 Y198.308 E3.44924
;WIDTH:0.693095
G1 X117.631 Y198.285 E3.46022
;WIDTH:0.739642
G1 X117.488 Y198.261 E3.47194
;WIDTH:0.78619
G1 X117.344 Y198.238 E3.48454
;WIDTH:0.832738
G1 X117.201 Y198.215 E3.49787
G1 X116.441 Y198.222 E3.56779
;WIDTH:0.853619
G1 X115.936 Y198.204 E3.61554
G1 X115.848 Y198.226 E3.62411
;WIDTH:0.811349
G1 X115.759 Y198.247 E3.63229
;WIDTH:0.769079
G1 X115.671 Y198.268 E3.63992
;WIDTH:0.726809
G1 X115.582 Y198.289 E3.64717
;WIDTH:0.684539
G1 X115.493 Y198.31 E3.65396
;WIDTH:0.642269
G1 X115.405 Y198.331 E3.66022
;WIDTH:0.6
G1 X101.114 Y198.335 E4.57675
;WIDTH:0.595279
G1 X101.245 Y198.306 E4.58528
