; generated by PrusaSlicer 2.8.1+MacOS-arm64 on 2024-10-09 at 09:03:01 UTC


;
;

;
;
; 

; external perimeters extrusion width = 0.68mm
; perimeters extrusion width = 0.68mm
; infill extrusion width = 0.68mm
; solid infill extrusion width = 0.68mm
; top infill extrusion width = 0.60mm

; external perimeters extrusion width = 0.68mm
; perimeters extrusion width = 0.68mm
; infill extrusion width = 0.68mm
; solid infill extrusion width = 0.68mm
; top infill extrusion width = 0.60mm


EXCLUDE_OBJECT_DEFINE NAME='d_lid' CENTER=128.527,94.153 POLYGON=[[188.799,56.622],[189.466,56.772],[190.044,57.138],[190.464,57.677],[190.679,58.327],[190.700,72.026],[216.700,98.026],[216.698,125.518],[216.614,126.001],[216.363,126.531],[216.044,126.902],[215.556,127.228],[214.700,127.420],[48.213,127.420],[47.632,127.334],[47.184,127.135],[46.731,126.763],[46.405,126.275],[46.213,125.420],[46.213,72.620],[46.299,72.039],[46.550,71.509],[46.944,71.074],[47.539,70.737],[48.114,70.622],[67.741,70.620],[67.751,58.424],[67.858,57.946],[68.078,57.509],[68.398,57.138],[68.886,56.812],[69.741,56.620]]
EXCLUDE_OBJECT_DEFINE NAME='c_lid' CENTER=132.338,165.708 POLYGON=[[196.993,137.309],[197.750,137.499],[198.309,137.893],[198.743,138.542],[198.895,139.307],[198.895,192.107],[198.809,192.688],[198.558,193.218],[198.164,193.653],[197.660,193.955],[196.895,194.107],[67.783,194.107],[67.202,194.021],[66.672,193.770],[66.237,193.376],[65.935,192.872],[65.783,192.107],[65.783,139.307],[65.869,138.727],[66.120,138.196],[66.514,137.761],[67.017,137.459],[67.783,137.307]]

;TYPE:Custom
START_PRINT BED_TEMP=70 HOTEND_TEMP=230 FILAMENT_TYPE=PET EXTRUSION_MULTIPLIER=0.95 PERIMETER_SPEED=70
G21 ; set units to millimeters
G90 ; use absolute coordinates
M82 ; use absolute distances for extrusion
G92 E0
; Filament gcode
; ########################### NOTE OFFSET CHANGES ####################################
; Prevents PETG buildup on nozzle.
; SET_GCODE_OFFSET Z=0.06
; ####################################################################################
M107
;LAYER_CHANGE
;Z:0.35
;HEIGHT:0.35
G1 E-.5 F240
G1 Z.35 F9000
EXCLUDE_OBJECT_START NAME='c_lid'
G92 E0
G1 X135.023 Y162.14
G1 E.5 F240
;TYPE:External perimeter
;WIDTH:0.675
G1 F1800
G1 X135.112 Y162.05 E.5105
G1 X135.438 Y161.946 E.53888
G1 X136.435 Y161.941 E.62156
G1 X136.848 Y162.063 E.65727
G1 X137.042 Y162.323 E.68417
G1 X137.104 Y162.572 E.70545
G1 X137.098 Y166.726 E1.04993
G1 X136.997 Y167.415 E1.10768
G1 X136.836 Y167.975 E1.156
G1 X136.599 Y168.379 E1.19484
G1 X136.233 Y168.762 E1.23877
G1 X135.69 Y169.099 E1.29177
G1 X134.955 Y169.338 E1.35586
G1 X134.185 Y169.445 E1.42033
G1 X133.397 Y169.474 E1.48572
G1 X131.27 Y169.474 E1.66211
G1 X130.389 Y169.438 E1.73523
G1 X129.891 Y169.372 E1.77689
G1 X129.376 Y169.248 E1.82082
G1 X128.943 Y169.078 E1.8594
G1 X128.532 Y168.824 E1.89947
G1 X128.164 Y168.481 E1.94119
G1 X127.881 Y168.051 E1.98388
G1 X127.7 Y167.56 E2.02728
G1 X127.588 Y166.862 E2.0859
G1 X127.574 Y162.559 E2.44274
G1 X127.606 Y162.424 E2.45425
G1 X127.811 Y162.077 E2.48767
G1 X128.27 Y161.941 E2.52737
G1 X129.289 Y161.956 E2.61188
G1 X129.594 Y162.079 E2.63915
G1 X129.712 Y162.207 E2.65359
G1 X129.83 Y162.521 E2.68141
G1 X129.84 Y166.548 E3.01536
G1 X129.91 Y166.911 E3.04602
G1 X130.086 Y167.068 E3.06558
G1 X130.554 Y167.185 E3.10558
G1 X131.07 Y167.21 E3.14842
G1 X133.862 Y167.203 E3.37995
G1 X134.454 Y167.127 E3.42945
G1 X134.679 Y167.008 E3.45056
G1 X134.781 Y166.809 E3.4691
G1 X134.823 Y166.539 E3.49176
G1 X134.829 Y162.574 E3.82057
G1 X134.966 Y162.208 E3.85298
G1 X135.516 Y161.968 F9000
G1 X134.595 Y161.719
;TYPE:Perimeter
G1 F1800
G1 X134.783 Y161.547 E3.87411
G1 X135.272 Y161.362 E3.91747
G1 X136.43 Y161.341 E4.01352
G1 X136.965 Y161.456 E4.0589
G1 X137.274 Y161.637 E4.0886
G1 X137.557 Y162.008 E4.1273
G1 X137.699 Y162.476 E4.16786
G1 X137.698 Y166.727 E4.52038
G1 X137.59 Y167.505 E4.58552
G1 X137.523 Y167.834 E4.61336
G1 X137.333 Y168.324 E4.65694
G1 X137.063 Y168.76 E4.69947
G1 X136.667 Y169.176 E4.7471
G1 X136.478 Y169.327 E4.76716
G1 X135.997 Y169.614 E4.81361
G1 X135.134 Y169.91 E4.88927
G1 X134.265 Y170.039 E4.96212
G1 X133.397 Y170.074 E5.03416
G1 X131.27 Y170.074 E5.21055
G1 X130.364 Y170.038 E5.28574
G1 X129.843 Y169.972 E5.32929
G1 X129.236 Y169.832 E5.38095
G1 X128.724 Y169.639 E5.42633
G1 X128.274 Y169.377 E5.46951
G1 X127.755 Y168.919 E5.52691
G1 X127.374 Y168.371 E5.58226
G1 X127.134 Y167.759 E5.63677
G1 X126.995 Y166.952 E5.70468
G1 X126.983 Y166.016 E5.78231
G1 X126.974 Y162.561 E6.06882
G1 X127.037 Y162.228 E6.09692
G1 X127.293 Y161.753 E6.14167
G1 X127.571 Y161.519 E6.1718
G1 X128.069 Y161.367 E6.21498
G1 X128.241 Y161.341 E6.22941
G1 X129.299 Y161.357 E6.31716
G1 X129.655 Y161.436 E6.3474
G1 X130.014 Y161.643 E6.38177
G1 X130.253 Y161.947 E6.41384
G1 X130.41 Y162.333 E6.4484
G1 X130.43 Y162.574 E6.46845
G1 X130.44 Y166.511 E6.79494
G1 X130.485 Y166.562 E6.80058
G1 X131.035 Y166.609 E6.84636
G1 X133.823 Y166.604 E7.07756
G1 X134.223 Y166.538 E7.11118
G1 X134.23 Y162.573 E7.43999
G1 X134.308 Y162.207 E7.47102
G1 X134.511 Y161.797 E7.50896
G1 X134.529 Y161.78 E7.51101
G1 X134.529 Y161.78 F9000
G1 X134.154 Y161.292
G1 F1800
G1 X134.159 Y161.283 E7.51186
G1 X134.55 Y160.99 E7.55238
G1 X135.029 Y160.803 E7.59502
G1 X135.432 Y160.746 E7.62877
G1 X136.435 Y160.741 E7.71195
G1 X136.834 Y160.795 E7.74534
G1 X137.324 Y160.956 E7.78811
G1 X137.674 Y161.19 E7.82302
G1 X138.012 Y161.599 E7.86702
G1 X138.194 Y161.988 E7.90263
G1 X138.302 Y162.495 E7.94562
G1 X138.298 Y166.728 E8.29665
G1 X138.148 Y167.816 E8.38773
G1 X137.967 Y168.377 E8.43661
G1 X137.681 Y168.921 E8.48758
G1 X137.466 Y169.208 E8.51732
G1 X137.101 Y169.591 E8.56119
G1 X136.785 Y169.842 E8.59466
G1 X136.305 Y170.129 E8.64104
G1 X135.985 Y170.272 E8.67011
G1 X135.314 Y170.483 E8.72844
G1 X134.344 Y170.634 E8.80985
G1 X133.397 Y170.674 E8.88845
G1 X131.27 Y170.674 E9.06484
G1 X130.34 Y170.637 E9.14202
G1 X129.764 Y170.567 E9.19014
G1 X129.096 Y170.415 E9.24695
G1 X128.553 Y170.218 E9.29485
G1 X127.966 Y169.892 E9.35053
G1 X127.345 Y169.357 E9.4185
G1 X127.101 Y169.063 E9.45018
G1 X126.83 Y168.631 E9.49247
G1 X126.568 Y167.959 E9.55228
G1 X126.402 Y167.043 E9.62948
G1 X126.383 Y166.017 E9.71458
G1 X126.375 Y162.562 E10.00109
G1 X126.437 Y162.129 E10.03736
G1 X126.659 Y161.636 E10.0822
G1 X126.931 Y161.258 E10.12082
G1 X127.285 Y160.992 E10.15754
G1 X127.64 Y160.855 E10.1891
G1 X128.212 Y160.742 E10.23745
G1 X129.309 Y160.757 E10.32843
G1 X129.775 Y160.839 E10.36767
G1 X130.291 Y161.101 E10.41566
G1 X130.519 Y161.294 E10.44043
G1 X130.793 Y161.687 E10.48016
G1 X130.997 Y162.208 E10.52656
G1 X131.03 Y162.573 E10.55695
G1 X131.039 Y166.009 E10.84189
G1 X131.067 Y166.01 E10.84421
G1 X133.624 Y166.004 E11.05626
G1 X133.63 Y162.572 E11.34087
G1 X133.669 Y162.233 E11.36917
G1 X133.874 Y161.708 E11.41591
G1 X134.103 Y161.367 E11.44997
G1 E10.94997 F240
G92 E0
G1 X134.103 Y161.367 F9000
G1 X174.175 Y145.654
G1 E.5 F240
;TYPE:External perimeter
G1 F1800
G1 X174.084 Y145.733 E.50999
G1 X173.738 Y145.925 E.5428
G1 X173.361 Y146.046 E.57563
G1 X172.968 Y146.089 E.60841
G1 X172.582 Y146.055 E.64054
G1 X172.287 Y145.976 E.66587
G1 X171.929 Y145.808 E.69866
G1 X171.612 Y145.572 E.73143
G1 X171.347 Y145.278 E.76425
G1 X171.172 Y144.991 E.79213
G1 X171.016 Y144.564 E.82983
G1 X170.963 Y144.172 E.86263
G1 X170.989 Y143.777 E.89546
G1 X171.092 Y143.395 E.92827
G1 X171.269 Y143.041 E.96109
G1 X171.513 Y142.73 E.99387
G1 X171.813 Y142.472 E1.02668
G1 X172.159 Y142.28 E1.05949
G1 X172.535 Y142.159 E1.09225
G1 X172.929 Y142.116 E1.12512
G1 X173.323 Y142.152 E1.15793
G1 X173.702 Y142.265 E1.19073
G1 X174.051 Y142.45 E1.22349
G1 X174.357 Y142.702 E1.25636
G1 X174.606 Y143.008 E1.28908
G1 X174.79 Y143.359 E1.32194
G1 X174.9 Y143.73 E1.35403
G1 X174.934 Y144.034 E1.3794
G1 X174.908 Y144.428 E1.41214
G1 X174.805 Y144.81 E1.44495
G1 X174.628 Y145.164 E1.47777
G1 X174.384 Y145.475 E1.51055
G1 X174.244 Y145.596 E1.5259
G1 X173.731 Y145.907 F9000
G1 X174.534 Y146.128
;TYPE:Perimeter
G1 F1800
G1 X174.383 Y146.252 E1.5421
G1 X173.929 Y146.494 E1.58476
G1 X173.436 Y146.641 E1.62742
G1 X172.923 Y146.687 E1.67013
G1 X172.434 Y146.637 E1.71089
G1 X172.04 Y146.522 E1.74493
G1 X171.579 Y146.295 E1.78754
G1 X171.172 Y145.98 E1.83022
G1 X170.835 Y145.591 E1.8729
G1 X170.66 Y145.304 E1.90078
G1 X170.467 Y144.827 E1.94345
G1 X170.373 Y144.321 E1.98613
G1 X170.381 Y143.806 E2.02884
G1 X170.49 Y143.303 E2.07152
G1 X170.698 Y142.832 E2.11422
G1 X170.994 Y142.411 E2.1569
G1 X171.368 Y142.057 E2.1996
G1 X171.804 Y141.785 E2.24222
G1 X172.286 Y141.604 E2.28492
G1 X172.794 Y141.522 E2.32759
G1 X173.309 Y141.543 E2.37033
G1 X173.809 Y141.665 E2.41301
G1 X174.275 Y141.884 E2.45571
G1 X174.688 Y142.191 E2.49838
G1 X175.032 Y142.573 E2.54101
G1 X175.294 Y143.017 E2.58376
G1 X175.462 Y143.502 E2.62632
G1 X175.533 Y144.064 E2.6733
G1 X175.489 Y144.576 E2.71592
G1 X175.349 Y145.063 E2.75794
G1 X175.106 Y145.526 E2.8013
G1 X174.781 Y145.925 E2.84398
G1 X174.604 Y146.071 E2.86301
G1 X174.604 Y146.071 F9000
G1 X174.901 Y146.613
G1 F1800
G1 X174.392 Y146.94 E2.91318
G1 X173.802 Y147.17 E2.96569
G1 X173.177 Y147.278 E3.01829
G1 X172.544 Y147.26 E3.0708
G1 X172.04 Y147.156 E3.11348
G1 X171.488 Y146.931 E3.16291
G1 X170.956 Y146.586 E3.21549
G1 X170.504 Y146.142 E3.26803
G1 X170.148 Y145.617 E3.32063
G1 X169.904 Y145.032 E3.37319
G1 X169.78 Y144.41 E3.42579
G1 X169.782 Y143.776 E3.47837
G1 X169.909 Y143.155 E3.53093
G1 X170.157 Y142.572 E3.58347
G1 X170.516 Y142.049 E3.63608
G1 X170.971 Y141.608 E3.68863
G1 X171.504 Y141.265 E3.74119
G1 X172.095 Y141.035 E3.79378
G1 X172.72 Y140.927 E3.84638
G1 X173.353 Y140.945 E3.89889
G1 X173.971 Y141.088 E3.95149
G1 X174.548 Y141.35 E4.00404
G1 X175.062 Y141.722 E4.05666
G1 X175.492 Y142.188 E4.10924
G1 X175.821 Y142.73 E4.16182
G1 X176.036 Y143.326 E4.21436
G1 X176.122 Y143.832 E4.25692
G1 X176.115 Y144.429 E4.30643
G1 X175.988 Y145.05 E4.35899
G1 X175.74 Y145.633 E4.41153
G1 X175.381 Y146.156 E4.46414
G1 X174.969 Y146.555 E4.5117
G1 E4.0117 F240
G92 E0
G1 X174.969 Y146.555 F9000
G1 X172.786 Y189.578
G1 E.5 F240
;TYPE:External perimeter
G1 F1800
G1 X172.568 Y189.558 E.51815
G1 X172.189 Y189.446 E.55092
G1 X171.84 Y189.26 E.58372
G1 X171.545 Y189.02 E.61526
G1 X171.341 Y188.783 E.64119
G1 X171.14 Y188.442 E.67402
G1 X171.01 Y188.069 E.70678
G1 X170.957 Y187.677 E.73958
G1 X170.983 Y187.282 E.77241
G1 X171.086 Y186.9 E.80522
G1 X171.263 Y186.546 E.83804
G1 X171.506 Y186.235 E.87077
G1 X171.876 Y185.937 E.91017
G1 X172.152 Y185.785 E.9363
G1 X172.529 Y185.665 E.96911
G1 X172.874 Y185.622 E.99794
G1 X173.316 Y185.657 E1.03471
G1 X173.696 Y185.77 E1.06759
G1 X174.045 Y185.955 E1.10035
G1 X174.345 Y186.201 E1.13252
G1 X174.544 Y186.433 E1.15787
G1 X174.745 Y186.773 E1.19062
G1 X174.874 Y187.146 E1.22335
G1 X174.927 Y187.538 E1.25615
G1 X174.902 Y187.933 E1.28897
G1 X174.798 Y188.315 E1.3218
G1 X174.621 Y188.669 E1.35462
G1 X174.378 Y188.98 E1.38735
G1 X174.077 Y189.238 E1.42023
G1 X173.732 Y189.43 E1.45297
G1 X173.355 Y189.551 E1.4858
G1 X172.962 Y189.594 E1.51858
G1 X172.876 Y189.586 E1.52574
G1 X172.288 Y189.467 F9000
G1 X172.727 Y190.171
;TYPE:Perimeter
G1 F1800
G1 X172.405 Y190.136 E1.5526
G1 X171.915 Y189.979 E1.59527
G1 X171.467 Y189.73 E1.63777
G1 X171.096 Y189.418 E1.67797
G1 X170.829 Y189.095 E1.71272
G1 X170.576 Y188.648 E1.75531
G1 X170.417 Y188.158 E1.79803
G1 X170.358 Y187.647 E1.84069
G1 X170.401 Y187.134 E1.88338
G1 X170.545 Y186.64 E1.92605
G1 X170.785 Y186.184 E1.96878
G1 X171.104 Y185.79 E2.01082
G1 X171.507 Y185.458 E2.05412
G1 X171.961 Y185.216 E2.09678
G1 X172.455 Y185.069 E2.13952
G1 X172.822 Y185.024 E2.17018
G1 X173.336 Y185.051 E2.21286
G1 X173.835 Y185.18 E2.2556
G1 X174.306 Y185.41 E2.29907
G1 X174.72 Y185.729 E2.34241
G1 X175.056 Y186.12 E2.38516
G1 X175.308 Y186.568 E2.42779
G1 X175.467 Y187.057 E2.47043
G1 X175.526 Y187.568 E2.51309
G1 X175.483 Y188.081 E2.55578
G1 X175.339 Y188.575 E2.59845
G1 X175.1 Y189.031 E2.64114
G1 X174.775 Y189.43 E2.68382
G1 X174.377 Y189.757 E2.72654
G1 X173.923 Y189.999 E2.7692
G1 X173.43 Y190.146 E2.81186
G1 X172.917 Y190.192 E2.85457
G1 X172.816 Y190.181 E2.863
G1 X172.816 Y190.181 F9000
G1 X172.667 Y190.769
G1 F1800
G1 X172.537 Y190.765 E2.87379
G1 X171.919 Y190.622 E2.92639
G1 X171.342 Y190.36 E2.97894
G1 X170.836 Y189.995 E3.03068
G1 X170.475 Y189.622 E3.07373
G1 X170.142 Y189.122 E3.12355
G1 X169.897 Y188.537 E3.17615
G1 X169.773 Y187.915 E3.22875
G1 X169.775 Y187.281 E3.28133
G1 X169.903 Y186.66 E3.33391
G1 X170.151 Y186.077 E3.38645
G1 X170.509 Y185.554 E3.43901
G1 X170.964 Y185.113 E3.49156
G1 X171.498 Y184.77 E3.54419
G1 X172.089 Y184.541 E3.59675
G1 X172.77 Y184.426 E3.65402
G1 X173.347 Y184.45 E3.70191
G1 X173.965 Y184.593 E3.75451
G1 X174.542 Y184.855 E3.80706
G1 X175.055 Y185.227 E3.85961
G1 X175.412 Y185.597 E3.90225
G1 X175.742 Y186.093 E3.95165
G1 X175.987 Y186.678 E4.00425
G1 X176.111 Y187.3 E4.05685
G1 X176.109 Y187.934 E4.10943
G1 X175.981 Y188.555 E4.16201
G1 X175.734 Y189.138 E4.21452
G1 X175.375 Y189.661 E4.26713
G1 X174.92 Y190.102 E4.31968
G1 X174.386 Y190.445 E4.37231
G1 X173.795 Y190.675 E4.4249
G1 X173.171 Y190.783 E4.47742
G1 X172.757 Y190.771 E4.51177
G1 E4.01177 F240
G92 E0
G1 X172.757 Y190.771 F9000
G1 X70.05 Y166.183
G1 E.5 F240
;TYPE:External perimeter
G1 F1800
G1 X70.01 Y166.069 E.51002
G1 X69.957 Y165.677 E.54282
G1 X69.983 Y165.282 E.57565
G1 X70.086 Y164.9 E.60846
G1 X70.263 Y164.546 E.64128
G1 X70.506 Y164.235 E.67401
G1 X70.807 Y163.977 E.70689
G1 X71.152 Y163.785 E.73963
G1 X71.529 Y163.665 E.77244
G1 X71.922 Y163.621 E.80523
G1 X72.316 Y163.657 E.83804
G1 X72.696 Y163.77 E.87092
G1 X73.045 Y163.955 E.90368
G1 X73.345 Y164.201 E.93585
G1 X73.544 Y164.433 E.9612
G1 X73.745 Y164.773 E.99395
G1 X73.874 Y165.146 E1.02668
G1 X73.925 Y165.584 E1.06325
G1 X73.902 Y165.933 E1.09225
G1 X73.798 Y166.315 E1.12508
G1 X73.621 Y166.669 E1.1579
G1 X73.378 Y166.98 E1.19063
G1 X73.077 Y167.238 E1.22351
G1 X72.732 Y167.43 E1.25625
G1 X72.355 Y167.551 E1.28908
G1 X71.962 Y167.594 E1.32186
G1 X71.583 Y167.562 E1.3534
G1 X71.281 Y167.481 E1.37933
G1 X70.923 Y167.313 E1.41212
G1 X70.605 Y167.077 E1.44496
G1 X70.341 Y166.783 E1.47773
G1 X70.14 Y166.442 E1.51056
G1 X70.079 Y166.268 E1.52585
G1 X69.977 Y165.677 F9000
G1 X69.477 Y166.344
;TYPE:Perimeter
G1 F1800
G1 X69.417 Y166.158 E1.54206
G1 X69.358 Y165.647 E1.58472
G1 X69.401 Y165.134 E1.62741
G1 X69.545 Y164.64 E1.67008
G1 X69.785 Y164.184 E1.71281
G1 X70.109 Y163.785 E1.75543
G1 X70.507 Y163.458 E1.79815
G1 X70.961 Y163.216 E1.84081
G1 X71.455 Y163.069 E1.88355
G1 X71.967 Y163.023 E1.92618
G1 X72.479 Y163.079 E1.96889
G1 X72.969 Y163.236 E2.01156
G1 X73.419 Y163.486 E2.05425
G1 X73.795 Y163.804 E2.09509
G1 X74.056 Y164.12 E2.12908
G1 X74.308 Y164.568 E2.17171
G1 X74.467 Y165.057 E2.21435
G1 X74.526 Y165.568 E2.25701
G1 X74.483 Y166.081 E2.2997
G1 X74.339 Y166.575 E2.34237
G1 X74.1 Y167.031 E2.38506
G1 X73.775 Y167.43 E2.42774
G1 X73.388 Y167.751 E2.46944
G1 X72.923 Y167.999 E2.51314
G1 X72.43 Y168.146 E2.5558
G1 X71.918 Y168.192 E2.59843
G1 X71.437 Y168.143 E2.63852
G1 X71.034 Y168.027 E2.6733
G1 X70.573 Y167.8 E2.71591
G1 X70.166 Y167.485 E2.75859
G1 X69.829 Y167.096 E2.80127
G1 X69.576 Y166.648 E2.84394
G1 X69.505 Y166.429 E2.86303
G1 X69.505 Y166.429 F9000
G1 X68.901 Y166.506
G1 F1800
G1 X68.829 Y166.283 E2.88246
G1 X68.757 Y165.692 E2.93183
G1 X68.82 Y164.986 E2.99061
G1 X69.005 Y164.38 E3.04315
G1 X69.306 Y163.822 E3.09573
G1 X69.713 Y163.335 E3.14836
G1 X70.207 Y162.938 E3.20092
G1 X70.77 Y162.648 E3.25344
G1 X71.38 Y162.474 E3.30604
G1 X72.012 Y162.425 E3.35861
G1 X72.641 Y162.502 E3.41116
G1 X73.161 Y162.663 E3.4563
G1 X73.627 Y162.902 E3.49973
G1 X74.055 Y163.227 E3.5443
G1 X74.412 Y163.597 E3.58694
G1 X74.742 Y164.093 E3.63634
G1 X74.987 Y164.678 E3.68894
G1 X75.111 Y165.3 E3.74154
G1 X75.109 Y165.934 E3.79412
G1 X74.981 Y166.555 E3.8467
G1 X74.734 Y167.138 E3.89921
G1 X74.375 Y167.661 E3.95182
G1 X73.92 Y168.102 E4.00437
G1 X73.386 Y168.445 E4.057
G1 X72.795 Y168.675 E4.10959
