; generated by PrusaSlicer 2.8.1+MacOS-arm64 on 2024-10-29 at 08:55:12 UTC


;
;

;
;
; 

; external perimeters extrusion width = 0.55mm
; perimeters extrusion width = 0.60mm
; infill extrusion width = 0.60mm
; solid infill extrusion width = 0.60mm
; top infill extrusion width = 0.55mm
; first layer extrusion width = 0.60mm

; external perimeters extrusion width = 0.55mm
; perimeters extrusion width = 0.60mm
; infill extrusion width = 0.60mm
; solid infill extrusion width = 0.60mm
; top infill extrusion width = 0.55mm
; first layer extrusion width = 0.60mm

M73 P0 R112

EXCLUDE_OBJECT_DEFINE NAME='c_lid' CENTER=110.182,144.507 POLYGON=[[174.837,116.109],[175.594,116.299],[176.153,116.692],[176.587,117.341],[176.739,118.107],[176.739,170.907],[176.653,171.487],[176.402,172.018],[176.008,172.453],[175.504,172.754],[174.739,172.907],[45.627,172.907],[45.046,172.820],[44.516,172.569],[44.081,172.175],[43.779,171.672],[43.627,170.907],[43.627,118.107],[43.713,117.526],[43.964,116.995],[44.358,116.560],[44.862,116.259],[45.627,116.107]]
EXCLUDE_OBJECT_DEFINE NAME='d_lid' CENTER=106.387,78.147 POLYGON=[[166.658,40.617],[167.326,40.767],[167.903,41.133],[168.324,41.672],[168.539,42.321],[168.560,56.021],[194.560,82.021],[194.558,109.513],[194.443,110.089],[194.223,110.526],[193.903,110.897],[193.415,111.223],[192.560,111.415],[26.072,111.415],[25.492,111.329],[25.044,111.130],[24.590,110.758],[24.264,110.270],[24.072,109.415],[24.072,56.615],[24.158,56.034],[24.409,55.504],[24.803,55.069],[25.307,54.767],[25.974,54.617],[45.601,54.615],[45.611,42.419],[45.718,41.941],[45.938,41.504],[46.258,41.133],[46.746,40.807],[47.601,40.615]]

M190 S70 ; set bed temperature and wait for it to be reached
M104 S230 ; set temperature
;TYPE:Custom
START_PRINT BED_TEMP=70 HOTEND_TEMP=230 FILAMENT_TYPE=PET EXTRUSION_MULTIPLIER=0.96
M109 S230 ; set temperature and wait for it to be reached
G21 ; set units to millimeters
G90 ; use absolute coordinates
M82 ; use absolute distances for extrusion
G92 E0
; Filament gcode
; ########################### NOTE OFFSET CHANGES ####################################
; Prevents PETG buildup on nozzle.
; PETG does not like to be touching the nozzle, this causes buildup on nozzle
; Once the bed z distance is finaly chuned a small offset for PETG works perfectly
SET_GCODE_OFFSET Z=0.2
; ####################################################################################
M107
;LAYER_CHANGE
;Z:0.3
;HEIGHT:0.3
G1 E-.55 F600
G1 Z.8 F9000
EXCLUDE_OBJECT_START NAME='c_lid'
G92 E0
G1 X152.089 Y120.701
G1 Z.3
G1 E.6 F1200
;TYPE:Perimeter
;WIDTH:0.6
G1 F1800
G1 X152.305 Y120.813 E.6156
G1 X152.854 Y121.352 E.66494
G1 X153.219 Y122.028 E.71421
G1 X153.364 Y122.673 E.75661
G1 X153.319 Y123.422 E.80473
G3 X153.054 Y124.143 I-3.391 J-.838 E.85409
G3 X152.587 Y124.755 I-2.994 J-1.8 E.90356
G3 X151.961 Y125.201 I-2.33 J-2.603 E.95295
G3 X151.232 Y125.444 I-1.459 J-3.173 E1.00233
G3 X150.463 Y125.46 I-.459 J-3.465 E1.05176
G1 X149.823 Y125.294 E1.09416
G1 X149.177 Y124.913 E1.14226
G3 X148.656 Y124.348 I2.293 J-2.635 E1.19165
G3 X148.325 Y123.654 I2.968 J-1.843 E1.24106
G3 X148.213 Y122.893 I3.379 J-.886 E1.29049
G3 X148.33 Y122.133 I3.49 J.149 E1.33991
G3 X148.666 Y121.442 I3.291 J1.171 E1.38929
G1 X149.191 Y120.88 E1.43861
G1 X149.858 Y120.498 E1.48791
G1 X150.609 Y120.329 E1.53728
G1 X151.104 Y120.341 E1.56904
G1 X151.622 Y120.46 E1.60313
G1 X152.023 Y120.666 E1.63204
G1 X152.023 Y120.666 F9000
G1 X151.813 Y121.153
;TYPE:External perimeter
G1 F1800
G1 X152.038 Y121.277 E1.64852
G1 X152.461 Y121.716 E1.68762
G1 X152.737 Y122.26 E1.72674
G1 X152.836 Y122.766 E1.75981
G1 X152.786 Y123.368 E1.79855
G1 X152.56 Y123.935 E1.8377
G1 X152.177 Y124.41 E1.87683
G1 X151.671 Y124.751 E1.91596
G1 X151.087 Y124.928 E1.9551
G1 X150.476 Y124.925 E1.99429
G1 X149.981 Y124.782 E2.02733
G1 X149.468 Y124.463 E2.06607
G1 X149.067 Y124.003 E2.10521
G1 X148.819 Y123.446 E2.14431
G1 X148.746 Y122.84 E2.18346
G1 X148.855 Y122.239 E2.22263
G1 X149.137 Y121.698 E2.26176
G1 X149.565 Y121.263 E2.3009
G1 X150.103 Y120.974 E2.34007
G1 X150.702 Y120.856 E2.37922
G1 X150.985 Y120.864 E2.39738
G1 X151.503 Y120.982 E2.43145
G1 X151.748 Y121.117 E2.44939
G1 X152.151 Y121.411 F9000
G1 E1.89939 F600
G92 E0
G1 X152.917 Y150.046 Z.8 F9000
G1 X153.349 Y166.173
G1 Z.3
G1 E.6 F1200
;TYPE:Perimeter
G1 F1800
G3 X153.366 Y166.416 I-3.475 J.368 E.61563
G3 X153.248 Y167.176 I-3.489 J-.149 E.66506
G3 X152.913 Y167.867 I-3.292 J-1.172 E.71441
G1 X152.388 Y168.429 E.76373
G1 X151.72 Y168.811 E.81308
G1 X150.97 Y168.98 E.86239
G3 X150.204 Y168.92 I-.112 J-3.491 E.91177
G1 X149.584 Y168.691 E.95416
G1 X149.138 Y168.396 E.98845
G1 X148.65 Y167.853 E1.03527
G1 X148.319 Y167.159 E1.08458
G3 X148.207 Y166.398 I3.379 J-.886 E1.13401
G3 X148.324 Y165.638 I3.49 J.149 E1.18343
G3 X148.66 Y164.947 I3.291 J1.171 E1.23281
G3 X149.19 Y164.38 I2.834 J2.118 E1.28269
G3 X149.852 Y164.003 I2.103 J2.921 E1.33164
G3 X150.602 Y163.834 I1.136 J3.303 E1.38105
G1 X151.223 Y163.859 E1.42091
G1 X151.855 Y164.059 E1.46342
G3 X152.5 Y164.479 I-1.572 J3.122 E1.51288
G1 X152.935 Y164.977 E1.55529
G1 X153.254 Y165.655 E1.60334
G3 X153.34 Y166.099 I-3.38 J.886 E1.63236
G1 X153.34 Y166.099 F9000
G1 X152.802 Y166.215
;TYPE:External perimeter
G1 F1800
G1 X152.833 Y166.469 E1.64877
G1 X152.724 Y167.07 E1.68794
G1 X152.442 Y167.611 E1.72707
G1 X152.014 Y168.046 E1.76621
G1 X151.476 Y168.335 E1.80538
G1 X150.877 Y168.452 E1.84452
G1 X150.27 Y168.388 E1.88366
G1 X149.791 Y168.198 E1.91671
G1 X149.402 Y167.915 E1.94756
G1 X149.06 Y167.508 E1.98165
G1 X148.812 Y166.951 E2.02075
G1 X148.74 Y166.345 E2.05989
G1 X148.849 Y165.744 E2.09906
G1 X149.13 Y165.203 E2.13816
G1 X149.559 Y164.768 E2.17734
G1 X150.096 Y164.479 E2.21645
G1 X150.695 Y164.362 E2.25559
G1 X151.138 Y164.387 E2.28405
G1 X151.685 Y164.567 E2.32098
G1 X152.187 Y164.914 E2.36012
G1 X152.516 Y165.311 E2.39319
G1 X152.76 Y165.863 E2.4319
G1 X152.793 Y166.14 E2.44979
G1 X152.79 Y166.64 F9000
G1 E1.89979 F600
G92 E0
G1 X124.913 Y160.051 Z.8 F9000
G1 X51.777 Y142.765
G1 Z.3
G1 E.6 F1200
;TYPE:Perimeter
G1 F1800
G1 X51.782 Y142.769 E.60041
G1 X52.167 Y143.413 E.64853
G3 X52.354 Y144.159 I-3.276 J1.219 E.69795
G3 X52.313 Y144.927 I-3.486 J.199 E.74737
G3 X52.047 Y145.648 I-3.392 J-.838 E.79676
G3 X51.581 Y146.26 I-2.993 J-1.8 E.84619
G3 X50.955 Y146.706 I-2.33 J-2.603 E.89558
G3 X50.225 Y146.949 I-1.459 J-3.173 E.94502
G3 X49.456 Y146.965 I-.459 J-3.465 E.99445
G1 X48.816 Y146.799 E1.03685
G1 X48.171 Y146.418 E1.08489
G1 X47.65 Y145.853 E1.13418
G1 X47.319 Y145.159 E1.18349
G1 X47.26 Y144.927 E1.19884
G1 X47.207 Y144.398 E1.23294
G3 X47.324 Y143.638 I3.49 J.149 E1.28236
G1 X47.66 Y142.947 E1.33164
G1 X48.185 Y142.385 E1.38096
G1 X48.852 Y142.003 E1.43026
G3 X49.602 Y141.834 I1.136 J3.303 E1.47967
G1 X50.098 Y141.846 E1.51149
G1 X50.616 Y141.965 E1.54558
G3 X51.302 Y142.319 I-1.26 J3.275 E1.59519
G1 X51.722 Y142.714 E1.63217
G1 X51.722 Y142.714 F9000
G1 X51.356 Y143.102
;TYPE:External perimeter
G1 F1800
G1 X51.398 Y143.144 E1.63598
G1 X51.696 Y143.669 E1.6747
G1 X51.829 Y144.265 E1.71386
G1 X51.78 Y144.873 E1.75298
G1 X51.554 Y145.44 E1.79213
G1 X51.171 Y145.915 E1.83126
G1 X50.665 Y146.257 E1.87043
G1 X50.08 Y146.433 E1.90961
G1 X49.47 Y146.43 E1.94873
G1 X48.974 Y146.287 E1.98184
G1 X48.462 Y145.968 E2.02053
G1 X48.06 Y145.508 E2.05971
G1 X47.812 Y144.951 E2.09881
G1 X47.793 Y144.873 E2.10396
G1 X47.74 Y144.345 E2.13799
G1 X47.849 Y143.744 E2.17716
G1 X48.13 Y143.203 E2.21626
G1 X48.559 Y142.768 E2.25544
G1 X49.096 Y142.479 E2.29455
G1 X49.695 Y142.362 E2.33369
G1 X49.979 Y142.369 E2.35191
G1 X50.497 Y142.487 E2.38598
G1 X51.031 Y142.782 E2.42511
G1 X51.303 Y143.049 E2.44955
G1 X51.577 Y143.468 F9000
G1 E1.89955 F600
G92 E0
G1 X79.644 Y137.743 Z.8 F9000
G1 X175.8 Y118.13
G1 Z.3
G1 E.6 F1200
;TYPE:Perimeter
G1 F1800
G1 X175.803 Y118.145 E.60098
G1 X175.803 Y170.756 E3.97509
G1 X175.749 Y171.213 E4.0046
G1 X175.617 Y171.493 E4.02445
G1 X175.409 Y171.722 E4.04429
G1 X175.143 Y171.882 E4.0642
G1 X174.717 Y171.971 E4.09211
G1 X45.778 Y171.971 E12.36137
G1 X45.32 Y171.916 E12.39095
G1 X45.041 Y171.784 E12.41074
G1 X44.811 Y171.576 E12.43063
G1 X44.652 Y171.31 E12.4505
G1 X44.563 Y170.885 E12.47835
G1 X44.563 Y118.257 E15.85355
G1 X44.617 Y117.8 E15.88306
G1 X44.749 Y117.52 E15.90291
G1 X44.957 Y117.291 E15.92275
G1 X45.223 Y117.131 E15.94266
G1 X45.649 Y117.042 E15.97057
G1 X174.646 Y117.044 E24.24355
G1 X175.036 Y117.092 E24.26875
G1 X175.325 Y117.229 E24.28926
G1 X175.555 Y117.437 E24.30915
G1 X175.714 Y117.703 E24.32902
G1 X175.785 Y118.057 E24.35218
G1 X175.785 Y118.057 F9000
G1 X176.335 Y118.117
;TYPE:External perimeter
G1 F1800
G3 X176.339 Y118.145 I-4.889 J.629 E24.35399
G1 X176.339 Y170.756 E27.7281
G1 X176.267 Y171.37 E27.76775
G1 X176.067 Y171.794 E27.79782
G1 X175.752 Y172.141 E27.82788
G1 X175.35 Y172.382 E27.85794
G1 X174.73 Y172.507 E27.8985
G1 X45.778 Y172.507 E36.1686
G1 X45.163 Y172.435 E36.20831
G1 X44.74 Y172.234 E36.23835
G1 X44.392 Y171.92 E36.26841
G1 X44.151 Y171.517 E36.29852
G1 X44.027 Y170.898 E36.33901
G1 X44.027 Y118.257 E39.71504
G1 X44.099 Y117.643 E39.75469
G1 X44.299 Y117.219 E39.78476
G1 X44.614 Y116.872 E39.81482
G1 X45.016 Y116.631 E39.84488
G1 X45.635 Y116.507 E39.88537
G1 X174.662 Y116.509 E48.16028
G1 X175.2 Y116.577 E48.19506
G1 X175.626 Y116.779 E48.2253
G1 X175.973 Y117.093 E48.25531
G1 X176.214 Y117.495 E48.28537
G3 X176.325 Y118.042 I-4.768 J1.251 E48.32118
G1 X176.337 Y118.542 F9000
G1 X175.643 Y118.854
;TYPE:Solid infill
;WIDTH:0.601264
G1 F1800
G1 X174.235 Y117.446 E48.44918
G1 X173.475 Y117.446 E48.49804
G1 X175.402 Y119.372 E48.67318
G1 X175.402 Y120.132 E48.72204
G1 X172.716 Y117.446 E48.96623
G1 X171.957 Y117.446 E49.01502
G1 X175.402 Y120.891 E49.32821
G1 X175.402 Y121.65 E49.377
G1 X171.197 Y117.446 E49.75924
G1 X170.438 Y117.446 E49.80803
G1 X175.402 Y122.409 E50.25927
G1 X175.402 Y123.169 E50.30813
G1 X169.679 Y117.446 E50.82842
G1 X168.92 Y117.446 E50.87721
G1 X175.402 Y123.928 E51.4665
G1 X175.402 Y124.687 E51.51529
G1 X168.16 Y117.446 E52.17363
G1 X167.401 Y117.446 E52.22242
G1 X175.402 Y125.447 E52.94981
G1 X175.402 Y126.206 E52.9986
G1 X166.642 Y117.446 E53.79499
G1 X165.883 Y117.446 E53.84378
G1 X175.402 Y126.965 E54.70917
G1 X175.402 Y127.724 E54.75796
G1 X165.123 Y117.446 E55.6924
G1 X164.364 Y117.446 E55.74119
G1 X175.402 Y128.484 E56.74468
G1 X175.402 Y129.243 E56.79347
G1 X163.605 Y117.446 E57.86596
G1 X162.845 Y117.446 E57.91482
G1 X175.402 Y130.002 E59.05636
G1 X175.402 Y130.761 E59.10515
G1 X162.086 Y117.446 E60.31569
G1 X161.327 Y117.446 E60.36448
G1 X175.402 Y131.521 E61.64407
G1 X175.402 Y132.28 E61.69286
G1 X160.568 Y117.446 E63.04145
G1 X159.808 Y117.446 E63.09031
G1 X175.402 Y133.039 E64.50795
G1 X175.402 Y133.798 E64.55674
G1 X159.049 Y117.446 E66.04338
G1 X158.29 Y117.446 E66.09217
G1 X175.402 Y134.558 E67.64786
G1 X175.402 Y135.317 E67.69665
M73 P0 R111
G1 X157.53 Y117.446 E69.32138
G1 X156.771 Y117.446 E69.37017
G1 X175.402 Y136.076 E71.06391
G1 X175.402 Y136.836 E71.11277
G1 X156.012 Y117.446 E72.87555
G1 X155.253 Y117.446 E72.92434
G1 X175.402 Y137.595 E74.75613
G1 X175.402 Y138.354 E74.80492
G1 X154.493 Y117.446 E76.70575
G1 X153.734 Y117.446 E76.75454
G1 X175.402 Y139.113 E78.72438
G1 X175.402 Y139.873 E78.77324
G1 X152.975 Y117.446 E80.81212
G1 X152.215 Y117.446 E80.86098
G1 X175.402 Y140.632 E82.96891
G1 X175.402 Y141.391 E83.0177
G1 X151.456 Y117.446 E85.19463
G1 X150.697 Y117.446 E85.24342
G1 X175.402 Y142.15 E87.48936
G1 X175.402 Y142.91 E87.53822
G1 X149.938 Y117.446 E89.8532
G1 X149.178 Y117.446 E89.90206
G1 X151.855 Y120.123 E90.14543
G3 X152.78 Y120.681 I-1.167 J2.977 E90.21521
G3 X153.347 Y121.366 I-2.593 J2.722 E90.27251
G1 X153.577 Y121.844 E90.30661
G1 X175.402 Y143.669 E92.29076
G1 X175.402 Y144.428 E92.33955
G1 X153.776 Y122.803 E94.30557
G1 X153.713 Y123.498 E94.35043
G1 X175.402 Y145.187 E96.32222
G1 X175.402 Y145.947 E96.37108
G1 X153.519 Y124.064 E98.36051
G3 X153.264 Y124.568 I-1.901 J-.646 E98.39694
G1 X175.402 Y146.706 E100.40955
G1 X175.402 Y147.465 E100.45834
G1 X152.92 Y124.983 E102.50222
G3 X152.505 Y125.328 I-1.144 J-.955 E102.53711
G1 X175.402 Y148.225 E104.61872
G1 X175.402 Y148.984 E104.66751
G1 X152.036 Y125.618 E106.79176
G3 X151.456 Y125.798 I-1.668 J-4.365 E106.83083
G1 X175.402 Y149.743 E109.00776
G1 X175.402 Y150.502 E109.05655
M73 P1 R111
G1 X150.516 Y125.617 E111.31894
G1 E110.76894 F600
G92 E0
G1 X150.516 Y125.617 F9000
G1 X151.163 Y120.19 Z.395
G1 Z.3
G1 E.6 F1200
G1 F1800
G1 X148.419 Y117.446 E.84946
G1 X147.66 Y117.446 E.89825
G1 X150.206 Y119.992 E1.12971
G2 X149.622 Y120.167 I.279 J1.99 E1.16905
G1 X146.901 Y117.446 E1.41642
G1 X146.141 Y117.446 E1.46528
G1 X149.129 Y120.433 E1.73688
G2 X148.717 Y120.781 I1.198 J1.838 E1.77164
G1 X145.382 Y117.446 E2.07483
G1 X144.623 Y117.446 E2.12362
G1 X148.361 Y121.184 E2.46345
G2 X148.086 Y121.668 I3.988 J2.591 E2.49926
G1 X143.863 Y117.446 E2.88314
G1 X143.104 Y117.446 E2.93193
G1 X147.899 Y122.24 E3.36781
G2 X147.812 Y122.913 I2.196 J.624 E3.4116
G1 X142.345 Y117.446 E3.90862
G1 X141.586 Y117.446 E3.95741
G1 X147.972 Y123.832 E4.53797
G2 X148.224 Y124.428 I6.831 J-2.54 E4.57958
G1 X148.318 Y124.568 E4.59042
G1 X148.8 Y125.128 E4.63792
G2 X149.575 Y125.63 I3.254 J-4.176 E4.69735
G1 X149.869 Y125.729 E4.71729
G1 X175.402 Y151.262 E7.03855
G1 X175.402 Y152.021 E7.08734
G1 X140.826 Y117.446 E10.23067
G1 X140.067 Y117.446 E10.27946
G1 X175.402 Y152.78 E13.49179
G1 X175.402 Y153.539 E13.54058
G1 X139.308 Y117.445 E16.82196
G1 X138.548 Y117.445 E16.87082
G1 X175.402 Y154.299 E20.22129
G1 X175.402 Y155.058 E20.27008
G1 X137.789 Y117.445 E23.68955
G1 X137.03 Y117.445 E23.73834
G1 X175.402 Y155.817 E27.22681
G1 X175.402 Y156.576 E27.2756
G1 X136.271 Y117.445 E30.83308
G1 X135.511 Y117.445 E30.88194
G1 X175.402 Y157.336 E34.50851
G1 X175.402 Y158.095 E34.5573
G1 X134.752 Y117.445 E38.25287
G1 X133.993 Y117.445 E38.30166
G1 X175.402 Y158.854 E42.06623
G1 X175.402 Y159.614 E42.11509
G1 X133.233 Y117.445 E45.94876
G1 X132.474 Y117.445 E45.99755
G1 X175.402 Y160.373 E49.90022
G1 X175.402 Y161.132 E49.94901
G1 X131.715 Y117.445 E53.92068
G1 X130.956 Y117.445 E53.96947
G1 X175.402 Y161.891 E58.01014
G1 X175.402 Y162.651 E58.059
G1 X130.196 Y117.445 E62.16877
G1 X129.437 Y117.445 E62.21756
G1 X175.402 Y163.41 E66.39633
G1 X175.402 Y164.169 E66.44512
M73 P1 R110
G1 X128.678 Y117.445 E70.69289
G1 X127.918 Y117.445 E70.74175
G1 X175.402 Y164.928 E75.05857
G1 X175.402 Y165.688 E75.10743
G1 X127.159 Y117.445 E79.4933
G1 X126.4 Y117.445 E79.54209
G1 X175.402 Y166.447 E83.99696
G1 X175.402 Y167.206 E84.04575
G1 X125.641 Y117.445 E88.56962
G1 X124.881 Y117.445 E88.61848
G1 X175.402 Y167.965 E93.2114
G1 X175.402 Y168.725 E93.26026
G1 X124.122 Y117.445 E97.92223
G1 X123.363 Y117.445 E97.97102
G1 X175.402 Y169.484 E102.70199
G1 X175.402 Y170.243 E102.75078
G1 X122.604 Y117.445 E107.55075
G1 X121.844 Y117.445 E107.59961
G1 X175.378 Y170.978 E112.46645
G3 X175.087 Y171.447 I-.604 J-.05 E112.50329
G1 X121.085 Y117.445 E117.41272
G1 X120.326 Y117.445 E117.46151
G1 X174.45 Y171.569 E122.38203
G1 X173.69 Y171.569 E122.43089
G1 X119.566 Y117.445 E127.35141
G1 X118.807 Y117.445 E127.4002
M73 P2 R110
G1 X172.931 Y171.569 E132.32072
G1 X172.172 Y171.569 E132.36951
G1 X118.048 Y117.445 E137.29003
G1 X117.289 Y117.445 E137.33882
G1 X171.413 Y171.569 E142.25934
G1 X170.653 Y171.569 E142.3082
G1 X116.529 Y117.445 E147.22872
G1 X115.77 Y117.445 E147.27751
G1 X169.894 Y171.569 E152.19803
G1 X169.135 Y171.569 E152.24682
G1 X115.011 Y117.445 E157.16734
G1 X114.251 Y117.445 E157.2162
G1 X168.376 Y171.569 E162.13677
G1 X167.616 Y171.569 E162.18563
G1 X113.492 Y117.445 E167.10615
G1 X112.733 Y117.445 E167.15494
G1 X166.857 Y171.569 E172.07546
G1 X166.098 Y171.569 E172.12425
G1 X111.974 Y117.445 E177.04477
G1 X111.214 Y117.445 E177.09363
G1 X165.338 Y171.569 E182.01415
G1 X164.579 Y171.569 E182.06294
M73 P2 R109
G1 X110.455 Y117.445 E186.98346
G1 X109.696 Y117.445 E187.03225
G1 X163.82 Y171.569 E191.95277
