; generated by PrusaSlicer 2.8.1+MacOS-arm64 on 2024-11-27 at 05:04:52 UTC


;
;

;
;
; 

; external perimeters extrusion width = 0.55mm
; perimeters extrusion width = 0.60mm
; infill extrusion width = 0.60mm
; solid infill extrusion width = 0.60mm
; top infill extrusion width = 0.55mm
; first layer extrusion width = 0.60mm

; external perimeters extrusion width = 0.55mm
; perimeters extrusion width = 0.60mm
; infill extrusion width = 0.60mm
; solid infill extrusion width = 0.60mm
; top infill extrusion width = 0.55mm
; first layer extrusion width = 0.60mm

M73 P0 R113

EXCLUDE_OBJECT_DEFINE NAME='c_lid' CENTER=117.456,156.439 POLYGON=[[182.111,128.040],[182.868,128.230],[183.495,128.695],[183.896,129.364],[184.013,130.038],[184.013,182.838],[183.927,183.418],[183.676,183.949],[183.282,184.384],[182.778,184.686],[182.013,184.838],[52.901,184.838],[52.320,184.752],[51.790,184.501],[51.355,184.107],[51.053,183.603],[50.901,182.838],[50.901,130.038],[50.987,129.457],[51.238,128.927],[51.632,128.492],[52.136,128.190],[52.901,128.038]]
EXCLUDE_OBJECT_DEFINE NAME='d_lid' CENTER=121.383,87.345 POLYGON=[[181.655,49.815],[182.322,49.964],[182.900,50.330],[183.321,50.869],[183.535,51.519],[183.557,65.218],[209.557,91.218],[209.554,118.710],[209.440,119.286],[209.220,119.723],[208.900,120.094],[208.412,120.420],[207.557,120.612],[41.069,120.612],[40.488,120.526],[40.041,120.328],[39.587,119.955],[39.261,119.467],[39.069,118.612],[39.069,65.812],[39.155,65.232],[39.406,64.701],[39.800,64.266],[40.304,63.964],[40.971,63.815],[60.598,63.812],[60.607,51.616],[60.715,51.138],[60.935,50.701],[61.255,50.330],[61.743,50.004],[62.598,49.812]]

M190 S70 ; set bed temperature and wait for it to be reached
M104 S245 ; set temperature
;TYPE:Custom
START_PRINT BED_TEMP=70 HOTEND_TEMP=245 FILAMENT_TYPE=PET EXTRUSION_MULTIPLIER=0.96
M109 S245 ; set temperature and wait for it to be reached
G21 ; set units to millimeters
G90 ; use absolute coordinates
M82 ; use absolute distances for extrusion
G92 E0
; Filament gcode
; ########################### NOTE OFFSET CHANGES ####################################
; Prevents PETG buildup on nozzle.
; PETG does not like to be touching the nozzle, this causes buildup on nozzle
; Once the bed z distance is finaly chuned a small offset for PETG works perfectly
SET_GCODE_OFFSET Z=0.06
; ####################################################################################
M107
;LAYER_CHANGE
;Z:0.3
;HEIGHT:0.3
G1 E-.55 F600
G1 Z.8 F9000
EXCLUDE_OBJECT_START NAME='c_lid'
G92 E0
G1 X159.652 Y132.16
G1 Z.3
G1 E.6 F1200
;TYPE:Perimeter
;WIDTH:0.6
G1 F1800
G3 X159.847 Y132.28 I-1.904 J3.318 E.61469
G3 X160.521 Y132.919 I-2.275 J3.075 E.6744
G3 X161.088 Y134.075 I-2.799 J2.091 E.75745
G1 X161.185 Y134.706 E.79839
G1 X161.126 Y135.406 E.84344
G3 X160.821 Y136.283 I-3.738 J-.809 E.90314
G3 X160.272 Y137.03 I-3.334 J-1.876 E.96274
G3 X159.526 Y137.583 I-2.634 J-2.775 E1.02244
G3 X158.651 Y137.891 I-1.698 J-3.428 E1.08208
G3 X157.723 Y137.927 I-.613 J-3.778 E1.14179
G3 X156.865 Y137.712 I.508 J-3.848 E1.19864
G1 X156.161 Y137.294 E1.25115
G3 X155.52 Y136.623 I2.425 J-2.957 E1.31081
G3 X155.106 Y135.793 I3.19 J-2.111 E1.37044
G3 X154.954 Y134.878 I3.67 J-1.077 E1.43007
G3 X155.079 Y133.958 I3.825 J.052 E1.48976
G3 X155.47 Y133.117 I3.64 J1.178 E1.54939
G3 X156.415 Y132.195 I2.801 J1.926 E1.6346
G3 X158.233 Y131.717 I1.723 J2.861 E1.75681
G1 X159.016 Y131.869 E1.80796
G3 X159.586 Y132.123 I-1.268 J3.609 E1.84803
G1 X159.586 Y132.123 F9000
G1 X159.363 Y132.632
G1 F1800
G1 X159.58 Y132.744 E1.86369
G1 X160.128 Y133.283 E1.91299
G1 X160.494 Y133.959 E1.96229
G1 X160.638 Y134.604 E2.00467
G1 X160.593 Y135.353 E2.05279
G3 X160.328 Y136.075 I-3.391 J-.838 E2.10221
G3 X159.861 Y136.686 I-2.994 J-1.8 E2.15163
G3 X159.236 Y137.133 I-2.33 J-2.603 E2.20101
G3 X158.506 Y137.375 I-1.46 J-3.174 E2.25043
G3 X157.737 Y137.392 I-.459 J-3.465 E2.29986
G1 X157.097 Y137.226 E2.34226
G1 X156.451 Y136.845 E2.39036
G3 X155.93 Y136.279 I2.293 J-2.636 E2.4398
G3 X155.599 Y135.585 I2.968 J-1.843 E2.48921
G3 X155.487 Y134.825 I3.38 J-.886 E2.53858
G3 X155.604 Y134.065 I3.49 J.149 E2.588
G3 X155.94 Y133.373 I3.291 J1.171 E2.63744
G1 X156.465 Y132.811 E2.68676
G1 X157.132 Y132.429 E2.73606
G1 X157.883 Y132.26 E2.78543
G1 X158.379 Y132.273 E2.81725
G1 X158.897 Y132.391 E2.85132
G1 X159.297 Y132.598 E2.8802
G1 X159.297 Y132.598 F9000
G1 X159.087 Y133.084
;TYPE:External perimeter
G1 F1800
G1 X159.312 Y133.208 E2.89668
G1 X159.736 Y133.647 E2.93582
G1 X160.011 Y134.192 E2.97497
G1 X160.11 Y134.698 E3.00804
G1 X160.06 Y135.3 E3.04678
G1 X159.834 Y135.867 E3.08593
G1 X159.451 Y136.342 E3.12506
G1 X158.945 Y136.683 E3.16419
G1 X158.361 Y136.86 E3.20333
G1 X157.75 Y136.856 E3.24252
G1 X157.255 Y136.714 E3.27555
G1 X156.742 Y136.395 E3.31429
G1 X156.341 Y135.935 E3.35343
G1 X156.093 Y135.377 E3.39259
G1 X156.02 Y134.771 E3.43174
G1 X156.129 Y134.171 E3.47085
G1 X156.411 Y133.629 E3.51003
G1 X156.839 Y133.195 E3.54912
G1 X157.377 Y132.906 E3.58829
G1 X157.976 Y132.788 E3.62744
G1 X158.259 Y132.795 E3.6456
G1 X158.777 Y132.913 E3.67967
G1 X159.022 Y133.048 E3.69761
G1 X159.425 Y133.343 F9000
G1 E3.14761 F600
G92 E0
G1 X160.533 Y161.966 Z.8 F9000
G1 X161.156 Y178.065
G1 Z.3
G1 E.6 F1200
;TYPE:Perimeter
G1 F1800
G3 X161.173 Y178.294 I-3.806 J.391 E.61473
G3 X161.048 Y179.213 I-3.825 J-.053 E.67436
G3 X160.657 Y180.055 I-3.641 J-1.178 E.73405
G3 X160.036 Y180.744 I-3.13 J-2.198 E.79368
G3 X159.239 Y181.219 I-2.344 J-3.023 E.85333
G3 X158.336 Y181.439 I-1.35 J-3.585 E.91308
G3 X157.058 Y181.288 I-.236 J-3.489 E.99609
G1 X156.388 Y180.969 E1.04368
G1 X155.855 Y180.535 E1.08776
G1 X155.514 Y180.128 E1.12181
G3 X155.099 Y179.298 I3.19 J-2.111 E1.18147
G3 X154.948 Y178.383 I3.671 J-1.077 E1.24109
G3 X155.073 Y177.464 I3.825 J.052 E1.30072
G3 X155.464 Y176.622 I3.64 J1.177 E1.36041
G3 X156.085 Y175.933 I3.131 J2.198 E1.42004
G3 X156.882 Y175.457 I2.344 J3.023 E1.47972
G3 X157.783 Y175.238 I1.348 J3.58 E1.53933
G3 X158.582 Y175.261 I.294 J3.662 E1.5907
G1 X159.3 Y175.483 E1.6389
G3 X160.087 Y175.976 I-1.622 J3.466 E1.69861
G3 X160.673 Y176.634 I-2.582 J2.889 E1.75524
G1 X161.021 Y177.379 E1.80797
G3 X161.148 Y177.99 I-3.671 J1.077 E1.84804
G1 X161.148 Y177.99 F9000
G1 X160.623 Y178.105
G1 F1800
G3 X160.64 Y178.347 I-3.475 J.368 E1.8636
G3 X160.523 Y179.107 I-3.489 J-.149 E1.91302
G3 X160.187 Y179.799 I-3.293 J-1.172 E1.96246
G1 X159.662 Y180.361 E2.01178
G1 X158.995 Y180.743 E2.06108
G1 X158.244 Y180.911 E2.11043
G3 X157.478 Y180.851 I-.112 J-3.491 E2.15981
G1 X156.858 Y180.623 E2.20218
G1 X156.412 Y180.327 E2.23651
G1 X155.924 Y179.784 E2.28333
G1 X155.593 Y179.09 E2.33264
G3 X155.481 Y178.33 I3.379 J-.886 E2.38201
G3 X155.598 Y177.57 I3.49 J.149 E2.43143
G3 X155.934 Y176.878 I3.291 J1.171 E2.48087
G3 X156.464 Y176.311 I2.834 J2.119 E2.53075
G3 X157.126 Y175.934 I2.103 J2.921 E2.5797
G3 X157.876 Y175.765 I1.136 J3.303 E2.62911
G1 X158.497 Y175.79 E2.66897
G1 X159.129 Y175.991 E2.7115
G3 X159.774 Y176.411 I-1.572 J3.121 E2.76096
G1 X160.209 Y176.908 E2.80332
G1 X160.528 Y177.587 E2.85143
G3 X160.614 Y178.03 I-3.38 J.886 E2.88039
G1 X160.614 Y178.03 F9000
G1 X160.076 Y178.146
;TYPE:External perimeter
G1 F1800
G1 X160.107 Y178.401 E2.89686
G1 X159.998 Y179.001 E2.93597
G1 X159.716 Y179.543 E2.97515
G1 X159.288 Y179.977 E3.01424
G1 X158.75 Y180.266 E3.05341
G1 X158.151 Y180.384 E3.09256
G1 X157.544 Y180.32 E3.1317
G1 X157.066 Y180.129 E3.16471
G1 X156.676 Y179.847 E3.19558
G1 X156.334 Y179.44 E3.22967
G1 X156.086 Y178.882 E3.26883
G1 X156.014 Y178.276 E3.30797
G1 X156.123 Y177.676 E3.34708
G1 X156.404 Y177.134 E3.38623
G1 X156.833 Y176.7 E3.42537
G1 X157.371 Y176.411 E3.46454
G1 X157.969 Y176.293 E3.50363
G1 X158.412 Y176.319 E3.53209
G1 X158.959 Y176.499 E3.56902
G1 X159.461 Y176.845 E3.60812
G1 X159.791 Y177.242 E3.64123
G1 X160.034 Y177.795 E3.67997
G1 X160.067 Y178.072 E3.69786
G1 X160.064 Y178.571 F9000
G1 E3.14786 F600
G92 E0
G1 X132.214 Y171.869 Z.8 F9000
G1 X59.472 Y154.361
G1 Z.3
G1 E.6 F1200
;TYPE:Perimeter
G1 F1800
G3 X59.483 Y154.374 I-2.92 J2.562 E.60109
G3 X59.911 Y155.088 I-3.823 J2.775 E.65455
G3 X60.153 Y155.984 I-3.546 J1.438 E.71422
G3 X60.12 Y156.912 I-3.81 J.329 E.77392
G3 X59.815 Y157.788 I-3.739 J-.81 E.83356
G3 X59.265 Y158.535 I-3.334 J-1.875 E.8932
G3 X58.52 Y159.088 I-2.633 J-2.775 E.95285
G3 X57.645 Y159.396 I-1.698 J-3.428 E1.01249
G3 X56.717 Y159.432 I-.613 J-3.778 E1.0722
G3 X55.932 Y159.242 I.449 J-3.572 E1.12411
G3 X55.155 Y158.8 I1.611 J-3.733 E1.18156
G3 X54.514 Y158.128 I2.425 J-2.958 E1.24127
G3 X54.001 Y156.912 I2.817 J-1.903 E1.32645
G1 X53.948 Y156.383 E1.36055
G3 X54.073 Y155.464 I3.825 J.052 E1.42018
G3 X54.464 Y154.622 I3.64 J1.177 E1.47987
G3 X55.085 Y153.933 I3.131 J2.198 E1.5395
G3 X55.882 Y153.457 I2.344 J3.023 E1.59918
G3 X56.783 Y153.238 I1.348 J3.58 E1.65879
G1 X57.368 Y153.233 E1.69631
G1 X58.009 Y153.374 E1.7384
G3 X58.845 Y153.788 I-1.276 J3.628 E1.79838
G3 X59.422 Y154.306 I-2.293 J3.135 E1.84819
G1 X59.422 Y154.306 F9000
G1 X59.051 Y154.696
G1 F1800
G1 X59.056 Y154.701 E1.84864
G1 X59.441 Y155.345 E1.89676
G3 X59.628 Y156.09 I-3.275 J1.218 E1.94612
G3 X59.587 Y156.858 I-3.486 J.199 E1.99554
G3 X59.322 Y157.58 I-3.392 J-.838 E2.04496
G3 X58.855 Y158.191 I-2.994 J-1.8 E2.09438
G3 X58.229 Y158.638 I-2.33 J-2.603 E2.14381
G3 X57.5 Y158.88 I-1.459 J-3.174 E2.19317
G3 X56.73 Y158.897 I-.459 J-3.465 E2.24267
G1 X56.09 Y158.731 E2.28507
G1 X55.445 Y158.35 E2.33311
G1 X54.924 Y157.784 E2.38245
G1 X54.593 Y157.09 E2.43176
G1 X54.534 Y156.858 E2.44711
G1 X54.481 Y156.33 E2.48114
G3 X54.598 Y155.57 I3.49 J.149 E2.53056
G1 X54.934 Y154.878 E2.5799
G1 X55.459 Y154.316 E2.62922
G1 X56.126 Y153.934 E2.67852
G3 X56.876 Y153.765 I1.136 J3.303 E2.72793
G1 X57.372 Y153.778 E2.75975
G1 X57.89 Y153.896 E2.79382
G3 X58.576 Y154.251 I-1.26 J3.276 E2.84346
G1 X58.996 Y154.645 E2.88039
G1 X58.996 Y154.645 F9000
G1 X58.63 Y155.033
;TYPE:External perimeter
G1 F1800
G1 X58.673 Y155.075 E2.88424
G1 X58.97 Y155.601 E2.92298
G1 X59.103 Y156.196 E2.96208
G1 X59.054 Y156.805 E3.00126
G1 X58.828 Y157.372 E3.04041
G1 X58.445 Y157.847 E3.07954
G1 X57.939 Y158.188 E3.11867
G1 X57.355 Y158.365 E3.15781
G1 X56.744 Y158.361 E3.197
G1 X56.248 Y158.219 E3.23009
G1 X55.736 Y157.9 E3.26878
G1 X55.334 Y157.44 E3.30796
G1 X55.086 Y156.882 E3.34712
G1 X55.067 Y156.805 E3.35221
G1 X55.014 Y156.276 E3.38631
G1 X55.123 Y155.676 E3.42542
G1 X55.404 Y155.134 E3.46457
G1 X55.833 Y154.7 E3.50371
G1 X56.371 Y154.411 E3.54288
G1 X56.969 Y154.293 E3.58197
G1 X57.253 Y154.3 E3.60019
G1 X57.771 Y154.418 E3.63426
G1 X58.305 Y154.713 E3.67339
G1 X58.577 Y154.981 E3.69788
G1 X58.851 Y155.399 F9000
G1 E3.14788 F600
G92 E0
G1 X86.914 Y149.653 Z.8 F9000
G1 X182.541 Y130.074
G1 Z.3
G1 E.6 F1200
;TYPE:Perimeter
G1 F1800
G1 X182.542 Y130.077 E.6002
G1 X182.542 Y182.687 E3.97424
G3 X182.44 Y183.123 I-1.483 J-.114 E4.00307
G1 X182.274 Y183.274 E4.01746
G1 X181.978 Y183.367 E4.03736
G1 X53.052 Y183.367 E12.30579
G3 X52.615 Y183.265 I.114 J-1.482 E12.33468
G1 X52.465 Y183.099 E12.34903
G1 X52.372 Y182.803 E12.36893
G1 X52.372 Y130.189 E15.74323
G3 X52.474 Y129.752 I1.482 J.114 E15.77212
G1 X52.64 Y129.602 E15.78647
G1 X52.936 Y129.509 E15.80637
G1 X181.988 Y129.511 E24.08288
G1 X182.299 Y129.611 E24.10383
M73 P0 R112
G1 X182.449 Y129.776 E24.11813
G1 X182.519 Y130.003 E24.13336
G1 X182.519 Y130.003 F9000
G1 X183.074 Y130.061
G1 F1800
G1 X183.077 Y130.077 E24.1344
G1 X183.077 Y182.687 E27.50844
G1 X183.023 Y183.144 E27.53795
G1 X182.891 Y183.424 E27.5578
G1 X182.683 Y183.654 E27.57769
G1 X182.417 Y183.813 E27.59756
G1 X181.991 Y183.902 E27.62547
G1 X53.052 Y183.902 E35.89473
G1 X52.594 Y183.848 E35.92431
G1 X52.315 Y183.716 E35.9441
G1 X52.085 Y183.507 E35.96403
G1 X51.926 Y183.241 E35.9839
G1 X51.837 Y182.816 E36.01175
G1 X51.837 Y130.189 E39.38688
G1 X51.891 Y129.731 E39.41646
G1 X52.023 Y129.452 E39.43625
G1 X52.231 Y129.222 E39.45614
G1 X52.497 Y129.063 E39.47601
G1 X52.923 Y128.974 E39.50392
G1 X181.92 Y128.976 E47.7769
G1 X182.311 Y129.024 E47.80216
G1 X182.599 Y129.16 E47.82259
G1 X182.829 Y129.368 E47.84248
G1 X182.988 Y129.634 E47.86235
G1 X183.06 Y129.988 E47.88552
G1 X183.06 Y129.988 F9000
G1 X183.609 Y130.048
;TYPE:External perimeter
G1 F1800
G3 X183.613 Y130.077 I-4.889 J.63 E47.8874
G1 X183.613 Y182.687 E51.26144
G1 X183.541 Y183.302 E51.30115
G1 X183.341 Y183.725 E51.33116
G1 X183.026 Y184.072 E51.36122
G1 X182.624 Y184.313 E51.39128
G1 X182.004 Y184.438 E51.43184
G1 X53.052 Y184.438 E59.70194
G1 X52.437 Y184.366 E59.74165
G1 X52.014 Y184.166 E59.77166
G1 X51.667 Y183.851 E59.80172
G1 X51.425 Y183.449 E59.83181
G1 X51.301 Y182.829 E59.87236
G1 X51.301 Y130.189 E63.24833
G1 X51.373 Y129.574 E63.28804
G1 X51.573 Y129.151 E63.31805
G1 X51.888 Y128.803 E63.34815
G1 X52.29 Y128.562 E63.37821
G1 X52.91 Y128.438 E63.41876
G1 X181.937 Y128.44 E71.69367
G1 X182.474 Y128.508 E71.72838
G1 X182.9 Y128.71 E71.75862
G1 X183.248 Y129.025 E71.78872
G1 X183.488 Y129.427 E71.81875
G3 X183.599 Y129.974 I-4.768 J1.251 E71.85456
G1 X183.611 Y130.474 F9000
G1 E71.30456 F600
G92 E0
G1 X181.041 Y129.672 Z.347 F9000
G1 Z.3
G1 E.6 F1200
;TYPE:Solid infill
;WIDTH:0.601247
G1 F1800
G1 X182.14 Y130.771 E.69991
G1 X182.14 Y131.53 E.7487
G1 X180.523 Y129.913 E.8957
G1 X179.764 Y129.913 E.94449
G1 X182.14 Y132.289 E1.16049
G1 X182.14 Y133.049 E1.20934
G1 X179.005 Y129.913 E1.49439
G1 X178.245 Y129.913 E1.54324
G1 X182.14 Y133.808 E1.89733
G1 X182.14 Y134.567 E1.94612
G1 X177.486 Y129.913 E2.36921
G1 X176.727 Y129.913 E2.418
G1 X182.14 Y135.326 E2.91009
G1 X182.14 Y136.086 E2.95894
G1 X175.967 Y129.913 E3.52012
G1 X175.208 Y129.913 E3.56891
G1 X182.14 Y136.845 E4.19909
G1 X182.14 Y137.604 E4.24788
G1 X174.449 Y129.913 E4.94706
G1 X173.69 Y129.913 E4.99585
G1 X182.14 Y138.363 E5.76403
G1 X182.14 Y139.123 E5.81288
G1 X172.93 Y129.913 E6.65015
G1 X172.171 Y129.913 E6.69894
G1 X182.14 Y139.882 E7.60521
G1 X182.14 Y140.641 E7.654
G1 X171.412 Y129.913 E8.62927
G1 X170.653 Y129.913 E8.67806
G1 X182.14 Y141.4 E9.72233
G1 X182.14 Y142.16 E9.77118
G1 X169.893 Y129.913 E10.88454
G1 X169.134 Y129.913 E10.93333
G1 X182.14 Y142.919 E12.11569
G1 X182.14 Y143.678 E12.16448
G1 X168.375 Y129.913 E13.41584
G1 X167.616 Y129.913 E13.46463
G1 X182.14 Y144.437 E14.78499
G1 X182.14 Y145.197 E14.83384
G1 X166.856 Y129.913 E16.22329
G1 X166.097 Y129.913 E16.27208
G1 X182.14 Y145.956 E17.73053
G1 X182.14 Y146.715 E17.77932
G1 X165.338 Y129.913 E19.30677
G1 X164.579 Y129.913 E19.35556
G1 X182.14 Y147.474 E20.95201
G1 X182.14 Y148.234 E21.00086
G1 X163.819 Y129.913 E22.66641
G1 X163.06 Y129.913 E22.7152
G1 X182.14 Y148.993 E24.44975
G1 X182.14 Y149.752 E24.49854
G1 X162.301 Y129.913 E26.30209
G1 X161.542 Y129.913 E26.35088
G1 X182.14 Y150.511 E28.22343
G1 X182.14 Y151.271 E28.27228
G1 X160.782 Y129.913 E30.21392
G1 X160.023 Y129.913 E30.26271
G1 X182.14 Y152.03 E32.27335
G1 X182.14 Y152.789 E32.32214
G1 X159.264 Y129.913 E34.40178
G1 X158.505 Y129.913 E34.45057
M73 P1 R112
G1 X182.14 Y153.548 E36.59921
G1 X182.14 Y154.307 E36.648
G1 X161.294 Y133.462 E38.54305
G2 X160.822 Y132.653 I-3.51 J1.506 E38.60341
G2 X159.579 Y131.662 I-2.923 J2.39 E38.70637
G1 X159.439 Y131.607 E38.71604
G1 X157.745 Y129.913 E38.87004
G1 X156.986 Y129.913 E38.91883
G1 X158.409 Y131.336 E39.04819
G2 X157.662 Y131.348 I-.337 J2.334 E39.09642
G1 X156.227 Y129.913 E39.22687
G1 X155.468 Y129.913 E39.27566
G1 X157.037 Y131.482 E39.4183
G2 X156.497 Y131.701 I.633 J2.329 E39.45585
G1 X154.708 Y129.913 E39.61844
G1 X153.949 Y129.913 E39.66723
G1 X156.022 Y131.986 E39.85568
G2 X155.612 Y132.334 I1.206 J1.838 E39.89034
G1 X153.19 Y129.913 E40.11048
G1 X152.431 Y129.913 E40.15927
G1 X155.256 Y132.738 E40.41609
G2 X154.964 Y133.206 I1.79 J1.444 E40.45164
G1 X151.671 Y129.913 E40.751
G1 X150.912 Y129.913 E40.79979
G1 X154.727 Y133.728 E41.14661
G2 X154.59 Y134.35 I6.767 J1.813 E41.18757
G1 X150.153 Y129.913 E41.59093
G1 X149.394 Y129.913 E41.63972
G1 X154.841 Y135.36 E42.1349
G1 E41.5849 F600
G92 E0
G1 X161.274 Y134.2 Z.414 F9000
G1 Z.3
G1 E.6 F1200
