; generated by PrusaSlicer 2.8.1+MacOS-arm64 on 2024-10-29 at 13:55:00 UTC


;
;

;
;
; 

; external perimeters extrusion width = 0.55mm
; perimeters extrusion width = 0.60mm
; infill extrusion width = 0.60mm
; solid infill extrusion width = 0.60mm
; top infill extrusion width = 0.55mm
; first layer extrusion width = 0.60mm

; external perimeters extrusion width = 0.55mm
; perimeters extrusion width = 0.60mm
; infill extrusion width = 0.60mm
; solid infill extrusion width = 0.60mm
; top infill extrusion width = 0.55mm
; first layer extrusion width = 0.60mm

M73 P0 R112

EXCLUDE_OBJECT_DEFINE NAME='c_lid' CENTER=111.875,145.544 POLYGON=[[176.530,117.146],[177.287,117.336],[177.846,117.729],[178.280,118.378],[178.432,119.144],[178.432,171.944],[178.346,172.524],[178.095,173.055],[177.701,173.490],[177.197,173.791],[176.432,173.944],[47.320,173.944],[46.739,173.857],[46.209,173.607],[45.774,173.212],[45.472,172.709],[45.320,171.944],[45.320,119.144],[45.406,118.563],[45.657,118.032],[46.051,117.598],[46.554,117.296],[47.320,117.144]]
EXCLUDE_OBJECT_DEFINE NAME='d_lid' CENTER=109.407,79.030 POLYGON=[[169.678,41.500],[170.346,41.650],[170.923,42.016],[171.344,42.555],[171.559,43.204],[171.580,56.904],[197.580,82.904],[197.578,110.396],[197.494,110.878],[197.243,111.409],[196.923,111.780],[196.435,112.106],[195.580,112.298],[29.092,112.298],[28.512,112.212],[28.064,112.013],[27.610,111.641],[27.284,111.153],[27.092,110.298],[27.092,57.498],[27.178,56.917],[27.429,56.387],[27.823,55.952],[28.327,55.650],[28.994,55.500],[48.621,55.498],[48.631,43.302],[48.738,42.824],[48.958,42.387],[49.278,42.016],[49.766,41.690],[50.621,41.498]]

M190 S70 ; set bed temperature and wait for it to be reached
M104 S230 ; set temperature
;TYPE:Custom
START_PRINT BED_TEMP=70 HOTEND_TEMP=230 FILAMENT_TYPE=PET EXTRUSION_MULTIPLIER=0.96
M109 S230 ; set temperature and wait for it to be reached
G21 ; set units to millimeters
G90 ; use absolute coordinates
M82 ; use absolute distances for extrusion
G92 E0
; Filament gcode
; ########################### NOTE OFFSET CHANGES ####################################
; Prevents PETG buildup on nozzle.
; PETG does not like to be touching the nozzle, this causes buildup on nozzle
; Once the bed z distance is finaly chuned a small offset for PETG works perfectly
SET_GCODE_OFFSET Z=0.24
; ####################################################################################
M107
;LAYER_CHANGE
;Z:0.3
;HEIGHT:0.3
G1 E-.55 F600
G1 Z.8 F9000
EXCLUDE_OBJECT_START NAME='c_lid'
G92 E0
G1 X153.782 Y121.738
G1 Z.3
G1 E.6 F1200
;TYPE:Perimeter
;WIDTH:0.6
G1 F1800
G1 X153.998 Y121.85 E.6156
G1 X154.547 Y122.389 E.66494
G1 X154.912 Y123.065 E.71421
G1 X155.057 Y123.71 E.75661
G1 X155.012 Y124.459 E.80473
G3 X154.747 Y125.18 I-3.391 J-.838 E.85409
G3 X154.28 Y125.792 I-2.994 J-1.8 E.90356
G3 X153.654 Y126.238 I-2.33 J-2.603 E.95295
G3 X152.925 Y126.481 I-1.459 J-3.173 E1.00233
G3 X152.155 Y126.497 I-.459 J-3.465 E1.05182
G1 X151.515 Y126.331 E1.09422
G1 X150.87 Y125.95 E1.14226
G3 X150.349 Y125.385 I2.292 J-2.635 E1.19165
G3 X150.018 Y124.691 I2.968 J-1.843 E1.24106
G3 X149.906 Y123.93 I3.379 J-.886 E1.29049
G3 X150.023 Y123.17 I3.49 J.149 E1.33991
G3 X150.359 Y122.479 I3.291 J1.171 E1.38929
G1 X150.884 Y121.917 E1.43861
G1 X151.551 Y121.535 E1.48791
G1 X152.301 Y121.366 E1.53722
G1 X152.797 Y121.379 E1.56904
G1 X153.315 Y121.497 E1.60311
G1 X153.715 Y121.704 E1.63199
G1 X153.715 Y121.704 F9000
G1 X153.506 Y122.19
;TYPE:External perimeter
G1 F1800
G1 X153.731 Y122.314 E1.64847
G1 X154.154 Y122.753 E1.68757
G1 X154.43 Y123.298 E1.72675
G1 X154.529 Y123.803 E1.75975
G1 X154.479 Y124.405 E1.79849
G1 X154.253 Y124.972 E1.83764
G1 X153.87 Y125.448 E1.87682
G1 X153.364 Y125.789 E1.91595
G1 X152.78 Y125.965 E1.95507
G1 X152.169 Y125.962 E1.99426
G1 X151.673 Y125.82 E2.02735
G1 X151.161 Y125.5 E2.06607
G1 X150.759 Y125.041 E2.1052
G1 X150.511 Y124.483 E2.14436
G1 X150.439 Y123.877 E2.1835
G1 X150.548 Y123.276 E2.22267
G1 X150.829 Y122.735 E2.26177
G1 X151.258 Y122.3 E2.30095
G1 X151.796 Y122.011 E2.34012
G1 X152.394 Y121.894 E2.3792
G1 X152.678 Y121.901 E2.39742
G1 X153.196 Y122.019 E2.43149
G1 X153.44 Y122.154 E2.44937
G1 X153.844 Y122.449 F9000
G1 E1.89937 F600
G92 E0
G1 X154.61 Y151.083 Z.8 F9000
G1 X155.041 Y167.21
G1 Z.3
G1 E.6 F1200
;TYPE:Perimeter
G1 F1800
G3 X155.059 Y167.453 I-3.474 J.368 E.61563
G3 X154.941 Y168.213 I-3.489 J-.149 E.66506
G3 X154.605 Y168.904 I-3.292 J-1.172 E.71444
G1 X154.08 Y169.466 E.76376
G1 X153.413 Y169.849 E.81309
G1 X152.663 Y170.017 E.86238
G3 X151.897 Y169.957 I-.112 J-3.491 E.91176
G1 X151.276 Y169.728 E.95421
G1 X150.831 Y169.433 E.98845
G1 X150.343 Y168.89 E1.03527
G1 X150.012 Y168.196 E1.08458
G3 X149.9 Y167.435 I3.379 J-.886 E1.13401
G3 X150.017 Y166.675 I3.49 J.149 E1.18343
G3 X150.353 Y165.984 I3.29 J1.172 E1.23281
G3 X150.883 Y165.417 I2.834 J2.119 E1.28269
G3 X151.545 Y165.04 I2.103 J2.921 E1.33164
G3 X152.295 Y164.871 I1.136 J3.303 E1.38105
G1 X152.916 Y164.896 E1.42091
G1 X153.548 Y165.097 E1.46344
G3 X154.193 Y165.516 I-1.572 J3.121 E1.51287
G1 X154.628 Y166.014 E1.55528
G1 X154.947 Y166.692 E1.60333
G3 X155.033 Y167.136 I-3.38 J.886 E1.63235
G1 X155.033 Y167.136 F9000
G1 X154.495 Y167.252
;TYPE:External perimeter
G1 F1800
G1 X154.526 Y167.506 E1.64876
G1 X154.416 Y168.107 E1.68794
G1 X154.135 Y168.648 E1.72704
G1 X153.706 Y169.083 E1.76622
G1 X153.169 Y169.372 E1.80533
G1 X152.57 Y169.49 E1.84448
G1 X151.963 Y169.426 E1.88362
G1 X151.484 Y169.235 E1.91669
G1 X151.095 Y168.953 E1.9475
G1 X150.753 Y168.546 E1.98159
G1 X150.505 Y167.988 E2.02075
G1 X150.433 Y167.382 E2.05989
G1 X150.542 Y166.782 E2.099
G1 X150.823 Y166.24 E2.13815
G1 X151.252 Y165.805 E2.17733
G1 X151.789 Y165.516 E2.21644
G1 X152.388 Y165.399 E2.25558
G1 X152.831 Y165.425 E2.28404
G1 X153.378 Y165.604 E2.32095
G1 X153.88 Y165.951 E2.36009
G1 X154.209 Y166.348 E2.39316
G1 X154.453 Y166.9 E2.43187
G1 X154.486 Y167.177 E2.44976
G1 X154.483 Y167.677 F9000
G1 E1.89976 F600
G92 E0
G1 X126.606 Y161.088 Z.8 F9000
G1 X53.47 Y143.802
G1 Z.3
G1 E.6 F1200
;TYPE:Perimeter
G1 F1800
G1 X53.475 Y143.807 E.60045
G1 X53.859 Y144.45 E.64848
G3 X54.047 Y145.196 I-3.275 J1.219 E.69792
G3 X54.006 Y145.964 I-3.487 J.199 E.74734
G3 X53.74 Y146.686 I-3.392 J-.838 E.79679
G3 X53.274 Y147.297 I-2.993 J-1.801 E.84617
G3 X52.648 Y147.744 I-2.33 J-2.603 E.8956
G3 X51.918 Y147.986 I-1.459 J-3.174 E.94502
G3 X51.149 Y148.002 I-.459 J-3.465 E.99445
G1 X50.509 Y147.836 E1.03685
G1 X49.864 Y147.455 E1.08489
G1 X49.343 Y146.89 E1.13418
G1 X49.012 Y146.196 E1.18349
G1 X48.953 Y145.964 E1.19884
G1 X48.9 Y145.435 E1.23294
G3 X49.017 Y144.675 I3.49 J.15 E1.28236
G1 X49.353 Y143.984 E1.33164
G1 X49.878 Y143.422 E1.38096
G1 X50.545 Y143.04 E1.43026
G3 X51.295 Y142.871 I1.136 J3.303 E1.47967
G1 X51.791 Y142.884 E1.51149
G1 X52.309 Y143.002 E1.54556
G3 X52.994 Y143.356 I-1.26 J3.276 E1.59511
G1 X53.415 Y143.751 E1.63213
G1 X53.415 Y143.751 F9000
G1 X53.049 Y144.139
;TYPE:External perimeter
G1 F1800
G1 X53.091 Y144.181 E1.63594
G1 X53.389 Y144.706 E1.67466
G1 X53.522 Y145.302 E1.71382
G1 X53.473 Y145.911 E1.753
G1 X53.247 Y146.477 E1.79209
G1 X52.864 Y146.953 E1.83127
G1 X52.357 Y147.294 E1.87046
G1 X51.773 Y147.47 E1.90958
G1 X51.163 Y147.467 E1.9487
G1 X50.667 Y147.325 E1.98179
G1 X50.155 Y147.005 E2.02051
G1 X49.753 Y146.546 E2.05964
G1 X49.505 Y145.988 E2.0988
G1 X49.486 Y145.911 E2.10389
G1 X49.433 Y145.382 E2.13799
G1 X49.542 Y144.782 E2.1771
G1 X49.823 Y144.24 E2.21625
G1 X50.252 Y143.805 E2.25543
G1 X50.789 Y143.516 E2.29454
G1 X51.388 Y143.399 E2.33368
G1 X51.672 Y143.406 E2.3519
G1 X52.19 Y143.524 E2.38597
G1 X52.724 Y143.819 E2.4251
G1 X52.996 Y144.086 E2.44954
G1 X53.27 Y144.505 F9000
G1 E1.89954 F600
G92 E0
G1 X81.337 Y138.78 Z.8 F9000
G1 X177.493 Y119.167
G1 Z.3
G1 E.6 F1200
;TYPE:Perimeter
G1 F1800
G1 X177.496 Y119.183 E.60104
G1 X177.496 Y171.793 E3.97508
G1 X177.442 Y172.25 E4.00459
G1 X177.309 Y172.53 E4.02447
G1 X177.101 Y172.76 E4.04436
G1 X176.835 Y172.919 E4.06423
G1 X176.41 Y173.008 E4.09208
G1 X47.471 Y173.008 E12.36134
G1 X47.013 Y172.954 E12.39092
G1 X46.733 Y172.821 E12.4108
G1 X46.504 Y172.613 E12.43064
G1 X46.344 Y172.347 E12.45055
G1 X46.255 Y171.922 E12.4784
G1 X46.255 Y119.295 E15.85353
G1 X46.31 Y118.837 E15.88311
G1 X46.442 Y118.557 E15.90296
G1 X46.65 Y118.328 E15.9228
G1 X46.916 Y118.168 E15.94271
G1 X47.341 Y118.079 E15.97056
G1 X176.339 Y118.082 E24.24361
G1 X176.729 Y118.129 E24.2688
G1 X177.018 Y118.266 E24.28931
G1 X177.248 Y118.474 E24.3092
G1 X177.407 Y118.74 E24.32907
G1 X177.478 Y119.094 E24.35223
G1 X177.478 Y119.094 F9000
G1 X178.028 Y119.154
;TYPE:External perimeter
G1 F1800
G3 X178.032 Y119.183 I-4.89 J.629 E24.35411
G1 X178.032 Y171.793 E27.72815
G1 X177.96 Y172.407 E27.7678
G1 X177.76 Y172.831 E27.79787
G1 X177.445 Y173.178 E27.82793
G1 X177.043 Y173.419 E27.85799
G1 X176.423 Y173.544 E27.89855
G1 X47.471 Y173.544 E36.16865
G1 X46.856 Y173.472 E36.20836
G1 X46.433 Y173.271 E36.2384
G1 X46.085 Y172.957 E36.26846
G1 X45.844 Y172.554 E36.29857
G1 X45.72 Y171.935 E36.33906
G1 X45.72 Y119.295 E39.71503
G1 X45.792 Y118.68 E39.75474
G1 X45.992 Y118.256 E39.78481
G1 X46.307 Y117.909 E39.81487
G1 X46.709 Y117.668 E39.84493
G1 X47.328 Y117.544 E39.88542
G1 X176.355 Y117.546 E48.16033
G1 X176.892 Y117.614 E48.19504
G1 X177.319 Y117.816 E48.22533
G1 X177.666 Y118.13 E48.25534
G1 X177.907 Y118.532 E48.2854
G3 X178.018 Y119.08 I-4.769 J1.251 E48.32128
G1 X178.03 Y119.579 F9000
G1 X177.335 Y119.891
;TYPE:Solid infill
;WIDTH:0.601264
G1 F1800
G1 X175.927 Y118.483 E48.44928
G1 X175.168 Y118.483 E48.49807
G1 X177.094 Y120.41 E48.67321
G1 X177.094 Y121.169 E48.722
G1 X174.409 Y118.483 E48.96614
G1 X173.65 Y118.483 E49.01493
G1 X177.094 Y121.928 E49.32808
G1 X177.094 Y122.687 E49.37687
G1 X172.89 Y118.483 E49.75906
G1 X172.131 Y118.483 E49.80785
G1 X177.094 Y123.447 E50.25909
G1 X177.094 Y124.206 E50.30788
G1 X171.372 Y118.483 E50.82812
G1 X170.612 Y118.483 E50.87698
G1 X177.094 Y124.965 E51.46627
G1 X177.094 Y125.724 E51.51506
G1 X169.853 Y118.483 E52.17335
G1 X169.094 Y118.483 E52.22214
G1 X177.094 Y126.484 E52.94948
G1 X177.094 Y127.243 E52.99827
G1 X168.335 Y118.483 E53.79461
G1 X167.575 Y118.483 E53.84347
G1 X177.094 Y128.002 E54.70886
G1 X177.094 Y128.761 E54.75765
G1 X166.816 Y118.483 E55.69204
G1 X166.057 Y118.483 E55.74083
G1 X177.094 Y129.521 E56.74427
G1 X177.094 Y130.28 E56.79306
G1 X165.298 Y118.483 E57.8655
G1 X164.538 Y118.483 E57.91436
G1 X177.094 Y131.039 E59.05585
G1 X177.094 Y131.799 E59.10471
G1 X163.779 Y118.483 E60.31525
G1 X163.02 Y118.483 E60.36404
G1 X177.094 Y132.558 E61.64358
G1 X177.094 Y133.317 E61.69237
G1 X162.26 Y118.483 E63.04096
G1 X161.501 Y118.483 E63.08975
G1 X177.094 Y134.076 E64.50734
G1 X177.094 Y134.836 E64.5562
G1 X160.742 Y118.483 E66.04284
G1 X159.983 Y118.483 E66.09163
G1 X177.094 Y135.595 E67.64727
G1 X177.094 Y136.354 E67.69606
M73 P0 R111
G1 X159.223 Y118.483 E69.32075
G1 X158.464 Y118.483 E69.36954
G1 X177.094 Y137.113 E71.06323
G1 X177.094 Y137.873 E71.11209
G1 X157.705 Y118.483 E72.87483
G1 X156.945 Y118.483 E72.92369
G1 X177.094 Y138.632 E74.75548
G1 X177.094 Y139.391 E74.80427
G1 X156.186 Y118.483 E76.70506
G1 X155.427 Y118.483 E76.75385
G1 X177.094 Y140.15 E78.72364
G1 X177.094 Y140.91 E78.7725
G1 X154.668 Y118.483 E80.81134
G1 X153.908 Y118.483 E80.8602
G1 X177.094 Y141.669 E82.96809
G1 X177.094 Y142.428 E83.01688
G1 X153.149 Y118.483 E85.19377
G1 X152.39 Y118.483 E85.24256
G1 X177.094 Y143.188 E87.4885
G1 X177.094 Y143.947 E87.53729
G1 X151.63 Y118.483 E89.85227
G1 X150.871 Y118.483 E89.90106
G1 X153.548 Y121.16 E90.14443
G3 X154.473 Y121.719 I-1.167 J2.977 E90.21424
G3 X155.039 Y122.403 I-2.593 J2.721 E90.27145
G1 X155.27 Y122.881 E90.30558
G1 X177.094 Y144.706 E92.28969
G1 X177.094 Y145.465 E92.33848
G1 X155.469 Y123.84 E94.30445
G1 X155.405 Y124.536 E94.34938
G1 X177.094 Y146.225 E96.32117
G1 X177.094 Y146.984 E96.36996
G1 X155.212 Y125.101 E98.35934
G3 X154.957 Y125.605 I-1.901 J-.646 E98.39577
G1 X177.094 Y147.743 E100.40833
G1 X177.094 Y148.502 E100.45712
G1 X154.613 Y126.021 E102.50091
G3 X154.198 Y126.365 I-1.144 J-.956 E102.53575
G1 X177.094 Y149.262 E104.61732
G1 X177.094 Y150.021 E104.66611
G1 X153.729 Y126.655 E106.79031
G3 X153.149 Y126.835 I-1.668 J-4.365 E106.82938
G1 X177.094 Y150.78 E109.00627
G1 X177.094 Y151.539 E109.05506
M73 P1 R111
G1 X152.209 Y126.654 E111.3174
G1 E110.7674 F600
G92 E0
G1 X152.209 Y126.654 F9000
G1 X152.856 Y121.227 Z.395
G1 Z.3
G1 E.6 F1200
G1 F1800
G1 X150.112 Y118.483 E.84946
G1 X149.353 Y118.483 E.89825
G1 X151.899 Y121.029 E1.12971
G2 X151.315 Y121.204 I.279 J1.991 E1.16905
G1 X148.593 Y118.483 E1.41647
G1 X147.834 Y118.483 E1.46526
G1 X150.822 Y121.47 E1.73686
G2 X150.41 Y121.818 I1.198 J1.838 E1.77162
G1 X147.075 Y118.483 E2.07481
G1 X146.316 Y118.483 E2.1236
G1 X150.054 Y122.221 E2.46343
G2 X149.778 Y122.705 I3.987 J2.591 E2.49927
G1 X145.556 Y118.483 E2.8831
G1 X144.797 Y118.483 E2.93189
G1 X149.592 Y123.277 E3.36777
G2 X149.505 Y123.95 I2.196 J.624 E3.41156
G1 X144.038 Y118.483 E3.90858
G1 X143.278 Y118.483 E3.95744
G1 X149.665 Y124.869 E4.53805
G2 X149.917 Y125.465 I6.831 J-2.54 E4.57966
G1 X150.01 Y125.605 E4.59046
G1 X150.493 Y126.165 E4.638
G2 X151.268 Y126.667 I3.254 J-4.176 E4.69743
G1 X151.562 Y126.766 E4.71737
G1 X177.094 Y152.299 E7.03858
G1 X177.094 Y153.058 E7.08737
G1 X142.519 Y118.483 E10.23065
G1 X141.76 Y118.483 E10.27944
G1 X177.094 Y153.817 E13.49172
G1 X177.094 Y154.577 E13.54058
G1 X141.001 Y118.483 E16.82191
G1 X140.241 Y118.483 E16.87077
G1 X177.094 Y155.336 E20.22115
G1 X177.094 Y156.095 E20.26994
G1 X139.482 Y118.483 E23.68932
G1 X138.723 Y118.483 E23.73811
G1 X177.094 Y156.854 E27.22649
G1 X177.094 Y157.614 E27.27535
G1 X137.963 Y118.483 E30.83283
G1 X137.204 Y118.483 E30.88162
G1 X177.094 Y158.373 E34.5081
G1 X177.094 Y159.132 E34.55689
G1 X136.445 Y118.483 E38.25237
G1 X135.686 Y118.483 E38.30116
G1 X177.094 Y159.891 E42.06564
G1 X177.094 Y160.651 E42.1145
G1 X134.926 Y118.483 E45.94808
G1 X134.167 Y118.482 E45.99687
G1 X177.094 Y161.41 E49.89949
G1 X177.094 Y162.169 E49.94828
G1 X133.408 Y118.482 E53.91991
G1 X132.648 Y118.482 E53.96877
G1 X177.094 Y162.928 E58.00944
G1 X177.094 Y163.688 E58.0583
G1 X131.889 Y118.482 E62.16802
G1 X131.13 Y118.482 E62.21681
G1 X177.094 Y164.447 E66.39553
G1 X177.094 Y165.206 E66.44432
M73 P1 R110
G1 X130.371 Y118.482 E70.69205
G1 X129.611 Y118.482 E70.74091
G1 X177.094 Y165.966 E75.05773
G1 X177.094 Y166.725 E75.10652
G1 X128.852 Y118.482 E79.49234
G1 X128.093 Y118.482 E79.54113
G1 X177.094 Y167.484 E83.99595
G1 X177.094 Y168.243 E84.04474
G1 X127.333 Y118.482 E88.56861
G1 X126.574 Y118.482 E88.6174
G1 X177.094 Y169.003 E93.21032
G1 X177.094 Y169.762 E93.25911
G1 X125.815 Y118.482 E97.92103
G1 X125.056 Y118.482 E97.96982
G1 X177.094 Y170.521 E102.70074
G1 X177.094 Y171.28 E102.74953
G1 X124.296 Y118.482 E107.5495
G1 X123.537 Y118.482 E107.59829
G1 X177.07 Y172.016 E112.46513
G3 X176.78 Y172.484 I-.603 J-.051 E112.50187
G1 X122.778 Y118.482 E117.4113
G1 X122.019 Y118.482 E117.46009
G1 X176.143 Y172.606 E122.38061
G1 X175.383 Y172.606 E122.42947
G1 X121.259 Y118.482 E127.34999
G1 X120.5 Y118.482 E127.39878
M73 P2 R110
G1 X174.624 Y172.606 E132.3193
G1 X173.865 Y172.606 E132.36809
G1 X119.741 Y118.482 E137.28861
G1 X118.981 Y118.482 E137.33747
G1 X173.105 Y172.606 E142.25799
G1 X172.346 Y172.606 E142.30678
G1 X118.222 Y118.482 E147.2273
G1 X117.463 Y118.482 E147.27609
G1 X171.587 Y172.606 E152.19661
G1 X170.828 Y172.606 E152.2454
G1 X116.704 Y118.482 E157.16592
G1 X115.944 Y118.482 E157.21478
G1 X170.068 Y172.606 E162.1353
G1 X169.309 Y172.606 E162.18409
G1 X115.185 Y118.482 E167.10461
G1 X114.426 Y118.482 E167.1534
G1 X168.55 Y172.606 E172.07392
G1 X167.791 Y172.606 E172.12271
G1 X113.666 Y118.482 E177.04328
G1 X112.907 Y118.482 E177.09207
G1 X167.031 Y172.606 E182.01259
G1 X166.272 Y172.606 E182.06138
M73 P2 R109
G1 X112.148 Y118.482 E186.9819
G1 X111.389 Y118.482 E187.03069
G1 X165.513 Y172.606 E191.95121
G1 X164.754 Y172.606 E192
