; generated by PrusaSlicer 2.8.0+MacOS-arm64 on 2024-10-04 at 11:55:23 UTC


;
;

;
;
; 

; external perimeters extrusion width = 0.68mm
; perimeters extrusion width = 0.68mm
; infill extrusion width = 0.68mm
; solid infill extrusion width = 0.68mm
; top infill extrusion width = 0.60mm
; support material extrusion width = 0.60mm

; external perimeters extrusion width = 0.68mm
; perimeters extrusion width = 0.68mm
; infill extrusion width = 0.68mm
; solid infill extrusion width = 0.68mm
; top infill extrusion width = 0.60mm
; support material extrusion width = 0.60mm


EXCLUDE_OBJECT_DEFINE NAME='c_lid' CENTER=128.570,83.390 POLYGON=[[193.225,54.991],[193.982,55.181],[194.541,55.575],[194.975,56.224],[195.127,56.989],[195.127,109.789],[195.041,110.370],[194.790,110.900],[194.396,111.335],[193.892,111.637],[193.127,111.789],[64.015,111.789],[63.434,111.703],[62.904,111.452],[62.469,111.058],[62.167,110.554],[62.015,109.789],[62.015,56.989],[62.101,56.408],[62.352,55.878],[62.746,55.443],[63.249,55.141],[64.015,54.989]]
EXCLUDE_OBJECT_DEFINE NAME='d_lid' CENTER=127.878,153.206 POLYGON=[[188.150,115.676],[188.817,115.826],[189.395,116.192],[189.815,116.731],[190.030,117.380],[190.052,131.079],[216.052,157.079],[216.049,184.572],[215.965,185.054],[215.715,185.585],[215.395,185.955],[214.907,186.281],[214.052,186.474],[47.564,186.474],[46.983,186.387],[46.535,186.189],[46.082,185.817],[45.756,185.329],[45.564,184.474],[45.564,131.674],[45.650,131.093],[45.901,130.562],[46.295,130.127],[46.890,129.790],[47.466,129.676],[67.092,129.674],[67.102,117.477],[67.209,117.000],[67.429,116.562],[67.749,116.192],[68.237,115.866],[69.092,115.674]]

;TYPE:Custom
START_PRINT BED_TEMP=70 HOTEND_TEMP=235 FILAMENT_TYPE=PET EXTRUSION_MULTIPLIER=0.92 PERIMETER_SPEED=70
G21 ; set units to millimeters
G90 ; use absolute coordinates
M82 ; use absolute distances for extrusion
G92 E0
; Filament gcode
; ########################### NOTE OFFSET CHANGES ####################################
; Prevents PETG buildup on nozzle.
; SET_GCODE_OFFSET Z=0.06
; ####################################################################################
M107
;LAYER_CHANGE
;Z:0.35
;HEIGHT:0.35
G1 E-.5 F240
G1 Z.35 F9000
EXCLUDE_OBJECT_START NAME='c_lid'
G92 E0
G1 X131.255 Y79.822
G1 E.5 F240
G92 E0
;TYPE:External perimeter
;WIDTH:0.675
G1 F1800
G1 X131.344 Y79.732 E.01016
G1 X131.67 Y79.628 E.03764
G1 X132.667 Y79.623 E.11771
G1 X133.08 Y79.745 E.15229
G1 X133.274 Y80.005 E.17834
G1 X133.336 Y80.254 E.19895
G1 X133.33 Y84.408 E.53255
G1 X133.229 Y85.097 E.58847
G1 X133.068 Y85.657 E.63526
G1 X132.831 Y86.061 E.67288
G1 X132.465 Y86.444 E.71542
G1 X131.922 Y86.781 E.76674
G1 X131.187 Y87.02 E.82881
G1 X130.417 Y87.127 E.89124
G1 X129.629 Y87.156 E.95457
G1 X127.502 Y87.156 E1.12539
G1 X126.621 Y87.12 E1.1962
G1 X126.123 Y87.054 E1.23654
G1 X125.608 Y86.93 E1.27908
G1 X125.175 Y86.76 E1.31644
G1 X124.764 Y86.506 E1.35524
G1 X124.396 Y86.162 E1.3957
G1 X124.113 Y85.733 E1.43697
G1 X123.932 Y85.242 E1.479
G1 X123.82 Y84.544 E1.53577
G1 X123.806 Y80.241 E1.88134
G1 X123.838 Y80.106 E1.89248
G1 X124.043 Y79.759 E1.92485
G1 X124.502 Y79.623 E1.9633
G1 X125.521 Y79.638 E2.04514
G1 X125.826 Y79.76 E2.07152
G1 X125.944 Y79.889 E2.08556
G1 X126.062 Y80.203 E2.1125
G1 X126.072 Y84.229 E2.43582
G1 X126.142 Y84.593 E2.46559
G1 X126.318 Y84.75 E2.48453
G1 X126.786 Y84.867 E2.52327
G1 X127.302 Y84.892 E2.56476
G1 X130.094 Y84.885 E2.78898
G1 X130.686 Y84.809 E2.83691
G1 X130.911 Y84.69 E2.85735
G1 X131.013 Y84.491 E2.87531
G1 X131.055 Y84.221 E2.89725
G1 X131.062 Y80.256 E3.21567
G1 X131.198 Y79.89 E3.24703
G1 X131.748 Y79.65 F9000
G1 X130.827 Y79.401
;TYPE:Perimeter
G1 F1800
G1 X131.015 Y79.229 E3.26749
G1 X131.504 Y79.044 E3.30948
G1 X132.662 Y79.023 E3.40249
G1 X133.197 Y79.137 E3.44642
G1 X133.506 Y79.319 E3.47522
G1 X133.789 Y79.689 E3.51263
G1 X133.931 Y80.158 E3.55198
G1 X133.93 Y84.409 E3.89337
G1 X133.822 Y85.187 E3.95645
G1 X133.755 Y85.515 E3.98334
G1 X133.565 Y86.006 E4.02562
G1 X133.295 Y86.442 E4.0668
G1 X132.899 Y86.858 E4.11292
G1 X132.71 Y87.009 E4.13235
G1 X132.229 Y87.296 E4.17733
G1 X131.366 Y87.592 E4.2506
G1 X130.497 Y87.721 E4.32115
G1 X129.629 Y87.756 E4.39091
G1 X127.502 Y87.756 E4.56173
G1 X126.596 Y87.72 E4.63455
G1 X126.075 Y87.654 E4.67673
G1 X125.468 Y87.514 E4.72676
G1 X124.956 Y87.321 E4.7707
G1 X124.507 Y87.059 E4.81245
G1 X123.987 Y86.601 E4.8681
G1 X123.606 Y86.053 E4.9217
G1 X123.366 Y85.441 E4.97449
G1 X123.227 Y84.634 E5.04025
G1 X123.215 Y83.698 E5.11542
G1 X123.206 Y80.243 E5.39289
G1 X123.269 Y79.91 E5.42011
G1 X123.525 Y79.435 E5.46344
G1 X123.803 Y79.201 E5.49262
G1 X124.302 Y79.048 E5.53454
G1 X124.473 Y79.023 E5.54842
G1 X125.531 Y79.039 E5.6334
G1 X125.887 Y79.118 E5.66269
G1 X126.246 Y79.325 E5.69597
G1 X126.485 Y79.629 E5.72703
G1 X126.642 Y80.015 E5.7605
G1 X126.662 Y80.256 E5.77992
G1 X126.672 Y84.193 E6.0961
G1 X126.717 Y84.244 E6.10156
G1 X127.267 Y84.291 E6.14589
G1 X130.055 Y84.286 E6.36979
G1 X130.455 Y84.22 E6.40235
G1 X130.462 Y80.255 E6.72077
G1 X130.54 Y79.889 E6.75082
G1 X130.743 Y79.479 E6.78756
G1 X130.761 Y79.462 E6.78955
G1 E6.28955 F240
G92 E0
G1 X130.761 Y79.462 F9000
G1 X170.407 Y63.336
G1 E.5 F240
;TYPE:External perimeter
G1 F1800
G1 X170.316 Y63.415 E.50968
G1 X169.97 Y63.607 E.54146
G1 X169.593 Y63.727 E.57323
G1 X169.2 Y63.771 E.60499
G1 X168.814 Y63.737 E.63611
G1 X168.519 Y63.658 E.66064
G1 X168.161 Y63.49 E.6924
G1 X167.844 Y63.254 E.72414
G1 X167.579 Y62.96 E.75593
G1 X167.404 Y62.673 E.78293
G1 X167.248 Y62.246 E.81944
G1 X167.195 Y61.854 E.85121
G1 X167.221 Y61.459 E.883
G1 X167.324 Y61.077 E.91477
G1 X167.501 Y60.723 E.94655
G1 X167.745 Y60.412 E.9783
G1 X168.045 Y60.154 E1.01008
G1 X168.391 Y59.962 E1.04186
G1 X168.768 Y59.841 E1.07366
G1 X169.161 Y59.798 E1.10541
G1 X169.555 Y59.834 E1.13718
G1 X169.934 Y59.946 E1.16892
G1 X170.283 Y60.132 E1.20068
G1 X170.589 Y60.383 E1.23246
G1 X170.838 Y60.69 E1.2642
G1 X171.022 Y61.04 E1.29596
G1 X171.132 Y61.412 E1.32711
G1 X171.166 Y61.716 E1.35168
G1 X171.14 Y62.11 E1.38339
G1 X171.037 Y62.492 E1.41516
G1 X170.86 Y62.846 E1.44694
G1 X170.616 Y63.157 E1.47869
G1 X170.476 Y63.277 E1.4935
G1 X169.963 Y63.589 F9000
G1 X170.766 Y63.81
;TYPE:Perimeter
G1 F1800
G1 X170.616 Y63.934 E1.50913
G1 X170.161 Y64.176 E1.55052
G1 X169.668 Y64.323 E1.59183
G1 X169.155 Y64.369 E1.63319
G1 X168.666 Y64.319 E1.67267
G1 X168.272 Y64.204 E1.70563
G1 X167.811 Y63.977 E1.7469
G1 X167.404 Y63.662 E1.78823
G1 X167.067 Y63.273 E1.82956
G1 X166.892 Y62.986 E1.85656
G1 X166.699 Y62.509 E1.89788
G1 X166.605 Y62.003 E1.93921
G1 X166.613 Y61.488 E1.98057
G1 X166.722 Y60.985 E2.0219
G1 X166.93 Y60.514 E2.06325
G1 X167.226 Y60.093 E2.10458
G1 X167.6 Y59.739 E2.14594
G1 X168.036 Y59.467 E2.18721
G1 X168.518 Y59.286 E2.22856
G1 X169.026 Y59.204 E2.26988
G1 X169.541 Y59.225 E2.31127
G1 X170.041 Y59.347 E2.3526
G1 X170.507 Y59.566 E2.39395
G1 X170.92 Y59.873 E2.43528
G1 X171.264 Y60.255 E2.47656
G1 X171.526 Y60.698 E2.51789
G1 X171.694 Y61.184 E2.55919
G1 X171.765 Y61.746 E2.60468
G1 X171.721 Y62.258 E2.64595
G1 X171.581 Y62.745 E2.68664
G1 X171.338 Y63.208 E2.72863
G1 X171.013 Y63.607 E2.76996
G1 X170.836 Y63.753 E2.78839
G1 E2.28839 F240
G92 E0
G1 X170.836 Y63.753 F9000
G1 X169.018 Y107.26
G1 E.5 F240
;TYPE:External perimeter
G1 F1800
G1 X168.8 Y107.24 E.51758
G1 X168.421 Y107.127 E.54934
G1 X168.072 Y106.942 E.58106
G1 X167.777 Y106.702 E.6116
G1 X167.573 Y106.465 E.63671
G1 X167.372 Y106.124 E.6685
G1 X167.242 Y105.751 E.70022
G1 X167.189 Y105.359 E.73199
G1 X167.215 Y104.964 E.76378
G1 X167.318 Y104.582 E.79555
G1 X167.495 Y104.228 E.82733
G1 X167.738 Y103.917 E.85903
G1 X168.108 Y103.619 E.89718
G1 X168.384 Y103.467 E.92248
G1 X168.761 Y103.346 E.95428
G1 X169.106 Y103.303 E.9822
G1 X169.548 Y103.339 E1.01781
G1 X169.928 Y103.452 E1.04965
G1 X170.277 Y103.637 E1.08137
G1 X170.577 Y103.883 E1.11253
G1 X170.776 Y104.114 E1.13702
G1 X170.977 Y104.455 E1.16881
G1 X171.106 Y104.828 E1.20051
G1 X171.159 Y105.22 E1.23228
G1 X171.134 Y105.615 E1.26407
G1 X171.03 Y105.997 E1.29586
G1 X170.853 Y106.351 E1.32764
G1 X170.61 Y106.662 E1.35934
G1 X170.309 Y106.92 E1.39118
G1 X169.964 Y107.112 E1.42289
G1 X169.587 Y107.233 E1.45469
G1 X169.194 Y107.276 E1.48644
G1 X169.108 Y107.268 E1.49338
G1 X168.52 Y107.149 F9000
G1 X168.959 Y107.853
;TYPE:Perimeter
G1 F1800
G1 X168.637 Y107.818 E1.51939
G1 X168.147 Y107.661 E1.56071
G1 X167.699 Y107.412 E1.60187
G1 X167.328 Y107.1 E1.6408
G1 X167.061 Y106.777 E1.67445
G1 X166.808 Y106.33 E1.7157
G1 X166.649 Y105.84 E1.75707
G1 X166.59 Y105.329 E1.79838
G1 X166.633 Y104.816 E1.83972
G1 X166.777 Y104.322 E1.88104
G1 X167.017 Y103.866 E1.92242
G1 X167.336 Y103.472 E1.96313
G1 X167.739 Y103.14 E2.00506
G1 X168.193 Y102.898 E2.04638
G1 X168.687 Y102.751 E2.08777
G1 X169.054 Y102.706 E2.11746
G1 X169.568 Y102.733 E2.1588
G1 X170.067 Y102.862 E2.20019
G1 X170.538 Y103.092 E2.24228
G1 X170.952 Y103.41 E2.2842
G1 X171.288 Y103.802 E2.32566
G1 X171.54 Y104.249 E2.36687
G1 X171.699 Y104.739 E2.40824
G1 X171.758 Y105.25 E2.44955
G1 X171.715 Y105.763 E2.49089
G1 X171.571 Y106.257 E2.53221
G1 X171.332 Y106.713 E2.57356
G1 X171.007 Y107.112 E2.61489
G1 X170.609 Y107.439 E2.65626
G1 X170.155 Y107.681 E2.69758
G1 X169.662 Y107.828 E2.73889
G1 X169.149 Y107.874 E2.78025
G1 X169.048 Y107.863 E2.78841
G1 E2.28841 F240
G92 E0
G1 X169.048 Y107.863 F9000
G1 X66.282 Y83.865
G1 E.5 F240
;TYPE:External perimeter
G1 F1800
G1 X66.242 Y83.751 E.5097
G1 X66.189 Y83.359 E.54147
G1 X66.215 Y82.964 E.57326
G1 X66.318 Y82.582 E.60503
G1 X66.495 Y82.228 E.63681
G1 X66.738 Y81.917 E.66851
G1 X67.039 Y81.659 E.70035
G1 X67.384 Y81.467 E.73206
G1 X67.761 Y81.346 E.76386
G1 X68.154 Y81.303 E.79561
G1 X68.548 Y81.339 E.82738
G1 X68.928 Y81.452 E.85922
G1 X69.277 Y81.637 E.89094
G1 X69.577 Y81.883 E.9221
G1 X69.776 Y82.114 E.94659
G1 X69.977 Y82.455 E.97838
G1 X70.106 Y82.828 E1.01008
G1 X70.157 Y83.266 E1.04549
G1 X70.134 Y83.615 E1.07358
G1 X70.03 Y83.997 E1.10537
G1 X69.853 Y84.351 E1.13715
G1 X69.61 Y84.662 E1.16885
G1 X69.309 Y84.92 E1.20069
G1 X68.964 Y85.112 E1.2324
G1 X68.587 Y85.233 E1.2642
G1 X68.194 Y85.276 E1.29595
G1 X67.816 Y85.244 E1.32642
G1 X67.513 Y85.163 E1.35161
G1 X67.155 Y84.995 E1.38337
G1 X66.837 Y84.759 E1.41517
G1 X66.573 Y84.465 E1.4469
G1 X66.372 Y84.124 E1.47869
G1 X66.311 Y83.95 E1.4935
G1 X66.209 Y83.359 F9000
G1 X65.709 Y84.026
;TYPE:Perimeter
G1 F1800
G1 X65.649 Y83.84 E1.5092
G1 X65.59 Y83.329 E1.55051
G1 X65.633 Y82.816 E1.59185
G1 X65.777 Y82.322 E1.63317
G1 X66.017 Y81.866 E1.67455
G1 X66.341 Y81.467 E1.71583
G1 X66.739 Y81.14 E1.7572
G1 X67.193 Y80.898 E1.79852
G1 X67.687 Y80.751 E1.83991
G1 X68.199 Y80.705 E1.88119
G1 X68.711 Y80.761 E1.92255
G1 X69.201 Y80.918 E1.96387
G1 X69.651 Y81.168 E2.00521
G1 X70.027 Y81.486 E2.04476
G1 X70.288 Y81.802 E2.07767
G1 X70.54 Y82.249 E2.11888
G1 X70.699 Y82.739 E2.16025
G1 X70.758 Y83.25 E2.20156
G1 X70.715 Y83.763 E2.2429
G1 X70.571 Y84.257 E2.28422
G1 X70.332 Y84.713 E2.32557
G1 X70.007 Y85.112 E2.3669
G1 X69.62 Y85.433 E2.40728
G1 X69.155 Y85.681 E2.4496
G1 X68.662 Y85.828 E2.49091
G1 X68.15 Y85.874 E2.53219
G1 X67.669 Y85.825 E2.57102
G1 X67.266 Y85.709 E2.6047
G1 X66.805 Y85.482 E2.64597
G1 X66.398 Y85.167 E2.6873
G1 X66.061 Y84.778 E2.72863
G1 X65.808 Y84.33 E2.76995
G1 X65.737 Y84.111 E2.78844
G1 E2.28844 F240
G92 E0
G1 X65.737 Y84.111 F9000
G1 X62.354 Y109.781
G1 E.5 F240
;TYPE:External perimeter
G1 F1800
G1 X62.352 Y109.772 E.50074
G1 X62.352 Y57.012 E4.73781
G1 X62.427 Y56.507 E4.77881
G1 X62.635 Y56.067 E4.8179
G1 X62.962 Y55.706 E4.85702
G1 X63.187 Y55.572 E4.87805
G1 X63.555 Y55.401 E4.91064
G1 X64.031 Y55.327 E4.94933
G1 X193.026 Y55.329 E15.30871
G1 X193.447 Y55.359 E15.34261
G1 X193.906 Y55.531 E15.38197
G1 X194.301 Y55.815 E15.42104
G1 X194.584 Y56.21 E15.46006
G1 X194.756 Y56.665 E15.49912
G1 X194.789 Y57.092 E15.53351
G1 X194.789 Y109.766 E19.76367
G1 X194.714 Y110.271 E19.80467
G1 X194.506 Y110.711 E19.84376
G1 X194.179 Y111.072 E19.88288
G1 X193.955 Y111.206 E19.90384
G1 X193.586 Y111.377 E19.9365
G1 X193.11 Y111.452 E19.9752
G1 X64.038 Y111.452 E30.34076
G1 X63.533 Y111.377 E30.38176
G1 X63.093 Y111.169 E30.42085
G1 X62.732 Y110.842 E30.45997
G1 X62.598 Y110.617 E30.481
G1 X62.427 Y110.248 E30.51366
G1 X62.367 Y109.869 E30.54448
G1 X62.354 Y109.27 F9000
G1 X62.956 Y109.765
;TYPE:Perimeter
G1 F1800
G1 X62.952 Y109.743 E30.54628
G1 X62.952 Y57.147 E34.77018
G1 X63.007 Y56.683 E34.8077
G1 X63.139 Y56.404 E34.83249
G1 X63.347 Y56.175 E34.85733
G1 X63.631 Y56.005 E34.88391
G1 X64.061 Y55.926 E34.91902
G1 X193.026 Y55.929 E45.27599
G1 X193.323 Y55.948 E45.29989
G1 X193.715 Y56.109 E45.33392
G1 X194.007 Y56.401 E45.36708
G1 X194.134 Y56.683 E45.39192
G1 X194.189 Y57.092 E45.42506
G1 X194.189 Y109.631 E49.64438
G1 X194.134 Y110.095 E49.6819
G1 X194.002 Y110.374 E49.70669
G1 X193.795 Y110.603 E49.73148
G1 X193.511 Y110.773 E49.75806
G1 X193.081 Y110.852 E49.79317
G1 X64.172 Y110.852 E60.14564
G1 X63.709 Y110.796 E60.18309
G1 X63.43 Y110.664 E60.20788
G1 X63.201 Y110.457 E60.23267
G1 X63.031 Y110.173 E60.25925
G1 X62.972 Y109.854 E60.2853
G1 E59.7853 F240
G92 E0
G1 X62.972 Y109.854 F9000
G1 X192.242 Y56.139
G1 E.5 F240
;TYPE:Solid infill
;WIDTH:0.675917
G1 F1800
G1 X193.709 Y57.606 E.66687
G1 X193.709 Y58.455 E.73516
G1 X191.663 Y56.409 E.96789
G1 X190.813 Y56.409 E1.03626
G1 X193.709 Y59.305 E1.36567
G1 X193.709 Y60.155 E1.43404
G1 X189.963 Y56.409 E1.86014
G1 X189.114 Y56.409 E1.92843
G1 X193.709 Y61.004 E2.4511
G1 X193.709 Y61.854 E2.51947
G1 X188.264 Y56.409 E3.13882
G1 X187.414 Y56.409 E3.20719
G1 X193.709 Y62.704 E3.92323
G1 X193.709 Y63.553 E3.99152
G1 X186.565 Y56.408 E4.80418
G1 X185.715 Y56.408 E4.87255
G1 X193.709 Y64.403 E5.7819
G1 X193.709 Y65.253 E5.85027
G1 X184.865 Y56.408 E6.8563
G1 X184.016 Y56.408 E6.92459
G1 X193.709 Y66.102 E8.02719
G1 X193.709 Y66.952 E8.09556
G1 X183.166 Y56.408 E9.29485
G1 X182.316 Y56.408 E9.36322
G1 X193.709 Y67.802 E10.65919
G1 X193.709 Y68.651 E10.72748
G1 X181.467 Y56.408 E12.12003
G1 X180.617 Y56.408 E12.1884
G1 X193.709 Y69.501 E13.67763
G1 X193.709 Y70.351 E13.746
G1 X179.767 Y56.408 E15.33191
G1 X178.917 Y56.408 E15.40028
G1 X193.709 Y71.2 E17.08282
G1 X193.709 Y72.05 E17.15119
G1 X178.068 Y56.408 E18.93036
G1 X177.218 Y56.408 E18.99873
G1 X193.709 Y72.9 E20.87459
G1 X193.709 Y73.749 E20.94288
G1 X176.368 Y56.408 E22.91536
G1 X175.519 Y56.408 E22.98365
G1 X193.709 Y74.599 E25.05276
G1 X193.709 Y75.449 E25.12113
G1 X174.669 Y56.408 E27.28693
G1 X173.819 Y56.408 E27.3553
G1 X193.709 Y76.298 E29.61772
G1 X193.709 Y77.148 E29.68609
G1 X172.97 Y56.408 E32.04514
G1 X172.12 Y56.408 E32.11351
G1 X193.709 Y77.998 E34.56925
G1 X193.709 Y78.847 E34.63754
G1 X171.27 Y56.408 E37.1899
G1 X170.421 Y56.408 E37.25819
G1 X193.709 Y79.697 E39.90718
G1 X193.709 Y80.547 E39.97555
G1 X169.571 Y56.408 E42.72123
G1 X168.721 Y56.408 E42.7896
G1 X193.709 Y81.396 E45.6319
G1 X193.709 Y82.246 E45.70027
G1 X167.872 Y56.408 E48.6392
G1 X167.022 Y56.408 E48.70757
G1 X169.345 Y58.731 E48.9718
G1 X168.972 Y58.728 E49.0018
G1 X168.548 Y58.784 E49.0362
G1 X166.172 Y56.408 E49.30646
G1 X165.323 Y56.408 E49.37475
G1 X167.912 Y58.998 E49.6693
G1 X167.498 Y59.224 E49.70724
G1 X167.376 Y59.311 E49.71929
G1 X164.473 Y56.408 E50.0495
G1 X163.623 Y56.408 E50.11787
G1 X166.927 Y59.712 E50.49369
G1 X166.635 Y60.078 E50.53135
G1 X166.563 Y60.197 E50.54254
G1 X162.774 Y56.408 E50.97353
G1 X161.924 Y56.408 E51.0419
G1 X166.29 Y60.774 E51.53852
G1 X166.172 Y61.201 E51.57415
G1 X166.133 Y61.467 E51.59577
G1 X160.804 Y56.138 E52.20193
G1 E51.70193 F240
G92 E0
G1 X160.804 Y56.138 F9000
G1 X171.926 Y61.312
G1 E.5 F240
G1 F1800
G1 X193.709 Y83.096 E2.9778
G1 X193.709 Y83.945 E3.04609
G1 X172.173 Y62.409 E5.49574
G1 X172.076 Y62.798 E5.52799
G1 X171.961 Y63.046 E5.54998
G1 X193.709 Y84.795 E8.0238
G1 X193.709 Y85.645 E8.09217
G1 X171.646 Y63.581 E10.60182
G1 X171.428 Y63.873 E10.63113
G1 X171.247 Y64.032 E10.65051
G1 X193.709 Y86.494 E13.20549
G1 X193.709 Y87.344 E13.27386
G1 X170.762 Y64.397 E15.88401
