; generated by PrusaSlicer 2.8.0+MacOS-arm64 on 2024-09-28 at 04:35:08 UTC


;
;

;
;
; 

; external perimeters extrusion width = 0.68mm
; perimeters extrusion width = 0.68mm
; infill extrusion width = 0.68mm
; solid infill extrusion width = 0.68mm
; top infill extrusion width = 0.60mm
; support material extrusion width = 0.60mm

; external perimeters extrusion width = 0.68mm
; perimeters extrusion width = 0.68mm
; infill extrusion width = 0.68mm
; solid infill extrusion width = 0.68mm
; top infill extrusion width = 0.60mm
; support material extrusion width = 0.60mm


EXCLUDE_OBJECT_DEFINE NAME='d_lid' CENTER=122.395,86.358 POLYGON=[[182.666,48.827],[183.333,48.977],[183.911,49.343],[184.332,49.882],[184.546,50.532],[184.568,64.231],[210.568,90.231],[210.566,117.723],[210.451,118.299],[210.231,118.736],[209.837,119.171],[209.423,119.433],[208.568,119.625],[42.080,119.625],[41.500,119.539],[41.052,119.341],[40.598,118.968],[40.272,118.480],[40.080,117.625],[40.080,64.825],[40.166,64.245],[40.417,63.714],[40.811,63.279],[41.406,62.942],[41.982,62.827],[61.609,62.825],[61.618,50.629],[61.726,50.151],[61.946,49.714],[62.266,49.343],[62.754,49.017],[63.609,48.825]]
EXCLUDE_OBJECT_DEFINE NAME='c_lid' CENTER=122.124,159.531 POLYGON=[[186.779,131.132],[187.536,131.322],[188.163,131.787],[188.564,132.456],[188.681,133.130],[188.681,185.930],[188.595,186.511],[188.344,187.041],[187.950,187.476],[187.446,187.778],[186.681,187.930],[57.569,187.930],[56.988,187.844],[56.458,187.593],[56.023,187.199],[55.721,186.695],[55.569,185.930],[55.569,133.130],[55.655,132.549],[55.906,132.019],[56.300,131.584],[56.804,131.282],[57.569,131.130]]

;TYPE:Custom
START_PRINT BED_TEMP=75 HOTEND_TEMP=240 FILAMENT_TYPE=PET EXTRUSION_MULTIPLIER=0.88 PERIMETER_SPEED=70
G21 ; set units to millimeters
G90 ; use absolute coordinates
M82 ; use absolute distances for extrusion
G92 E0
; Filament gcode
; ########################### NOTE OFFSET CHANGES ####################################
; Prevents PETG buildup on nozzle.
; SET_GCODE_OFFSET Z=0.06
; ####################################################################################
M107
;LAYER_CHANGE
;Z:0.35
;HEIGHT:0.35
G1 E-.5 F240
G1 Z.35 F9000
EXCLUDE_OBJECT_START NAME='c_lid'
G92 E0
G1 X124.81 Y155.963
G1 E.5 F240
G92 E0
;TYPE:External perimeter
;WIDTH:0.675
G1 F1800
G1 X124.898 Y155.873 E.00967
G1 X125.224 Y155.769 E.03596
G1 X126.221 Y155.764 E.11255
G1 X126.634 Y155.886 E.14563
G1 X126.828 Y156.146 E.17055
G1 X126.89 Y156.395 E.19026
G1 X126.884 Y160.549 E.50936
G1 X126.783 Y161.238 E.56285
G1 X126.623 Y161.798 E.60759
G1 X126.385 Y162.202 E.64361
G1 X126.02 Y162.584 E.6842
G1 X125.476 Y162.922 E.7334
G1 X124.741 Y163.161 E.79277
G1 X123.972 Y163.268 E.85241
G1 X123.183 Y163.297 E.91306
G1 X121.056 Y163.297 E1.07645
G1 X120.175 Y163.261 E1.14418
G1 X119.677 Y163.195 E1.18277
G1 X119.162 Y163.071 E1.22346
G1 X118.729 Y162.901 E1.25919
G1 X118.318 Y162.647 E1.2963
G1 X117.951 Y162.303 E1.33494
G1 X117.667 Y161.874 E1.37446
G1 X117.486 Y161.383 E1.41466
G1 X117.374 Y160.685 E1.46896
G1 X117.361 Y156.382 E1.7995
G1 X117.393 Y156.247 E1.81016
G1 X117.597 Y155.9 E1.84108
G1 X118.057 Y155.763 E1.87795
G1 X119.076 Y155.779 E1.95624
G1 X119.38 Y155.901 E1.9814
G1 X119.498 Y156.03 E1.99483
G1 X119.617 Y156.344 E2.02062
G1 X119.626 Y160.37 E2.32988
G1 X119.697 Y160.734 E2.35837
G1 X119.873 Y160.891 E2.37649
G1 X120.34 Y161.008 E2.41347
G1 X120.856 Y161.033 E2.45315
G1 X123.648 Y161.026 E2.66762
G1 X124.24 Y160.95 E2.71347
G1 X124.465 Y160.831 E2.73302
G1 X124.567 Y160.632 E2.7502
G1 X124.609 Y160.362 E2.77119
G1 X124.616 Y156.397 E3.07577
G1 X124.752 Y156.031 E3.10576
G1 X125.302 Y155.791 F9000
G1 X124.382 Y155.542
;TYPE:Perimeter
G1 F1800
G1 X124.569 Y155.37 E3.12528
G1 X125.058 Y155.185 E3.16544
G1 X126.217 Y155.164 E3.25449
G1 X126.751 Y155.278 E3.29643
G1 X127.06 Y155.46 E3.32398
G1 X127.343 Y155.83 E3.35976
G1 X127.485 Y156.299 E3.3974
G1 X127.484 Y160.55 E3.72395
G1 X127.376 Y161.328 E3.78429
G1 X127.31 Y161.656 E3.80999
G1 X127.119 Y162.147 E3.85046
G1 X126.849 Y162.583 E3.88985
G1 X126.453 Y162.999 E3.93397
G1 X126.264 Y163.15 E3.95255
G1 X125.783 Y163.437 E3.99558
G1 X124.92 Y163.733 E4.06566
G1 X124.051 Y163.862 E4.13315
G1 X123.183 Y163.897 E4.19988
G1 X121.056 Y163.897 E4.36327
G1 X120.15 Y163.861 E4.43292
G1 X119.629 Y163.795 E4.47326
G1 X119.022 Y163.655 E4.52111
G1 X118.51 Y163.462 E4.56314
G1 X118.061 Y163.2 E4.60307
G1 X117.541 Y162.742 E4.6563
G1 X117.16 Y162.194 E4.70757
G1 X116.92 Y161.582 E4.75807
G1 X116.781 Y160.775 E4.82097
G1 X116.769 Y159.839 E4.89288
G1 X116.761 Y156.384 E5.15828
G1 X116.823 Y156.051 E5.1843
G1 X117.079 Y155.576 E5.22575
G1 X117.357 Y155.342 E5.25366
G1 X117.856 Y155.189 E5.29375
G1 X118.027 Y155.164 E5.30703
G1 X119.085 Y155.18 E5.38831
G1 X119.441 Y155.259 E5.41632
G1 X119.801 Y155.466 E5.44822
G1 X120.039 Y155.77 E5.47788
G1 X120.196 Y156.156 E5.50989
G1 X120.217 Y156.397 E5.52847
G1 X120.226 Y160.334 E5.8309
G1 X120.271 Y160.385 E5.83612
G1 X120.821 Y160.432 E5.87852
G1 X123.609 Y160.426 E6.09269
G1 X124.009 Y160.361 E6.12382
G1 X124.016 Y156.396 E6.4284
G1 X124.094 Y156.03 E6.45715
G1 X124.297 Y155.62 E6.49229
G1 X124.315 Y155.603 E6.49419
G1 E5.99419 F240
G92 E0
G1 X124.315 Y155.603 F9000
G1 X163.961 Y139.477
G1 E.5 F240
;TYPE:External perimeter
G1 F1800
G1 X163.87 Y139.555 E.50921
G1 X163.524 Y139.748 E.53964
G1 X163.147 Y139.868 E.57003
G1 X162.754 Y139.912 E.60041
G1 X162.368 Y139.878 E.63018
G1 X162.073 Y139.798 E.65366
G1 X161.716 Y139.631 E.68394
G1 X161.398 Y139.395 E.71436
G1 X161.133 Y139.101 E.74476
G1 X160.958 Y138.814 E.77058
G1 X160.802 Y138.387 E.8055
G1 X160.749 Y137.995 E.83589
G1 X160.775 Y137.6 E.8663
G1 X160.878 Y137.218 E.89669
G1 X161.055 Y136.864 E.92709
G1 X161.299 Y136.553 E.95746
G1 X161.599 Y136.295 E.98785
G1 X161.945 Y136.103 E1.01825
G1 X162.322 Y135.982 E1.04866
G1 X162.715 Y135.939 E1.07903
G1 X163.109 Y135.975 E1.10942
G1 X163.488 Y136.087 E1.13978
G1 X163.837 Y136.273 E1.17016
G1 X164.143 Y136.524 E1.20056
G1 X164.392 Y136.831 E1.23092
G1 X164.576 Y137.181 E1.26129
G1 X164.686 Y137.553 E1.29109
G1 X164.72 Y137.857 E1.31459
G1 X164.694 Y138.251 E1.34492
G1 X164.591 Y138.633 E1.37531
G1 X164.414 Y138.987 E1.40571
G1 X164.17 Y139.298 E1.43608
G1 X164.03 Y139.418 E1.45024
G1 X163.517 Y139.73 F9000
G1 X164.32 Y139.951
;TYPE:Perimeter
G1 F1800
G1 X164.17 Y140.075 E1.46519
G1 X163.715 Y140.317 E1.50478
G1 X163.222 Y140.464 E1.5443
G1 X162.709 Y140.51 E1.58387
G1 X162.22 Y140.46 E1.62163
G1 X161.827 Y140.345 E1.65308
G1 X161.365 Y140.118 E1.69262
G1 X160.958 Y139.803 E1.73215
G1 X160.621 Y139.414 E1.77169
G1 X160.446 Y139.127 E1.79751
G1 X160.253 Y138.65 E1.83704
G1 X160.159 Y138.144 E1.87657
G1 X160.167 Y137.629 E1.91614
G1 X160.277 Y137.126 E1.95569
G1 X160.484 Y136.655 E1.99521
G1 X160.78 Y136.234 E2.03474
G1 X161.154 Y135.88 E2.0743
G1 X161.591 Y135.608 E2.11384
G1 X162.072 Y135.427 E2.15332
G1 X162.581 Y135.345 E2.19292
G1 X163.095 Y135.366 E2.23244
G1 X163.595 Y135.488 E2.27198
G1 X164.061 Y135.707 E2.31153
G1 X164.474 Y136.014 E2.35106
G1 X164.818 Y136.396 E2.39055
G1 X165.08 Y136.839 E2.43009
G1 X165.249 Y137.325 E2.46962
G1 X165.319 Y137.887 E2.51312
G1 X165.275 Y138.399 E2.5526
G1 X165.135 Y138.886 E2.59152
G1 X164.892 Y139.349 E2.63169
G1 X164.567 Y139.748 E2.67122
G1 X164.39 Y139.894 E2.68885
G1 E2.18885 F240
G92 E0
G1 X164.39 Y139.894 F9000
G1 X162.572 Y183.401
G1 E.5 F240
;TYPE:External perimeter
G1 F1800
G1 X162.354 Y183.381 E.51682
G1 X161.975 Y183.268 E.5472
G1 X161.626 Y183.083 E.57754
G1 X161.331 Y182.843 E.60675
G1 X161.127 Y182.606 E.63077
G1 X160.926 Y182.265 E.66118
G1 X160.796 Y181.892 E.69152
G1 X160.743 Y181.5 E.72191
G1 X160.769 Y181.105 E.75232
G1 X160.872 Y180.723 E.78271
G1 X161.049 Y180.369 E.81311
G1 X161.293 Y180.058 E.84348
G1 X161.662 Y179.76 E.87991
G1 X161.939 Y179.608 E.90418
G1 X162.315 Y179.487 E.93452
G1 X162.66 Y179.444 E.96123
G1 X163.103 Y179.48 E.99537
G1 X163.482 Y179.592 E1.02573
G1 X163.831 Y179.778 E1.05611
G1 X164.131 Y180.024 E1.08591
G1 X164.33 Y180.255 E1.10933
G1 X164.531 Y180.596 E1.13974
G1 X164.66 Y180.969 E1.17006
G1 X164.714 Y181.361 E1.20046
G1 X164.688 Y181.756 E1.23087
G1 X164.584 Y182.138 E1.26128
G1 X164.408 Y182.492 E1.29165
G1 X164.164 Y182.803 E1.32202
G1 X163.863 Y183.061 E1.35247
G1 X163.518 Y183.253 E1.3828
G1 X163.141 Y183.374 E1.41321
G1 X162.748 Y183.417 E1.44358
G1 X162.662 Y183.409 E1.45021
G1 X162.074 Y183.29 F9000
G1 X162.513 Y183.994
;TYPE:Perimeter
G1 F1800
G1 X162.192 Y183.959 E1.47501
G1 X161.701 Y183.802 E1.51461
G1 X161.253 Y183.553 E1.55398
G1 X160.883 Y183.241 E1.59116
G1 X160.615 Y182.918 E1.6234
G1 X160.362 Y182.47 E1.66292
G1 X160.203 Y181.981 E1.70242
G1 X160.144 Y181.47 E1.74193
G1 X160.187 Y180.957 E1.78148
G1 X160.332 Y180.463 E1.82103
G1 X160.571 Y180.007 E1.86058
G1 X160.89 Y179.612 E1.89958
G1 X161.293 Y179.281 E1.93964
G1 X161.748 Y179.039 E1.97923
G1 X162.241 Y178.892 E2.01875
G1 X162.608 Y178.847 E2.04715
G1 X163.122 Y178.874 E2.08669
G1 X163.621 Y179.003 E2.12628
G1 X164.092 Y179.233 E2.16654
G1 X164.506 Y179.551 E2.20664
G1 X164.842 Y179.943 E2.2463
G1 X165.095 Y180.39 E2.28576
G1 X165.254 Y180.88 E2.32533
G1 X165.313 Y181.391 E2.36484
G1 X165.269 Y181.904 E2.40439
G1 X165.125 Y182.398 E2.44392
G1 X164.886 Y182.854 E2.48347
G1 X164.561 Y183.253 E2.523
G1 X164.163 Y183.58 E2.56257
G1 X163.709 Y183.822 E2.60209
G1 X163.216 Y183.969 E2.64161
G1 X162.703 Y184.015 E2.68118
G1 X162.603 Y184.004 E2.68891
G1 E2.18891 F240
G92 E0
G1 X162.603 Y184.004 F9000
G1 X59.836 Y160.006
G1 E.5 F240
;TYPE:External perimeter
G1 F1800
G1 X59.796 Y159.892 E.50928
G1 X59.743 Y159.5 E.53967
G1 X59.769 Y159.105 E.57008
G1 X59.872 Y158.723 E.60047
G1 X60.049 Y158.369 E.63087
G1 X60.293 Y158.058 E.66124
G1 X60.593 Y157.8 E.69163
G1 X60.939 Y157.608 E.72203
G1 X61.315 Y157.487 E.75237
G1 X61.709 Y157.444 E.78282
G1 X62.103 Y157.48 E.81321
G1 X62.482 Y157.592 E.84357
G1 X62.831 Y157.778 E.87395
G1 X63.131 Y158.023 E.9037
G1 X63.33 Y158.255 E.92718
G1 X63.531 Y158.596 E.95759
G1 X63.66 Y158.969 E.98791
G1 X63.711 Y159.407 E1.02178
G1 X63.688 Y159.756 E1.04865
G1 X63.584 Y160.138 E1.07906
G1 X63.408 Y160.492 E1.10943
G1 X63.164 Y160.803 E1.1398
G1 X62.864 Y161.061 E1.17019
G1 X62.518 Y161.253 E1.20059
G1 X62.141 Y161.373 E1.23098
G1 X61.749 Y161.417 E1.26128
G1 X61.37 Y161.385 E1.2905
G1 X61.067 Y161.304 E1.31459
G1 X60.709 Y161.136 E1.34497
G1 X60.392 Y160.9 E1.37533
G1 X60.127 Y160.606 E1.40573
G1 X59.926 Y160.265 E1.43614
G1 X59.865 Y160.091 E1.4503
G1 X59.763 Y159.5 F9000
G1 X59.263 Y160.167
;TYPE:Perimeter
G1 F1800
G1 X59.203 Y159.981 E1.46531
G1 X59.144 Y159.47 E1.50482
G1 X59.187 Y158.957 E1.54437
G1 X59.332 Y158.463 E1.58392
G1 X59.571 Y158.007 E1.62347
G1 X59.896 Y157.608 E1.663
G1 X60.293 Y157.281 E1.70251
G1 X60.748 Y157.039 E1.7421
G1 X61.241 Y156.892 E1.78162
G1 X61.753 Y156.846 E1.82111
G1 X62.265 Y156.902 E1.86067
G1 X62.755 Y157.059 E1.9002
G1 X63.205 Y157.309 E1.93974
G1 X63.581 Y157.627 E1.97757
G1 X63.842 Y157.943 E2.00905
G1 X64.095 Y158.39 E2.04851
G1 X64.254 Y158.88 E2.08808
G1 X64.313 Y159.391 E2.12759
G1 X64.269 Y159.904 E2.16714
G1 X64.125 Y160.398 E2.20667
G1 X63.886 Y160.854 E2.24622
G1 X63.561 Y161.253 E2.28575
G1 X63.175 Y161.574 E2.32431
G1 X62.709 Y161.822 E2.36486
G1 X62.216 Y161.969 E2.40438
G1 X61.705 Y162.015 E2.44379
G1 X61.223 Y161.966 E2.48101
G1 X60.82 Y161.85 E2.51322
G1 X60.359 Y161.623 E2.55269
G1 X59.952 Y161.308 E2.59222
G1 X59.615 Y160.919 E2.63176
G1 X59.362 Y160.47 E2.67135
G1 X59.291 Y160.252 E2.68896
G1 E2.18896 F240
G92 E0
G1 X59.291 Y160.252 F9000
G1 X55.908 Y185.922
G1 E.5 F240
;TYPE:External perimeter
G1 F1800
G1 X55.906 Y185.913 E.50071
G1 X55.906 Y133.153 E4.55356
G1 X55.981 Y132.648 E4.59278
G1 X56.189 Y132.208 E4.63017
G1 X56.516 Y131.847 E4.66759
G1 X56.741 Y131.713 E4.68771
G1 X57.11 Y131.542 E4.71895
G1 X57.586 Y131.467 E4.75597
G1 X186.58 Y131.47 E14.66486
G1 X187.001 Y131.5 E14.69728
G1 X187.46 Y131.672 E14.73493
G1 X187.855 Y131.956 E14.7723
G1 X188.139 Y132.351 E14.80967
G1 X188.31 Y132.806 E14.84701
G1 X188.343 Y133.233 E14.87991
G1 X188.343 Y185.906 E18.92608
G1 X188.269 Y186.412 E18.96536
G1 X188.06 Y186.852 E19.00278
G1 X187.734 Y187.212 E19.04009
G1 X187.509 Y187.347 E19.06025
G1 X187.14 Y187.518 E19.09149
G1 X186.664 Y187.592 E19.12849
G1 X57.592 Y187.592 E29.04337
G1 X57.087 Y187.518 E29.08258
G1 X56.647 Y187.309 E29.12
G1 X56.286 Y186.982 E29.15742
G1 X56.152 Y186.758 E29.17747
G1 X55.981 Y186.389 E29.20871
G1 X55.922 Y186.01 E29.23817
G1 X55.908 Y185.411 F9000
G1 X56.51 Y185.906
;TYPE:Perimeter
G1 F1800
G1 X56.506 Y185.884 E29.23989
G1 X56.506 Y133.288 E33.28014
G1 X56.562 Y132.824 E33.31604
G1 X56.694 Y132.545 E33.33975
G1 X56.901 Y132.316 E33.36346
G1 X57.185 Y132.146 E33.38889
G1 X57.615 Y132.067 E33.42247
G1 X186.58 Y132.07 E43.32913
G1 X186.877 Y132.089 E43.35199
G1 X187.269 Y132.25 E43.38454
G1 X187.561 Y132.542 E43.41626
G1 X187.689 Y132.824 E43.44005
G1 X187.744 Y133.233 E43.47175
G1 X187.744 Y185.772 E47.50762
G1 X187.688 Y186.236 E47.54352
G1 X187.556 Y186.515 E47.56723
G1 X187.349 Y186.744 E47.59094
G1 X187.065 Y186.914 E47.61637
G1 X186.635 Y186.993 E47.64995
G1 X57.727 Y186.993 E57.55224
G1 X57.263 Y186.937 E57.58814
G1 X56.984 Y186.805 E57.61185
G1 X56.755 Y186.598 E57.63556
G1 X56.585 Y186.314 E57.66099
G1 X56.527 Y185.995 E57.6859
G1 X56.527 Y185.995 F9000
G1 X56.986 Y185.644
;TYPE:Solid infill
;WIDTH:0.675
G1 F1800
G1 X83.104 Y159.526 E60.52324
G1 X56.986 Y133.408 E63.36058
G1 X56.986 Y133.408 F9000
G1 X57.165 Y132.739
G1 F1800
G1 X83.952 Y159.526 E66.27059
G1 X57.161 Y186.318 E69.18109
G1 X57.161 Y186.318 F9000
G1 X56.986 Y184.795
G1 F1800
G1 X82.255 Y159.526 E71.92619
G1 X56.986 Y134.257 E74.67129
G1 X56.986 Y134.257 F9000
G1 X56.986 Y135.105
G1 F1800
G1 X81.407 Y159.526 E77.32427
G1 X56.986 Y183.947 E79.97725
G1 X56.986 Y183.947 F9000
G1 X56.986 Y183.098
G1 F1800
G1 X80.559 Y159.526 E82.53806
G1 X56.986 Y135.954 E85.09887
G1 E84.59887 F240
G92 E0
G1 X56.986 Y135.954 F9000
G1 X56.986 Y138.499
G1 E.5 F240
G1 F1800
G1 X78.014 Y159.526 E2.78433
G1 X56.986 Y180.553 E5.06866
G1 X56.986 Y180.553 F9000
G1 X56.986 Y179.705
G1 F1800
G1 X77.165 Y159.526 E7.26081
G1 X56.986 Y139.347 E9.45296
G1 X56.986 Y139.347 F9000
G1 X56.986 Y140.195
G1 F1800
G1 X76.317 Y159.526 E11.55299
G1 X56.986 Y178.857 E13.65302
G1 X56.986 Y178.857 F9000
G1 X56.986 Y178.008
G1 F1800
G1 X75.468 Y159.526 E15.66082
G1 X56.986 Y141.044 E17.66862
G1 X56.986 Y141.044 F9000
G1 X56.986 Y141.892
G1 F1800
G1 X74.62 Y159.526 E19.58429
G1 X56.986 Y177.16 E21.49996
G1 E20.99996 F240
G92 E0
G1 X56.986 Y177.16 F9000
G1 X56.986 Y181.402
G1 E.5 F240
G1 F1800
G1 X78.862 Y159.526 E2.87651
G1 X56.986 Y137.65 E5.25302
G1 X56.986 Y137.65 F9000
G1 X56.986 Y136.802
G1 F1800
G1 X79.71 Y159.526 E7.72165
G1 X56.986 Y182.25 E10.19028
G1 E9.69028 F240
G92 E0
G1 X56.986 Y182.25 F9000
G1 X61.313 Y156.399
G1 E.5 F240
G1 F1800
G1 X56.986 Y152.073 E.97001
G1 X56.986 Y152.073 F9000
G1 X56.986 Y151.224
G1 F1800
G1 X62.163 Y156.401 E1.53241
G1 E1.03241 F240
G92 E0
G1 X62.163 Y156.401 F9000
G1 X64.749 Y158.987
G1 E.5 F240
G1 F1800
G1 X65.288 Y159.526 E.55855
G1 X64.705 Y160.109 E.62188
G1 E.12188 F240
G92 E0
G1 X62.39 Y162.424 F9000
G1 E.5 F240
G1 F1800
G1 X56.986 Y167.828 E1.08707
G1 X56.986 Y167.828 F9000
G1 X56.986 Y166.979
G1 F1800
G1 X61.487 Y162.478 E1.57604
G1 E1.07604 F240
G92 E0
G1 X61.487 Y162.478 F9000
G1 X56.986 Y166.131
G1 E.5 F240
G1 F1800
G1 X60.781 Y162.336 E.91227
G1 X60.781 Y162.336 F9000
G1 X60.191 Y162.078
G1 F1800
G1 X56.986 Y165.283 E1.26045
G1 X56.986 Y165.283 F9000
G1 X56.986 Y164.434
G1 F1800
G1 X59.698 Y161.722 E1.55507
G1 X59.698 Y161.722 F9000
G1 X59.29 Y161.282
G1 F1800
G1 X56.986 Y163.586 E1.80537
G1 X56.986 Y163.586 F9000
G1 X56.986 Y162.738
G1 F1800
G1 X58.968 Y160.755 E2.02074
G1 X58.968 Y160.755 F9000
G1 X58.746 Y160.129
G1 F1800
G1 X56.986 Y161.889 E2.21194
G1 X56.986 Y161.889 F9000
G1 X56.986 Y161.041
G1 F1800
G1 X58.501 Y159.526 E2.37652
G1 X56.986 Y158.011 E2.5411
