; generated by PrusaSlicer 2.8.1+MacOS-arm64 on 2024-10-11 at 05:19:17 UTC


;
;

;
;
; 

; external perimeters extrusion width = 0.68mm
; perimeters extrusion width = 0.68mm
; infill extrusion width = 0.68mm
; solid infill extrusion width = 0.68mm
; top infill extrusion width = 0.60mm

; external perimeters extrusion width = 0.68mm
; perimeters extrusion width = 0.68mm
; infill extrusion width = 0.68mm
; solid infill extrusion width = 0.68mm
; top infill extrusion width = 0.60mm


EXCLUDE_OBJECT_DEFINE NAME='d_lid' CENTER=128.044,91.029 POLYGON=[[188.315,53.499],[188.983,53.649],[189.560,54.014],[189.981,54.554],[190.196,55.203],[190.217,68.902],[216.217,94.902],[216.215,122.394],[216.131,122.877],[215.880,123.407],[215.560,123.778],[215.072,124.104],[214.217,124.296],[47.729,124.296],[47.149,124.210],[46.701,124.012],[46.247,123.639],[45.921,123.151],[45.729,122.296],[45.729,69.496],[45.815,68.916],[46.066,68.385],[46.461,67.950],[47.056,67.613],[47.631,67.499],[67.258,67.496],[67.268,55.300],[67.375,54.823],[67.595,54.385],[67.915,54.014],[68.403,53.688],[69.258,53.496]]
EXCLUDE_OBJECT_DEFINE NAME='c_lid' CENTER=128.580,159.367 POLYGON=[[193.235,130.968],[193.902,131.118],[194.551,131.552],[194.985,132.201],[195.137,132.966],[195.137,185.766],[195.051,186.346],[194.800,186.877],[194.406,187.312],[193.902,187.614],[193.137,187.766],[64.025,187.766],[63.444,187.680],[62.914,187.429],[62.479,187.035],[62.177,186.531],[62.025,185.766],[62.025,132.966],[62.111,132.385],[62.362,131.855],[62.756,131.420],[63.260,131.118],[64.025,130.966]]

;TYPE:Custom
START_PRINT BED_TEMP=70 HOTEND_TEMP=230 FILAMENT_TYPE=PET EXTRUSION_MULTIPLIER=0.95 PERIMETER_SPEED=70
G21 ; set units to millimeters
G90 ; use absolute coordinates
M82 ; use absolute distances for extrusion
G92 E0
; Filament gcode
; ########################### NOTE OFFSET CHANGES ####################################
; Prevents PETG buildup on nozzle.
; SET_GCODE_OFFSET Z=0.06
; ####################################################################################
M107
;LAYER_CHANGE
;Z:0.35
;HEIGHT:0.35
G1 E-.5 F240
G1 Z.35 F9000
EXCLUDE_OBJECT_START NAME='d_lid'
G92 E0
G1 X129.912 Y119.748
G1 E.5 F240
;TYPE:External perimeter
;WIDTH:0.675
G1 F1800
G1 X129.596 Y119.783 E.52637
G1 X129.202 Y119.748 E.55917
G1 X128.823 Y119.635 E.59197
G1 X128.474 Y119.449 E.62477
G1 X128.168 Y119.198 E.65759
G1 X127.919 Y118.891 E.69037
G1 X127.735 Y118.541 E.72316
G1 X127.624 Y118.162 E.75591
G1 X127.59 Y117.783 E.78747
G1 X127.617 Y117.471 E.81344
G1 X127.72 Y117.089 E.84625
G1 X127.897 Y116.736 E.879
G1 X128.141 Y116.424 E.91185
G1 X128.441 Y116.167 E.94461
G1 X128.787 Y115.974 E.97746
G1 X129.12 Y115.863 E1.00657
G1 X129.557 Y115.811 E1.04306
G1 X129.951 Y115.846 E1.07586
G1 X130.33 Y115.959 E1.10866
G1 X130.679 Y116.144 E1.14142
G1 X130.974 Y116.384 E1.17296
G1 X131.178 Y116.622 E1.19895
G1 X131.379 Y116.962 E1.2317
G1 X131.509 Y117.336 E1.26453
G1 X131.562 Y117.728 E1.29733
G1 X131.536 Y118.122 E1.33007
G1 X131.433 Y118.504 E1.36288
G1 X131.256 Y118.858 E1.3957
G1 X131.012 Y119.17 E1.42855
G1 X130.712 Y119.427 E1.46131
G1 X130.366 Y119.62 E1.49416
G1 X130.001 Y119.736 E1.52592
G1 X129.402 Y119.755 F9000
G1 X130.002 Y120.341
;TYPE:Perimeter
G1 F1800
G1 X129.551 Y120.381 E1.56347
G1 X129.04 Y120.325 E1.6061
G1 X128.55 Y120.169 E1.64874
G1 X128.1 Y119.918 E1.69147
G1 X127.709 Y119.583 E1.73417
G1 X127.392 Y119.178 E1.77682
G1 X127.162 Y118.718 E1.81947
G1 X127.027 Y118.222 E1.8621
G1 X126.992 Y117.74 E1.90218
G1 X127.036 Y117.323 E1.93695
G1 X127.18 Y116.829 E1.97962
G1 X127.419 Y116.373 E2.02231
G1 X127.744 Y115.974 E2.06499
G1 X128.142 Y115.647 E2.10771
G1 X128.596 Y115.405 E2.15037
G1 X128.957 Y115.285 E2.18192
G1 X129.467 Y115.212 E2.22464
G1 X129.982 Y115.242 E2.26742
G1 X130.48 Y115.373 E2.31012
G1 X130.943 Y115.6 E2.35288
G1 X131.344 Y115.908 E2.39481
G1 X131.69 Y116.309 E2.43873
G1 X131.943 Y116.757 E2.4814
G1 X132.102 Y117.246 E2.52404
G1 X132.161 Y117.758 E2.56678
G1 X132.118 Y118.27 E2.60939
G1 X131.973 Y118.765 E2.65216
G1 X131.734 Y119.22 E2.69478
G1 X131.409 Y119.619 E2.73746
G1 X131.012 Y119.946 E2.78011
G1 X130.557 Y120.188 E2.82285
G1 X130.09 Y120.327 E2.86326
G1 X130.09 Y120.327 F9000
G1 X130.09 Y120.923
G1 F1800
G1 X129.805 Y120.972 E2.88724
G1 X129.171 Y120.954 E2.93984
G1 X128.554 Y120.812 E2.99234
G1 X127.977 Y120.549 E3.04493
G1 X127.463 Y120.178 E3.0975
G1 X127.033 Y119.712 E3.15008
G1 X126.704 Y119.17 E3.20266
G1 X126.489 Y118.573 E3.25528
G1 X126.397 Y117.956 E3.30701
G1 X126.412 Y117.437 E3.35007
G1 X126.537 Y116.849 E3.39992
G1 X126.785 Y116.266 E3.45246
G1 X127.144 Y115.743 E3.50507
G1 X127.599 Y115.302 E3.55762
G1 X128.133 Y114.96 E3.61021
G1 X128.794 Y114.708 E3.66887
G1 X129.348 Y114.622 E3.71536
G1 X129.982 Y114.639 E3.76795
G1 X130.599 Y114.782 E3.82047
G1 X131.177 Y115.045 E3.87313
G1 X131.68 Y115.407 E3.92452
G1 X132.044 Y115.783 E3.96792
G1 X132.377 Y116.283 E4.01774
G1 X132.621 Y116.867 E4.07023
G1 X132.745 Y117.489 E4.12283
G1 X132.743 Y118.123 E4.17541
G1 X132.616 Y118.744 E4.22797
G1 X132.368 Y119.328 E4.28059
G1 X132.009 Y119.85 E4.33313
G1 X131.554 Y120.292 E4.38573
G1 X131.021 Y120.634 E4.43825
G1 X130.43 Y120.864 E4.49084
G1 X130.178 Y120.908 E4.51205
G1 E4.01205 F240
G92 E0
G1 X130.178 Y120.908 F9000
G1 X199.097 Y84.532
G1 E.5 F240
;TYPE:External perimeter
G1 F1800
G1 X199.178 Y84.621 E.50998
G1 X199.379 Y84.962 E.54281
G1 X199.509 Y85.336 E.57564
G1 X199.562 Y85.728 E.60844
G1 X199.536 Y86.122 E.64118
G1 X199.433 Y86.504 E.67399
G1 X199.256 Y86.858 E.70681
G1 X199.012 Y87.17 E.73966
G1 X198.712 Y87.427 E.77242
G1 X198.366 Y87.62 E.80527
G1 X197.99 Y87.74 E.838
G1 X197.596 Y87.783 E.87087
G1 X197.202 Y87.748 E.90367
G1 X196.823 Y87.635 E.93647
G1 X196.474 Y87.449 E.96927
G1 X196.168 Y87.198 E1.00209
G1 X195.919 Y86.891 E1.03487
G1 X195.735 Y86.541 E1.06766
G1 X195.624 Y86.162 E1.10041
G1 X195.59 Y85.822 E1.12875
G1 X195.617 Y85.471 E1.15794
G1 X195.72 Y85.089 E1.19075
G1 X195.897 Y84.736 E1.2235
G1 X196.141 Y84.424 E1.25635
G1 X196.441 Y84.167 E1.28911
G1 X196.787 Y83.974 E1.32196
G1 X197.164 Y83.854 E1.35477
G1 X197.557 Y83.811 E1.38755
G1 X197.95 Y83.846 E1.42027
G1 X198.315 Y83.953 E1.45181
G1 X198.596 Y84.092 E1.47781
G1 X198.913 Y84.327 E1.51053
G1 X199.037 Y84.465 E1.52592
G1 X199.361 Y84.97 F9000
G1 X199.562 Y84.161
;TYPE:Perimeter
G1 F1800
G1 X199.69 Y84.309 E1.54215
G1 X199.943 Y84.757 E1.58482
G1 X200.102 Y85.246 E1.62746
G1 X200.161 Y85.758 E1.6702
G1 X200.118 Y86.27 E1.71281
G1 X199.973 Y86.765 E1.75558
G1 X199.734 Y87.22 E1.7982
G1 X199.409 Y87.619 E1.84088
G1 X199.012 Y87.946 E1.88353
G1 X198.557 Y88.188 E1.92627
G1 X198.064 Y88.335 E1.96893
G1 X197.551 Y88.381 E2.01164
G1 X197.04 Y88.325 E2.05427
G1 X196.55 Y88.169 E2.09691
G1 X196.1 Y87.918 E2.13964
G1 X195.709 Y87.583 E2.18234
G1 X195.392 Y87.178 E2.22499
G1 X195.162 Y86.718 E2.26764
G1 X195.027 Y86.222 E2.31027
G1 X194.991 Y85.858 E2.3406
G1 X195.036 Y85.323 E2.38512
G1 X195.18 Y84.829 E2.42779
G1 X195.419 Y84.373 E2.47048
G1 X195.744 Y83.974 E2.51316
G1 X196.142 Y83.647 E2.55588
G1 X196.596 Y83.405 E2.59854
G1 X197.089 Y83.259 E2.64118
G1 X197.602 Y83.212 E2.6839
G1 X198.112 Y83.268 E2.72645
G1 X198.574 Y83.411 E2.76656
G1 X198.946 Y83.605 E2.80135
G1 X199.353 Y83.919 E2.84398
G1 X199.503 Y84.093 E2.86303
G1 X199.503 Y84.093 F9000
G1 X200.038 Y83.782
G1 F1800
G1 X200.377 Y84.283 E2.91319
G1 X200.621 Y84.867 E2.96568
G1 X200.745 Y85.489 E3.01828
G1 X200.743 Y86.123 E3.07086
G1 X200.616 Y86.744 E3.12342
G1 X200.368 Y87.328 E3.17604
G1 X200.009 Y87.85 E3.22858
G1 X199.554 Y88.292 E3.28118
G1 X199.021 Y88.634 E3.3337
G1 X198.43 Y88.864 E3.38629
G1 X197.805 Y88.972 E3.43889
G1 X197.172 Y88.954 E3.4914
G1 X196.554 Y88.812 E3.54398
G1 X195.977 Y88.549 E3.59657
G1 X195.463 Y88.178 E3.64914
G1 X195.033 Y87.712 E3.70172
G1 X194.704 Y87.17 E3.7543
G1 X194.489 Y86.573 E3.80692
G1 X194.392 Y85.893 E3.86388
G1 X194.417 Y85.383 E3.90622
G1 X194.537 Y84.849 E3.95161
G1 X194.785 Y84.266 E4.00415
G1 X195.144 Y83.743 E4.05676
G1 X195.599 Y83.302 E4.10931
G1 X196.133 Y82.96 E4.1619
G1 X196.724 Y82.73 E4.21449
G1 X197.348 Y82.622 E4.26701
G1 X197.982 Y82.639 E4.3196
G1 X198.59 Y82.779 E4.37134
G1 X199.068 Y82.982 E4.41441
G1 X199.569 Y83.314 E4.46425
G1 X199.978 Y83.715 E4.51175
G1 E4.01175 F240
G92 E0
G1 X199.978 Y83.715 F9000
G1 X50.616 Y73.493
G1 E.5 F240
;TYPE:External perimeter
G1 F1800
G1 X50.617 Y73.471 E.50183
G1 X50.72 Y73.089 E.53464
G1 X50.897 Y72.736 E.56739
G1 X51.141 Y72.424 E.60024
G1 X51.441 Y72.167 E.633
G1 X51.787 Y71.974 E.66585
G1 X52.164 Y71.854 E.69866
G1 X52.557 Y71.811 E.73144
G1 X52.951 Y71.846 E.76424
G1 X53.33 Y71.959 E.79704
G1 X53.679 Y72.145 E.82984
G1 X53.98 Y72.39 E.86202
G1 X54.178 Y72.622 E.88731
G1 X54.379 Y72.962 E.92006
G1 X54.509 Y73.336 E.95289
G1 X54.562 Y73.728 E.98569
G1 X54.536 Y74.122 E1.01843
G1 X54.433 Y74.504 E1.05124
G1 X54.267 Y74.842 E1.08247
G1 X54.012 Y75.17 E1.11692
G1 X53.712 Y75.427 E1.14968
G1 X53.366 Y75.62 E1.18253
G1 X52.99 Y75.74 E1.21526
G1 X52.596 Y75.783 E1.24813
G1 X52.21 Y75.75 E1.28026
G1 X51.915 Y75.67 E1.30561
G1 X51.558 Y75.502 E1.33833
G1 X51.24 Y75.266 E1.37117
G1 X50.975 Y74.972 E1.40399
G1 X50.774 Y74.632 E1.43674
G1 X50.645 Y74.258 E1.46955
G1 X50.591 Y73.866 E1.50236
G1 X50.61 Y73.583 E1.52588
G1 X50.778 Y73.007 F9000
G1 X50.03 Y73.39
;TYPE:Perimeter
G1 F1800
G1 X50.036 Y73.323 E1.53146
G1 X50.18 Y72.829 E1.57413
G1 X50.419 Y72.373 E1.61682
G1 X50.744 Y71.974 E1.6595
G1 X51.142 Y71.647 E1.70222
G1 X51.596 Y71.405 E1.74488
G1 X52.089 Y71.259 E1.78752
G1 X52.602 Y71.212 E1.83024
G1 X53.113 Y71.269 E1.87288
G1 X53.604 Y71.425 E1.9156
G1 X54.053 Y71.676 E1.95826
G1 X54.429 Y71.993 E1.99904
G1 X54.69 Y72.309 E2.03303
G1 X54.943 Y72.757 E2.0757
G1 X55.102 Y73.246 E2.11834
G1 X55.161 Y73.758 E2.16108
G1 X55.118 Y74.271 E2.20377
G1 X54.973 Y74.764 E2.24638
G1 X54.768 Y75.173 E2.28432
G1 X54.461 Y75.57 E2.32594
G1 X54.079 Y75.903 E2.36796
G1 X53.619 Y76.165 E2.41186
G1 X53.064 Y76.335 E2.46
G1 X52.552 Y76.381 E2.50263
G1 X52.062 Y76.331 E2.54348
G1 X51.669 Y76.217 E2.57741
G1 X51.207 Y75.989 E2.62013
G1 X50.8 Y75.674 E2.66281
G1 X50.463 Y75.285 E2.70549
G1 X50.21 Y74.837 E2.74816
G1 X50.051 Y74.347 E2.79088
G1 X49.992 Y73.836 E2.83354
G1 X50.023 Y73.48 E2.86317
G1 X50.023 Y73.48 F9000
G1 X49.448 Y73.287
G1 F1800
G1 X49.537 Y72.85 E2.90015
G1 X49.785 Y72.266 E2.95277
G1 X50.144 Y71.743 E3.00538
G1 X50.599 Y71.302 E3.05793
G1 X51.133 Y70.96 E3.11052
G1 X51.723 Y70.73 E3.16303
G1 X52.348 Y70.622 E3.21563
G1 X52.982 Y70.639 E3.26822
G1 X53.599 Y70.782 E3.32074
G1 X54.177 Y71.045 E3.3734
G1 X54.69 Y71.416 E3.4259
G1 X55.047 Y71.786 E3.46854
G1 X55.377 Y72.283 E3.51801
G1 X55.622 Y72.868 E3.57061
G1 X55.745 Y73.489 E3.62311
G1 X55.743 Y74.123 E3.67569
G1 X55.616 Y74.744 E3.72825
G1 X55.368 Y75.327 E3.78079
G1 X55.268 Y75.504 E3.79765
G1 X54.955 Y75.918 E3.84069
G1 X54.554 Y76.292 E3.88616
G1 X54.021 Y76.634 E3.93868
G1 X53.43 Y76.864 E3.99127
G1 X52.805 Y76.972 E4.04387
G1 X52.172 Y76.955 E4.09638
G1 X51.669 Y76.85 E4.13899
G1 X51.116 Y76.626 E4.18847
G1 X50.584 Y76.28 E4.2411
G1 X50.132 Y75.836 E4.29364
G1 X49.776 Y75.311 E4.34624
G1 X49.532 Y74.726 E4.3988
G1 X49.408 Y74.105 E4.45131
G1 X49.41 Y73.471 E4.50389
G1 X49.43 Y73.375 E4.51202
G1 E4.01202 F240
G92 E0
G1 X49.43 Y73.375 F9000
G1 X67.498 Y67.742
G1 E.5 F240
;TYPE:External perimeter
G1 F1800
G1 X67.526 Y67.726 E.50267
G1 X67.596 Y67.534 E.51962
G1 X67.605 Y55.337 E1.53108
G1 X67.695 Y54.937 E1.56508
G1 X67.878 Y54.574 E1.59879
G1 X68.14 Y54.269 E1.63213
G1 X68.552 Y53.994 E1.67321
G1 X68.933 Y53.868 E1.70649
G1 X69.275 Y53.834 E1.73499
G1 X188.291 Y53.836 E11.60464
G1 X188.674 Y53.908 E11.63696
G1 X189.134 Y54.112 E11.67869
G1 X189.374 Y54.33 E11.70558
G1 X189.603 Y54.596 E11.73469
G1 X189.804 Y55.008 E11.77271
G1 X189.88 Y55.52 E11.81563
G1 X189.88 Y68.918 E12.92669
G1 X189.965 Y69.127 E12.9454
G1 X215.88 Y95.042 E15.98462
G1 X215.879 Y100.686 E16.45266
G1 X215.877 Y122.363 E18.25027
G1 X215.779 Y122.859 E18.2922
G1 X215.6 Y123.215 E18.32524
G1 X215.267 Y123.582 E18.36634
G1 X214.931 Y123.795 E18.39933
G1 X214.638 Y123.884 E18.42472
G1 X214.205 Y123.959 E18.46116
G1 X47.753 Y123.959 E32.26454
G1 X47.244 Y123.883 E32.30722
G1 X46.88 Y123.722 E32.34023
G1 X46.5 Y123.411 E32.38095
G1 X46.227 Y123.002 E32.42173
G1 X46.101 Y122.621 E32.45501
G1 X46.067 Y122.28 E32.48343
G1 X46.067 Y69.52 E36.85866
G1 X46.142 Y69.015 E36.901
G1 X46.35 Y68.575 E36.94136
G1 X46.684 Y68.206 E36.98263
G1 X47.16 Y67.937 E37.02797
G1 X47.663 Y67.836 E37.07051
G1 X67.348 Y67.829 E38.70293
G1 X67.421 Y67.787 E38.70991
G1 X67.584 Y67.21 F9000
G1 X67.934 Y68.166
;TYPE:Perimeter
G1 F1800
G1 X68.125 Y67.883 E38.73822
G1 X68.195 Y67.535 E38.76766
G1 X68.205 Y55.59 E39.75822
G1 X68.231 Y55.288 E39.78336
G1 X68.38 Y54.91 E39.81705
G1 X68.649 Y54.651 E39.84802
G1 X68.951 Y54.494 E39.87625
G1 X69.305 Y54.434 E39.90602
G1 X188.324 Y54.445 E49.77592
G1 X188.695 Y54.558 E49.80808
G1 X189.047 Y54.843 E49.84564
G1 X189.182 Y55.074 E49.86783
G1 X189.28 Y55.564 E49.90927
G1 X189.28 Y68.918 E51.01668
G1 X189.351 Y69.269 E51.04638
G1 X189.543 Y69.554 E51.07488
G1 X215.28 Y95.29 E54.09317
G1 X215.279 Y100.686 E54.54064
G1 X215.277 Y122.304 E56.33336
G1 X215.153 Y122.767 E56.37311
G1 X214.956 Y123.031 E56.40043
G1 X214.678 Y123.245 E56.42952
G1 X214.183 Y123.359 E56.47164
G1 X47.797 Y123.359 E70.26955
G1 X47.305 Y123.254 E70.31127
G1 X47.069 Y123.101 E70.33459
G1 X46.864 Y122.875 E70.35989
G1 X46.727 Y122.604 E70.38507
G1 X46.667 Y122.25 E70.41484
G1 X46.667 Y69.654 E74.77647
G1 X46.722 Y69.191 E74.81514
G1 X46.854 Y68.912 E74.84074
G1 X47.042 Y68.704 E74.86399
G1 X47.261 Y68.553 E74.88605
G1 X47.723 Y68.436 E74.92557
G1 X67.296 Y68.434 E76.5487
G1 X67.641 Y68.365 E76.57788
G1 X67.862 Y68.218 E76.59989
G1 X67.862 Y68.218 F9000
G1 X68.344 Y68.582
G1 F1800
G1 X68.532 Y68.383 E76.62259
G1 X68.734 Y67.959 E76.66154
G1 X68.795 Y67.535 E76.69706
G1 X68.805 Y55.47 E77.69758
G1 X68.883 Y55.246 E77.71725
G1 X69.084 Y55.082 E77.73876
G1 X69.335 Y55.034 E77.75995
G1 X188.062 Y55.036 E87.60564
G1 X188.369 Y55.069 E87.63125
G1 X188.606 Y55.262 E87.6566
G1 X188.68 Y55.608 E87.68594
G1 X188.68 Y68.918 E88.7897
G1 X188.705 Y69.193 E88.8126
G1 X188.855 Y69.621 E88.85021
G1 X189.119 Y69.978 E88.88703
G1 X214.68 Y95.539 E91.88474
G1 X214.679 Y100.686 E92.31157
G1 X214.678 Y122.188 E94.09467
G1 X214.634 Y122.465 E94.11793
G1 X214.457 Y122.675 E94.14071
G1 X214.161 Y122.759 E94.16623
G1 X47.887 Y122.759 E107.95485
G1 X47.515 Y122.691 E107.98621
G1 X47.315 Y122.471 E108.01087
G1 X47.267 Y122.22 E108.03206
G1 X47.267 Y69.654 E112.39121
G1 X47.302 Y69.367 E112.41519
G1 X47.482 Y69.112 E112.44107
G1 X47.782 Y69.036 E112.46673
G1 X67.37 Y69.032 E114.09111
G1 X67.833 Y68.934 E114.13036
G1 X68.212 Y68.721 E114.16641
G1 X68.282 Y68.647 E114.17486
G1 E113.67486 F240
G92 E0
G1 X68.282 Y68.647 F9000
G1 X187.149 Y55.246
G1 E.5 F240
;TYPE:Solid infill
;WIDTH:0.675751
G1 F1800
G1 X188.2 Y56.297 E.62341
G1 X188.2 Y57.146 E.6939
G1 X186.57 Y55.516 E.8853
G1 X185.72 Y55.516 E.95588
G1 X188.2 Y57.996 E1.24709
G1 X188.201 Y58.845 E1.31758
G1 X184.871 Y55.516 E1.70854
G1 X184.022 Y55.516 E1.77903
G1 X188.201 Y59.695 E2.26974
G1 X188.201 Y60.544 E2.34023
G1 X183.172 Y55.516 E2.93069
G1 X182.323 Y55.516 E3.00118
G1 X188.201 Y61.394 E3.6914
G1 X188.201 Y62.244 E3.76198
G1 X181.473 Y55.516 E4.55201
G1 X180.624 Y55.516 E4.6225
G1 X188.201 Y63.093 E5.51222
G1 X188.201 Y63.943 E5.5828
G1 X179.774 Y55.516 E6.57233
G1 X178.925 Y55.516 E6.64282
G1 X188.202 Y64.792 E7.7321
G1 X188.202 Y65.642 E7.80268
G1 X178.075 Y55.516 E8.99177
G1 X177.226 Y55.516 E9.06226
G1 X188.202 Y66.492 E10.3511
G1 X188.202 Y67.341 E10.42159
G1 X176.377 Y55.516 E11.81012
G1 X175.527 Y55.516 E11.8807
G1 X188.202 Y68.191 E13.36904
G1 X188.205 Y69.043 E13.43978
G1 X174.678 Y55.516 E15.02817
G1 X173.828 Y55.516 E15.09875
G1 X214.2 Y95.887 E19.83931
G1 X214.2 Y96.737 E19.90989
G1 X172.979 Y55.516 E24.7502
G1 X172.129 Y55.516 E24.82078
G1 X214.2 Y97.586 E29.76084
