; generated by PrusaSlicer 2.8.0+MacOS-arm64 on 2024-09-28 at 04:36:27 UTC


;
;

;
;
; 

; external perimeters extrusion width = 0.68mm
; perimeters extrusion width = 0.68mm
; infill extrusion width = 0.68mm
; solid infill extrusion width = 0.68mm
; top infill extrusion width = 0.60mm
; support material extrusion width = 0.60mm


EXCLUDE_OBJECT_DEFINE NAME='e_lid' CENTER=127.498,123.179 POLYGON=[[179.655,34.149],[180.412,34.338],[180.971,34.732],[181.405,35.381],[181.557,36.146],[181.557,210.490],[181.497,210.976],[181.272,211.518],[180.971,211.904],[180.585,212.205],[180.138,212.404],[179.557,212.490],[75.757,212.490],[75.176,212.404],[74.729,212.205],[74.343,211.904],[73.993,211.432],[73.817,210.976],[73.757,210.490],[73.795,156.756],[73.993,156.203],[74.414,155.664],[74.902,155.338],[75.464,155.168],[85.957,155.146],[85.957,147.846],[73.761,147.836],[73.192,147.694],[72.614,147.328],[72.193,146.789],[71.979,146.140],[71.957,41.475],[72.043,40.894],[72.242,40.446],[72.543,40.060],[72.929,39.759],[73.376,39.561],[73.859,39.477],[85.957,39.475],[85.959,36.048],[86.074,35.472],[86.351,34.955],[86.766,34.540],[87.283,34.263],[87.859,34.149]]

;TYPE:Custom
START_PRINT BED_TEMP=75 HOTEND_TEMP=240 FILAMENT_TYPE=PET EXTRUSION_MULTIPLIER=0.88 PERIMETER_SPEED=70
G21 ; set units to millimeters
G90 ; use absolute coordinates
M82 ; use absolute distances for extrusion
G92 E0
; Filament gcode
; ########################### NOTE OFFSET CHANGES ####################################
; Prevents PETG buildup on nozzle.
; SET_GCODE_OFFSET Z=0.06
; ####################################################################################
M107
;LAYER_CHANGE
;Z:0.35
;HEIGHT:0.35
G1 E-.5 F240
G1 Z.35 F9000
EXCLUDE_OBJECT_START NAME='e_lid'
G92 E0
G1 X127.87 Y124.761
G1 E.5 F240
G92 E0
;TYPE:External perimeter
;WIDTH:0.675
G1 F1800
G1 X128.457 Y124.746 E.04511
G1 X128.701 Y124.669 E.06476
G1 X128.874 Y124.47 E.08502
G1 X128.937 Y123.969 E.12381
G1 X128.937 Y120.223 E.41157
G1 X129.078 Y119.849 E.44227
G1 X129.218 Y119.703 E.45781
G1 X129.64 Y119.599 E.4912
G1 X130.956 Y119.609 E.59229
G1 X131.299 Y119.746 E.62066
G1 X131.405 Y119.872 E.63331
G1 X131.514 Y120.18 E.65841
G1 X131.517 Y124.3 E.97489
G1 X131.432 Y124.987 E1.02807
G1 X131.249 Y125.552 E1.07369
G1 X130.991 Y125.989 E1.11267
G1 X130.639 Y126.347 E1.15124
G1 X130.127 Y126.658 E1.19726
G1 X129.554 Y126.859 E1.24391
G1 X128.772 Y126.99 E1.30482
G1 X128.093 Y127.036 E1.3571
G1 X126.651 Y127.015 E1.46788
G1 X126.117 Y126.776 E1.51282
G1 X125.809 Y126.465 E1.54644
G1 X125.67 Y126.172 E1.57135
G1 X125.609 Y125.834 E1.59773
G1 X125.598 Y120.285 E2.02399
G1 X125.691 Y119.96 E2.04996
G1 X125.897 Y119.743 E2.07294
G1 X126.164 Y119.661 E2.0944
G1 X127.15 Y119.653 E2.17014
G1 X127.51 Y119.72 E2.19827
G1 X127.725 Y119.903 E2.21996
G1 X127.862 Y120.285 E2.25113
G1 X127.862 Y124.679 E2.58866
G1 X128.459 Y124.741 F9000
G1 E2.08866 F240
G92 E0
G1 X132.116 Y123.313 F9000
G1 E.5 F240
;TYPE:Perimeter
G1 F1800
G1 X132.117 Y124.3 E.57582
G1 X132.028 Y125.062 E.63475
G1 X131.817 Y125.743 E.68952
G1 X131.504 Y126.301 E.73867
G1 X131.064 Y126.771 E.78813
G1 X130.433 Y127.174 E.84564
G1 X129.746 Y127.428 E.9019
G1 X128.868 Y127.582 E.97037
G1 X128.132 Y127.634 E1.02705
G1 X126.645 Y127.615 E1.14129
G1 X126.293 Y127.537 E1.16899
G1 X125.845 Y127.311 E1.20753
G1 X125.608 Y127.136 E1.23016
G1 X125.277 Y126.741 E1.26975
;WIDTH:0.715669
G1 X125.159 Y126.518 E1.29044
;WIDTH:0.756339
G1 X125.042 Y126.296 E1.31233
;WIDTH:0.796518
G1 X124.989 Y126.16 E1.32581
;WIDTH:0.836697
G1 X124.937 Y126.024 E1.34001
G1 X124.913 Y126.162 E1.35367
;WIDTH:0.796272
G1 X124.889 Y126.301 E1.3667
;WIDTH:0.755848
G1 X124.865 Y126.439 E1.37891
;WIDTH:0.715424
G1 X124.841 Y126.578 E1.39048
;WIDTH:0.675
G1 X124.661 Y127.065 E1.43036
G1 X124.454 Y127.324 E1.45583
G1 X124.052 Y127.547 E1.49114
G1 X123.699 Y127.628 E1.51896
G1 X122.566 Y127.625 E1.60599
G1 X122.23 Y127.56 E1.63228
G1 X121.802 Y127.325 E1.66979
G1 X121.58 Y127.043 E1.69736
G1 X121.407 Y126.592 E1.73447
G1 X121.394 Y126.442 E1.74604
G1 X121.392 Y120.225 E2.22361
G1 X121.462 Y119.876 E2.25095
G1 X121.649 Y119.502 E2.28307
G1 X121.881 Y119.247 E2.30955
G1 X122.202 Y119.096 E2.3368
G1 X122.699 Y118.999 E2.3757
G1 X123.73 Y119.014 E2.45491
G1 X124.053 Y119.082 E2.48027
G1 X124.41 Y119.279 E2.51159
G1 X124.615 Y119.491 E2.53424
;WIDTH:0.718726
G1 X124.751 Y119.748 E2.5582
;WIDTH:0.762453
G1 X124.886 Y120.005 E2.58375
;WIDTH:0.811997
G1 X124.933 Y120.209 E2.6035
G1 X125.005 Y120.018 E2.62276
;WIDTH:0.763294
G1 X125.077 Y119.827 E2.64075
;WIDTH:0.714591
G1 X125.352 Y119.425 E2.68063
;WIDTH:0.675
G1 X125.615 Y119.213 E2.70658
G1 X126.084 Y119.066 E2.74434
G1 X127.146 Y119.053 E2.82593
G1 X127.682 Y119.143 E2.86768
G1 X127.977 Y119.309 E2.89368
G1 X128.25 Y119.612 E2.92501
G1 X128.306 Y119.781 E2.93869
;WIDTH:0.642817
G1 X128.362 Y119.95 E2.95163
;WIDTH:0.610635
G1 X128.381 Y120.086 E2.96105
;WIDTH:0.58183
G1 X128.399 Y120.223 E2.97002
;WIDTH:0.592155
G1 X128.418 Y120.042 E2.98207
;WIDTH:0.631285
G1 X128.438 Y119.861 E2.99504
;WIDTH:0.675
G1 X128.531 Y119.601 E3.01625
G1 X128.78 Y119.277 E3.04764
G1 X129.09 Y119.111 E3.07465
G1 X129.578 Y119.001 E3.11308
G1 X130.961 Y119.01 E3.21932
G1 X131.308 Y119.082 E3.24654
G1 X131.725 Y119.319 E3.28338
G1 X131.941 Y119.602 E3.31073
G1 X132.106 Y120.062 E3.34827
G1 X132.114 Y120.179 E3.35728
G1 X132.116 Y123.223 E3.59111
G1 E3.09111 F240
G92 E0
G1 X132.116 Y123.223 F9000
G1 X128.382 Y124.232
G1 E.5 F240
;WIDTH:0.549775
G1 F1800
G1 X128.399 Y123.969 E.51602
;WIDTH:0.550697
G1 X128.4 Y120.285 E.74037
;WIDTH:0.553025
G1 X128.399 Y120.223 E.74416
G1 E.24416 F240
G92 E0
G1 X128.399 Y120.223 F9000
G1 X124.94 Y126.002
G1 E.5 F240
;WIDTH:0.842943
G1 F1800
G1 X124.933 Y125.835 E.51643
;WIDTH:0.828151
G1 X124.931 Y120.284 E1.0517
;WIDTH:0.811997
G1 X124.933 Y120.209 E1.05878
G1 X124.933 Y120.209 F9000
G1 X124.244 Y120.15
;TYPE:External perimeter
;WIDTH:0.675
G1 F1800
G1 X124.265 Y120.208 E1.06352
G1 X124.255 Y126.422 E1.54086
G1 X124.131 Y126.784 E1.57025
G1 X123.99 Y126.916 E1.58509
G1 X123.679 Y127.028 E1.61048
G1 X122.563 Y127.025 E1.69621
G1 X122.213 Y126.885 E1.72517
G1 X122.111 Y126.763 E1.73739
G1 X121.994 Y126.441 E1.76371
G1 X121.992 Y120.225 E2.2412
G1 X122.161 Y119.814 E2.27534
G1 X122.324 Y119.685 E2.29131
G1 X122.708 Y119.599 E2.32154
G1 X123.717 Y119.614 E2.39906
G1 X124.017 Y119.738 E2.424
G1 X124.15 Y119.883 E2.43911
G1 X124.214 Y120.065 E2.45393
G1 X124.258 Y120.664 F9000
G1 E1.95393 F240
G92 E0
G1 X135.723 Y39.053 F9000
G1 E.5 F240
G1 F1800
G1 X135.744 Y39.047 E.50168
G1 X136.137 Y39.003 E.53206
G1 X136.531 Y39.039 E.56245
G1 X136.91 Y39.152 E.59283
G1 X137.26 Y39.337 E.62324
G1 X137.565 Y39.589 E.65363
G1 X137.815 Y39.895 E.68398
G1 X137.999 Y40.246 E.71442
G1 X138.11 Y40.625 E.74476
G1 X138.143 Y41.02 E.77521
G1 X138.098 Y41.413 E.8056
G1 X137.976 Y41.789 E.83597
G1 X137.781 Y42.133 E.86635
G1 X137.522 Y42.432 E.89674
G1 X137.21 Y42.674 E.92707
G1 X136.862 Y42.847 E.95692
G1 X136.569 Y42.933 E.98038
G1 X136.177 Y42.976 E1.01067
G1 X135.783 Y42.941 E1.04105
G1 X135.404 Y42.828 E1.07143
G1 X135.054 Y42.642 E1.10188
G1 X134.754 Y42.397 E1.13163
G1 X134.571 Y42.187 E1.15303
G1 X134.355 Y41.825 E1.18541
G1 X134.225 Y41.451 E1.21583
G1 X134.172 Y41.059 E1.24622
G1 X134.197 Y40.664 E1.27662
G1 X134.301 Y40.282 E1.30703
G1 X134.478 Y39.929 E1.33736
G1 X134.721 Y39.617 E1.36774
G1 X135.022 Y39.36 E1.39814
G1 X135.367 Y39.167 E1.42851
G1 X135.638 Y39.081 E1.45035
G1 X136.235 Y39.027 F9000
G1 X135.605 Y38.471
;TYPE:Perimeter
G1 F1800
G1 X135.67 Y38.451 E1.45557
G1 X136.182 Y38.405 E1.49506
G1 X136.694 Y38.461 E1.53462
G1 X137.184 Y38.618 E1.57415
G1 X137.634 Y38.868 E1.61369
G1 X138.025 Y39.203 E1.65324
G1 X138.342 Y39.609 E1.69281
G1 X138.572 Y40.069 E1.73232
G1 X138.707 Y40.566 E1.77188
G1 X138.74 Y41.079 E1.81137
G1 X138.671 Y41.589 E1.8509
G1 X138.502 Y42.076 E1.8905
G1 X138.241 Y42.519 E1.93
G1 X137.897 Y42.901 E1.96949
G1 X137.483 Y43.208 E2.00908
G1 X137.039 Y43.42 E2.04688
G1 X136.644 Y43.528 E2.07834
G1 X136.132 Y43.574 E2.11783
G1 X135.631 Y43.521 E2.15653
G1 X135.147 Y43.37 E2.19548
G1 X134.694 Y43.122 E2.23515
G1 X134.304 Y42.794 E2.2743
G1 X134.089 Y42.545 E2.29957
G1 X133.816 Y42.091 E2.34026
G1 X133.632 Y41.54 E2.38488
G1 X133.573 Y41.029 E2.42439
G1 X133.616 Y40.516 E2.46394
G1 X133.76 Y40.022 E2.50347
G1 X134 Y39.566 E2.54305
G1 X134.324 Y39.167 E2.58253
G1 X134.722 Y38.84 E2.6221
G1 X135.176 Y38.598 E2.66162
G1 X135.519 Y38.496 E2.68911
G1 E2.18911 F240
G92 E0
G1 X135.519 Y38.496 F9000
G1 X98.463 Y41.063
G1 E.5 F240
;TYPE:External perimeter
G1 F1800
G1 X98.751 Y41.216 E.52505
G1 X99.057 Y41.467 E.55545
G1 X99.307 Y41.774 E.58586
G1 X99.491 Y42.124 E.61623
G1 X99.601 Y42.504 E.64662
G1 X99.635 Y42.898 E.677
G1 X99.59 Y43.291 E.70739
G1 X99.467 Y43.667 E.73778
G1 X99.278 Y44.006 E.76759
G1 X99.099 Y44.227 E.78944
G1 X98.784 Y44.499 E.82141
G1 X98.438 Y44.691 E.85181
G1 X98.062 Y44.811 E.88213
G1 X97.668 Y44.855 E.91258
G1 X97.274 Y44.819 E.94297
G1 X96.902 Y44.71 E.97275
G1 X96.629 Y44.573 E.99621
G1 X96.207 Y44.225 E1.03823
G1 X96.047 Y44.044 E1.05679
G1 X95.846 Y43.703 E1.0872
G1 X95.717 Y43.33 E1.11752
G1 X95.663 Y42.938 E1.14792
G1 X95.689 Y42.543 E1.17833
G1 X95.792 Y42.161 E1.20872
G1 X95.969 Y41.807 E1.23912
G1 X96.213 Y41.496 E1.26949
G1 X96.514 Y41.238 E1.29994
G1 X96.859 Y41.046 E1.33027
G1 X97.236 Y40.925 E1.36068
G1 X97.629 Y40.882 E1.39105
G1 X98.023 Y40.918 E1.42144
G1 X98.382 Y41.024 E1.45019
G1 X98.89 Y41.344 F9000
G1 X98.721 Y40.522
;TYPE:Perimeter
G1 F1800
G1 X99.125 Y40.747 E1.48571
G1 X99.516 Y41.082 E1.52526
G1 X99.833 Y41.487 E1.56477
G1 X100.064 Y41.948 E1.60438
G1 X100.198 Y42.444 E1.64385
G1 X100.232 Y42.958 E1.68342
G1 X100.163 Y43.468 E1.72295
G1 X99.994 Y43.954 E1.76248
G1 X99.747 Y44.38 E1.80031
G1 X99.526 Y44.648 E1.82699
G1 X99.146 Y44.979 E1.8657
G1 X98.708 Y45.229 E1.90444
G1 X98.23 Y45.39 E1.94319
G1 X97.73 Y45.455 E1.98192
G1 X97.221 Y45.42 E2.02111
G1 X96.716 Y45.282 E2.06132
G1 X96.279 Y45.06 E2.09897
G1 X95.872 Y44.746 E2.13846
G1 X95.536 Y44.357 E2.17795
G1 X95.283 Y43.908 E2.21754
G1 X95.123 Y43.419 E2.25706
G1 X95.064 Y42.908 E2.29657
G1 X95.108 Y42.395 E2.33612
G1 X95.252 Y41.901 E2.37565
G1 X95.491 Y41.445 E2.4152
G1 X95.816 Y41.046 E2.45473
G1 X96.214 Y40.719 E2.4943
G1 X96.668 Y40.477 E2.53382
G1 X97.161 Y40.33 E2.57334
G1 X97.674 Y40.284 E2.61291
G1 X98.185 Y40.34 E2.6524
G1 X98.64 Y40.485 E2.68908
G1 E2.18908 F240
G92 E0
G1 X98.64 Y40.485 F9000
G1 X79.583 Y203.787
G1 E.5 F240
;TYPE:External perimeter
G1 F1800
G1 X79.785 Y203.552 E.5238
G1 X80.022 Y203.359 E.54728
G1 X80.367 Y203.167 E.57761
G1 X80.744 Y203.047 E.608
G1 X81.137 Y203.003 E.63838
G1 X81.531 Y203.039 E.66877
G1 X81.903 Y203.148 E.69855
G1 X82.176 Y203.285 E.72201
G1 X82.494 Y203.52 E.75238
G1 X82.758 Y203.814 E.78273
G1 X82.959 Y204.155 E.81314
G1 X83.089 Y204.529 E.84356
G1 X83.142 Y204.921 E.87395
G1 X83.117 Y205.315 E.90428
G1 X83.013 Y205.697 E.93469
G1 X82.836 Y206.051 E.96509
G1 X82.593 Y206.363 E.99547
G1 X82.292 Y206.62 E1.02587
G1 X81.947 Y206.812 E1.0562
G1 X81.57 Y206.933 E1.08661
G1 X81.177 Y206.976 E1.11698
G1 X80.783 Y206.941 E1.14736
G1 X80.404 Y206.828 E1.17774
G1 X80.054 Y206.642 E1.20819
G1 X79.749 Y206.391 E1.23853
G1 X79.533 Y206.133 E1.26438
G1 X79.315 Y205.734 E1.29931
G1 X79.204 Y205.354 E1.32972
G1 X79.171 Y204.96 E1.36009
G1 X79.216 Y204.567 E1.39048
G1 X79.338 Y204.191 E1.42085
G1 X79.527 Y203.857 E1.45033
G1 X79.949 Y203.431 F9000
G1 X79.121 Y203.419
;TYPE:Perimeter
G1 F1800
G1 X79.289 Y203.203 E1.47135
G1 X79.722 Y202.84 E1.51475
G1 X80.176 Y202.598 E1.55427
G1 X80.67 Y202.451 E1.59386
G1 X81.182 Y202.405 E1.63335
G1 X81.694 Y202.461 E1.67291
G1 X82.164 Y202.608 E1.71074
G1 X82.527 Y202.798 E1.74221
G1 X82.933 Y203.112 E1.78164
G1 X83.27 Y203.501 E1.82118
G1 X83.523 Y203.95 E1.86077
G1 X83.682 Y204.439 E1.90027
G1 X83.741 Y204.95 E1.93978
G1 X83.698 Y205.463 E1.97933
G1 X83.554 Y205.957 E2.01886
G1 X83.314 Y206.413 E2.05844
G1 X82.99 Y206.812 E2.09792
G1 X82.592 Y207.139 E2.13749
G1 X82.138 Y207.381 E2.17701
G1 X81.644 Y207.528 E2.2166
G1 X81.132 Y207.574 E2.25609
G1 X80.62 Y207.518 E2.29565
G1 X80.13 Y207.361 E2.33518
G1 X79.68 Y207.111 E2.37472
G1 X79.289 Y206.776 E2.41427
G1 X79.073 Y206.519 E2.44006
G1 X78.812 Y206.076 E2.47956
G1 X78.643 Y205.589 E2.51916
G1 X78.574 Y205.079 E2.55869
G1 X78.607 Y204.566 E2.59818
G1 X78.742 Y204.069 E2.63774
G1 X78.972 Y203.609 E2.67725
G1 X79.065 Y203.489 E2.68891
G1 E2.18891 F240
G92 E0
G1 X79.065 Y203.489 F9000
G1 X137.934 Y205.855
G1 E.5 F240
;TYPE:External perimeter
G1 F1800
G1 X137.836 Y206.051 E.51683
G1 X137.593 Y206.363 E.54721
G1 X137.292 Y206.62 E.57761
G1 X136.947 Y206.812 E.60794
G1 X136.584 Y206.931 E.63728
G1 X136.177 Y206.976 E.66873
G1 X135.783 Y206.941 E.69911
G1 X135.411 Y206.831 E.72891
G1 X135.138 Y206.695 E.75234
G1 X134.82 Y206.459 E.78276
G1 X134.556 Y206.165 E.81311
G1 X134.355 Y205.825 E.84345
G1 X134.225 Y205.451 E.87387
G1 X134.172 Y205.059 E.90426
G1 X134.197 Y204.664 E.93466
G1 X134.301 Y204.282 E.96507
G1 X134.478 Y203.929 E.9954
G1 X134.769 Y203.575 E1.0306
G1 X135.022 Y203.36 E1.0561
G1 X135.367 Y203.167 E1.08647
G1 X135.744 Y203.047 E1.11686
G1 X136.137 Y203.003 E1.14724
G1 X136.531 Y203.039 E1.17763
G1 X136.91 Y203.152 E1.20801
G1 X137.26 Y203.337 E1.23842
G1 X137.565 Y203.589 E1.26881
G1 X137.815 Y203.895 E1.29916
G1 X137.999 Y204.246 E1.3296
G1 X138.11 Y204.625 E1.35994
G1 X138.144 Y205.012 E1.38978
G1 X138.116 Y205.316 E1.41323
G1 X138.013 Y205.697 E1.44355
G1 X137.975 Y205.774 E1.45015
G1 X137.649 Y206.278 F9000
G1 X138.465 Y206.127
;TYPE:Perimeter
G1 F1800
G1 X138.314 Y206.413 E1.47499
G1 X137.99 Y206.812 E1.51447
G1 X137.592 Y207.139 E1.55404
G1 X137.138 Y207.381 E1.59356
G1 X136.688 Y207.521 E1.62976
G1 X136.132 Y207.574 E1.67266
G1 X135.62 Y207.518 E1.71222
G1 X135.15 Y207.372 E1.75003
G1 X134.787 Y207.182 E1.7815
G1 X134.381 Y206.867 E1.82097
G1 X134.044 Y206.478 E1.86051
G1 X133.791 Y206.03 E1.90003
G1 X133.632 Y205.54 E1.9396
G1 X133.573 Y205.029 E1.97911
G1 X133.616 Y204.516 E2.01866
G1 X133.76 Y204.022 E2.05819
G1 X134 Y203.566 E2.09777
G1 X134.324 Y203.167 E2.13725
G1 X134.722 Y202.84 E2.17682
G1 X135.176 Y202.598 E2.21634
G1 X135.661 Y202.453 E2.25523
G1 X136.163 Y202.404 E2.29398
G1 X136.673 Y202.456 E2.33336
G1 X137.163 Y202.607 E2.37275
G1 X137.613 Y202.852 E2.41211
G1 X138.015 Y203.192 E2.45255
G1 X138.342 Y203.609 E2.49326
G1 X138.572 Y204.069 E2.53277
G1 X138.707 Y204.566 E2.57233
G1 X138.742 Y205.056 E2.61007
G1 X138.698 Y205.464 E2.64159
G1 X138.554 Y205.957 E2.68104
G1 X138.507 Y206.047 E2.68884
G1 E2.18884 F240
G92 E0
G1 X138.507 Y206.047 F9000
G1 X86.198 Y155.393
G1 E.5 F240
;TYPE:External perimeter
G1 F1800
G1 X86.222 Y155.379 E.50213
G1 X86.295 Y155.184 E.51812
G1 X86.289 Y147.753 E1.08895
G1 X86.189 Y147.58 E1.1043
G1 X85.995 Y147.509 E1.12017
G1 X73.801 Y147.499 E2.05687
G1 X73.463 Y147.414 E2.08364
G1 X73.045 Y147.233 E2.11863
G1 X72.801 Y147.013 E2.14387
G1 X72.571 Y146.746 E2.17094
G1 X72.37 Y146.335 E2.20608
G1 X72.295 Y145.823 E2.24583
G1 X72.295 Y41.498 E10.25973
G1 X72.37 Y40.989 E10.29925
G1 X72.533 Y40.621 E10.33017
G1 X72.783 Y40.3 E10.36142
G1 X73.104 Y40.051 E10.39263
G1 X73.475 Y39.886 E10.42382
G1 X73.887 Y39.815 E10.45593
G1 X86.047 Y39.808 E11.39002
G1 X86.22 Y39.71 E11.40529
G1 X86.294 Y39.516 E11.42124
G1 X86.297 Y36.08 E11.68518
G1 X86.395 Y35.587 E11.72379
G1 X86.624 Y35.158 E11.76115
G1 X86.969 Y34.814 E11.79857
G1 X87.398 Y34.584 E11.83596
G1 X87.891 Y34.486 E11.87457
G1 X179.456 Y34.486 E18.90829
G1 X179.877 Y34.516 E18.94071
G1 X180.336 Y34.688 E18.97836
G1 X180.731 Y34.972 E19.01573
G1 X181.015 Y35.367 E19.0531
G1 X181.186 Y35.822 E19.09044
G1 X181.22 Y36.249 E19.12334
G1 X181.22 Y210.36 E32.49797
G1 X181.168 Y210.889 E32.5388
G1 X180.979 Y211.346 E32.57679
G1 X180.731 Y211.663 E32.60771
G1 X180.414 Y211.911 E32.63863
G1 X179.956 Y212.101 E32.67672
G1 X179.537 Y212.152 E32.70914
G1 X75.887 Y212.152 E40.67119
G1 X75.358 Y212.101 E40.71201
