; generated by PrusaSlicer 2.8.1+MacOS-arm64 on 2024-10-29 at 08:55:36 UTC


;
;

;
;
; 

; external perimeters extrusion width = 0.55mm
; perimeters extrusion width = 0.60mm
; infill extrusion width = 0.60mm
; solid infill extrusion width = 0.60mm
; top infill extrusion width = 0.55mm
; first layer extrusion width = 0.60mm

M73 P0 R130

EXCLUDE_OBJECT_DEFINE NAME='e_lid' CENTER=106.525,111.272 POLYGON=[[158.682,22.241],[159.439,22.431],[160.066,22.896],[160.432,23.474],[160.584,24.239],[160.584,198.583],[160.524,199.068],[160.300,199.611],[159.999,199.997],[159.613,200.298],[159.070,200.523],[158.584,200.583],[54.784,200.583],[54.298,200.523],[53.756,200.298],[53.370,199.997],[53.020,199.525],[52.844,199.068],[52.784,198.583],[52.823,144.849],[53.020,144.296],[53.370,143.825],[53.842,143.475],[54.491,143.261],[64.984,143.239],[64.984,135.939],[52.788,135.929],[52.219,135.787],[51.641,135.421],[51.220,134.882],[51.006,134.232],[50.984,29.568],[51.070,28.987],[51.269,28.539],[51.570,28.153],[51.956,27.852],[52.404,27.654],[52.886,27.570],[64.984,27.568],[64.987,24.141],[65.101,23.565],[65.378,23.048],[65.793,22.633],[66.311,22.356],[66.886,22.241]]

M190 S70 ; set bed temperature and wait for it to be reached
M104 S230 ; set temperature
;TYPE:Custom
START_PRINT BED_TEMP=70 HOTEND_TEMP=230 FILAMENT_TYPE=PET EXTRUSION_MULTIPLIER=0.96
M109 S230 ; set temperature and wait for it to be reached
G21 ; set units to millimeters
G90 ; use absolute coordinates
M82 ; use absolute distances for extrusion
G92 E0
; Filament gcode
; ########################### NOTE OFFSET CHANGES ####################################
; Prevents PETG buildup on nozzle.
; PETG does not like to be touching the nozzle, this causes buildup on nozzle
; Once the bed z distance is finaly chuned a small offset for PETG works perfectly
SET_GCODE_OFFSET Z=0.2
; ####################################################################################
M107
;LAYER_CHANGE
;Z:0.3
;HEIGHT:0.3
G1 E-.55 F600
G1 Z.8 F9000
EXCLUDE_OBJECT_START NAME='e_lid'
G92 E0
G1 X117.534 Y194.098
G1 Z.3
G1 E.6 F1200
;TYPE:Perimeter
;WIDTH:0.6
G1 F1800
G1 X117.311 Y194.543 E.63192
G1 X116.786 Y195.105 E.68124
G1 X116.118 Y195.487 E.73059
G1 X115.368 Y195.655 E.77988
G3 X114.602 Y195.595 I-.112 J-3.491 E.82926
G1 X113.982 Y195.367 E.87163
G1 X113.536 Y195.071 E.90596
G1 X113.048 Y194.528 E.95278
G3 X112.717 Y193.834 I2.968 J-1.842 E1.00219
G3 X112.605 Y193.074 I3.379 J-.886 E1.05156
G3 X112.722 Y192.314 I3.49 J.149 E1.10098
G3 X113.134 Y191.507 I3.336 J1.195 E1.15925
G1 X113.583 Y191.06 E1.19988
G3 X114.25 Y190.678 I2.059 J2.822 E1.24928
G3 X115 Y190.51 I1.136 J3.303 E1.29867
G3 X115.767 Y190.57 I.112 J3.491 E1.34811
G3 X116.482 Y190.853 I-.922 J3.369 E1.39753
G3 X117.081 Y191.334 I-1.875 J2.948 E1.4469
G3 X117.512 Y191.971 I-2.66 J2.265 E1.49633
G3 X117.736 Y192.707 I-3.209 J1.38 E1.54577
G1 X117.75 Y193.368 E1.58817
G1 X117.638 Y193.89 E1.62241
G1 X117.567 Y194.031 E1.63253
G1 X117.567 Y194.031 F9000
G1 X117.06 Y193.884
;TYPE:External perimeter
G1 F1800
G1 X116.84 Y194.287 E1.66198
G1 X116.412 Y194.721 E1.70107
G1 X115.874 Y195.01 E1.74024
G1 X115.275 Y195.128 E1.77939
G1 X114.668 Y195.064 E1.81853
G1 X114.19 Y194.873 E1.85154
G1 X113.8 Y194.591 E1.88241
G1 X113.458 Y194.184 E1.9165
G1 X113.21 Y193.626 E1.95566
G1 X113.138 Y193.02 E1.9948
G1 X113.247 Y192.42 E2.03391
G1 X113.554 Y191.84 E2.076
G1 X113.957 Y191.444 E2.11224
G1 X114.495 Y191.155 E2.15141
G1 X115.093 Y191.037 E2.1905
G1 X115.7 Y191.101 E2.22964
G1 X116.261 Y191.341 E2.26877
G1 X116.727 Y191.736 E2.30795
G1 X117.055 Y192.251 E2.34711
G1 X117.217 Y192.839 E2.38623
G1 X117.214 Y193.354 E2.41926
G1 X117.095 Y193.818 E2.44998
G1 X116.848 Y194.252 F9000
G1 E1.89998 F600
G92 E0
G1 X88.203 Y194.273 Z.8 F9000
G1 X57.91 Y194.295
G1 Z.3
G1 E.6 F1200
;TYPE:Perimeter
G1 F1800
G3 X57.864 Y194.21 I2.597 J-1.457 E.6062
G1 X57.682 Y193.71 E.64032
G3 X57.608 Y192.945 I3.419 J-.716 E.68971
G3 X57.763 Y192.192 I3.479 J.323 E.73911
G1 X58.133 Y191.518 E.78842
G1 X58.597 Y191.047 E.83082
G1 X59.25 Y190.678 E.87892
G3 X60 Y190.51 I1.136 J3.303 E.92831
G1 X60.495 Y190.522 E.96007
G1 X61.005 Y190.637 E.9936
G1 X61.607 Y190.929 E1.03651
G1 X62.166 Y191.431 E1.08469
G3 X62.565 Y192.089 I-2.77 J2.129 E1.13414
G3 X62.752 Y192.834 I-3.274 J1.218 E1.1835
G3 X62.711 Y193.602 I-3.488 J.199 E1.23292
G3 X62.445 Y194.324 I-3.392 J-.838 E1.28237
G3 X61.979 Y194.935 I-2.993 J-1.8 E1.33175
G1 X61.353 Y195.382 E1.38108
G1 X60.624 Y195.624 E1.43034
G3 X59.855 Y195.641 I-.459 J-3.462 E1.47977
G1 X59.115 Y195.43 E1.52912
G1 X58.471 Y195.011 E1.57839
G3 X57.948 Y194.36 I2.036 J-2.173 E1.63212
G1 X57.948 Y194.36 F9000
G1 X58.382 Y194.053
;TYPE:External perimeter
G1 F1800
G1 X58.367 Y194.026 E1.6341
G1 X58.186 Y193.527 E1.66814
G1 X58.143 Y192.918 E1.70729
G1 X58.282 Y192.324 E1.74641
G1 X58.591 Y191.797 E1.78559
G1 X58.961 Y191.439 E1.81861
G1 X59.494 Y191.155 E1.85734
G1 X60.093 Y191.037 E1.89649
G1 X60.377 Y191.044 E1.91471
G1 X60.887 Y191.159 E1.94824
G1 X61.352 Y191.4 E1.98183
G1 X61.792 Y191.815 E2.02062
G1 X62.094 Y192.345 E2.05974
G1 X62.227 Y192.941 E2.0989
G1 X62.178 Y193.549 E2.13802
G1 X61.952 Y194.116 E2.17717
G1 X61.569 Y194.591 E2.2163
G1 X61.063 Y194.932 E2.25543
G1 X60.478 Y195.109 E2.29463
G1 X59.868 Y195.105 E2.33375
G1 X59.286 Y194.922 E2.37288
G1 X58.784 Y194.576 E2.41198
G1 X58.421 Y194.116 E2.44956
G1 X58.234 Y193.653 F9000
G1 E1.89956 F600
G92 E0
G1 X61.134 Y165.155 Z.8 F9000
G1 X74.989 Y29.015
G1 Z.3
G1 E.6 F1200
;TYPE:Perimeter
G1 F1800
G3 X75.075 Y28.939 I2.361 J2.576 E.60736
G1 X75.742 Y28.557 E.65666
G1 X76.492 Y28.388 E.70597
G3 X77.259 Y28.448 I.112 J3.492 E.75541
G1 X77.973 Y28.732 E.80469
G1 X78.573 Y29.213 E.85401
G3 X79.004 Y29.85 I-2.66 J2.265 E.90344
G3 X79.228 Y30.586 I-3.209 J1.38 E.95288
G3 X79.225 Y31.354 I-3.474 J.372 E1.00223
G3 X78.996 Y32.088 I-3.428 J-.667 E1.05164
G1 X78.635 Y32.642 E1.09405
G3 X78.088 Y33.121 I-2.47 J-2.272 E1.14077
G1 X77.61 Y33.366 E1.17522
G3 X76.86 Y33.534 I-1.136 J-3.304 E1.22461
G3 X76.093 Y33.474 I-.112 J-3.491 E1.27405
G1 X75.473 Y33.245 E1.31644
G1 X75.028 Y32.95 E1.35068
G1 X74.54 Y32.407 E1.3975
G3 X74.208 Y31.713 I2.967 J-1.843 E1.44694
G3 X74.097 Y30.952 I3.38 J-.886 E1.49636
G3 X74.296 Y29.967 I4.293 J.356 E1.56095
G1 X74.55 Y29.501 E1.59499
G3 X74.934 Y29.066 I2.8 J2.09 E1.63225
G1 X74.934 Y29.066 F9000
G1 X75.34 Y29.433
;TYPE:External perimeter
G1 F1800
G1 X75.449 Y29.322 E1.64223
G1 X75.986 Y29.033 E1.68134
G1 X76.585 Y28.916 E1.72048
G1 X77.192 Y28.98 E1.75962
G1 X77.753 Y29.22 E1.79875
G1 X78.218 Y29.615 E1.83788
G1 X78.547 Y30.129 E1.87702
G1 X78.709 Y30.718 E1.9162
G1 X78.69 Y31.328 E1.95534
G1 X78.493 Y31.905 E1.99444
G1 X78.2 Y32.33 E2.02755
G1 X77.84 Y32.646 E2.05827
G1 X77.363 Y32.891 E2.09266
G1 X76.767 Y33.007 E2.1316
G1 X76.16 Y32.943 E2.17074
G1 X75.681 Y32.752 E2.20381
G1 X75.292 Y32.47 E2.23462
G1 X74.95 Y32.063 E2.26871
G1 X74.702 Y31.505 E2.30787
G1 X74.629 Y30.899 E2.34702
G1 X74.739 Y30.299 E2.38614
G1 X75.02 Y29.757 E2.42529
G1 X75.287 Y29.486 E2.44969
G1 X75.696 Y29.199 F9000
G1 E1.89969 F600
G92 E0
G1 X104.292 Y27.528 Z.8 F9000
G1 X116.368 Y26.823
G1 Z.3
G1 E.6 F1200
;TYPE:Perimeter
G1 F1800
G1 X116.697 Y26.993 E.62375
G1 X117.18 Y27.445 E.66617
G1 X117.565 Y28.089 E.71429
G3 X117.752 Y28.834 I-3.273 J1.218 E.76365
G3 X117.711 Y29.602 I-3.488 J.199 E.81307
G3 X117.445 Y30.324 I-3.392 J-.838 E.86252
G3 X116.979 Y30.935 I-2.993 J-1.8 E.9119
G3 X116.353 Y31.382 I-2.33 J-2.603 E.96133
G3 X115.624 Y31.624 I-1.459 J-3.174 E1.01069
G3 X114.855 Y31.641 I-.459 J-3.463 E1.06012
G3 X114.115 Y31.43 I.582 J-3.445 E1.10957
G1 X113.553 Y31.083 E1.15193
G1 X113.048 Y30.528 E1.20005
G3 X112.717 Y29.834 I2.967 J-1.842 E1.24946
G3 X112.605 Y29.074 I3.378 J-.886 E1.29883
G3 X112.722 Y28.314 I3.49 J.149 E1.34825
G3 X113.058 Y27.622 I3.291 J1.171 E1.39769
G1 X113.583 Y27.06 E1.44701
G1 X114.25 Y26.678 E1.49631
G1 X115 Y26.51 E1.5456
G1 X115.496 Y26.522 E1.57742
G1 X116.014 Y26.64 E1.61149
G1 X116.301 Y26.789 E1.63223
G1 X116.301 Y26.789 F9000
G1 X116.117 Y27.285
;TYPE:External perimeter
G1 F1800
G1 X116.429 Y27.457 E1.65508
G1 X116.796 Y27.819 E1.68814
G1 X117.094 Y28.345 E1.72691
G1 X117.227 Y28.941 E1.76607
G1 X117.178 Y29.549 E1.80519
G1 X116.952 Y30.116 E1.84434
G1 X116.569 Y30.591 E1.88347
G1 X116.063 Y30.932 E1.9226
G1 X115.478 Y31.109 E1.9618
G1 X114.868 Y31.105 E2.00092
G1 X114.286 Y30.922 E2.04005
G1 X113.854 Y30.64 E2.07314
G1 X113.458 Y30.184 E2.11187
G1 X113.21 Y29.626 E2.15103
G1 X113.138 Y29.02 E2.19017
G1 X113.247 Y28.42 E2.22928
G1 X113.528 Y27.878 E2.26843
G1 X113.957 Y27.444 E2.30757
G1 X114.495 Y27.155 E2.34674
G1 X115.093 Y27.037 E2.38583
G1 X115.377 Y27.044 E2.40405
G1 X115.895 Y27.162 E2.43812
G1 X116.051 Y27.248 E2.44954
G1 X116.471 Y27.519 F9000
G1 E1.89954 F600
G92 E0
G1 X105.016 Y53.774 Z.8 F9000
G1 X65.681 Y143.927
G1 Z.3
G1 E.6 F1200
;TYPE:Perimeter
G1 F1800
G1 X65.849 Y143.702 E.61801
G1 X65.92 Y143.377 E.63934
G1 X65.92 Y135.807 E1.12483
G1 X65.877 Y135.546 E1.14179
G1 X65.706 Y135.261 E1.16311
M73 P0 R129
G1 X65.433 Y135.068 E1.18455
G1 X65.116 Y135.003 E1.2053
G1 X53.135 Y135.003 E1.97368
G3 X52.485 Y134.872 I.069 J-2.018 E2.0164
G1 X52.196 Y134.633 E2.04045
G1 X51.974 Y134.246 E2.06906
G1 X51.92 Y133.877 E2.09298
G1 X51.92 Y29.692 E8.77469
G3 X52.027 Y29.15 I1.973 J.109 E8.81024
G1 X52.236 Y28.819 E8.83535
G1 X52.555 Y28.609 E8.85984
G1 X52.962 Y28.505 E8.88678
G1 X65.117 Y28.503 E9.66632
G1 X65.415 Y28.446 E9.68578
G1 X65.665 Y28.287 E9.70478
G1 X65.847 Y28.033 E9.72482
G1 X65.92 Y27.7 E9.74668
G1 X65.922 Y24.341 E9.9621
G1 X65.991 Y23.883 E9.9918
G1 X66.137 Y23.61 E10.01165
G1 X66.356 Y23.391 E10.03151
G1 X66.629 Y23.245 E10.05136
G1 X66.972 Y23.177 E10.07379
G1 X158.492 Y23.177 E15.94325
G1 X158.882 Y23.225 E15.96845
G1 X159.171 Y23.361 E15.98893
G1 X159.4 Y23.569 E16.00877
G1 X159.559 Y23.835 E16.02864
G1 X159.649 Y24.278 E16.05763
G1 X159.649 Y198.458 E27.22834
G1 X159.612 Y198.83 E27.25232
G1 X159.486 Y199.134 E27.27342
G1 X159.243 Y199.394 E27.29624
G1 X158.952 Y199.566 E27.31792
G1 X158.533 Y199.647 E27.34529
G1 X54.908 Y199.647 E33.99109
G1 X54.537 Y199.61 E34.015
G1 X54.232 Y199.484 E34.03616
G1 X53.973 Y199.241 E34.05894
G1 X53.801 Y198.951 E34.08056
G1 X53.72 Y198.531 E34.10799
G1 X53.72 Y145.39 E37.51609
G1 X53.729 Y145.188 E37.52906
G1 X53.857 Y144.732 E37.55944
G1 X54.09 Y144.451 E37.58285
G1 X54.478 Y144.229 E37.61152
G1 X54.846 Y144.175 E37.63537
G1 X65.116 Y144.175 E38.29402
G1 X65.34 Y144.143 E38.30853
G1 X65.633 Y143.983 E38.32994
G1 X65.633 Y143.983 F9000
G1 X65.289 Y143.565
;TYPE:External perimeter
G1 F1800
G1 X65.315 Y143.551 E38.33183
G1 X65.384 Y143.373 E38.34407
G1 X65.384 Y135.807 E38.8293
G1 X65.383 Y135.784 E38.83078
G1 X65.297 Y135.609 E38.84329
G1 X65.116 Y135.539 E38.85574
G1 X53.108 Y135.539 E39.62585
G1 X52.596 Y135.489 E39.65884
G1 X52.231 Y135.348 E39.68393
G1 X51.911 Y135.123 E39.70902
G1 X51.658 Y134.829 E39.7339
G1 X51.456 Y134.403 E39.76414
G1 X51.384 Y133.917 E39.79565
G1 X51.384 Y29.692 E46.47993
G1 X51.434 Y29.183 E46.51273
G1 X51.616 Y28.743 E46.54327
G1 X51.855 Y28.437 E46.56817
G1 X52.163 Y28.197 E46.59321
G1 X52.521 Y28.038 E46.61833
G1 X52.916 Y27.97 E46.64404
G1 X65.147 Y27.966 E47.42845
G1 X65.317 Y27.878 E47.44073
G1 X65.384 Y27.7 E47.45293
G1 X65.386 Y24.341 E47.66835
G1 X65.481 Y23.701 E47.70984
G1 X65.702 Y23.288 E47.73988
G1 X66.033 Y22.956 E47.76995
G1 X66.446 Y22.735 E47.79999
G1 X66.919 Y22.641 E47.83092
G1 X158.508 Y22.641 E53.70481
G1 X159.045 Y22.709 E53.73952
G1 X159.472 Y22.911 E53.76981
G1 X159.819 Y23.226 E53.79987
G1 X160.06 Y23.628 E53.82993
G3 X160.184 Y24.278 I-4.766 J1.25 E53.8724
G1 X160.184 Y198.458 E65.04311
G1 X160.135 Y198.967 E65.0759
G1 X159.953 Y199.407 E65.10644
G1 X159.716 Y199.71 E65.13111
G1 X159.334 Y199.993 E65.1616
G1 X158.973 Y200.132 E65.18641
G1 X158.566 Y200.183 E65.21272
G1 X54.908 Y200.183 E71.86063
G1 X54.399 Y200.133 E71.89343
G1 X53.96 Y199.951 E71.92391
G1 X53.657 Y199.714 E71.94858
G1 X53.374 Y199.333 E71.97902
G1 X53.234 Y198.971 E72.00391
G1 X53.184 Y198.564 E72.03021
G1 X53.184 Y145.39 E75.44043
G1 X53.216 Y144.934 E75.46975
G1 X53.377 Y144.483 E75.50046
G1 X53.6 Y144.166 E75.52532
G1 X53.894 Y143.913 E75.5502
G1 X54.321 Y143.711 E75.58049
G1 X54.806 Y143.639 E75.61194
G1 X65.116 Y143.639 E76.27315
G1 X65.15 Y143.637 E76.27533
G1 X65.223 Y143.599 E76.28061
G1 X65.375 Y143.123 F9000
G1 E75.73061 F600
G92 E0
G1 X82.878 Y120.448 Z.8 F9000
G1 X157.84 Y23.338
G1 Z.3
G1 E.6 F1200
;TYPE:Solid infill
;WIDTH:0.600907
G1 F1800
G1 X159.247 Y24.745 E.72783
G1 X159.247 Y25.504 E.77659
G1 X157.322 Y23.579 E.95148
G1 X156.563 Y23.579 E1.00024
G1 X159.247 Y26.262 E1.24404
G1 X159.247 Y27.021 E1.2928
G1 X155.804 Y23.579 E1.60556
G1 X155.046 Y23.579 E1.65426
G1 X159.247 Y27.78 E2.03593
G1 X159.247 Y28.539 E2.08469
G1 X154.287 Y23.579 E2.53531
G1 X153.528 Y23.579 E2.58407
G1 X159.247 Y29.297 E3.1036
G1 X159.247 Y30.056 E3.15236
G1 X152.769 Y23.579 E3.74085
G1 X152.011 Y23.579 E3.78955
G1 X159.247 Y30.815 E4.44695
G1 X159.247 Y31.574 E4.49571
G1 X151.252 Y23.579 E5.22207
G1 X150.493 Y23.579 E5.27083
G1 X159.247 Y32.332 E6.0661
G1 X159.247 Y33.091 E6.11486
G1 X149.734 Y23.579 E6.97909
G1 X148.976 Y23.579 E7.02779
G1 X159.247 Y33.85 E7.96093
G1 X159.247 Y34.609 E8.00969
G1 X148.217 Y23.579 E9.01178
G1 X147.458 Y23.579 E9.06054
G1 X159.247 Y35.367 E10.13154
G1 X159.247 Y36.126 E10.1803
G1 X146.699 Y23.579 E11.32026
G1 X145.941 Y23.579 E11.36896
G1 X159.247 Y36.885 E12.57783
G1 X159.247 Y37.644 E12.62659
G1 X145.182 Y23.579 E13.90442
G1 X144.423 Y23.579 E13.95318
G1 X159.247 Y38.403 E15.29996
G1 X159.247 Y39.161 E15.34866
G1 X143.664 Y23.579 E16.76435
G1 X142.906 Y23.579 E16.81305
G1 X159.247 Y39.92 E18.29765
G1 X159.247 Y40.679 E18.34641
G1 X142.147 Y23.579 E19.89997
G1 X141.388 Y23.579 E19.94873
G1 X159.247 Y41.438 E21.57125
G1 X159.247 Y42.196 E21.61995
G1 X140.629 Y23.579 E23.31138
G1 X139.87 Y23.579 E23.36014
G1 X159.247 Y42.955 E25.12052
G1 X159.247 Y43.714 E25.16928
G1 X139.112 Y23.579 E26.99858
G1 X138.353 Y23.579 E27.04734
G1 X159.247 Y44.473 E28.94559
G1 X159.247 Y45.231 E28.99429
G1 X137.594 Y23.579 E30.96145
G1 X136.835 Y23.579 E31.01021
G1 X159.247 Y45.99 E33.04633
G1 X159.247 Y46.749 E33.09509
G1 X136.077 Y23.579 E35.20012
G1 X135.318 Y23.579 E35.24888
M73 P0 R128
G1 X159.247 Y47.508 E37.42287
G1 X159.247 Y48.266 E37.47157
G1 X134.559 Y23.579 E39.71447
G1 X133.8 Y23.579 E39.76323
G1 X159.247 Y49.025 E42.07508
G1 X159.247 Y49.784 E42.12384
G1 X133.042 Y23.579 E44.5046
G1 X132.283 Y23.579 E44.55336
G1 X159.247 Y50.543 E47.00308
G1 X159.247 Y51.301 E47.05178
M73 P1 R128
G1 X131.524 Y23.579 E49.57041
G1 X130.765 Y23.579 E49.61917
G1 X159.247 Y52.06 E52.20676
G1 X159.247 Y52.819 E52.25552
G1 X130.007 Y23.579 E54.91202
G1 X129.248 Y23.579 E54.96078
G1 X159.247 Y53.578 E57.68624
G1 X159.247 Y54.337 E57.735
G1 X128.489 Y23.579 E60.52941
G1 X127.73 Y23.579 E60.57817
G1 X159.247 Y55.095 E63.44149
G1 X159.247 Y55.854 E63.49025
G1 X126.972 Y23.579 E66.42248
G1 X126.213 Y23.579 E66.47124
G1 X159.247 Y56.613 E69.47243
G1 X159.247 Y57.372 E69.52119
G1 X125.454 Y23.579 E72.59134
G1 X124.695 Y23.579 E72.6401
G1 X159.247 Y58.13 E75.77916
G1 X159.247 Y58.889 E75.82792
G1 X123.936 Y23.579 E79.03593
G1 X123.178 Y23.579 E79.08463
G1 X159.247 Y59.648 E82.36155
G1 X159.247 Y60.407 E82.41031
G1 X122.419 Y23.579 E85.75619
G1 X121.66 Y23.579 E85.80495
G1 X159.247 Y61.165 E89.21974
G1 X159.247 Y61.924 E89.2685
G1 X120.901 Y23.579 E92.75225
G1 X120.143 Y23.579 E92.80095
G1 X159.247 Y62.683 E96.35361
G1 X159.247 Y63.442 E96.40237
G1 X119.384 Y23.579 E100.02398
G1 X118.625 Y23.579 E100.07274
G1 X159.247 Y64.2 E103.76327
G1 X159.247 Y64.959 E103.81203
G1 X117.866 Y23.579 E107.57151
G1 X117.108 Y23.579 E107.62021
G1 X159.247 Y65.718 E111.4486
G1 X159.247 Y66.477 E111.49736
G1 X116.349 Y23.579 E115.39471
G1 X115.59 Y23.579 E115.44347
G1 X159.247 Y67.235 E119.40973
G1 X159.247 Y67.994 E119.45849
G1 X114.831 Y23.579 E123.49371
G1 X114.073 Y23.579 E123.54241
