; generated by PrusaSlicer 2.8.1+MacOS-arm64 on 2024-10-29 at 13:55:51 UTC


;
;

;
;
; 

; external perimeters extrusion width = 0.55mm
; perimeters extrusion width = 0.60mm
; infill extrusion width = 0.60mm
; solid infill extrusion width = 0.60mm
; top infill extrusion width = 0.55mm
; first layer extrusion width = 0.60mm

M73 P0 R130

EXCLUDE_OBJECT_DEFINE NAME='e_lid' CENTER=101.083,110.416 POLYGON=[[153.240,21.385],[153.997,21.574],[154.624,22.039],[154.989,22.617],[155.142,23.382],[155.142,197.726],[155.082,198.212],[154.857,198.754],[154.556,199.140],[154.170,199.441],[153.628,199.666],[153.142,199.726],[49.342,199.726],[48.856,199.666],[48.314,199.441],[47.928,199.140],[47.578,198.669],[47.402,198.212],[47.342,197.726],[47.380,143.992],[47.578,143.439],[47.928,142.968],[48.399,142.618],[49.048,142.404],[59.542,142.382],[59.542,135.082],[47.346,135.073],[46.776,134.930],[46.199,134.564],[45.778,134.025],[45.563,133.376],[45.542,28.711],[45.628,28.130],[45.826,27.683],[46.128,27.297],[46.514,26.995],[46.961,26.797],[47.444,26.713],[59.542,26.711],[59.544,23.284],[59.659,22.708],[59.935,22.191],[60.350,21.776],[60.868,21.499],[61.444,21.385]]

M190 S70 ; set bed temperature and wait for it to be reached
M104 S230 ; set temperature
;TYPE:Custom
START_PRINT BED_TEMP=70 HOTEND_TEMP=230 FILAMENT_TYPE=PET EXTRUSION_MULTIPLIER=0.96
M109 S230 ; set temperature and wait for it to be reached
G21 ; set units to millimeters
G90 ; use absolute coordinates
M82 ; use absolute distances for extrusion
G92 E0
; Filament gcode
; ########################### NOTE OFFSET CHANGES ####################################
; Prevents PETG buildup on nozzle.
; PETG does not like to be touching the nozzle, this causes buildup on nozzle
; Once the bed z distance is finaly chuned a small offset for PETG works perfectly
SET_GCODE_OFFSET Z=0.24
; ####################################################################################
M107
;LAYER_CHANGE
;Z:0.3
;HEIGHT:0.3
G1 E-.55 F600
G1 Z.8 F9000
EXCLUDE_OBJECT_START NAME='e_lid'
G92 E0
G1 X112.091 Y193.241
G1 Z.3
G1 E.6 F1200
;TYPE:Perimeter
;WIDTH:0.6
G1 F1800
G1 X111.868 Y193.686 E.63192
G1 X111.343 Y194.248 E.68124
G1 X110.676 Y194.63 E.73054
G1 X109.926 Y194.799 E.77985
G3 X109.159 Y194.739 I-.112 J-3.492 E.82929
G1 X108.539 Y194.51 E.87168
G1 X108.093 Y194.214 E.90601
G1 X107.605 Y193.672 E.95278
G3 X107.274 Y192.978 I2.968 J-1.843 E1.00219
G3 X107.162 Y192.217 I3.379 J-.886 E1.05162
G3 X107.279 Y191.457 I3.49 J.149 E1.10104
G3 X107.692 Y190.65 I3.336 J1.196 E1.15934
G1 X108.14 Y190.204 E1.19988
G3 X108.808 Y189.821 I2.06 J2.821 E1.24936
G3 X109.558 Y189.653 I1.136 J3.304 E1.29875
G3 X110.324 Y189.713 I.112 J3.492 E1.34813
G3 X111.039 Y189.996 I-.922 J3.369 E1.39755
G3 X111.639 Y190.478 I-1.874 J2.948 E1.44701
G3 X112.07 Y191.115 I-2.66 J2.264 E1.49644
G3 X112.294 Y191.85 I-3.21 J1.379 E1.54582
G1 X112.307 Y192.511 E1.58822
G1 X112.195 Y193.034 E1.62252
G1 X112.125 Y193.174 E1.63256
G1 X112.125 Y193.174 F9000
G1 X111.617 Y193.027
;TYPE:External perimeter
G1 F1800
G1 X111.398 Y193.43 E1.66198
G1 X110.969 Y193.865 E1.70116
G1 X110.432 Y194.154 E1.74027
G1 X109.833 Y194.271 E1.77941
G1 X109.226 Y194.207 E1.81855
G1 X108.747 Y194.016 E1.85162
G1 X108.357 Y193.734 E1.88249
G1 X108.016 Y193.327 E1.91654
G1 X107.768 Y192.77 E1.95564
G1 X107.695 Y192.164 E1.99479
G1 X107.804 Y191.563 E2.03396
G1 X108.111 Y190.983 E2.07605
G1 X108.514 Y190.587 E2.11229
G1 X109.052 Y190.298 E2.15146
G1 X109.651 Y190.18 E2.19061
G1 X110.258 Y190.244 E2.22975
G1 X110.819 Y190.485 E2.26891
G1 X111.284 Y190.879 E2.308
G1 X111.613 Y191.394 E2.34719
G1 X111.775 Y191.982 E2.38631
G1 X111.772 Y192.498 E2.4194
G1 X111.652 Y192.961 E2.45007
G1 X111.405 Y193.395 F9000
G1 E1.90007 F600
G92 E0
G1 X82.76 Y193.416 Z.8 F9000
G1 X52.467 Y193.438
G1 Z.3
G1 E.6 F1200
;TYPE:Perimeter
G1 F1800
G3 X52.422 Y193.353 I2.597 J-1.456 E.60617
G1 X52.24 Y192.854 E.64023
G3 X52.166 Y192.088 I3.418 J-.717 E.68969
G3 X52.321 Y191.335 I3.479 J.324 E.73909
G1 X52.691 Y190.661 E.7884
G1 X53.154 Y190.19 E.83076
G1 X53.807 Y189.821 E.87886
G3 X54.558 Y189.653 I1.136 J3.303 E.92831
G1 X55.052 Y189.665 E.96
G1 X55.562 Y189.78 E.99353
G1 X56.164 Y190.072 E1.03644
G1 X56.723 Y190.574 E1.08462
G3 X57.122 Y191.232 I-2.769 J2.13 E1.13407
G3 X57.309 Y191.978 I-3.274 J1.218 E1.18349
G3 X57.268 Y192.746 I-3.487 J.199 E1.23291
G3 X57.003 Y193.467 I-3.391 J-.838 E1.28227
G3 X56.536 Y194.079 I-2.994 J-1.8 E1.33174
G1 X55.911 Y194.525 E1.38098
G1 X55.181 Y194.768 E1.43032
G3 X54.412 Y194.784 I-.459 J-3.463 E1.47975
G1 X53.673 Y194.573 E1.52904
G1 X53.028 Y194.154 E1.57837
G3 X52.505 Y193.503 I2.036 J-2.172 E1.6321
G1 X52.939 Y193.196 F9000
;TYPE:External perimeter
G1 F1800
G1 X52.925 Y193.17 E1.63399
G1 X52.743 Y192.671 E1.66805
G1 X52.701 Y192.062 E1.7072
G1 X52.84 Y191.467 E1.74639
G1 X53.148 Y190.941 E1.78548
G1 X53.519 Y190.583 E1.81854
G1 X54.052 Y190.298 E1.8573
G1 X54.651 Y190.18 E1.89645
G1 X54.934 Y190.187 E1.91461
G1 X55.444 Y190.303 E1.94815
G1 X55.91 Y190.543 E1.98177
G1 X56.349 Y190.958 E2.02051
G1 X56.652 Y191.488 E2.05966
G1 X56.784 Y192.084 E2.09881
G1 X56.735 Y192.692 E2.13793
G1 X56.509 Y193.259 E2.17708
G1 X56.126 Y193.734 E2.21621
G1 X55.62 Y194.075 E2.25534
G1 X55.036 Y194.252 E2.29448
G1 X54.426 Y194.249 E2.3336
G1 X53.843 Y194.066 E2.37279
G1 X53.341 Y193.719 E2.41193
G1 X52.979 Y193.26 E2.44942
G1 X52.791 Y192.796 F9000
G1 E1.89942 F600
G92 E0
G1 X55.692 Y164.298 Z.8 F9000
G1 X69.546 Y28.158
G1 Z.3
G1 E.6 F1200
;TYPE:Perimeter
G1 F1800
G3 X69.632 Y28.082 I2.361 J2.576 E.60736
G1 X70.299 Y27.7 E.65666
G1 X71.049 Y27.532 E.70595
G3 X71.816 Y27.592 I.112 J3.492 E.75539
G1 X72.531 Y27.875 E.80471
G1 X73.13 Y28.357 E.85402
G3 X73.561 Y28.993 I-2.66 J2.264 E.90339
G3 X73.785 Y29.729 I-3.209 J1.38 E.95283
G3 X73.783 Y30.498 I-3.473 J.372 E1.00225
G3 X73.554 Y31.232 I-3.429 J-.668 E1.05166
G1 X73.193 Y31.785 E1.09401
G3 X72.646 Y32.264 I-2.471 J-2.272 E1.14073
G1 X72.168 Y32.509 E1.17518
G3 X71.417 Y32.677 I-1.137 J-3.304 E1.22463
G3 X70.651 Y32.617 I-.112 J-3.491 E1.27401
G1 X70.031 Y32.389 E1.31638
G1 X69.585 Y32.093 E1.35071
G1 X69.097 Y31.55 E1.39753
G3 X68.766 Y30.856 I2.968 J-1.842 E1.44694
G3 X68.654 Y30.096 I3.379 J-.886 E1.49631
G3 X68.853 Y29.111 I4.293 J.355 E1.5609
G1 X69.107 Y28.644 E1.59499
G3 X69.491 Y28.21 I2.8 J2.09 E1.6322
G1 X69.491 Y28.21 F9000
G1 X69.897 Y28.576
;TYPE:External perimeter
G1 F1800
G1 X70.006 Y28.466 E1.64213
G1 X70.544 Y28.177 E1.6813
G1 X71.142 Y28.059 E1.72039
G1 X71.749 Y28.123 E1.75953
G1 X72.311 Y28.363 E1.79872
G1 X72.776 Y28.758 E1.83785
G1 X73.104 Y29.273 E1.87701
G1 X73.266 Y29.861 E1.91613
G1 X73.248 Y30.471 E1.95527
G1 X73.05 Y31.049 E1.99445
G1 X72.758 Y31.473 E2.02747
G1 X72.398 Y31.789 E2.05819
G1 X71.92 Y32.034 E2.09264
G1 X71.324 Y32.15 E2.13158
G1 X70.717 Y32.086 E2.17072
G1 X70.239 Y31.895 E2.20373
G1 X69.849 Y31.613 E2.2346
G1 X69.507 Y31.206 E2.26869
G1 X69.259 Y30.648 E2.30785
G1 X69.187 Y30.042 E2.34699
G1 X69.296 Y29.442 E2.3861
G1 X69.577 Y28.9 E2.42525
G1 X69.844 Y28.63 E2.4496
G1 X70.253 Y28.342 F9000
G1 E1.8996 F600
G92 E0
G1 X98.85 Y26.672 Z.8 F9000
G1 X110.925 Y25.966
G1 Z.3
G1 E.6 F1200
;TYPE:Perimeter
G1 F1800
G1 X111.255 Y26.137 E.62384
G1 X111.737 Y26.588 E.66617
G1 X112.122 Y27.232 E.71429
G3 X112.309 Y27.978 I-3.273 J1.218 E.76371
G3 X112.268 Y28.746 I-3.488 J.199 E.81313
G3 X112.003 Y29.467 I-3.391 J-.838 E.86249
G3 X111.536 Y30.079 I-2.994 J-1.8 E.91196
G3 X110.911 Y30.525 I-2.33 J-2.603 E.9613
G3 X110.181 Y30.768 I-1.46 J-3.173 E1.01074
G3 X109.412 Y30.784 I-.459 J-3.463 E1.06017
G3 X108.673 Y30.573 I.582 J-3.445 E1.10956
G1 X108.11 Y30.226 E1.15197
G1 X107.606 Y29.672 E1.2
G3 X107.274 Y28.978 I2.967 J-1.843 E1.24944
G3 X107.162 Y28.217 I3.379 J-.886 E1.29887
G3 X107.279 Y27.457 I3.49 J.149 E1.34829
G3 X107.615 Y26.765 I3.292 J1.171 E1.39773
G1 X108.14 Y26.204 E1.44701
G1 X108.808 Y25.821 E1.49639
G1 X109.558 Y25.653 E1.54568
G1 X110.054 Y25.665 E1.5775
G1 X110.572 Y25.783 E1.61157
G1 X110.859 Y25.932 E1.63231
G1 X110.859 Y25.932 F9000
G1 X110.674 Y26.428
;TYPE:External perimeter
G1 F1800
G1 X110.987 Y26.6 E1.65521
G1 X111.354 Y26.962 E1.68827
G1 X111.652 Y27.488 E1.72704
G1 X111.784 Y28.084 E1.76619
G1 X111.735 Y28.692 E1.80531
G1 X111.509 Y29.259 E1.84446
G1 X111.126 Y29.734 E1.88359
G1 X110.62 Y30.075 E1.92272
G1 X110.036 Y30.252 E1.96186
G1 X109.426 Y30.249 E2.00098
G1 X108.843 Y30.066 E2.04017
G1 X108.412 Y29.784 E2.0732
G1 X108.016 Y29.327 E2.11198
G1 X107.768 Y28.77 E2.15108
G1 X107.695 Y28.164 E2.19023
G1 X107.804 Y27.563 E2.2294
G1 X108.086 Y27.022 E2.26853
G1 X108.514 Y26.587 E2.30767
G1 X109.052 Y26.298 E2.34684
G1 X109.651 Y26.18 E2.38599
G1 X109.934 Y26.187 E2.40415
G1 X110.452 Y26.306 E2.43824
G1 X110.608 Y26.392 E2.44966
G1 X111.029 Y26.662 F9000
G1 E1.89966 F600
G92 E0
G1 X99.574 Y52.917 Z.8 F9000
G1 X60.239 Y143.07
G1 Z.3
G1 E.6 F1200
;TYPE:Perimeter
G1 F1800
G1 X60.406 Y142.845 E.61797
G1 X60.477 Y142.52 E.6393
G1 X60.477 Y134.95 E1.12479
G1 X60.434 Y134.69 E1.14169
G1 X60.263 Y134.404 E1.16306
G1 X59.991 Y134.212 E1.18441
G1 X59.674 Y134.147 E1.20516
G1 X47.693 Y134.147 E1.97354
G3 X47.043 Y134.015 I.069 J-2.018 E2.01627
M73 P0 R129
G1 X46.754 Y133.777 E2.04028
G1 X46.532 Y133.389 E2.06895
G1 X46.477 Y133.021 E2.09281
G1 X46.477 Y28.835 E8.77459
G3 X46.585 Y28.293 I1.974 J.109 E8.81015
G1 X46.794 Y27.962 E8.83526
G1 X47.113 Y27.752 E8.85975
G1 X47.52 Y27.649 E8.88668
G1 X59.674 Y27.646 E9.66615
G1 X59.973 Y27.589 E9.68567
G1 X60.222 Y27.43 E9.70462
G1 X60.405 Y27.176 E9.7247
G1 X60.477 Y26.843 E9.74655
G1 X60.48 Y23.485 E9.96191
G1 X60.548 Y23.027 E9.9916
G1 X60.694 Y22.753 E10.01151
G1 X60.913 Y22.534 E10.03137
G1 X61.186 Y22.388 E10.05122
G1 X61.53 Y22.32 E10.07371
G1 X153.049 Y22.32 E15.94311
G1 X153.439 Y22.368 E15.96831
G1 X153.728 Y22.505 E15.98882
G1 X153.958 Y22.713 E16.00871
G1 X154.117 Y22.978 E16.02853
G1 X154.206 Y23.421 E16.05751
G1 X154.206 Y197.602 E27.22828
G1 X154.169 Y197.973 E27.25219
G1 X154.043 Y198.278 E27.27335
G1 X153.8 Y198.537 E27.29613
G1 X153.51 Y198.71 E27.31779
G1 X153.09 Y198.79 E27.34521
G1 X49.466 Y198.79 E33.99094
G1 X49.094 Y198.753 E34.01492
G1 X48.79 Y198.627 E34.03602
G1 X48.53 Y198.384 E34.05884
G1 X48.358 Y198.094 E34.08046
G1 X48.277 Y197.675 E34.10783
G1 X48.277 Y144.533 E37.51599
G1 X48.286 Y144.332 E37.52889
G1 X48.414 Y143.875 E37.55933
G1 X48.647 Y143.594 E37.58274
G1 X49.035 Y143.372 E37.61141
G1 X49.403 Y143.318 E37.63526
G1 X59.674 Y143.318 E38.29397
G1 X59.898 Y143.286 E38.30848
G1 X60.191 Y143.127 E38.32986
G1 X60.191 Y143.127 F9000
G1 X59.847 Y142.708
;TYPE:External perimeter
G1 F1800
G1 X59.872 Y142.695 E38.33167
G1 X59.942 Y142.516 E38.344
G1 X59.942 Y134.95 E38.82923
G1 X59.941 Y134.928 E38.83064
G1 X59.854 Y134.752 E38.84323
G1 X59.674 Y134.682 E38.85562
G1 X47.666 Y134.682 E39.62573
G1 X47.153 Y134.632 E39.65879
G1 X46.788 Y134.491 E39.68388
G1 X46.469 Y134.266 E39.70892
G1 X46.215 Y133.972 E39.73384
G1 X46.014 Y133.546 E39.76405
G1 X45.942 Y133.06 E39.79556
G1 X45.942 Y28.835 E46.47984
G1 X45.991 Y28.326 E46.51263
G1 X46.173 Y27.886 E46.54317
G1 X46.412 Y27.581 E46.56802
G1 X46.721 Y27.34 E46.59315
G1 X47.078 Y27.182 E46.61819
G1 X47.474 Y27.113 E46.64397
G1 X59.705 Y27.109 E47.42838
G1 X59.874 Y27.021 E47.4406
G1 X59.942 Y26.843 E47.45282
G1 X59.944 Y23.484 E47.66824
G1 X60.038 Y22.844 E47.70973
G1 X60.259 Y22.431 E47.73977
G1 X60.59 Y22.1 E47.76979
G1 X61.004 Y21.879 E47.79989
G1 X61.477 Y21.785 E47.83082
G1 X153.065 Y21.785 E53.70465
G1 X153.602 Y21.853 E53.73936
G1 X154.029 Y22.054 E53.76963
G1 X154.376 Y22.369 E53.79969
G1 X154.617 Y22.771 E53.82975
G3 X154.742 Y23.421 I-4.765 J1.25 E53.87223
G1 X154.742 Y197.602 E65.043
G1 X154.692 Y198.111 E65.0758
G1 X154.51 Y198.55 E65.10628
G1 X154.274 Y198.853 E65.13091
G1 X153.892 Y199.136 E65.1614
G1 X153.53 Y199.276 E65.18629
G1 X153.123 Y199.326 E65.21259
G1 X49.466 Y199.326 E71.86044
G1 X48.957 Y199.276 E71.89324
G1 X48.517 Y199.094 E71.92378
G1 X48.215 Y198.858 E71.94836
G1 X47.931 Y198.476 E71.97889
G1 X47.792 Y198.114 E72.00376
G1 X47.742 Y197.707 E72.03006
G1 X47.742 Y144.533 E75.44028
G1 X47.773 Y144.077 E75.46959
G1 X47.934 Y143.626 E75.5003
G1 X48.158 Y143.309 E75.52519
G1 X48.451 Y143.056 E75.55002
G1 X48.878 Y142.854 E75.58031
G1 X49.364 Y142.782 E75.61182
G1 X59.674 Y142.782 E76.27303
G1 X59.707 Y142.78 E76.27515
G1 X59.78 Y142.742 E76.28043
G1 X59.932 Y142.266 F9000
G1 E75.73043 F600
G92 E0
G1 X77.436 Y119.591 Z.8 F9000
G1 X152.397 Y22.481
G1 Z.3
G1 E.6 F1200
;TYPE:Solid infill
;WIDTH:0.600907
G1 F1800
G1 X153.804 Y23.888 E.72783
G1 X153.804 Y24.647 E.77659
G1 X151.879 Y22.722 E.95148
G1 X151.121 Y22.722 E1.00018
G1 X153.804 Y25.406 E1.24398
G1 X153.804 Y26.164 E1.29268
G1 X150.362 Y22.722 E1.60539
G1 X149.603 Y22.722 E1.65415
G1 X153.804 Y26.923 E2.03582
G1 X153.804 Y27.682 E2.08458
G1 X148.844 Y22.722 E2.5352
G1 X148.086 Y22.722 E2.5839
G1 X153.804 Y28.441 E3.10343
G1 X153.804 Y29.199 E3.15213
G1 X147.327 Y22.722 E3.74058
G1 X146.568 Y22.722 E3.78934
G1 X153.804 Y29.958 E4.44674
G1 X153.804 Y30.717 E4.4955
G1 X145.809 Y22.722 E5.22186
G1 X145.051 Y22.722 E5.27056
G1 X153.804 Y31.476 E6.06583
G1 X153.804 Y32.234 E6.11453
G1 X144.292 Y22.722 E6.97871
G1 X143.533 Y22.722 E7.02747
G1 X153.804 Y32.993 E7.96061
G1 X153.804 Y33.752 E8.00937
G1 X142.774 Y22.722 E9.01146
G1 X142.015 Y22.722 E9.06022
G1 X153.804 Y34.511 E10.13127
G1 X153.804 Y35.269 E10.17997
G1 X141.257 Y22.722 E11.31988
G1 X140.498 Y22.722 E11.36864
G1 X153.804 Y36.028 E12.57751
G1 X153.804 Y36.787 E12.62627
G1 X139.739 Y22.722 E13.9041
G1 X138.98 Y22.722 E13.95286
G1 X153.804 Y37.546 E15.29964
G1 X153.804 Y38.305 E15.3484
G1 X138.222 Y22.722 E16.76409
G1 X137.463 Y22.722 E16.81285
G1 X153.804 Y39.063 E18.29745
G1 X153.804 Y39.822 E18.34621
G1 X136.704 Y22.722 E19.89977
G1 X135.945 Y22.722 E19.94853
G1 X153.804 Y40.581 E21.57105
G1 X153.804 Y41.34 E21.61981
G1 X135.187 Y22.722 E23.31124
G1 X134.428 Y22.722 E23.36
G1 X153.804 Y42.098 E25.12034
G1 X153.804 Y42.857 E25.1691
G1 X133.669 Y22.722 E26.9984
G1 X132.91 Y22.722 E27.04716
G1 X153.804 Y43.616 E28.94541
G1 X153.804 Y44.375 E28.99417
G1 X132.152 Y22.722 E30.96133
G1 X131.393 Y22.722 E31.01009
G1 X153.804 Y45.133 E33.04616
G1 X153.804 Y45.892 E33.09492
G1 X130.634 Y22.722 E35.19995
G1 X129.875 Y22.722 E35.24871
M73 P0 R128
G1 X153.804 Y46.651 E37.4227
G1 X153.804 Y47.41 E37.47146
G1 X129.117 Y22.722 E39.71436
G1 X128.358 Y22.722 E39.76312
G1 X153.804 Y48.168 E42.07493
G1 X153.804 Y48.927 E42.12369
G1 X127.599 Y22.722 E44.50445
G1 X126.84 Y22.722 E44.55321
G1 X153.804 Y49.686 E47.00293
G1 X153.804 Y50.445 E47.05169
M73 P1 R128
G1 X126.081 Y22.722 E49.57037
G1 X125.323 Y22.722 E49.61907
G1 X153.804 Y51.204 E52.20666
G1 X153.804 Y51.962 E52.25536
G1 X124.564 Y22.722 E54.91186
G1 X123.805 Y22.722 E54.96062
G1 X153.804 Y52.721 E57.68608
G1 X153.804 Y53.48 E57.73484
G1 X123.046 Y22.722 E60.52925
G1 X122.288 Y22.722 E60.57795
G1 X153.804 Y54.239 E63.44127
G1 X153.804 Y54.997 E63.48997
G1 X121.529 Y22.722 E66.4222
G1 X120.77 Y22.722 E66.47096
G1 X153.804 Y55.756 E69.47215
G1 X153.804 Y56.515 E69.52091
G1 X120.011 Y22.722 E72.59106
G1 X119.253 Y22.722 E72.63976
G1 X153.804 Y57.274 E75.77882
G1 X153.804 Y58.032 E75.82752
G1 X118.494 Y22.722 E79.03549
G1 X117.735 Y22.722 E79.08425
G1 X153.804 Y58.791 E82.36117
G1 X153.804 Y59.55 E82.40993
G1 X116.976 Y22.722 E85.75581
G1 X116.218 Y22.722 E85.80451
G1 X153.804 Y60.309 E89.2193
G1 X153.804 Y61.067 E89.268
G1 X115.459 Y22.722 E92.7517
G1 X114.7 Y22.722 E92.80046
G1 X153.804 Y61.826 E96.35312
G1 X153.804 Y62.585 E96.40188
G1 X113.941 Y22.722 E100.02349
G1 X113.183 Y22.722 E100.07219
G1 X153.804 Y63.344 E103.76272
G1 X153.804 Y64.102 E103.81142
G1 X112.424 Y22.722 E107.57086
G1 X111.665 Y22.722 E107.61962
G1 X153.804 Y64.861 E111.44801
G1 X153.804 Y65.62 E111.49677
G1 X110.906 Y22.722 E115.39412
G1 X110.147 Y22.722 E115.44288
G1 X153.804 Y66.379 E119.40919
G1 X153.804 Y67.138 E119.45795
G1 X109.389 Y22.722 E123.49317
G1 X108.63 Y22.722 E123.54193
