; generated by PrusaSlicer 2.8.1+MacOS-arm64 on 2024-11-27 at 05:06:20 UTC


;
;

;
;
; 

; external perimeters extrusion width = 0.55mm
; perimeters extrusion width = 0.60mm
; infill extrusion width = 0.60mm
; solid infill extrusion width = 0.60mm
; top infill extrusion width = 0.55mm
; first layer extrusion width = 0.60mm

M73 P0 R131

EXCLUDE_OBJECT_DEFINE NAME='e_lid' CENTER=125.775,121.519 POLYGON=[[177.932,32.488],[178.689,32.677],[179.248,33.071],[179.682,33.720],[179.834,34.485],[179.834,208.829],[179.748,209.409],[179.549,209.857],[179.248,210.243],[178.862,210.544],[178.320,210.769],[177.834,210.829],[74.034,210.829],[73.548,210.769],[73.006,210.544],[72.620,210.243],[72.270,209.772],[72.094,209.315],[72.034,208.829],[72.072,155.095],[72.270,154.542],[72.620,154.071],[73.091,153.721],[73.740,153.507],[84.234,153.485],[84.234,146.185],[72.038,146.176],[71.469,146.033],[70.891,145.667],[70.470,145.128],[70.256,144.479],[70.234,39.814],[70.320,39.233],[70.518,38.786],[70.820,38.400],[71.206,38.098],[71.653,37.900],[72.136,37.816],[84.234,37.814],[84.236,34.387],[84.351,33.812],[84.627,33.294],[85.042,32.879],[85.560,32.602],[86.136,32.488]]

M190 S70 ; set bed temperature and wait for it to be reached
M104 S245 ; set temperature
;TYPE:Custom
START_PRINT BED_TEMP=70 HOTEND_TEMP=245 FILAMENT_TYPE=PET EXTRUSION_MULTIPLIER=0.96
M109 S245 ; set temperature and wait for it to be reached
G21 ; set units to millimeters
G90 ; use absolute coordinates
M82 ; use absolute distances for extrusion
G92 E0
; Filament gcode
; ########################### NOTE OFFSET CHANGES ####################################
; Prevents PETG buildup on nozzle.
; PETG does not like to be touching the nozzle, this causes buildup on nozzle
; Once the bed z distance is finaly chuned a small offset for PETG works perfectly
SET_GCODE_OFFSET Z=0.06
; ####################################################################################
M107
;LAYER_CHANGE
;Z:0.3
;HEIGHT:0.3
G1 E-.55 F600
G1 Z.8 F9000
EXCLUDE_OBJECT_START NAME='e_lid'
G92 E0
G1 X137.283 Y204.569
G1 Z.3
G1 E.6 F1200
;TYPE:Perimeter
;WIDTH:0.6
G1 F1800
G3 X137.031 Y205.045 I-3.974 J-1.803 E.63456
G3 X136.409 Y205.735 I-3.131 J-2.198 E.69429
G3 X135.612 Y206.21 I-2.344 J-3.024 E.75394
G3 X134.71 Y206.429 I-1.35 J-3.585 E.81362
G3 X133.431 Y206.278 I-.236 J-3.489 E.89669
G1 X132.761 Y205.96 E.94425
G1 X132.229 Y205.526 E.98828
G1 X131.887 Y205.119 E1.02237
G3 X131.473 Y204.289 I3.19 J-2.111 E1.082
G3 X131.321 Y203.373 I3.67 J-1.077 E1.1417
G3 X131.447 Y202.454 I3.826 J.053 E1.20134
G3 X131.964 Y201.42 I3.713 J1.213 E1.27575
G1 X132.459 Y200.923 E1.32074
G3 X133.255 Y200.448 I2.343 J3.024 E1.38033
G3 X134.157 Y200.228 I1.349 J3.58 E1.44002
G3 X135.083 Y200.285 I.233 J3.819 E1.49967
G3 X135.952 Y200.611 I-.902 J3.717 E1.55934
G3 X136.685 Y201.179 I-1.959 J3.287 E1.61896
G3 X137.219 Y201.938 I-2.839 J2.563 E1.67862
G3 X137.505 Y202.821 I-3.469 J1.613 E1.73829
M73 P0 R130
G3 X137.524 Y203.77 I-3.954 J.553 E1.79931
G1 X137.406 Y204.269 E1.8322
G3 X137.314 Y204.501 I-4.097 J-1.503 E1.84821
G1 X137.314 Y204.501 F9000
G1 X136.783 Y204.344
G1 F1800
G1 X136.56 Y204.789 E1.88013
G1 X136.035 Y205.351 E1.92945
G1 X135.368 Y205.733 E1.97875
G1 X134.618 Y205.902 E2.02806
G3 X133.851 Y205.842 I-.112 J-3.492 E2.0775
G1 X133.231 Y205.613 E2.11989
G1 X132.786 Y205.318 E2.15413
G1 X132.298 Y204.775 E2.20095
G3 X131.966 Y204.081 I2.967 J-1.843 E2.25039
G3 X131.854 Y203.32 I3.379 J-.886 E2.29982
G3 X131.972 Y202.56 I3.491 J.149 E2.34925
G3 X132.384 Y201.753 I3.335 J1.196 E2.40752
G1 X132.833 Y201.307 E2.44811
G3 X133.5 Y200.924 I2.059 J2.821 E2.49754
G3 X134.25 Y200.756 I1.136 J3.304 E2.54693
G3 X135.016 Y200.816 I.112 J3.492 E2.59631
G3 X135.731 Y201.099 I-.922 J3.369 E2.64573
G3 X136.331 Y201.581 I-1.874 J2.948 E2.69519
G3 X136.762 Y202.218 I-2.66 J2.264 E2.74462
G3 X136.986 Y202.953 I-3.21 J1.379 E2.794
G1 X137 Y203.614 E2.8364
G1 X136.887 Y204.137 E2.87072
G1 X136.817 Y204.277 E2.88076
G1 X136.817 Y204.277 F9000
G1 X136.309 Y204.13
;TYPE:External perimeter
G1 F1800
G1 X136.09 Y204.533 E2.91018
G1 X135.661 Y204.968 E2.94936
G1 X135.124 Y205.257 E2.98847
G1 X134.525 Y205.374 E3.02761
G1 X133.918 Y205.31 E3.06675
G1 X133.439 Y205.119 E3.09982
G1 X133.049 Y204.837 E3.13069
G1 X132.708 Y204.43 E3.16474
G1 X132.46 Y203.873 E3.20384
G1 X132.387 Y203.267 E3.24299
G1 X132.497 Y202.666 E3.28217
G1 X132.803 Y202.086 E3.32423
G1 X133.206 Y201.69 E3.36047
G1 X133.744 Y201.401 E3.39964
G1 X134.343 Y201.283 E3.43879
G1 X134.95 Y201.347 E3.47793
G1 X135.511 Y201.588 E3.51709
G1 X135.976 Y201.982 E3.55618
G1 X136.305 Y202.497 E3.59537
G1 X136.467 Y203.085 E3.63449
G1 X136.464 Y203.601 E3.66758
G1 X136.345 Y204.064 E3.69824
G1 X136.097 Y204.498 F9000
G1 E3.14824 F600
G92 E0
G1 X107.453 Y204.636 Z.8 F9000
G1 X76.685 Y204.784
G1 Z.3
G1 E.6 F1200
;TYPE:Perimeter
G1 F1800
G3 X76.61 Y204.639 I2.983 J-1.632 E.61047
G1 X76.429 Y204.14 E.64451
G3 X76.323 Y203.218 I3.719 J-.893 E.70418
G3 X76.494 Y202.306 I3.818 J.243 E.76384
G3 X76.926 Y201.485 I3.576 J1.358 E.82348
G3 X77.482 Y200.901 I2.871 J2.176 E.8753
G3 X78.255 Y200.448 I2.429 J3.26 E.93288
G3 X79.157 Y200.228 I1.349 J3.579 E.99257
G1 X79.74 Y200.224 E1.02996
G1 X80.372 Y200.361 E1.07143
G3 X81.169 Y200.737 I-1.259 J3.699 E1.12807
G3 X81.796 Y201.3 I-2.86 J3.813 E1.18218
G3 X82.285 Y202.079 I-3.021 J2.44 E1.24131
G3 X82.526 Y202.975 I-3.545 J1.437 E1.30096
G3 X82.493 Y203.902 I-3.811 J.328 E1.3606
G3 X82.189 Y204.778 I-3.739 J-.81 E1.42021
G3 X81.639 Y205.526 I-3.334 J-1.875 E1.4799
G3 X80.893 Y206.078 I-2.633 J-2.775 E1.53956
G3 X80.018 Y206.386 I-1.698 J-3.428 E1.5992
G3 X79.091 Y206.423 I-.612 J-3.776 E1.65885
G3 X78.194 Y206.184 I.528 J-3.789 E1.71853
G3 X77.408 Y205.692 I1.622 J-3.465 E1.77815
G3 X76.722 Y204.85 I2.26 J-2.54 E1.8481
G1 X76.722 Y204.85 F9000
G1 X77.16 Y204.541
G1 F1800
G3 X77.114 Y204.456 I2.596 J-1.456 E1.8543
G1 X76.932 Y203.957 E1.88836
G3 X76.858 Y203.191 I3.419 J-.717 E1.93782
G3 X77.013 Y202.438 I3.479 J.324 E1.98722
G1 X77.383 Y201.764 E2.03653
G1 X77.847 Y201.293 E2.07893
G1 X78.5 Y200.924 E2.12703
G3 X79.25 Y200.756 I1.136 J3.303 E2.17642
G1 X79.744 Y200.768 E2.20811
G1 X80.254 Y200.883 E2.24164
G1 X80.857 Y201.175 E2.28461
G1 X81.416 Y201.678 E2.33284
G3 X81.814 Y202.335 I-2.77 J2.129 E2.3822
G3 X82.001 Y203.081 I-3.274 J1.218 E2.43162
G3 X81.96 Y203.849 I-3.487 J.199 E2.48104
G3 X81.695 Y204.57 I-3.391 J-.838 E2.5304
G3 X81.229 Y205.182 I-2.993 J-1.8 E2.57983
G1 X80.603 Y205.628 E2.62912
G1 X79.873 Y205.871 E2.67846
G3 X79.104 Y205.887 I-.459 J-3.463 E2.72789
G1 X78.365 Y205.676 E2.77718
G1 X77.72 Y205.257 E2.82651
G3 X77.197 Y204.606 I2.036 J-2.172 E2.88024
G1 X77.197 Y204.606 F9000
G1 X77.631 Y204.299
;TYPE:External perimeter
G1 F1800
G1 X77.617 Y204.273 E2.88213
G1 X77.435 Y203.774 E2.91619
G1 X77.393 Y203.165 E2.95534
G1 X77.532 Y202.57 E2.99453
G1 X77.84 Y202.044 E3.03362
G1 X78.211 Y201.686 E3.06668
G1 X78.744 Y201.401 E3.10544
G1 X79.343 Y201.283 E3.14459
G1 X79.626 Y201.29 E3.16275
G1 X80.136 Y201.406 E3.19629
G1 X80.602 Y201.646 E3.22991
G1 X81.042 Y202.061 E3.2687
G1 X81.344 Y202.591 E3.30782
G1 X81.476 Y203.187 E3.34697
G1 X81.428 Y203.795 E3.38608
G1 X81.201 Y204.362 E3.42525
G1 X80.818 Y204.837 E3.46438
G1 X80.312 Y205.178 E3.50351
G1 X79.728 Y205.355 E3.54265
G1 X79.118 Y205.352 E3.58177
G1 X78.535 Y205.169 E3.62096
G1 X78.033 Y204.822 E3.6601
G1 X77.671 Y204.363 E3.69759
G1 X77.484 Y203.899 F9000
G1 E3.14759 F600
G92 E0
G1 X80.318 Y175.395 Z.8 F9000
G1 X93.894 Y38.851
G1 Z.3
G1 E.6 F1200
;TYPE:Perimeter
G1 F1800
G3 X93.95 Y38.802 I2.566 J2.838 E.60477
G3 X94.747 Y38.327 I2.344 J3.023 E.66442
G3 X95.65 Y38.107 I1.35 J3.584 E.72417
G3 X96.575 Y38.163 I.231 J3.826 E.78375
G3 X97.443 Y38.49 I-.903 J3.718 E.84338
G3 X98.177 Y39.058 I-1.958 J3.286 E.90305
G3 X98.71 Y39.817 I-2.84 J2.563 E.96268
G3 X98.997 Y40.7 I-3.468 J1.612 E1.02237
G3 X99.01 Y41.627 I-3.791 J.518 E1.08197
G3 X98.568 Y42.855 I-3.407 J-.532 E1.16618
G3 X97.586 Y43.842 I-2.68 J-1.687 E1.25621
G1 X97.104 Y44.089 E1.29094
G3 X96.203 Y44.308 I-1.349 J-3.581 E1.35055
G3 X95.276 Y44.252 I-.234 J-3.818 E1.41026
G3 X94.41 Y43.936 I.915 J-3.851 E1.46952
G1 X93.965 Y43.631 E1.50412
G3 X93.379 Y42.998 I2.896 J-3.264 E1.55953
G3 X92.964 Y42.167 I3.19 J-2.112 E1.61925
G3 X92.813 Y41.252 I3.671 J-1.077 E1.67887
G3 X92.938 Y40.333 I3.825 J.053 E1.7385
G3 X93.329 Y39.491 I3.64 J1.177 E1.79819
G3 X93.839 Y38.902 I3.131 J2.198 E1.84824
G1 X93.839 Y38.902 F9000
G1 X94.238 Y39.262
G1 F1800
G3 X94.324 Y39.185 I2.361 J2.575 E1.85564
G1 X94.991 Y38.803 E1.90494
G1 X95.742 Y38.635 E1.95429
G3 X96.508 Y38.695 I.112 J3.492 E2.00367
G1 X97.223 Y38.978 E2.05299
G1 X97.822 Y39.46 E2.1023
G3 X98.253 Y40.096 I-2.66 J2.264 E2.15167
G3 X98.478 Y40.832 I-3.208 J1.38 E2.20113
G3 X98.475 Y41.601 I-3.474 J.372 E2.25055
G3 X98.246 Y42.335 I-3.428 J-.668 E2.29996
G1 X97.885 Y42.888 E2.34231
G3 X97.338 Y43.367 I-2.471 J-2.272 E2.38903
G1 X96.86 Y43.612 E2.42348
G3 X96.11 Y43.781 I-1.137 J-3.304 E2.47289
G3 X95.343 Y43.72 I-.112 J-3.492 E2.52234
G1 X94.723 Y43.492 E2.56471
G1 X94.277 Y43.196 E2.59904
G1 X93.789 Y42.653 E2.64586
G3 X93.458 Y41.959 I2.968 J-1.842 E2.69527
G3 X93.346 Y41.199 I3.379 J-.886 E2.74464
G3 X93.545 Y40.214 I4.293 J.355 E2.80923
G1 X93.799 Y39.747 E2.84332
G3 X94.184 Y39.313 I2.8 J2.09 E2.88057
G1 X94.184 Y39.313 F9000
G1 X94.589 Y39.679
;TYPE:External perimeter
G1 F1800
G1 X94.698 Y39.569 E2.8905
G1 X95.236 Y39.28 E2.92967
G1 X95.835 Y39.162 E2.96882
G1 X96.442 Y39.226 E3.00796
G1 X97.003 Y39.466 E3.04709
G1 X97.468 Y39.861 E3.08622
G1 X97.796 Y40.376 E3.12538
G1 X97.958 Y40.964 E3.1645
G1 X97.94 Y41.574 E3.20364
G1 X97.742 Y42.152 E3.24282
G1 X97.45 Y42.576 E3.27584
G1 X97.09 Y42.892 E3.30656
G1 X96.612 Y43.137 E3.34101
G1 X96.016 Y43.253 E3.37995
G1 X95.41 Y43.189 E3.41903
G1 X94.931 Y42.998 E3.4521
G1 X94.541 Y42.716 E3.48297
G1 X94.2 Y42.309 E3.51702
G1 X93.952 Y41.751 E3.55618
G1 X93.879 Y41.145 E3.59533
G1 X93.988 Y40.545 E3.63444
G1 X94.27 Y40.003 E3.67362
G1 X94.537 Y39.733 E3.69797
G1 X94.946 Y39.445 F9000
G1 E3.14797 F600
G92 E0
G1 X123.521 Y37.446 Z.8 F9000
G1 X135.883 Y36.581
G1 Z.3
G1 E.6 F1200
;TYPE:Perimeter
G1 F1800
G3 X136.215 Y36.776 I-1.768 J3.392 E.6247
G3 X136.813 Y37.317 I-2.104 J2.925 E.67653
G3 X137.285 Y38.079 I-3.199 J2.509 E.73413
G3 X137.526 Y38.975 I-3.545 J1.437 E.79378
G3 X137.493 Y39.902 I-3.811 J.328 E.85342
G3 X137.189 Y40.778 I-3.739 J-.809 E.91303
G3 X136.639 Y41.526 I-3.334 J-1.875 E.97272
G3 X135.893 Y42.078 I-2.633 J-2.775 E1.03238
G3 X135.018 Y42.386 I-1.698 J-3.427 E1.09202
G3 X134.091 Y42.423 I-.612 J-3.776 E1.15167
G3 X133.194 Y42.184 I.528 J-3.789 E1.21135
G3 X132.451 Y41.736 I1.597 J-3.492 E1.26711
G3 X131.887 Y41.119 I3.162 J-3.452 E1.32079
G3 X131.473 Y40.289 I3.19 J-2.111 E1.38042
G3 X131.321 Y39.373 I3.67 J-1.077 E1.44012
G3 X131.447 Y38.454 I3.826 J.053 E1.49976
G3 X131.837 Y37.612 I3.64 J1.178 E1.55942
G3 X132.783 Y36.69 I2.802 J1.927 E1.64468
G3 X134.6 Y36.213 I1.722 J2.862 E1.76681
G1 X135.383 Y36.364 E1.81795
G3 X135.816 Y36.547 I-1.268 J3.609 E1.84812
G1 X135.816 Y36.547 F9000
G1 X135.618 Y37.069
G1 F1800
G1 X135.947 Y37.24 E1.8719
G1 X136.429 Y37.691 E1.91423
G1 X136.814 Y38.335 E1.96235
G3 X137.001 Y39.081 I-3.273 J1.218 E2.01177
G3 X136.96 Y39.849 I-3.487 J.199 E2.06119
G3 X136.695 Y40.57 I-3.391 J-.838 E2.11055
G3 X136.229 Y41.182 I-2.993 J-1.8 E2.15998
G3 X135.603 Y41.628 I-2.331 J-2.603 E2.20937
G3 X134.873 Y41.871 I-1.459 J-3.173 E2.25881
G3 X134.104 Y41.887 I-.459 J-3.463 E2.30824
G3 X133.365 Y41.676 I.583 J-3.445 E2.35763
G1 X132.802 Y41.329 E2.40004
G1 X132.298 Y40.775 E2.44807
G3 X131.966 Y40.081 I2.967 J-1.843 E2.49751
G3 X131.854 Y39.32 I3.379 J-.886 E2.54694
G3 X131.972 Y38.56 I3.49 J.149 E2.59637
G3 X132.308 Y37.868 I3.291 J1.172 E2.64581
G1 X132.833 Y37.307 E2.69509
G1 X133.5 Y36.924 E2.74442
G1 X134.25 Y36.756 E2.79371
G1 X134.746 Y36.768 E2.82553
G1 X135.264 Y36.887 E2.85962
G1 X135.551 Y37.035 E2.88033
G1 X135.551 Y37.035 F9000
G1 X135.366 Y37.531
;TYPE:External perimeter
G1 F1800
G1 X135.679 Y37.703 E2.90323
G1 X136.046 Y38.065 E2.93629
G1 X136.344 Y38.591 E2.97506
G1 X136.476 Y39.187 E3.01421
G1 X136.428 Y39.795 E3.05332
G1 X136.201 Y40.362 E3.09249
G1 X135.818 Y40.837 E3.13162
G1 X135.312 Y41.178 E3.17075
G1 X134.728 Y41.355 E3.20989
G1 X134.118 Y41.352 E3.24901
G1 X133.535 Y41.169 E3.2882
G1 X133.104 Y40.887 E3.32123
G1 X132.708 Y40.43 E3.36001
G1 X132.46 Y39.873 E3.39911
G1 X132.387 Y39.267 E3.43826
G1 X132.497 Y38.666 E3.47744
G1 X132.778 Y38.125 E3.51654
G1 X133.207 Y37.69 E3.55572
G1 X133.744 Y37.401 E3.59483
G1 X134.343 Y37.283 E3.63398
G1 X134.627 Y37.29 E3.6522
G1 X135.145 Y37.409 E3.68629
G1 X135.3 Y37.495 E3.69766
G1 X135.721 Y37.765 F9000
G1 E3.14766 F600
G92 E0
G1 X124.367 Y64.064 Z.8 F9000
G1 X85.301 Y154.554
G1 Z.3
G1 E.6 F1200
;TYPE:Perimeter
G1 F1800
G1 X85.433 Y154.427 E.61175
G1 X85.631 Y154.056 E.63872
G1 X85.705 Y153.626 E.6667
G1 X85.705 Y146.053 E1.15238
G1 X85.664 Y145.724 E1.17364
G1 X85.484 Y145.316 E1.20224
G1 X85.184 Y144.993 E1.23051
G1 X84.802 Y144.787 E1.25834
G1 X84.366 Y144.714 E1.28669
G1 X72.385 Y144.714 E2.05507
G3 X71.941 Y144.608 I.011 J-1.032 E2.08459
G1 X71.789 Y144.434 E2.09941
G1 X71.705 Y144.084 E2.12249
G1 X71.705 Y39.938 E8.8017
G3 X71.8 Y39.534 I1.802 J.208 E8.82837
G1 X71.967 Y39.369 E8.84343
G1 X72.258 Y39.287 E8.86282
G1 X84.366 Y39.285 E9.63934
G2 X84.864 Y39.189 I-.17 J-2.22 E9.67194
G1 X85.191 Y39 E9.69616
G1 X85.483 Y38.684 E9.72375
G1 X85.635 Y38.373 E9.74595
G1 X85.705 Y37.947 E9.77364
G1 X85.707 Y34.588 E9.98906
G3 X85.821 Y34.179 I1.231 J.122 E10.01643
G1 X85.994 Y34.037 E10.03078
G1 X86.274 Y33.959 E10.04942
G1 X177.809 Y33.959 E15.91985
G1 X178.119 Y34.058 E15.94072
G1 X178.27 Y34.224 E15.95511
G1 X178.363 Y34.524 E15.97525
G1 X178.363 Y208.705 E27.14602
G3 X178.268 Y209.109 I-1.797 J-.207 E27.1727
G1 X178.063 Y209.292 E27.19032
G1 X177.75 Y209.358 E27.21084
G1 X74.158 Y209.358 E33.85452
G3 X73.754 Y209.263 I.207 J-1.797 E33.8812
G1 X73.571 Y209.058 E33.89882
G1 X73.505 Y208.745 E33.91934
G1 X73.505 Y155.636 E37.32539
G3 X73.619 Y155.18 I.847 J-.03 E37.35594
G1 X73.785 Y155.04 E37.36987
G1 X74.135 Y154.957 E37.39294
G1 X84.366 Y154.957 E38.04909
G1 X84.739 Y154.904 E38.07325
G1 X85.137 Y154.713 E38.10156
G1 X85.247 Y154.606 E38.1114
G1 X85.247 Y154.606 F9000
G1 X84.931 Y154.173
G1 F1800
G1 X85.098 Y153.948 E38.12937
G1 X85.169 Y153.623 E38.1507
G1 X85.169 Y146.053 E38.63619
G1 X85.126 Y145.793 E38.65309
G1 X84.956 Y145.507 E38.67443
G1 X84.683 Y145.315 E38.69583
G1 X84.366 Y145.25 E38.71658
G1 X72.385 Y145.25 E39.48496
G3 X71.735 Y145.119 I.069 J-2.018 E39.52768
G1 X71.446 Y144.88 E39.55173
G1 X71.224 Y144.492 E39.5804
G1 X71.169 Y144.124 E39.60426
G1 X71.169 Y39.938 E46.28604
G3 X71.277 Y39.396 I1.974 J.109 E46.3216
G1 X71.486 Y39.065 E46.34671
G1 X71.805 Y38.855 E46.3712
G1 X72.212 Y38.752 E46.39813
G1 X84.366 Y38.749 E47.1776
G1 X84.665 Y38.692 E47.19712
G1 X84.914 Y38.533 E47.21607
G1 X85.097 Y38.279 E47.23615
G1 X85.169 Y37.947 E47.25794
G1 X85.172 Y34.588 E47.47336
G1 X85.24 Y34.13 E47.50305
G1 X85.386 Y33.857 E47.5229
G1 X85.605 Y33.638 E47.54276
G1 X85.878 Y33.492 E47.56261
G1 X86.222 Y33.423 E47.58511
G1 X177.741 Y33.423 E53.45451
G1 X178.131 Y33.471 E53.47971
G1 X178.42 Y33.608 E53.50022
G1 X178.65 Y33.816 E53.52011
G1 X178.809 Y34.081 E53.53993
G1 X178.898 Y34.524 E53.56891
G1 X178.898 Y208.705 E64.73968
G1 X178.862 Y209.076 E64.76359
G1 X178.735 Y209.381 E64.78478
G1 X178.493 Y209.64 E64.80751
G1 X178.202 Y209.813 E64.82922
G1 X177.783 Y209.893 E64.85658
G1 X74.158 Y209.893 E71.50238
G1 X73.787 Y209.857 E71.52629
G1 X73.482 Y209.73 E71.54748
G1 X73.223 Y209.488 E71.57021
G1 X73.05 Y209.197 E71.59192
G1 X72.969 Y208.778 E71.61929
G1 X72.969 Y155.636 E75.02745
G1 X72.979 Y155.435 E75.04036
G1 X73.106 Y154.978 E75.07078
G1 X73.34 Y154.697 E75.09423
G1 X73.727 Y154.475 E75.12284
G1 X74.095 Y154.421 E75.14669
G1 X84.366 Y154.421 E75.8054
G1 X84.59 Y154.389 E75.81991
G1 X84.883 Y154.23 E75.84129
G1 X84.883 Y154.23 F9000
