; generated by PrusaSlicer 2.8.1+MacOS-arm64 on 2024-10-11 at 05:22:07 UTC


;
;

;
;
; 

; external perimeters extrusion width = 0.68mm
; perimeters extrusion width = 0.68mm
; infill extrusion width = 0.68mm
; solid infill extrusion width = 0.68mm
; top infill extrusion width = 0.60mm


EXCLUDE_OBJECT_DEFINE NAME='e_lid' CENTER=123.781,124.436 POLYGON=[[175.938,35.405],[176.695,35.595],[177.254,35.989],[177.687,36.638],[177.840,37.403],[177.840,211.746],[177.780,212.232],[177.555,212.775],[177.254,213.161],[176.783,213.510],[176.326,213.687],[175.840,213.746],[72.040,213.746],[71.554,213.687],[71.012,213.462],[70.626,213.161],[70.276,212.689],[70.100,212.232],[70.040,211.746],[70.078,158.013],[70.276,157.460],[70.697,156.921],[71.185,156.595],[71.746,156.425],[82.240,156.403],[82.240,149.103],[70.044,149.093],[69.474,148.951],[68.897,148.585],[68.476,148.046],[68.261,147.396],[68.240,42.731],[68.326,42.151],[68.524,41.703],[68.826,41.317],[69.212,41.016],[69.659,40.818],[70.142,40.734],[82.240,40.731],[82.242,37.305],[82.357,36.729],[82.633,36.212],[83.048,35.796],[83.566,35.520],[84.142,35.405]]

;TYPE:Custom
START_PRINT BED_TEMP=70 HOTEND_TEMP=230 FILAMENT_TYPE=PET EXTRUSION_MULTIPLIER=0.95 PERIMETER_SPEED=70
G21 ; set units to millimeters
G90 ; use absolute coordinates
M82 ; use absolute distances for extrusion
G92 E0
; Filament gcode
; ########################### NOTE OFFSET CHANGES ####################################
; Prevents PETG buildup on nozzle.
; SET_GCODE_OFFSET Z=0.06
; ####################################################################################
M107
;LAYER_CHANGE
;Z:0.35
;HEIGHT:0.35
G1 E-.5 F240
G1 Z.35 F9000
EXCLUDE_OBJECT_START NAME='e_lid'
G92 E0
G1 X134.225 Y41.396
G1 E.5 F240
;TYPE:External perimeter
;WIDTH:0.675
G1 F1800
G1 X134.282 Y41.502 E.50998
G1 X134.392 Y41.882 E.54279
G1 X134.426 Y42.276 E.57558
G1 X134.381 Y42.669 E.60838
G1 X134.258 Y43.046 E.64127
G1 X134.064 Y43.39 E.67402
G1 X133.805 Y43.689 E.70682
G1 X133.492 Y43.931 E.73963
G1 X133.145 Y44.104 E.77178
G1 X132.852 Y44.19 E.7971
G1 X132.464 Y44.233 E.82947
G1 X132.065 Y44.197 E.86269
G1 X131.686 Y44.084 E.89549
G1 X131.337 Y43.899 E.92825
G1 X131.037 Y43.653 E.96042
G1 X130.838 Y43.422 E.9857
G1 X130.637 Y43.081 E1.01853
G1 X130.508 Y42.708 E1.05126
G1 X130.455 Y42.316 E1.08406
G1 X130.48 Y41.921 E1.11688
G1 X130.584 Y41.539 E1.14971
G1 X130.76 Y41.185 E1.18249
G1 X131.004 Y40.874 E1.21527
G1 X131.305 Y40.616 E1.24815
G1 X131.65 Y40.424 E1.28089
G1 X132.027 Y40.303 E1.31372
G1 X132.42 Y40.26 E1.3465
G1 X132.814 Y40.296 E1.37931
G1 X133.193 Y40.408 E1.41208
G1 X133.542 Y40.594 E1.44488
G1 X133.848 Y40.845 E1.4777
G1 X134.098 Y41.152 E1.51053
G1 X134.184 Y41.316 E1.52589
G1 X134.373 Y41.885 F9000
G1 X134.767 Y41.151
;TYPE:Perimeter
G1 F1800
G1 X134.855 Y41.326 E1.54213
G1 X134.989 Y41.822 E1.58474
G1 X135.023 Y42.336 E1.62746
G1 X134.954 Y42.846 E1.67014
G1 X134.785 Y43.332 E1.71281
G1 X134.524 Y43.776 E1.75552
G1 X134.179 Y44.158 E1.79821
G1 X133.766 Y44.465 E1.84088
G1 X133.322 Y44.677 E1.88168
G1 X132.927 Y44.785 E1.91564
G1 X132.429 Y44.832 E1.95712
G1 X131.93 Y44.782 E1.99871
G1 X131.446 Y44.634 E2.04068
G1 X130.999 Y44.395 E2.08271
G1 X130.611 Y44.077 E2.12431
G1 X130.326 Y43.734 E2.16129
G1 X130.074 Y43.287 E2.20384
G1 X129.914 Y42.797 E2.24659
G1 X129.855 Y42.286 E2.28925
G1 X129.899 Y41.773 E2.33195
G1 X130.043 Y41.279 E2.37462
G1 X130.282 Y40.823 E2.41731
G1 X130.607 Y40.424 E2.45999
G1 X131.005 Y40.097 E2.50271
G1 X131.459 Y39.855 E2.54537
G1 X131.952 Y39.708 E2.58803
G1 X132.465 Y39.662 E2.63074
G1 X132.977 Y39.718 E2.67345
G1 X133.467 Y39.875 E2.71612
G1 X133.916 Y40.125 E2.75874
G1 X134.307 Y40.46 E2.80144
G1 X134.624 Y40.865 E2.84409
G1 X134.727 Y41.071 E2.86319
G1 X134.727 Y41.071 F9000
G1 X135.322 Y40.901
G1 F1800
G1 X135.527 Y41.47 E2.91334
G1 X135.62 Y42.097 E2.9659
G1 X135.586 Y42.73 E3.01847
G1 X135.428 Y43.344 E3.07105
G1 X135.151 Y43.914 E3.1236
G1 X134.767 Y44.419 E3.17621
G1 X134.29 Y44.837 E3.22881
G1 X133.741 Y45.152 E3.2813
G1 X133.257 Y45.325 E3.32392
G1 X132.668 Y45.422 E3.37342
G1 X132.394 Y45.431 E3.39615
G1 X131.875 Y45.384 E3.43937
G1 X131.37 Y45.247 E3.48276
G1 X130.84 Y44.999 E3.53129
G1 X130.327 Y44.628 E3.58379
G1 X129.97 Y44.258 E3.62643
G1 X129.639 Y43.761 E3.67595
G1 X129.395 Y43.176 E3.72851
G1 X129.271 Y42.554 E3.78111
G1 X129.273 Y41.92 E3.83369
G1 X129.4 Y41.299 E3.88625
G1 X129.648 Y40.716 E3.93879
G1 X130.007 Y40.193 E3.9914
G1 X130.462 Y39.752 E4.04395
G1 X130.996 Y39.409 E4.09658
G1 X131.587 Y39.179 E4.14917
G1 X132.211 Y39.071 E4.20169
G1 X132.845 Y39.089 E4.25429
G1 X133.462 Y39.232 E4.30681
G1 X134.04 Y39.494 E4.35944
G1 X134.553 Y39.866 E4.41199
G1 X134.983 Y40.332 E4.46457
G1 X135.281 Y40.822 E4.51213
G1 E4.01213 F240
G92 E0
G1 X135.281 Y40.822 F9000
G1 X94.746 Y42.32
G1 E.5 F240
;TYPE:External perimeter
G1 F1800
G1 X95.034 Y42.473 E.52704
G1 X95.34 Y42.724 E.55986
G1 X95.589 Y43.031 E.59264
G1 X95.773 Y43.381 E.62543
G1 X95.884 Y43.761 E.65826
G1 X95.918 Y44.155 E.69105
G1 X95.872 Y44.548 E.72386
G1 X95.75 Y44.924 E.75664
G1 X95.561 Y45.263 E.78883
G1 X95.367 Y45.498 E.8141
G1 X95.067 Y45.755 E.84686
G1 X94.721 Y45.948 E.87971
G1 X94.344 Y46.068 E.91252
G1 X93.951 Y46.112 E.94531
G1 X93.557 Y46.076 E.97812
G1 X93.185 Y45.967 E1.01027
G1 X92.912 Y45.83 E1.0356
G1 X92.49 Y45.482 E1.08096
G1 X92.33 Y45.301 E1.10099
G1 X92.129 Y44.96 E1.13382
G1 X91.999 Y44.586 E1.16665
G1 X91.946 Y44.194 E1.19945
G1 X91.972 Y43.8 E1.23219
G1 X92.075 Y43.418 E1.265
G1 X92.252 Y43.064 E1.29782
G1 X92.496 Y42.752 E1.33067
G1 X92.796 Y42.495 E1.36343
G1 X93.142 Y42.303 E1.39624
G1 X93.519 Y42.182 E1.42907
G1 X93.912 Y42.139 E1.46185
G1 X94.306 Y42.174 E1.49465
G1 X94.665 Y42.281 E1.52572
G1 X95.173 Y42.601 F9000
G1 X95.004 Y41.779
;TYPE:Perimeter
G1 F1800
G1 X95.408 Y42.004 E1.56407
G1 X95.799 Y42.339 E1.60677
G1 X96.116 Y42.744 E1.64942
G1 X96.346 Y43.204 E1.69207
G1 X96.481 Y43.701 E1.73478
G1 X96.515 Y44.215 E1.7775
G1 X96.446 Y44.725 E1.82018
G1 X96.277 Y45.211 E1.86285
G1 X96.03 Y45.637 E1.90369
G1 X95.764 Y45.948 E1.93763
G1 X95.367 Y46.275 E1.98028
G1 X94.912 Y46.517 E2.02302
G1 X94.419 Y46.664 E2.06568
G1 X93.906 Y46.71 E2.10839
G1 X93.395 Y46.654 E2.15102
G1 X92.925 Y46.507 E2.19186
G1 X92.562 Y46.317 E2.22584
G1 X92.155 Y46.003 E2.26847
G1 X91.818 Y45.613 E2.31121
G1 X91.565 Y45.165 E2.35388
G1 X91.406 Y44.676 E2.39652
G1 X91.347 Y44.164 E2.43926
G1 X91.391 Y43.652 E2.48188
G1 X91.535 Y43.158 E2.52455
G1 X91.774 Y42.702 E2.56724
G1 X92.099 Y42.303 E2.60992
G1 X92.496 Y41.976 E2.65257
G1 X92.951 Y41.734 E2.69531
G1 X93.444 Y41.587 E2.73797
G1 X93.957 Y41.541 E2.78068
G1 X94.468 Y41.597 E2.82331
G1 X94.922 Y41.742 E2.86283
G1 X94.922 Y41.742 F9000
G1 X95.257 Y41.248
G1 F1800
G1 X95.531 Y41.373 E2.8878
G1 X96.045 Y41.744 E2.94037
G1 X96.475 Y42.211 E2.99301
G1 X96.804 Y42.752 E3.04552
G1 X97.019 Y43.349 E3.09814
G1 X97.111 Y43.976 E3.15069
G1 X97.078 Y44.609 E3.20325
G1 X96.92 Y45.223 E3.25583
G1 X96.643 Y45.793 E3.30838
G1 X96.341 Y46.209 E3.35101
G1 X95.909 Y46.62 E3.40046
G1 X95.667 Y46.794 E3.42518
G1 X95.213 Y47.043 E3.46812
G1 X94.72 Y47.212 E3.51134
G1 X94.16 Y47.301 E3.55836
G1 X93.526 Y47.283 E3.61096
G1 X92.909 Y47.14 E3.66348
G1 X92.436 Y46.938 E3.70613
G1 X91.939 Y46.608 E3.7556
G1 X91.487 Y46.164 E3.80814
G1 X91.131 Y45.639 E3.86074
G1 X90.887 Y45.055 E3.91323
G1 X90.763 Y44.433 E3.96583
G1 X90.765 Y43.799 E4.01841
G1 X90.892 Y43.178 E4.07097
G1 X91.14 Y42.594 E4.12359
G1 X91.499 Y42.072 E4.17613
G1 X91.954 Y41.63 E4.22873
G1 X92.487 Y41.288 E4.28125
G1 X93.078 Y41.058 E4.33384
G1 X93.703 Y40.95 E4.38644
G1 X94.337 Y40.968 E4.43904
G1 X94.954 Y41.11 E4.49154
G1 X95.175 Y41.211 E4.51169
G1 E4.01169 F240
G92 E0
G1 X95.175 Y41.211 F9000
G1 X75.464 Y206.337
G1 E.5 F240
;TYPE:External perimeter
G1 F1800
G1 X75.454 Y206.217 E.50999
G1 X75.499 Y205.824 E.54279
G1 X75.621 Y205.447 E.57565
G1 X75.815 Y205.103 E.6084
G1 X76.068 Y204.809 E.64057
G1 X76.305 Y204.616 E.66592
G1 X76.65 Y204.424 E.69866
G1 X77.027 Y204.303 E.73149
G1 X77.42 Y204.26 E.76427
G1 X77.814 Y204.296 E.79708
G1 X78.186 Y204.405 E.82923
G1 X78.459 Y204.542 E.85456
G1 X78.776 Y204.777 E.88728
G1 X79.041 Y205.071 E.9201
G1 X79.242 Y205.412 E.95293
G1 X79.372 Y205.785 E.98569
G1 X79.425 Y206.177 E1.01849
G1 X79.399 Y206.572 E1.05132
G1 X79.296 Y206.954 E1.08413
G1 X79.119 Y207.308 E1.11695
G1 X78.875 Y207.619 E1.14973
G1 X78.575 Y207.877 E1.18254
G1 X78.229 Y208.069 E1.21535
G1 X77.853 Y208.19 E1.24811
G1 X77.459 Y208.233 E1.28098
G1 X77.065 Y208.197 E1.31379
G1 X76.686 Y208.084 E1.34659
G1 X76.337 Y207.899 E1.37935
G1 X76.032 Y207.647 E1.41216
G1 X75.782 Y207.341 E1.44493
G1 X75.598 Y206.99 E1.47779
G1 X75.487 Y206.611 E1.51054
G1 X75.471 Y206.427 E1.52586
G1 X75.518 Y205.828 F9000
G1 X74.869 Y206.352
;TYPE:Perimeter
G1 F1800
G1 X74.857 Y206.157 E1.54206
G1 X74.926 Y205.647 E1.58474
G1 X75.094 Y205.161 E1.62738
G1 X75.356 Y204.717 E1.67013
G1 X75.683 Y204.349 E1.71095
G1 X76.005 Y204.097 E1.74486
G1 X76.459 Y203.855 E1.78752
G1 X76.952 Y203.708 E1.83018
G1 X77.465 Y203.662 E1.87289
G1 X77.977 Y203.718 E1.9156
G1 X78.446 Y203.865 E1.95636
G1 X78.809 Y204.054 E1.9903
G1 X79.216 Y204.369 E2.03298
G1 X79.553 Y204.758 E2.07566
G1 X79.806 Y205.206 E2.11833
G1 X79.965 Y205.696 E2.16105
G1 X80.024 Y206.207 E2.20371
G1 X79.981 Y206.72 E2.2464
G1 X79.836 Y207.214 E2.28909
G1 X79.597 Y207.67 E2.33178
G1 X79.272 Y208.069 E2.37446
G1 X78.875 Y208.396 E2.41711
G1 X78.42 Y208.638 E2.45985
G1 X77.927 Y208.785 E2.50251
G1 X77.415 Y208.831 E2.54514
G1 X76.903 Y208.775 E2.58785
G1 X76.413 Y208.618 E2.63052
G1 X75.963 Y208.368 E2.67321
G1 X75.572 Y208.033 E2.71591
G1 X75.255 Y207.628 E2.75856
G1 X75.025 Y207.167 E2.80128
G1 X74.89 Y206.67 E2.84399
G1 X74.875 Y206.442 E2.86294
G1 X74.875 Y206.442 F9000
G1 X74.261 Y206.367
G1 F1800
G1 X74.293 Y205.763 E2.9131
G1 X74.451 Y205.149 E2.96568
G1 X74.728 Y204.578 E3.01831
G1 X75.112 Y204.075 E3.07079
G1 X75.491 Y203.727 E3.11346
G1 X75.996 Y203.409 E3.16295
G1 X76.587 Y203.179 E3.21554
G1 X77.211 Y203.071 E3.26806
G1 X77.845 Y203.089 E3.32066
G1 X78.139 Y203.141 E3.34542
G1 X78.634 Y203.291 E3.38831
G1 X79.112 Y203.534 E3.43278
G1 X79.52 Y203.832 E3.47468
G1 X79.884 Y204.207 E3.51802
G1 X80.24 Y204.732 E3.57062
G1 X80.485 Y205.317 E3.62322
G1 X80.608 Y205.939 E3.6758
G1 X80.606 Y206.573 E3.72838
G1 X80.479 Y207.194 E3.78094
G1 X80.231 Y207.777 E3.83348
G1 X79.872 Y208.3 E3.88609
G1 X79.417 Y208.741 E3.93864
G1 X78.884 Y209.084 E3.9912
G1 X78.293 Y209.314 E4.04379
G1 X77.668 Y209.422 E4.09639
G1 X77.035 Y209.404 E4.1489
G1 X76.417 Y209.261 E4.2015
G1 X75.84 Y208.999 E4.25405
G1 X75.326 Y208.627 E4.30667
G1 X74.896 Y208.161 E4.35925
G1 X74.567 Y207.619 E4.41183
G1 X74.352 Y207.023 E4.46437
G1 X74.269 Y206.456 E4.51189
G1 E4.01189 F240
G92 E0
G1 X74.269 Y206.456 F9000
G1 X134.01 Y207.446
G1 E.5 F240
;TYPE:External perimeter
G1 F1800
G1 X133.875 Y207.619 E.5182
G1 X133.575 Y207.877 E.55101
G1 X133.229 Y208.069 E.58382
G1 X132.853 Y208.19 E.61658
G1 X132.459 Y208.233 E.64945
G1 X132.065 Y208.197 E.68226
G1 X131.693 Y208.088 E.71441
G1 X131.42 Y207.951 E.73974
G1 X131.103 Y207.716 E.77246
G1 X130.838 Y207.422 E.80528
G1 X130.637 Y207.081 E.83811
G1 X130.508 Y206.708 E.87084
G1 X130.455 Y206.316 E.90364
G1 X130.48 Y205.921 E.93646
G1 X130.584 Y205.539 E.96929
G1 X130.745 Y205.208 E.99981
G1 X131.051 Y204.832 E1.04001
G1 X131.305 Y204.616 E1.06766
G1 X131.65 Y204.424 E1.1004
G1 X132.027 Y204.303 E1.13323
G1 X132.42 Y204.26 E1.16601
G1 X132.814 Y204.296 E1.19882
G1 X133.193 Y204.408 E1.23159
G1 X133.542 Y204.594 E1.26439
G1 X133.848 Y204.845 E1.29721
G1 X134.098 Y205.152 E1.33004
G1 X134.282 Y205.502 E1.36283
G1 X134.392 Y205.882 E1.39564
G1 X134.427 Y206.268 E1.42778
G1 X134.399 Y206.572 E1.4531
G1 X134.296 Y206.954 E1.48591
G1 X134.119 Y207.308 E1.51873
G1 X134.066 Y207.376 E1.52588
G1 X133.647 Y207.805 F9000
G1 X134.476 Y207.818
;TYPE:Perimeter
G1 F1800
G1 X134.272 Y208.069 E1.5527
G1 X133.875 Y208.396 E1.59535
G1 X133.42 Y208.638 E1.63809
G1 X132.927 Y208.785 E1.68075
G1 X132.415 Y208.831 E1.72338
G1 X131.903 Y208.775 E1.76609
G1 X131.433 Y208.628 E1.80693
G1 X131.07 Y208.438 E1.84091
G1 X130.663 Y208.124 E1.88354
G1 X130.327 Y207.735 E1.92617
G1 X130.074 Y207.287 E1.96884
G1 X129.914 Y206.797 E2.01159
G1 X129.855 Y206.286 E2.05425
G1 X129.899 Y205.773 E2.09695
G1 X130.043 Y205.279 E2.13962
G1 X130.236 Y204.89 E2.17563
G1 X130.541 Y204.488 E2.21748
G1 X130.916 Y204.155 E2.25907
G1 X131.362 Y203.894 E2.30192
G1 X131.84 Y203.73 E2.34383
G1 X132.343 Y203.661 E2.38593
G1 X132.85 Y203.692 E2.42805
G1 X133.341 Y203.822 E2.47017
G1 X133.809 Y204.052 E2.51341
G1 X134.22 Y204.369 E2.55645
G1 X134.563 Y204.768 E2.60008
G1 X134.81 Y205.209 E2.642
G1 X134.975 Y205.728 E2.68716
G1 X135.027 Y206.231 E2.72909
G1 X134.981 Y206.721 E2.7699
G1 X134.836 Y207.214 E2.81251
G1 X134.597 Y207.67 E2.8552
G1 X134.533 Y207.748 E2.86357
G1 X134.533 Y207.748 F9000
G1 X134.946 Y208.192
G1 F1800
G1 X134.872 Y208.3 E2.87443
G1 X134.417 Y208.741 E2.92698
G1 X133.884 Y209.084 E2.97954
G1 X133.293 Y209.314 E3.03213
G1 X132.668 Y209.422 E3.08473
G1 X132.035 Y209.404 E3.13724
G1 X131.417 Y209.261 E3.18984
G1 X130.945 Y209.059 E3.23242
G1 X130.448 Y208.73 E3.28185
G1 X129.995 Y208.286 E3.33445
G1 X129.639 Y207.761 E3.38705
G1 X129.395 Y207.176 E3.43961
G1 X129.271 Y206.554 E3.49221
G1 X129.273 Y205.92 E3.54479
G1 X129.4 Y205.299 E3.59735
G1 X129.648 Y204.716 E3.64989
G1 X129.727 Y204.573 E3.66344
G1 X130.039 Y204.152 E3.70689
G1 X130.462 Y203.752 E3.75517
G1 X130.996 Y203.409 E3.8078
G1 X131.587 Y203.179 E3.86039
G1 X132.211 Y203.071 E3.91291
G1 X132.845 Y203.089 E3.96551
G1 X133.462 Y203.232 E4.01803
G1 X134.04 Y203.494 E4.07066
G1 X134.553 Y203.866 E4.12321
G1 X134.983 Y204.332 E4.17579
G1 X135.312 Y204.874 E4.22837
G1 X135.527 Y205.47 E4.28091
G1 X135.62 Y206.097 E4.33347
G1 X135.604 Y206.611 E4.37612
G1 X135.479 Y207.194 E4.42557
G1 X135.231 Y207.777 E4.47811
G1 X134.997 Y208.118 E4.51241
G1 E4.01241 F240
G92 E0
G1 X134.997 Y208.118 F9000
G1 X82.481 Y156.65
G1 E.5 F240
;TYPE:External perimeter
G1 F1800
G1 X82.504 Y156.637 E.50219
G1 X82.577 Y156.443 E.51938
G1 X82.577 Y149.065 E1.13122
G1 X82.573 Y149.016 E1.1353
G1 X82.471 Y148.836 E1.15246
G1 X82.278 Y148.765 E1.16951
G1 X70.084 Y148.756 E2.18072
G1 X69.746 Y148.671 E2.20962
G1 X69.328 Y148.49 E2.24739
G1 X69.084 Y148.27 E2.27463
G1 X68.853 Y148.003 E2.30391
G1 X68.653 Y147.592 E2.34181
G1 X68.577 Y147.079 E2.38482
G1 X68.577 Y42.755 E11.03611
G1 X68.653 Y42.246 E11.07879
G1 X68.816 Y41.878 E11.11217
G1 X69.066 Y41.557 E11.14591
G1 X69.387 Y41.307 E11.17965
G1 X69.758 Y41.143 E11.21329
G1 X70.17 Y41.071 E11.24797
G1 X82.33 Y41.064 E12.25636
G1 X82.503 Y40.966 E12.27285
G1 X82.577 Y40.773 E12.28999
G1 X82.58 Y37.337 E12.57493
G1 X82.678 Y36.844 E12.61661
G1 X82.907 Y36.415 E12.65694
G1 X83.251 Y36.07 E12.69734
G1 X83.681 Y35.841 E12.73774
G1 X84.173 Y35.743 E12.77934
G1 X175.739 Y35.743 E20.37264
G1 X176.16 Y35.773 E20.40764
G1 X176.619 Y35.945 E20.44829
G1 X177.014 Y36.228 E20.48859
G1 X177.297 Y36.624 E20.52895
G1 X177.469 Y37.079 E20.56929
G1 X177.502 Y37.506 E20.60481
G1 X177.502 Y211.617 E35.04333
G1 X177.451 Y212.146 E35.0874
G1 X177.261 Y212.603 E35.12844
G1 X177.014 Y212.92 E35.16177
G1 X176.697 Y213.168 E35.19515
G1 X176.239 Y213.357 E35.23624
G1 X175.82 Y213.409 E35.27125
G1 X72.169 Y213.409 E43.86673
G1 X71.64 Y213.357 E43.91081
G1 X71.183 Y213.168 E43.95182
G1 X70.869 Y212.923 E43.98485
G1 X70.576 Y212.529 E44.02557
G1 X70.429 Y212.15 E44.05928
G1 X70.377 Y211.727 E44.09462
G1 X70.377 Y158.56 E48.50361
G1 X70.41 Y158.086 E48.54301
G1 X70.527 Y157.759 E48.57181
G1 X70.75 Y157.358 E48.60986
G1 X71.118 Y157.023 E48.65113
G1 X71.558 Y156.815 E48.69149
G1 X72.063 Y156.74 E48.73383
G1 X82.277 Y156.74 E49.58085
G1 X82.331 Y156.736 E49.58534
G1 X82.403 Y156.695 E49.59221
G1 X82.566 Y156.117 F9000
G1 X82.909 Y157.079
;TYPE:Perimeter
G1 F1800
G1 X82.914 Y157.076 E49.59269
G1 X83.108 Y156.787 E49.62155
G1 X83.177 Y156.44 E49.65089
