; generated by PrusaSlicer 2.8.1+MacOS-arm64 on 2024-10-09 at 09:22:05 UTC


;
;

;
;
; 

; external perimeters extrusion width = 0.68mm
; perimeters extrusion width = 0.68mm
; infill extrusion width = 0.68mm
; solid infill extrusion width = 0.68mm
; top infill extrusion width = 0.60mm


EXCLUDE_OBJECT_DEFINE NAME='e_lid' CENTER=115.465,126.377 POLYGON=[[167.623,37.346],[168.380,37.535],[168.939,37.929],[169.372,38.578],[169.524,39.343],[169.524,213.687],[169.438,214.267],[169.240,214.715],[168.939,215.101],[168.553,215.402],[168.105,215.601],[167.524,215.687],[63.724,215.687],[63.144,215.601],[62.696,215.402],[62.310,215.101],[61.961,214.630],[61.784,214.173],[61.724,213.687],[61.763,159.953],[61.961,159.400],[62.381,158.861],[62.869,158.535],[63.431,158.365],[73.924,158.343],[73.924,151.043],[61.728,151.034],[61.159,150.891],[60.581,150.525],[60.161,149.986],[59.946,149.337],[59.924,44.672],[60.011,44.091],[60.209,43.644],[60.510,43.258],[60.896,42.956],[61.344,42.758],[61.826,42.674],[73.924,42.672],[73.927,39.245],[74.041,38.670],[74.318,38.152],[74.733,37.737],[75.251,37.460],[75.826,37.346]]

;TYPE:Custom
START_PRINT BED_TEMP=70 HOTEND_TEMP=230 FILAMENT_TYPE=PET EXTRUSION_MULTIPLIER=0.95 PERIMETER_SPEED=70
G21 ; set units to millimeters
G90 ; use absolute coordinates
M82 ; use absolute distances for extrusion
G92 E0
; Filament gcode
; ########################### NOTE OFFSET CHANGES ####################################
; Prevents PETG buildup on nozzle.
; SET_GCODE_OFFSET Z=0.06
; ####################################################################################
M107
;LAYER_CHANGE
;Z:0.35
;HEIGHT:0.35
G1 E-.5 F240
G1 Z.35 F9000
EXCLUDE_OBJECT_START NAME='e_lid'
G92 E0
G1 X115.838 Y127.958
G1 E.5 F240
;TYPE:External perimeter
;WIDTH:0.675
G1 F1800
G1 X116.424 Y127.943 E.54861
G1 X116.669 Y127.867 E.56988
G1 X116.842 Y127.667 E.59181
G1 X116.904 Y127.167 E.63359
G1 X116.905 Y123.42 E.94432
G1 X117.045 Y123.046 E.97744
G1 X117.186 Y122.9 E.99427
G1 X117.607 Y122.797 E1.03021
G1 X118.923 Y122.807 E1.13935
G1 X119.266 Y122.943 E1.16995
G1 X119.373 Y123.07 E1.18372
G1 X119.482 Y123.377 E1.21074
G1 X119.484 Y127.497 E1.5524
G1 X119.4 Y128.184 E1.6098
G1 X119.216 Y128.749 E1.65908
G1 X118.959 Y129.186 E1.70112
G1 X118.606 Y129.545 E1.74287
G1 X118.095 Y129.855 E1.79243
G1 X117.521 Y130.057 E1.84289
G1 X116.74 Y130.187 E1.90855
G1 X116.06 Y130.233 E1.96507
G1 X114.619 Y130.212 E2.08458
G1 X114.084 Y129.974 E2.13314
G1 X113.776 Y129.662 E2.1695
G1 X113.638 Y129.369 E2.19636
G1 X113.577 Y129.031 E2.22484
G1 X113.566 Y123.482 E2.685
G1 X113.659 Y123.158 E2.71295
G1 X113.864 Y122.94 E2.73777
G1 X114.132 Y122.858 E2.76101
G1 X115.117 Y122.85 E2.8427
G1 X115.478 Y122.918 E2.87316
G1 X115.693 Y123.1 E2.89652
G1 X115.829 Y123.482 E2.93015
G1 X115.829 Y127.876 E3.29453
G1 X116.426 Y127.938 F9000
G1 E2.79453 F240
G92 E0
G1 X120.084 Y126.51 F9000
G1 E.5 F240
;TYPE:Perimeter
G1 F1800
G1 X120.084 Y127.497 E.58185
G1 X119.995 Y128.259 E.64547
G1 X119.785 Y128.94 E.70457
G1 X119.471 Y129.498 E.75767
G1 X119.031 Y129.968 E.81106
G1 X118.4 Y130.371 E.87315
G1 X117.714 Y130.625 E.93381
G1 X116.835 Y130.779 E1.00781
G1 X116.099 Y130.832 E1.069
G1 X114.612 Y130.812 E1.19232
G1 X114.261 Y130.734 E1.22214
G1 X113.813 Y130.509 E1.26371
G1 X113.575 Y130.334 E1.28821
G1 X113.244 Y129.939 E1.33095
;WIDTH:0.715669
G1 X113.127 Y129.716 E1.35325
;WIDTH:0.756339
G1 X113.009 Y129.493 E1.37701
;WIDTH:0.796518
G1 X112.957 Y129.357 E1.39153
;WIDTH:0.836697
G1 X112.904 Y129.221 E1.4069
G1 X112.88 Y129.36 E1.42175
;WIDTH:0.796272
G1 X112.857 Y129.498 E1.4357
;WIDTH:0.755848
G1 X112.833 Y129.637 E1.44897
;WIDTH:0.715424
G1 X112.809 Y129.775 E1.46137
;WIDTH:0.675
G1 X112.628 Y130.262 E1.50445
G1 X112.422 Y130.521 E1.53189
G1 X112.02 Y130.744 E1.57001
G1 X111.667 Y130.825 E1.60004
G1 X110.533 Y130.822 E1.69408
G1 X110.198 Y130.757 E1.72238
G1 X109.77 Y130.522 E1.76287
G1 X109.548 Y130.24 E1.79263
G1 X109.374 Y129.789 E1.83272
G1 X109.361 Y129.639 E1.84521
G1 X109.36 Y123.422 E2.36077
G1 X109.43 Y123.073 E2.39029
G1 X109.616 Y122.699 E2.42493
G1 X109.848 Y122.445 E2.45346
G1 X110.17 Y122.293 E2.48299
G1 X110.667 Y122.197 E2.52497
G1 X111.698 Y122.211 E2.61048
G1 X112.02 Y122.279 E2.63777
G1 X112.378 Y122.476 E2.67166
G1 X112.583 Y122.688 E2.69612
;WIDTH:0.718726
G1 X112.718 Y122.945 E2.72195
;WIDTH:0.762453
G1 X112.854 Y123.202 E2.74958
;WIDTH:0.811997
G1 X112.9 Y123.406 E2.77088
G1 X112.973 Y123.215 E2.79171
;WIDTH:0.763294
G1 X113.045 Y123.024 E2.81113
;WIDTH:0.714591
G1 X113.32 Y122.622 E2.85419
;WIDTH:0.675
G1 X113.583 Y122.411 E2.88215
G1 X114.051 Y122.263 E2.92285
G1 X115.113 Y122.25 E3.01093
G1 X115.649 Y122.34 E3.056
G1 X115.944 Y122.506 E3.08407
G1 X116.218 Y122.81 E3.11801
G1 X116.274 Y122.978 E3.1327
;WIDTH:0.642817
G1 X116.33 Y123.147 E3.14667
;WIDTH:0.610635
G1 X116.348 Y123.283 E3.15683
;WIDTH:0.58183
G1 X116.366 Y123.42 E3.16651
;WIDTH:0.592155
G1 X116.385 Y123.239 E3.17952
;WIDTH:0.631285
G1 X116.405 Y123.058 E3.19352
;WIDTH:0.675
G1 X116.499 Y122.798 E3.21645
G1 X116.747 Y122.474 E3.25029
G1 X117.057 Y122.308 E3.27945
G1 X117.546 Y122.199 E3.321
G1 X118.928 Y122.207 E3.43561
G1 X119.276 Y122.28 E3.4651
G1 X119.692 Y122.516 E3.50476
G1 X119.909 Y122.8 E3.5344
G1 X120.074 Y123.259 E3.57485
G1 X120.082 Y123.376 E3.58458
G1 X120.084 Y126.42 E3.83701
G1 E3.33701 F240
G92 E0
G1 X120.084 Y126.42 F9000
G1 X116.349 Y127.429
G1 E.5 F240
;WIDTH:0.549775
G1 F1800
G1 X116.367 Y127.166 E.5173
;WIDTH:0.550697
G1 X116.367 Y123.482 E.7595
;WIDTH:0.553025
G1 X116.366 Y123.42 E.7636
G1 E.2636 F240
G92 E0
G1 X116.366 Y123.42 F9000
G1 X112.907 Y129.199
G1 E.5 F240
;WIDTH:0.842943
G1 F1800
G1 X112.9 Y129.032 E.51774
;WIDTH:0.828151
G1 X112.899 Y123.481 E1.09559
;WIDTH:0.811997
G1 X112.9 Y123.406 E1.10323
G1 E.60323 F240
G92 E0
G1 X112.9 Y123.406 F9000
G1 X120.683 Y126.088
G1 E.5 F240
;WIDTH:0.675
G1 F1800
G1 X120.684 Y127.497 E.61684
G1 X120.59 Y128.334 E.68669
G1 X120.353 Y129.132 E.75572
G1 X120.213 Y129.433 E.78325
G1 X119.937 Y129.882 E.82696
G1 X119.451 Y130.397 E.88568
G1 X119.165 Y130.616 E.91555
G1 X118.706 Y130.888 E.95979
G1 X117.906 Y131.193 E1.03079
G1 X116.931 Y131.371 E1.11298
G1 X116.139 Y131.43 E1.17884
G1 X114.603 Y131.412 E1.30622
G1 X114.193 Y131.348 E1.34063
G1 X113.542 Y131.044 E1.40021
G1 X113.145 Y130.752 E1.44108
G1 X113.072 Y130.677 E1.44976
G1 X112.814 Y130.975 E1.48245
G1 X112.429 Y131.217 E1.52016
G1 X111.958 Y131.392 E1.56183
G1 X111.644 Y131.425 E1.58801
G1 X110.532 Y131.422 E1.68023
G1 X110.09 Y131.355 E1.7173
G1 X109.61 Y131.139 E1.76095
G1 X109.268 Y130.873 E1.79688
G1 X109.012 Y130.51 E1.83372
G1 X108.813 Y130.027 E1.87704
G1 X108.762 Y129.639 E1.90949
G1 X108.76 Y123.422 E2.42505
G1 X108.83 Y122.968 E2.46314
G1 X109.103 Y122.388 E2.5163
G1 X109.4 Y122.036 E2.55449
G1 X109.799 Y121.786 E2.59354
G1 X110.312 Y121.64 E2.63777
G1 X110.693 Y121.597 E2.66957
G1 X111.7 Y121.612 E2.75309
G1 X112.109 Y121.675 E2.78741
G1 X112.553 Y121.879 E2.82793
G1 X112.926 Y122.174 E2.86737
G1 X113.301 Y121.881 E2.90683
G1 X113.778 Y121.706 E2.94896
G1 X114.146 Y121.657 E2.97975
G1 X115.109 Y121.65 E3.05961
G1 X115.691 Y121.729 E3.10832
G1 X115.986 Y121.831 E3.1342
G1 X116.328 Y122.048 E3.16779
G1 X116.655 Y121.824 E3.20066
G1 X117.231 Y121.644 E3.2507
G1 X117.616 Y121.597 E3.28286
G1 X118.933 Y121.607 E3.39208
G1 X119.394 Y121.683 E3.43083
G1 X119.874 Y121.908 E3.47479
G1 X120.232 Y122.21 E3.51363
G1 X120.468 Y122.579 E3.54995
G1 X120.652 Y123.083 E3.59444
G1 X120.681 Y123.376 E3.61886
G1 X120.683 Y125.998 E3.83629
G1 E3.33629 F240
G92 E0
G1 X120.683 Y125.998 F9000
G1 X112.212 Y123.348
G1 E.5 F240
;TYPE:External perimeter
G1 F1800
G1 X112.232 Y123.405 E.50501
G1 X112.223 Y129.619 E1.02032
G1 X112.098 Y129.981 E1.05208
G1 X111.957 Y130.114 E1.06815
G1 X111.647 Y130.225 E1.09546
G1 X110.531 Y130.222 E1.18801
G1 X110.181 Y130.082 E1.21927
G1 X110.079 Y129.96 E1.23246
G1 X109.961 Y129.639 E1.26082
G1 X109.96 Y123.422 E1.77638
G1 X110.129 Y123.011 E1.81323
G1 X110.292 Y122.882 E1.83047
G1 X110.675 Y122.797 E1.863
G1 X111.684 Y122.811 E1.94668
G1 X111.985 Y122.936 E1.97371
G1 X112.118 Y123.08 E1.98997
G1 X112.182 Y123.263 E2.00605
G1 X112.225 Y123.861 F9000
G1 E1.50605 F240
G92 E0
G1 X123.691 Y42.25 F9000
G1 E.5 F240
G1 F1800
G1 X123.712 Y42.244 E.50181
G1 X124.105 Y42.201 E.53459
G1 X124.499 Y42.236 E.56739
G1 X124.878 Y42.349 E.60019
G1 X125.227 Y42.535 E.63299
G1 X125.533 Y42.786 E.66581
G1 X125.782 Y43.093 E.69859
G1 X125.966 Y43.443 E.73138
G1 X126.077 Y43.823 E.76421
G1 X126.111 Y44.217 E.797
G1 X126.065 Y44.61 E.82981
G1 X125.943 Y44.986 E.86259
G1 X125.749 Y45.33 E.89534
G1 X125.49 Y45.63 E.92821
G1 X125.177 Y45.872 E.96102
G1 X124.83 Y46.044 E.99314
G1 X124.537 Y46.13 E1.01846
G1 X124.144 Y46.173 E1.05124
G1 X123.75 Y46.138 E1.08404
G1 X123.371 Y46.025 E1.11684
G1 X123.022 Y45.839 E1.14964
G1 X122.722 Y45.594 E1.18176
G1 X122.538 Y45.384 E1.20491
G1 X122.322 Y45.022 E1.23987
G1 X122.192 Y44.648 E1.2727
G1 X122.139 Y44.256 E1.3055
G1 X122.165 Y43.861 E1.33833
G1 X122.268 Y43.479 E1.37114
G1 X122.445 Y43.126 E1.40389
G1 X122.689 Y42.814 E1.43674
G1 X122.989 Y42.557 E1.4695
G1 X123.335 Y42.364 E1.50235
G1 X123.605 Y42.278 E1.52585
G1 X124.203 Y42.224 F9000
G1 X123.573 Y41.668
;TYPE:Perimeter
G1 F1800
G1 X123.637 Y41.649 E1.53139
G1 X124.15 Y41.602 E1.57411
G1 X124.661 Y41.659 E1.61675
G1 X125.152 Y41.815 E1.65947
G1 X125.601 Y42.066 E1.70213
G1 X125.992 Y42.4 E1.74477
G1 X126.309 Y42.806 E1.78749
G1 X126.54 Y43.266 E1.83018
G1 X126.674 Y43.763 E1.87287
G1 X126.708 Y44.276 E1.9155
G1 X126.639 Y44.787 E1.95826
G1 X126.47 Y45.273 E2.00093
G1 X126.208 Y45.716 E2.04361
G1 X125.864 Y46.099 E2.0863
G1 X125.451 Y46.405 E2.12893
G1 X125.007 Y46.618 E2.16977
G1 X124.611 Y46.725 E2.20379
G1 X124.099 Y46.771 E2.24642
G1 X123.598 Y46.718 E2.2882
G1 X123.114 Y46.567 E2.33024
G1 X122.662 Y46.319 E2.37299
G1 X122.272 Y45.991 E2.41525
G1 X122.057 Y45.742 E2.44253
G1 X121.783 Y45.288 E2.4865
G1 X121.599 Y44.737 E2.53467
G1 X121.54 Y44.226 E2.57733
G1 X121.584 Y43.713 E2.62003
G1 X121.728 Y43.219 E2.6627
G1 X121.967 Y42.764 E2.70532
G1 X122.292 Y42.364 E2.74806
G1 X122.689 Y42.037 E2.79071
G1 X123.144 Y41.795 E2.83345
G1 X123.487 Y41.693 E2.86313
G1 X123.487 Y41.693 F9000
G1 X123.456 Y41.088
G1 F1800
G1 X123.896 Y41.012 E2.90016
G1 X124.53 Y41.029 E2.95275
G1 X125.147 Y41.172 E3.00527
G1 X125.724 Y41.435 E3.05786
G1 X126.238 Y41.806 E3.11043
G1 X126.668 Y42.272 E3.16301
G1 X126.997 Y42.814 E3.21559
G1 X127.212 Y43.41 E3.26813
G1 X127.304 Y44.038 E3.32076
G1 X127.271 Y44.671 E3.37332
G1 X127.113 Y45.285 E3.4259
G1 X126.836 Y45.855 E3.47845
G1 X126.452 Y46.359 E3.53099
G1 X125.975 Y46.777 E3.58359
G1 X125.426 Y47.092 E3.63608
G1 X124.942 Y47.265 E3.6787
G1 X124.353 Y47.362 E3.7282
G1 X123.719 Y47.344 E3.7808
G1 X123.102 Y47.202 E3.8333
G1 X122.525 Y46.939 E3.88589
G1 X122.011 Y46.568 E3.93846
G1 X121.575 Y46.1 E3.9915
G1 X121.28 Y45.624 E4.03794
G1 X121.08 Y45.116 E4.08321
G1 X120.956 Y44.495 E4.13572
G1 X120.958 Y43.861 E4.1883
G1 X121.085 Y43.24 E4.24086
G1 X121.333 Y42.656 E4.29348
G1 X121.692 Y42.133 E4.34609
G1 X122.147 Y41.692 E4.39864
G1 X122.68 Y41.35 E4.45116
G1 X123.271 Y41.12 E4.50375
G1 X123.367 Y41.103 E4.51183
G1 E4.01183 F240
G92 E0
G1 X123.367 Y41.103 F9000
G1 X86.431 Y44.26
G1 E.5 F240
;TYPE:External perimeter
G1 F1800
G1 X86.719 Y44.413 E.52704
G1 X87.024 Y44.665 E.55985
G1 X87.274 Y44.971 E.59262
G1 X87.458 Y45.322 E.62548
G1 X87.569 Y45.701 E.65823
G1 X87.602 Y46.095 E.69102
G1 X87.557 Y46.488 E.72382
G1 X87.435 Y46.865 E.75668
G1 X87.245 Y47.203 E.78883
G1 X87.067 Y47.424 E.81236
G1 X86.751 Y47.696 E.84694
G1 X86.406 Y47.888 E.87968
G1 X86.029 Y48.009 E.91251
G1 X85.636 Y48.052 E.94529
G1 X85.242 Y48.016 E.9781
G1 X84.87 Y47.907 E1.01025
G1 X84.597 Y47.771 E1.03554
G1 X84.175 Y47.422 E1.08095
G1 X84.015 Y47.241 E1.10098
G1 X83.814 Y46.9 E1.13381
G1 X83.684 Y46.527 E1.16657
G1 X83.631 Y46.135 E1.19937
G1 X83.657 Y45.74 E1.2322
G1 X83.76 Y45.358 E1.26501
G1 X83.937 Y45.004 E1.29783
G1 X84.18 Y44.693 E1.33056
G1 X84.481 Y44.436 E1.36338
G1 X84.826 Y44.243 E1.39616
G1 X85.203 Y44.123 E1.42897
G1 X85.597 Y44.079 E1.46185
G1 X85.99 Y44.115 E1.49458
G1 X86.35 Y44.222 E1.52572
G1 X86.857 Y44.541 F9000
G1 X86.689 Y43.719
;TYPE:Perimeter
G1 F1800
G1 X87.093 Y43.944 E1.56407
G1 X87.484 Y44.279 E1.60677
G1 X87.801 Y44.685 E1.64949
G1 X88.031 Y45.145 E1.69214
G1 X88.166 Y45.642 E1.73485
G1 X88.199 Y46.155 E1.77748
G1 X88.13 Y46.665 E1.82016
G1 X87.962 Y47.152 E1.86288
G1 X87.714 Y47.577 E1.90369
G1 X87.494 Y47.846 E1.93251
G1 X87.113 Y48.176 E1.97431
G1 X86.676 Y48.426 E2.01606
G1 X86.197 Y48.587 E2.05797
G1 X85.698 Y48.652 E2.0997
G1 X85.188 Y48.617 E2.14209
G1 X84.684 Y48.479 E2.18542
G1 X84.247 Y48.258 E2.22603
G1 X83.84 Y47.943 E2.26871
G1 X83.503 Y47.554 E2.31139
G1 X83.25 Y47.106 E2.35406
G1 X83.091 Y46.616 E2.39678
G1 X83.032 Y46.105 E2.43944
G1 X83.075 Y45.592 E2.48213
G1 X83.219 Y45.098 E2.5248
G1 X83.459 Y44.642 E2.56753
G1 X83.784 Y44.243 E2.61021
G1 X84.181 Y43.916 E2.65286
G1 X84.635 Y43.674 E2.69552
G1 X85.129 Y43.527 E2.73826
G1 X85.641 Y43.481 E2.78089
G1 X86.153 Y43.537 E2.8236
G1 X86.607 Y43.682 E2.86312
G1 X86.607 Y43.682 F9000
G1 X86.942 Y43.188
G1 F1800
G1 X87.216 Y43.313 E2.88809
G1 X87.73 Y43.685 E2.94071
G1 X88.16 Y44.151 E2.99329
G1 X88.488 Y44.693 E3.04583
G1 X88.704 Y45.289 E3.0984
G1 X88.796 Y45.916 E3.15095
G1 X88.763 Y46.549 E3.20351
G1 X88.604 Y47.163 E3.25611
G1 X88.328 Y47.733 E3.30863
G1 X87.921 Y48.267 E3.36431
G1 X87.544 Y48.603 E3.40619
G1 X87.06 Y48.903 E3.45341
G1 X86.469 Y49.133 E3.506
G1 X85.845 Y49.241 E3.55852
G1 X85.211 Y49.223 E3.61112
G1 X84.594 Y49.08 E3.66364
G1 X84.121 Y48.878 E3.70629
G1 X83.624 Y48.549 E3.75572
G1 X83.171 Y48.105 E3.80832
G1 X82.816 Y47.58 E3.86088
G1 X82.571 Y46.995 E3.91348
G1 X82.448 Y46.373 E3.96606
G1 X82.449 Y45.739 E4.01864
G1 X82.577 Y45.118 E4.07122
G1 X82.825 Y44.535 E4.12376
G1 X83.183 Y44.012 E4.17632
G1 X83.639 Y43.571 E4.22893
G1 X84.172 Y43.228 E4.28149
G1 X84.763 Y42.999 E4.33405
G1 X85.388 Y42.89 E4.38666
G1 X86.021 Y42.908 E4.43917
G1 X86.639 Y43.051 E4.49177
G1 X86.86 Y43.151 E4.51189
G1 E4.01189 F240
G92 E0
G1 X86.86 Y43.151 F9000
G1 X67.551 Y206.985
G1 E.5 F240
;TYPE:External perimeter
G1 F1800
G1 X67.753 Y206.749 E.52576
G1 X67.99 Y206.557 E.55105
G1 X68.335 Y206.364 E.58383
G1 X68.712 Y206.244 E.61664
G1 X69.105 Y206.201 E.64942
G1 X69.499 Y206.236 E.68222
G1 X69.871 Y206.345 E.71437
G1 X70.144 Y206.482 E.7397
G1 X70.461 Y206.717 E.77242
G1 X70.726 Y207.011 E.80524
G1 X70.927 Y207.352 E.83807
G1 X71.057 Y207.726 E.8709
G1 X71.11 Y208.118 E.9037
G1 X71.084 Y208.512 E.93644
G1 X70.981 Y208.894 E.96925
G1 X70.804 Y209.248 E1.00207
G1 X70.56 Y209.56 E1.03492
G1 X70.26 Y209.817 E1.06768
G1 X69.914 Y210.01 E1.10053
G1 X69.537 Y210.13 E1.13334
G1 X69.144 Y210.173 E1.16612
G1 X68.75 Y210.138 E1.19892
G1 X68.371 Y210.025 E1.23172
G1 X68.022 Y209.839 E1.26452
G1 X67.716 Y209.588 E1.29734
G1 X67.5 Y209.33 E1.32524
G1 X67.283 Y208.931 E1.3629
G1 X67.172 Y208.551 E1.39573
G1 X67.138 Y208.157 E1.42852
G1 X67.184 Y207.764 E1.46133
G1 X67.306 Y207.388 E1.49411
G1 X67.494 Y207.054 E1.52589
G1 X67.917 Y206.628 F9000
G1 X67.088 Y206.616
;TYPE:Perimeter
G1 F1800
G1 X67.256 Y206.401 E1.54852
G1 X67.69 Y206.037 E1.59549
G1 X68.144 Y205.795 E1.63815
G1 X68.637 Y205.649 E1.68079
G1 X69.15 Y205.602 E1.72351
G1 X69.661 Y205.659 E1.76615
G1 X70.131 Y205.805 E1.80696
G1 X70.494 Y205.995 E1.84094
G1 X70.901 Y206.309 E1.88357
G1 X71.238 Y206.699 E1.92631
G1 X71.491 Y207.147 E1.96898
G1 X71.65 Y207.636 E2.01162
G1 X71.709 Y208.148 E2.05436
G1 X71.665 Y208.66 E2.09698
G1 X71.521 Y209.155 E2.13973
G1 X71.282 Y209.61 E2.18235
G1 X70.957 Y210.01 E2.22509
G1 X70.56 Y210.336 E2.26769
G1 X70.105 Y210.578 E2.31043
G1 X69.612 Y210.725 E2.35309
G1 X69.099 Y210.771 E2.3958
G1 X68.588 Y210.715 E2.43843
G1 X68.097 Y210.559 E2.48115
G1 X67.648 Y210.308 E2.52381
G1 X67.257 Y209.973 E2.56651
G1 X67.041 Y209.716 E2.59435
G1 X66.779 Y209.273 E2.63703
G1 X66.61 Y208.787 E2.6797
