; generated by PrusaSlicer 2.8.0+MacOS-arm64 on 2024-10-04 at 11:56:54 UTC


;
;

;
;
; 

; external perimeters extrusion width = 0.68mm
; perimeters extrusion width = 0.68mm
; infill extrusion width = 0.68mm
; solid infill extrusion width = 0.68mm
; top infill extrusion width = 0.60mm
; support material extrusion width = 0.60mm


EXCLUDE_OBJECT_DEFINE NAME='e_lid' CENTER=124.323,118.648 POLYGON=[[176.481,29.617],[177.238,29.807],[177.797,30.200],[178.230,30.849],[178.382,31.615],[178.382,205.958],[178.296,206.539],[178.098,206.986],[177.797,207.372],[177.411,207.674],[176.868,207.898],[176.382,207.958],[72.582,207.958],[72.096,207.898],[71.554,207.674],[71.168,207.372],[70.819,206.901],[70.642,206.444],[70.582,205.958],[70.621,152.224],[70.819,151.672],[71.168,151.200],[71.640,150.851],[72.289,150.636],[82.782,150.615],[82.782,143.315],[70.586,143.305],[69.927,143.122],[69.368,142.729],[69.019,142.257],[68.804,141.608],[68.782,36.943],[68.869,36.363],[69.067,35.915],[69.368,35.529],[69.754,35.228],[70.202,35.029],[70.684,34.946],[82.782,34.943],[82.785,31.516],[82.899,30.941],[83.176,30.423],[83.591,30.008],[84.109,29.731],[84.684,29.617]]

;TYPE:Custom
START_PRINT BED_TEMP=70 HOTEND_TEMP=235 FILAMENT_TYPE=PET EXTRUSION_MULTIPLIER=0.92 PERIMETER_SPEED=70
G21 ; set units to millimeters
G90 ; use absolute coordinates
M82 ; use absolute distances for extrusion
G92 E0
; Filament gcode
; ########################### NOTE OFFSET CHANGES ####################################
; Prevents PETG buildup on nozzle.
; SET_GCODE_OFFSET Z=0.06
; ####################################################################################
M107
;LAYER_CHANGE
;Z:0.35
;HEIGHT:0.35
G1 E-.5 F240
G1 Z.35 F9000
EXCLUDE_OBJECT_START NAME='e_lid'
G92 E0
G1 X124.696 Y120.229
G1 E.5 F240
G92 E0
;TYPE:External perimeter
;WIDTH:0.675
G1 F1800
G1 X125.282 Y120.214 E.04708
G1 X125.527 Y120.138 E.06768
G1 X125.7 Y119.939 E.08886
G1 X125.762 Y119.438 E.1294
G1 X125.763 Y115.691 E.43032
G1 X125.903 Y115.317 E.46239
G1 X126.044 Y115.172 E.47863
G1 X126.465 Y115.068 E.51346
G1 X127.781 Y115.078 E.61915
G1 X128.124 Y115.215 E.64881
G1 X128.231 Y115.341 E.66209
G1 X128.34 Y115.648 E.68825
G1 X128.342 Y119.768 E1.01912
G1 X128.258 Y120.455 E1.0747
G1 X128.074 Y121.02 E1.12242
G1 X127.817 Y121.458 E1.1632
G1 X127.464 Y121.816 E1.20358
G1 X126.953 Y122.126 E1.25158
G1 X126.379 Y122.328 E1.30045
G1 X125.598 Y122.458 E1.36403
G1 X124.918 Y122.504 E1.41876
G1 X123.477 Y122.483 E1.5345
G1 X122.942 Y122.245 E1.58152
G1 X122.634 Y121.933 E1.61673
G1 X122.496 Y121.64 E1.64274
G1 X122.435 Y121.302 E1.67032
G1 X122.424 Y115.753 E2.11595
G1 X122.517 Y115.429 E2.14302
G1 X122.722 Y115.212 E2.16699
G1 X122.99 Y115.129 E2.18952
G1 X123.975 Y115.121 E2.26863
G1 X124.336 Y115.189 E2.29813
G1 X124.551 Y115.371 E2.32075
G1 X124.687 Y115.753 E2.35331
G1 X124.687 Y120.147 E2.70618
G1 X125.284 Y120.209 F9000
G1 E2.20618 F240
G92 E0
G1 X128.942 Y118.781 F9000
G1 E.5 F240
;TYPE:Perimeter
G1 F1800
G1 X128.942 Y119.768 E.57926
G1 X128.853 Y120.53 E.64087
G1 X128.643 Y121.212 E.69818
G1 X128.329 Y121.769 E.74953
G1 X127.889 Y122.239 E.80123
G1 X127.258 Y122.643 E.8614
G1 X126.572 Y122.896 E.92012
G1 X125.693 Y123.05 E.99179
G1 X124.957 Y123.103 E1.05105
G1 X123.47 Y123.083 E1.17048
G1 X123.119 Y123.006 E1.19934
G1 X122.671 Y122.78 E1.23964
G1 X122.433 Y122.605 E1.26336
G1 X122.102 Y122.21 E1.30475
;WIDTH:0.715669
G1 X121.985 Y121.987 E1.32635
;WIDTH:0.756339
G1 X121.867 Y121.764 E1.34936
;WIDTH:0.796518
G1 X121.815 Y121.628 E1.36342
;WIDTH:0.836697
G1 X121.762 Y121.492 E1.3783
G1 X121.738 Y121.631 E1.39268
;WIDTH:0.796272
G1 X121.714 Y121.769 E1.4062
;WIDTH:0.755848
G1 X121.691 Y121.908 E1.41904
;WIDTH:0.715424
G1 X121.667 Y122.046 E1.43105
;WIDTH:0.675
G1 X121.486 Y122.533 E1.47277
G1 X121.28 Y122.792 E1.49935
G1 X120.878 Y123.016 E1.53631
G1 X120.525 Y123.096 E1.56538
G1 X119.391 Y123.094 E1.65645
G1 X119.056 Y123.028 E1.68387
G1 X118.628 Y122.793 E1.72308
G1 X118.405 Y122.511 E1.75195
G1 X118.232 Y122.06 E1.79074
G1 X118.219 Y121.91 E1.80283
G1 X118.218 Y115.693 E2.30211
G1 X118.288 Y115.345 E2.33062
G1 X118.474 Y114.971 E2.36416
G1 X118.706 Y114.716 E2.39185
G1 X119.028 Y114.564 E2.42045
G1 X119.525 Y114.468 E2.4611
G1 X120.556 Y114.483 E2.54391
G1 X120.878 Y114.55 E2.57032
G1 X121.236 Y114.748 E2.60317
G1 X121.441 Y114.959 E2.6268
;WIDTH:0.718726
G1 X121.576 Y115.216 E2.65181
;WIDTH:0.762453
G1 X121.712 Y115.473 E2.67857
;WIDTH:0.811997
G1 X121.758 Y115.678 E2.6993
G1 X121.831 Y115.486 E2.71956
;WIDTH:0.763294
G1 X121.903 Y115.295 E2.73837
;WIDTH:0.714591
G1 X122.178 Y114.893 E2.78007
;WIDTH:0.675
G1 X122.441 Y114.682 E2.80715
G1 X122.909 Y114.534 E2.84657
G1 X123.971 Y114.522 E2.93186
G1 X124.507 Y114.612 E2.97551
G1 X124.802 Y114.777 E3.00265
G1 X125.076 Y115.081 E3.03552
G1 X125.132 Y115.25 E3.04982
;WIDTH:0.642817
G1 X125.188 Y115.418 E3.06328
;WIDTH:0.610635
G1 X125.206 Y115.555 E3.07319
;WIDTH:0.58183
G1 X125.224 Y115.691 E3.0825
;WIDTH:0.592155
G1 X125.243 Y115.51 E3.0951
;WIDTH:0.631285
G1 X125.263 Y115.329 E3.10866
;WIDTH:0.675
G1 X125.356 Y115.07 E3.13076
G1 X125.605 Y114.745 E3.16364
G1 X125.915 Y114.579 E3.19188
G1 X126.404 Y114.47 E3.23211
G1 X127.786 Y114.478 E3.3431
G1 X128.134 Y114.551 E3.37166
G1 X128.55 Y114.787 E3.41007
G1 X128.767 Y115.071 E3.43877
G1 X128.932 Y115.53 E3.47794
G1 X128.94 Y115.648 E3.48744
G1 X128.941 Y118.691 E3.73182
G1 E3.23182 F240
G92 E0
G1 X128.941 Y118.691 F9000
G1 X125.207 Y119.7
G1 E.5 F240
;WIDTH:0.549775
G1 F1800
G1 X125.225 Y119.438 E.51669
;WIDTH:0.550697
G1 X125.225 Y115.753 E.75131
;WIDTH:0.553025
G1 X125.224 Y115.691 E.75528
G1 E.25528 F240
G92 E0
G1 X121.765 Y121.47 F9000
G1 E.5 F240
;WIDTH:0.842943
G1 F1800
G1 X121.758 Y121.304 E.51708
;WIDTH:0.828151
G1 X121.757 Y115.752 E1.07678
;WIDTH:0.811997
G1 X121.758 Y115.678 E1.08408
G1 X121.758 Y115.678 F9000
G1 X121.07 Y115.619
;TYPE:External perimeter
;WIDTH:0.675
G1 F1800
G1 X121.09 Y115.677 E1.08901
G1 X121.081 Y121.89 E1.58797
G1 X120.956 Y122.252 E1.61873
G1 X120.815 Y122.385 E1.6343
G1 X120.504 Y122.496 E1.66082
G1 X119.389 Y122.494 E1.75036
G1 X119.039 Y122.353 E1.78066
G1 X118.937 Y122.231 E1.79343
G1 X118.819 Y121.91 E1.8209
G1 X118.818 Y115.693 E2.32018
G1 X118.987 Y115.282 E2.35587
G1 X119.15 Y115.153 E2.37256
G1 X119.533 Y115.068 E2.40407
G1 X120.542 Y115.082 E2.48511
G1 X120.843 Y115.207 E2.51128
G1 X120.976 Y115.351 E2.52702
G1 X121.04 Y115.534 E2.54259
G1 X121.083 Y116.132 F9000
G1 E2.04259 F240
G92 E0
G1 X132.549 Y34.522 F9000
G1 E.5 F240
G1 F1800
G1 X132.57 Y34.515 E.50178
G1 X132.963 Y34.472 E.53353
G1 X133.357 Y34.507 E.5653
G1 X133.736 Y34.62 E.59706
G1 X134.085 Y34.806 E.62882
G1 X134.391 Y35.057 E.6606
G1 X134.64 Y35.364 E.69234
G1 X134.824 Y35.714 E.7241
G1 X134.935 Y36.094 E.75589
G1 X134.969 Y36.488 E.78765
G1 X134.923 Y36.881 E.81943
G1 X134.801 Y37.257 E.85118
G1 X134.607 Y37.602 E.88297
G1 X134.348 Y37.901 E.91474
G1 X134.035 Y38.143 E.94651
G1 X133.688 Y38.316 E.97765
G1 X133.395 Y38.401 E1.00215
G1 X133.002 Y38.444 E1.0339
G1 X132.608 Y38.409 E1.06567
G1 X132.229 Y38.296 E1.09743
G1 X131.88 Y38.11 E1.12919
G1 X131.58 Y37.865 E1.1603
G1 X131.396 Y37.656 E1.18266
G1 X131.18 Y37.293 E1.21658
G1 X131.05 Y36.919 E1.24838
G1 X130.997 Y36.527 E1.28015
G1 X131.023 Y36.133 E1.31186
G1 X131.126 Y35.751 E1.34363
G1 X131.303 Y35.397 E1.37541
G1 X131.547 Y35.085 E1.40722
G1 X131.847 Y34.828 E1.43894
G1 X132.193 Y34.635 E1.47076
G1 X132.463 Y34.549 E1.49352
G1 X133.061 Y34.496 F9000
G1 X132.431 Y33.939
;TYPE:Perimeter
G1 F1800
G1 X132.495 Y33.92 E1.49888
G1 X133.008 Y33.874 E1.54024
G1 X133.519 Y33.93 E1.58152
G1 X134.01 Y34.086 E1.62289
G1 X134.459 Y34.337 E1.6642
G1 X134.85 Y34.671 E1.7055
G1 X135.167 Y35.077 E1.74687
G1 X135.398 Y35.537 E1.78821
G1 X135.532 Y36.034 E1.82955
G1 X135.566 Y36.548 E1.87092
G1 X135.497 Y37.058 E1.91225
G1 X135.328 Y37.544 E1.95357
G1 X135.066 Y37.987 E1.9949
G1 X134.722 Y38.37 E2.03624
G1 X134.309 Y38.677 E2.07757
G1 X133.865 Y38.889 E2.11708
G1 X133.469 Y38.996 E2.15002
G1 X132.957 Y39.043 E2.19131
G1 X132.456 Y38.989 E2.23178
G1 X131.972 Y38.838 E2.2725
G1 X131.52 Y38.59 E2.3139
G1 X131.13 Y38.262 E2.35482
G1 X130.915 Y38.014 E2.38118
G1 X130.641 Y37.56 E2.42377
G1 X130.457 Y37.009 E2.47042
G1 X130.398 Y36.497 E2.51181
G1 X130.442 Y35.985 E2.55308
G1 X130.586 Y35.49 E2.59448
G1 X130.825 Y35.035 E2.63575
G1 X131.15 Y34.635 E2.67714
G1 X131.547 Y34.308 E2.71845
G1 X132.002 Y34.067 E2.7598
G1 X132.345 Y33.965 E2.78854
G1 E2.28854 F240
G92 E0
G1 X132.345 Y33.965 F9000
G1 X95.289 Y36.531
G1 E.5 F240
;TYPE:External perimeter
G1 F1800
G1 X95.577 Y36.685 E.52623
G1 X95.882 Y36.936 E.55795
G1 X96.132 Y37.243 E.58975
G1 X96.316 Y37.593 E.62151
G1 X96.427 Y37.973 E.6533
G1 X96.46 Y38.367 E.68505
G1 X96.415 Y38.76 E.71682
G1 X96.293 Y39.136 E.74857
G1 X96.103 Y39.474 E.77971
G1 X95.925 Y39.696 E.80256
G1 X95.609 Y39.967 E.83599
G1 X95.264 Y40.16 E.86774
G1 X94.887 Y40.28 E.89951
G1 X94.494 Y40.323 E.93126
G1 X94.1 Y40.288 E.96303
G1 X93.728 Y40.178 E.99418
G1 X93.455 Y40.042 E1.01867
G1 X93.033 Y39.693 E1.06265
G1 X92.873 Y39.512 E1.08205
G1 X92.672 Y39.172 E1.11377
G1 X92.542 Y38.798 E1.14557
G1 X92.489 Y38.406 E1.17734
G1 X92.515 Y38.011 E1.20913
G1 X92.618 Y37.629 E1.2409
G1 X92.795 Y37.276 E1.27261
G1 X93.038 Y36.964 E1.30437
G1 X93.339 Y36.707 E1.33616
G1 X93.684 Y36.514 E1.36791
G1 X94.061 Y36.394 E1.39968
G1 X94.454 Y36.351 E1.43143
G1 X94.848 Y36.386 E1.4632
G1 X95.208 Y36.493 E1.49336
G1 X95.715 Y36.813 F9000
G1 X95.547 Y35.99
;TYPE:Perimeter
G1 F1800
G1 X95.951 Y36.216 E1.53054
G1 X96.342 Y36.55 E1.57184
G1 X96.659 Y36.956 E1.61321
G1 X96.889 Y37.416 E1.65451
G1 X97.024 Y37.913 E1.69587
G1 X97.057 Y38.426 E1.73715
G1 X96.988 Y38.937 E1.77856
G1 X96.82 Y39.423 E1.81986
G1 X96.572 Y39.848 E1.85938
G1 X96.352 Y40.117 E1.88729
G1 X95.971 Y40.447 E1.92777
G1 X95.534 Y40.697 E1.9682
G1 X95.055 Y40.858 E2.00878
G1 X94.556 Y40.923 E2.04919
G1 X94.046 Y40.889 E2.09024
G1 X93.542 Y40.751 E2.13221
G1 X93.105 Y40.529 E2.17157
G1 X92.698 Y40.214 E2.2129
G1 X92.361 Y39.825 E2.25423
G1 X92.108 Y39.377 E2.29555
G1 X91.949 Y38.887 E2.33692
G1 X91.89 Y38.376 E2.37823
G1 X91.933 Y37.863 E2.41957
G1 X92.077 Y37.369 E2.46089
G1 X92.317 Y36.913 E2.50227
G1 X92.642 Y36.514 E2.5436
G1 X93.039 Y36.187 E2.58491
G1 X93.493 Y35.945 E2.62623
G1 X93.987 Y35.799 E2.6676
G1 X94.499 Y35.752 E2.70889
G1 X95.011 Y35.809 E2.75026
G1 X95.465 Y35.953 E2.78851
G1 E2.28851 F240
G92 E0
G1 X95.465 Y35.953 F9000
G1 X76.409 Y199.256
G1 E.5 F240
;TYPE:External perimeter
G1 F1800
G1 X76.611 Y199.02 E.52495
G1 X76.848 Y198.828 E.54945
G1 X77.193 Y198.635 E.5812
G1 X77.57 Y198.515 E.61297
G1 X77.963 Y198.472 E.64472
G1 X78.357 Y198.507 E.67649
G1 X78.729 Y198.617 E.70764
G1 X79.002 Y198.753 E.73213
G1 X79.319 Y198.989 E.76387
G1 X79.584 Y199.283 E.79566
G1 X79.785 Y199.623 E.82738
G1 X79.915 Y199.997 E.85918
G1 X79.968 Y200.389 E.89095
G1 X79.942 Y200.784 E.92274
G1 X79.839 Y201.165 E.95444
G1 X79.662 Y201.519 E.98622
G1 X79.418 Y201.831 E1.01803
G1 X79.118 Y202.088 E1.04975
G1 X78.772 Y202.281 E1.08157
G1 X78.395 Y202.401 E1.11334
G1 X78.002 Y202.444 E1.14509
G1 X77.608 Y202.409 E1.17686
G1 X77.229 Y202.296 E1.20862
G1 X76.88 Y202.11 E1.24038
G1 X76.574 Y201.859 E1.27216
G1 X76.358 Y201.602 E1.29912
G1 X76.141 Y201.202 E1.33567
G1 X76.03 Y200.822 E1.36746
G1 X75.996 Y200.428 E1.39922
G1 X76.042 Y200.035 E1.431
G1 X76.164 Y199.659 E1.46275
G1 X76.352 Y199.325 E1.49353
G1 X76.774 Y198.899 F9000
G1 X75.946 Y198.887
;TYPE:Perimeter
G1 F1800
G1 X76.114 Y198.672 E1.51544
G1 X76.548 Y198.308 E1.56093
G1 X77.002 Y198.067 E1.60221
G1 X77.495 Y197.92 E1.64352
G1 X78.008 Y197.874 E1.68488
G1 X78.519 Y197.93 E1.72616
G1 X78.989 Y198.076 E1.76568
G1 X79.352 Y198.266 E1.79858
G1 X79.759 Y198.581 E1.83991
G1 X80.096 Y198.97 E1.88124
G1 X80.349 Y199.418 E1.92256
G1 X80.508 Y199.907 E1.96385
G1 X80.567 Y200.419 E2.00524
G1 X80.523 Y200.932 E2.04659
G1 X80.379 Y201.426 E2.08791
G1 X80.14 Y201.881 E2.12918
G1 X79.815 Y202.281 E2.17057
G1 X79.418 Y202.608 E2.21188
G1 X78.963 Y202.849 E2.25323
G1 X78.47 Y202.996 E2.29454
G1 X77.957 Y203.043 E2.33591
G1 X77.446 Y202.986 E2.3772
G1 X76.955 Y202.83 E2.41857
G1 X76.506 Y202.579 E2.45988
G1 X76.115 Y202.245 E2.50118
G1 X75.899 Y201.987 E2.5282
G1 X75.637 Y201.544 E2.56953
G1 X75.468 Y201.058 E2.61085
G1 X75.399 Y200.548 E2.65218
G1 X75.433 Y200.034 E2.69355
G1 X75.567 Y199.537 E2.73489
G1 X75.798 Y199.077 E2.77623
G1 X75.891 Y198.958 E2.78836
G1 E2.28836 F240
G92 E0
G1 X75.891 Y198.958 F9000
G1 X134.76 Y201.323
G1 E.5 F240
;TYPE:External perimeter
G1 F1800
G1 X134.662 Y201.519 E.5176
G1 X134.418 Y201.831 E.54941
G1 X134.118 Y202.088 E.58113
G1 X133.772 Y202.281 E.61295
G1 X133.41 Y202.399 E.64353
G1 X133.002 Y202.444 E.67649
G1 X132.608 Y202.409 E.70826
G1 X132.236 Y202.3 E.73939
G1 X131.963 Y202.163 E.76392
G1 X131.646 Y201.928 E.79561
G1 X131.381 Y201.634 E.8274
G1 X131.18 Y201.293 E.85919
G1 X131.05 Y200.919 E.89099
G1 X130.997 Y200.527 E.92276
G1 X131.023 Y200.133 E.95447
G1 X131.126 Y199.751 E.98624
G1 X131.303 Y199.397 E1.01802
G1 X131.594 Y199.044 E1.05476
G1 X131.847 Y198.828 E1.08148
G1 X132.193 Y198.635 E1.1133
G1 X132.57 Y198.515 E1.14507
G1 X132.963 Y198.472 E1.17682
G1 X133.357 Y198.507 E1.20859
G1 X133.736 Y198.62 E1.24035
G1 X134.085 Y198.806 E1.27211
G1 X134.391 Y199.057 E1.30389
G1 X134.64 Y199.364 E1.33563
G1 X134.824 Y199.714 E1.36739
G1 X134.935 Y200.094 E1.39918
G1 X134.969 Y200.48 E1.4303
G1 X134.942 Y200.784 E1.45481
G1 X134.839 Y201.165 E1.48651
G1 X134.8 Y201.243 E1.49351
G1 X134.474 Y201.746 F9000
G1 X135.29 Y201.595
;TYPE:Perimeter
G1 F1800
G1 X135.14 Y201.881 E1.51945
G1 X134.815 Y202.281 E1.56084
G1 X134.418 Y202.608 E1.60215
G1 X133.963 Y202.849 E1.6435
G1 X133.513 Y202.99 E1.68137
G1 X132.957 Y203.043 E1.72622
G1 X132.446 Y202.986 E1.76751
G1 X131.976 Y202.84 E1.80703
G1 X131.613 Y202.65 E1.83993
G1 X131.206 Y202.336 E1.88121
G1 X130.869 Y201.946 E1.9226
G1 X130.616 Y201.498 E1.96392
G1 X130.457 Y201.009 E2.00521
G1 X130.398 Y200.497 E2.0466
G1 X130.442 Y199.985 E2.08787
G1 X130.586 Y199.49 E2.12927
G1 X130.825 Y199.035 E2.17054
G1 X131.15 Y198.635 E2.21193
G1 X131.547 Y198.308 E2.25324
G1 X132.002 Y198.067 E2.29459
G1 X132.486 Y197.921 E2.33519
G1 X132.988 Y197.872 E2.3757
G1 X133.499 Y197.924 E2.41695
G1 X133.988 Y198.076 E2.45807
G1 X134.438 Y198.32 E2.49918
G1 X134.84 Y198.66 E2.54146
G1 X135.167 Y199.077 E2.58402
G1 X135.398 Y199.537 E2.62536
G1 X135.532 Y200.034 E2.6667
G1 X135.567 Y200.525 E2.70623
G1 X135.523 Y200.932 E2.73911
G1 X135.379 Y201.426 E2.78043
G1 X135.332 Y201.515 E2.78851
G1 E2.28851 F240
G92 E0
G1 X135.332 Y201.515 F9000
G1 X83.023 Y150.861
G1 E.5 F240
;TYPE:External perimeter
G1 F1800
G1 X83.048 Y150.847 E.5023
G1 X83.12 Y150.652 E.51899
G1 X83.115 Y143.222 E1.11568
G1 X83.015 Y143.049 E1.13173
G1 X82.82 Y142.977 E1.14842
G1 X70.627 Y142.967 E2.12762
G1 X70.289 Y142.883 E2.15559
G1 X69.87 Y142.702 E2.19224
G1 X69.627 Y142.482 E2.21856
G1 X69.396 Y142.215 E2.24691
G1 X69.196 Y141.803 E2.28369
G1 X69.12 Y141.291 E2.32526
G1 X69.12 Y36.967 E10.70335
G1 X69.195 Y36.458 E10.74467
G1 X69.358 Y36.09 E10.77699
G1 X69.609 Y35.769 E10.80971
G1 X69.929 Y35.519 E10.84232
G1 X70.301 Y35.354 E10.875
G1 X70.712 Y35.283 E10.9085
G1 X82.872 Y35.276 E11.88505
G1 X83.046 Y35.178 E11.90109
G1 X83.12 Y34.984 E11.91776
G1 X83.122 Y31.548 E12.1937
G1 X83.22 Y31.056 E12.23399
G1 X83.45 Y30.626 E12.27315
G1 X83.794 Y30.282 E12.31222
G1 X84.224 Y30.052 E12.35138
G1 X84.716 Y29.954 E12.39167
G1 X176.282 Y29.954 E19.74519
G1 X176.703 Y29.984 E19.77909
G1 X177.162 Y30.157 E19.81848
G1 X177.557 Y30.44 E19.8575
G1 X177.84 Y30.835 E19.89652
G1 X178.011 Y31.291 E19.93563
G1 X178.045 Y31.718 E19.97003
G1 X178.045 Y205.829 E33.9526
G1 X177.993 Y206.358 E33.99529
G1 X177.804 Y206.815 E34.03501
G1 X177.557 Y207.132 E34.06728
G1 X177.239 Y207.38 E34.09967
G1 X176.782 Y207.569 E34.13939
G1 X176.363 Y207.621 E34.1733
G1 X72.712 Y207.621 E42.49734
G1 X72.183 Y207.569 E42.54003
G1 X71.726 Y207.38 E42.57975
