; generated by PrusaSlicer 2.8.0+MacOS-arm64 on 2024-09-28 at 04:37:22 UTC


;
;

;
;
; 

; external perimeters extrusion width = 0.68mm
; perimeters extrusion width = 0.68mm
; infill extrusion width = 0.68mm
; solid infill extrusion width = 0.68mm
; top infill extrusion width = 0.60mm
; support material extrusion width = 0.60mm

; external perimeters extrusion width = 0.68mm
; perimeters extrusion width = 0.68mm
; infill extrusion width = 0.68mm
; solid infill extrusion width = 0.68mm
; top infill extrusion width = 0.60mm
; support material extrusion width = 0.60mm


EXCLUDE_OBJECT_DEFINE NAME='f_lid' CENTER=158.680,120.017 POLYGON=[[218.372,30.105],[219.129,30.295],[219.688,30.689],[220.122,31.338],[220.274,32.103],[220.274,163.203],[220.188,163.784],[219.937,164.314],[219.302,164.919],[218.854,165.117],[218.372,165.201],[183.274,165.203],[182.419,165.395],[181.728,165.934],[181.391,166.529],[181.274,167.203],[181.271,213.404],[181.187,213.888],[180.934,214.420],[180.538,214.855],[180.031,215.156],[179.262,215.305],[143.929,215.106],[89.474,215.106],[89.474,163.203],[89.626,162.438],[89.928,161.934],[90.282,161.597],[90.800,161.320],[91.376,161.205],[112.474,161.203],[112.474,32.103],[112.560,31.522],[112.811,30.992],[113.131,30.621],[113.531,30.339],[113.988,30.163],[114.474,30.103]]
EXCLUDE_OBJECT_DEFINE NAME='g_lid' CENTER=60.304,121.951 POLYGON=[[90.506,32.974],[91.174,33.123],[91.823,33.555],[92.258,34.203],[92.409,34.870],[92.458,57.968],[92.399,58.454],[92.224,58.911],[91.875,59.383],[91.404,59.734],[90.852,59.933],[83.962,59.985],[84.267,212.695],[84.182,213.275],[83.876,213.887],[83.462,214.303],[82.945,214.580],[82.370,214.696],[37.271,214.789],[36.691,214.704],[36.160,214.454],[35.663,213.983],[35.386,213.466],[35.267,212.793],[34.912,35.083],[34.997,34.502],[35.303,33.891],[35.718,33.475],[36.235,33.197],[36.810,33.082]]

;TYPE:Custom
START_PRINT BED_TEMP=75 HOTEND_TEMP=240 FILAMENT_TYPE=PET EXTRUSION_MULTIPLIER=0.88 PERIMETER_SPEED=70
G21 ; set units to millimeters
G90 ; use absolute coordinates
M82 ; use absolute distances for extrusion
G92 E0
; Filament gcode
; ########################### NOTE OFFSET CHANGES ####################################
; Prevents PETG buildup on nozzle.
; SET_GCODE_OFFSET Z=0.06
; ####################################################################################
M107
;LAYER_CHANGE
;Z:0.35
;HEIGHT:0.35
G1 E-.5 F240
G1 Z.35 F9000
EXCLUDE_OBJECT_START NAME='g_lid'
G92 E0
G1 X61.491 Y124.893
G1 E.5 F240
G92 E0
;TYPE:External perimeter
;WIDTH:0.675
G1 F1800
G1 X59.151 Y124.898 E.17975
G1 X58.892 Y124.847 E.20003
G1 X58.67 Y124.671 E.22179
;WIDTH:0.704457
G1 X58.614 Y124.607 E.22864
;WIDTH:0.733914
G1 X58.559 Y124.543 E.23576
;WIDTH:0.782174
G1 X58.464 Y124.249 E.26373
G1 X58.461 Y123.312 E.34857
G1 X58.512 Y123.074 E.37061
;WIDTH:0.753403
G1 X58.653 Y122.911 E.38933
;WIDTH:0.714201
G1 X58.793 Y122.747 E.40698
;WIDTH:0.675
G1 X59.14 Y122.635 E.43499
G1 X63.029 Y122.635 E.73373
G1 X63.19 Y122.682 E.74661
G1 X63.519 Y122.9 E.77693
G1 X63.664 Y123.406 E.81736
G1 X63.664 Y126.621 E1.06433
G1 X63.604 Y127.204 E1.10935
G1 X63.475 Y127.69 E1.14798
G1 X63.279 Y128.06 E1.18014
G1 X62.98 Y128.368 E1.21311
G1 X62.595 Y128.571 E1.24654
G1 X62.212 Y128.645 E1.2765
G1 X58.21 Y128.652 E1.58392
G1 X57.352 Y128.53 E1.65049
G1 X56.76 Y128.299 E1.6993
G1 X56.353 Y128.001 E1.73805
G1 X55.986 Y127.556 E1.78236
G1 X55.693 Y126.941 E1.83469
G1 X55.517 Y126.188 E1.89409
G1 X55.438 Y125.138 E1.97498
G1 X55.444 Y122.289 E2.19383
G1 X55.524 Y121.491 E2.25544
G1 X55.704 Y120.794 E2.31074
G1 X55.944 Y120.288 E2.35376
G1 X56.267 Y119.864 E2.3947
G1 X56.665 Y119.54 E2.43412
G1 X57.016 Y119.363 E2.46432
G1 X57.651 Y119.188 E2.51492
G1 X58.263 Y119.129 E2.56215
G1 X63.045 Y119.117 E2.92949
G1 X63.399 Y119.236 E2.95818
G1 X63.608 Y119.486 E2.98321
G1 X63.666 Y119.762 E3.00487
G1 X63.669 Y120.715 E3.07808
G1 X63.588 Y121.065 E3.10568
G1 X63.407 Y121.263 E3.12629
G1 X63.027 Y121.38 E3.15683
G1 X58.3 Y121.398 E3.51995
G1 X57.965 Y121.49 E3.54664
G1 X57.804 Y121.71 E3.56758
G1 X57.702 Y122.437 E3.62397
;WIDTH:0.714201
G1 X57.72 Y122.723 E3.64742
;WIDTH:0.753403
G1 X57.739 Y123.008 E3.67223
;WIDTH:0.782174
G1 X57.757 Y124.251 E3.78478
G1 X57.74 Y124.53 E3.81009
;WIDTH:0.746449
G1 X57.724 Y124.809 E3.83411
;WIDTH:0.710724
G1 X57.707 Y125.088 E3.85686
;WIDTH:0.675
G1 X57.753 Y125.699 E3.90393
G1 X57.85 Y126.152 E3.93952
G1 X57.943 Y126.274 E3.9513
G1 X58.139 Y126.339 E3.96716
G1 X58.777 Y126.381 E4.01628
G1 X61.431 Y126.376 E4.22015
G1 X61.495 Y126.196 E4.23483
G1 X61.491 Y124.983 E4.32801
G1 X60.897 Y124.896 F9000
G1 E3.82801 F240
G92 E0
G1 X60.118 Y129.247 F9000
G1 E.5 F240
;TYPE:Perimeter
G1 F1800
G1 X58.211 Y129.252 E.64649
G1 X57.266 Y129.123 E.71976
G1 X56.535 Y128.855 E.77957
G1 X56.054 Y128.538 E.82382
G1 X55.523 Y127.937 E.88542
G1 X55.147 Y127.191 E.94959
G1 X54.932 Y126.32 E1.01851
G1 X54.838 Y125.136 E1.10975
G1 X54.844 Y122.288 E1.32852
G1 X54.928 Y121.429 E1.39482
G1 X55.124 Y120.641 E1.4572
G1 X55.405 Y120.026 E1.50914
G1 X55.793 Y119.495 E1.55966
G1 X56.28 Y119.08 E1.60881
G1 X56.725 Y118.832 E1.64794
G1 X57.492 Y118.61 E1.70928
G1 X58.209 Y118.531 E1.76469
G1 X63.041 Y118.517 E2.13587
G1 X63.35 Y118.571 E2.15997
G1 X63.776 Y118.768 E2.19602
G1 X64.079 Y119.098 E2.23043
G1 X64.207 Y119.398 E2.25548
G1 X64.266 Y119.76 E2.28365
G1 X64.269 Y120.713 E2.35686
G1 X64.18 Y121.207 E2.39542
G1 X64.002 Y121.513 E2.42261
G1 X63.738 Y121.764 E2.45059
;WIDTH:0.712243
G1 X63.34 Y121.95 E2.48643
;WIDTH:0.737511
G1 X63.118 Y122.008 E2.50589
G1 X63.503 Y122.162 E2.54106
;WIDTH:0.688735
G1 X63.934 Y122.464 E2.58241
;WIDTH:0.675
G1 X64.127 Y122.768 E2.61007
G1 X64.252 Y123.255 E2.64869
G1 X64.264 Y123.406 E2.66033
G1 X64.264 Y126.621 E2.9073
G1 X64.2 Y127.268 E2.95724
G1 X64.068 Y127.805 E2.99972
G1 X63.861 Y128.262 E3.03826
G1 X63.499 Y128.711 E3.08256
G1 X63.277 Y128.889 E3.10442
G1 X62.802 Y129.136 E3.14555
G1 X62.283 Y129.242 E3.18624
G1 X60.208 Y129.247 E3.34564
G1 E2.84564 F240
G92 E0
G1 X60.208 Y129.247 F9000
G1 X63.118 Y122.008
G1 E.5 F240
;WIDTH:0.737511
G1 F1800
G1 X63.03 Y122.008 E.50746
;WIDTH:0.730307
G1 X59.141 Y122.015 E.83374
;WIDTH:0.761586
G1 X58.954 Y122.039 E.85031
;WIDTH:0.808527
G1 X58.768 Y122.063 E.86792
;WIDTH:0.855469
G1 X58.582 Y122.087 E.88666
;WIDTH:0.88098
G1 X58.522 Y122.1 E.893
;WIDTH:0.906491
G1 X58.462 Y122.113 E.89954
G1 E.39954 F240
G92 E0
G1 X58.462 Y122.113 F9000
G1 X59.222 Y125.639
G1 E.5 F240
;WIDTH:0.957633
G1 F1800
G1 X59.187 Y125.652 E.50422
;WIDTH:0.932087
G1 X59.152 Y125.665 E.50832
;WIDTH:0.906542
G1 X59.077 Y125.689 E.5167
;WIDTH:0.857454
G1 X59.002 Y125.713 E.52459
;WIDTH:0.808366
G1 X58.927 Y125.737 E.53198
;WIDTH:0.759279
G1 X58.851 Y125.761 E.53896
;WIDTH:0.710191
G1 X58.776 Y125.785 E.54536
;WIDTH:0.661104
G1 X58.701 Y125.809 E.55127
;WIDTH:0.612016
G1 X58.625 Y125.834 E.55677
;WIDTH:0.580189
G1 X58.328 Y125.805 E.57607
G1 X58.259 Y125.021 E.62697
G1 X58.477 Y125.243 E.64709
G1 X58.708 Y125.359 E.66381
;WIDTH:0.596419
G1 X58.742 Y125.386 E.66671
;WIDTH:0.629909
G1 X58.777 Y125.413 E.66985
;WIDTH:0.6634
G1 X58.811 Y125.44 E.67312
;WIDTH:0.712438
G1 X58.879 Y125.474 E.67932
;WIDTH:0.761477
G1 X58.948 Y125.507 E.68604
;WIDTH:0.810516
G1 X59.016 Y125.54 E.69316
;WIDTH:0.859555
G1 X59.085 Y125.573 E.70084
;WIDTH:0.908594
G1 X59.141 Y125.6 E.70748
G1 X59.141 Y125.6 F9000
G1 X60.752 Y125.636
;WIDTH:0.957633
G1 F1800
G1 X59.222 Y125.639 E.88038
G1 E.38038 F240
G92 E0
G1 X79.825 Y81.341 F9000
G1 E.5 F240
;TYPE:External perimeter
;WIDTH:0.675
G1 F1800
G1 X79.892 Y81.549 E.51679
G1 X79.936 Y81.942 E.54717
G1 X79.902 Y82.337 E.57762
G1 X79.79 Y82.716 E.60798
G1 X79.605 Y83.065 E.63832
G1 X79.354 Y83.372 E.66878
G1 X79.048 Y83.622 E.69913
G1 X78.698 Y83.806 E.7295
G1 X78.377 Y83.906 E.75533
G1 X77.924 Y83.952 E.79031
G1 X77.531 Y83.908 E.82069
G1 X77.155 Y83.786 E.85106
G1 X76.81 Y83.593 E.88143
G1 X76.51 Y83.334 E.91188
G1 X76.271 Y83.029 E.94165
G1 X76.129 Y82.759 E.96508
G1 X76.008 Y82.383 E.99542
G1 X75.964 Y81.99 E1.0258
G1 X75.998 Y81.596 E1.05618
G1 X76.111 Y81.216 E1.08663
G1 X76.296 Y80.867 E1.11697
G1 X76.546 Y80.561 E1.14732
G1 X76.853 Y80.31 E1.17778
G1 X77.202 Y80.126 E1.20809
G1 X77.581 Y80.014 E1.23845
G1 X77.96 Y79.979 E1.26769
G1 X78.272 Y80.006 E1.29175
G1 X78.654 Y80.108 E1.32212
G1 X79.008 Y80.285 E1.35252
G1 X79.32 Y80.528 E1.3829
G1 X79.578 Y80.828 E1.41329
G1 X79.771 Y81.173 E1.44366
G1 X79.798 Y81.255 E1.45029
G1 X79.917 Y81.843 F9000
G1 X80.394 Y81.164
;TYPE:Perimeter
G1 F1800
G1 X80.487 Y81.474 E1.47515
G1 X80.535 Y81.986 E1.51465
G1 X80.479 Y82.498 E1.55421
G1 X80.324 Y82.988 E1.59369
G1 X80.074 Y83.439 E1.6333
G1 X79.74 Y83.83 E1.6728
G1 X79.336 Y84.148 E1.71229
G1 X78.876 Y84.379 E1.75183
G1 X78.555 Y84.479 E1.77766
G1 X78.045 Y84.549 E1.8172
G1 X77.531 Y84.517 E1.85676
G1 X77.034 Y84.383 E1.8963
G1 X76.573 Y84.154 E1.93584
G1 X76.167 Y83.837 E1.97541
G1 X75.832 Y83.447 E2.0149
G1 X75.583 Y83.011 E2.05347
G1 X75.425 Y82.53 E2.09236
G1 X75.363 Y82.018 E2.13198
G1 X75.404 Y81.504 E2.17159
G1 X75.546 Y81.008 E2.21122
G1 X75.791 Y80.541 E2.25173
G1 X76.13 Y80.128 E2.29277
G1 X76.52 Y79.81 E2.33143
G1 X76.962 Y79.575 E2.36988
G1 X77.519 Y79.417 E2.41436
G1 X78.002 Y79.381 E2.45157
G1 X78.419 Y79.424 E2.48377
G1 X78.913 Y79.568 E2.5233
G1 X79.369 Y79.806 E2.56281
G1 X79.769 Y80.13 E2.60235
G1 X80.097 Y80.527 E2.64191
G1 X80.339 Y80.981 E2.68143
G1 X80.369 Y81.078 E2.68923
G1 E2.18923 F240
G92 E0
G1 X80.369 Y81.078 F9000
G1 X38.714 Y39.022
G1 E.5 F240
;TYPE:External perimeter
G1 F1800
G1 X38.7 Y38.902 E.50928
G1 X38.735 Y38.508 E.53966
G1 X38.847 Y38.128 E.57009
G1 X39.032 Y37.779 E.60043
G1 X39.283 Y37.473 E.63083
G1 X39.589 Y37.222 E.66123
G1 X39.939 Y37.038 E.6916
G1 X40.318 Y36.926 E.72196
G1 X40.697 Y36.891 E.7512
G1 X41.009 Y36.918 E.77526
G1 X41.39 Y37.02 E.80556
G1 X41.745 Y37.197 E.83603
G1 X42.057 Y37.44 E.86641
G1 X42.315 Y37.74 E.8968
G1 X42.508 Y38.085 E.92717
G1 X42.629 Y38.461 E.95751
G1 X42.673 Y38.854 E.98789
G1 X42.638 Y39.248 E1.01827
G1 X42.526 Y39.628 E1.0487
G1 X42.341 Y39.977 E1.07904
G1 X42.091 Y40.283 E1.10939
G1 X41.784 Y40.534 E1.13985
G1 X41.434 Y40.718 E1.17022
G1 X41.055 Y40.83 E1.20058
G1 X40.661 Y40.864 E1.23096
G1 X40.268 Y40.82 E1.26134
G1 X39.891 Y40.698 E1.29178
G1 X39.546 Y40.505 E1.32215
G1 X39.247 Y40.246 E1.35254
G1 X39.008 Y39.941 E1.38231
G1 X38.865 Y39.671 E1.40578
G1 X38.745 Y39.295 E1.4361
G1 X38.724 Y39.111 E1.45033
G1 X38.755 Y38.512 F9000
G1 X38.12 Y39.052
;TYPE:Perimeter
G1 F1800
G1 X38.102 Y38.858 E1.4653
G1 X38.157 Y38.346 E1.50486
G1 X38.313 Y37.856 E1.54436
G1 X38.563 Y37.406 E1.5839
G1 X38.896 Y37.014 E1.62341
G1 X39.301 Y36.696 E1.66296
G1 X39.761 Y36.465 E1.7025
G1 X40.256 Y36.329 E1.74193
G1 X40.739 Y36.293 E1.77914
G1 X41.156 Y36.336 E1.81134
G1 X41.65 Y36.479 E1.85085
G1 X42.106 Y36.718 E1.8904
G1 X42.506 Y37.042 E1.92994
G1 X42.833 Y37.439 E1.96945
G1 X43.076 Y37.893 E2.00901
G1 X43.224 Y38.386 E2.04855
G1 X43.271 Y38.898 E2.08805
G1 X43.216 Y39.41 E2.12761
G1 X43.061 Y39.9 E2.16709
G1 X42.811 Y40.35 E2.20663
G1 X42.477 Y40.742 E2.24619
G1 X42.072 Y41.06 E2.28574
G1 X41.612 Y41.291 E2.32528
G1 X41.116 Y41.427 E2.36479
G1 X40.602 Y41.461 E2.40436
G1 X40.092 Y41.393 E2.44388
G1 X39.605 Y41.226 E2.48343
G1 X39.162 Y40.965 E2.52293
G1 X38.779 Y40.621 E2.56248
G1 X38.482 Y40.229 E2.60026
G1 X38.297 Y39.863 E2.63176
G1 X38.149 Y39.37 E2.6713
G1 X38.128 Y39.142 E2.68889
G1 E2.18889 F240
G92 E0
G1 X38.128 Y39.142 F9000
G1 X42.798 Y170.086
G1 E.5 F240
;TYPE:External perimeter
G1 F1800
G1 X42.905 Y170.278 E.51688
G1 X43.026 Y170.654 E.54722
G1 X43.07 Y171.047 E.5776
G1 X43.036 Y171.441 E.60798
G1 X42.924 Y171.821 E.63841
G1 X42.739 Y172.17 E.66875
G1 X42.488 Y172.476 E.69915
G1 X42.182 Y172.727 E.72955
G1 X41.832 Y172.911 E.75992
G1 X41.452 Y173.023 E.79035
G1 X41.058 Y173.057 E.82073
G1 X40.665 Y173.013 E.85111
G1 X40.289 Y172.891 E.88148
G1 X39.944 Y172.697 E.91188
G1 X39.649 Y172.445 E.94168
G1 X39.456 Y172.209 E.9651
G1 X39.263 Y171.864 E.99547
G1 X39.142 Y171.488 E1.02581
G1 X39.098 Y171.095 E1.05619
G1 X39.133 Y170.7 E1.08665
G1 X39.245 Y170.321 E1.11701
G1 X39.43 Y169.971 E1.14742
G1 X39.68 Y169.665 E1.17777
G1 X39.987 Y169.415 E1.20818
G1 X40.336 Y169.231 E1.23849
G1 X40.715 Y169.119 E1.26885
G1 X41.094 Y169.084 E1.29809
G1 X41.406 Y169.111 E1.32215
G1 X41.788 Y169.213 E1.35252
G1 X42.142 Y169.39 E1.38292
G1 X42.454 Y169.632 E1.41325
G1 X42.707 Y169.924 E1.44293
G1 X42.754 Y170.008 E1.45032
G1 X42.988 Y170.56 F9000
G1 X43.322 Y169.8
;TYPE:Perimeter
G1 F1800
G1 X43.461 Y170.051 E1.47236
G1 X43.615 Y170.535 E1.51138
G1 X43.671 Y171.032 E1.5498
G1 X43.63 Y171.534 E1.58849
G1 X43.487 Y172.029 E1.62807
G1 X43.25 Y172.486 E1.66762
G1 X42.927 Y172.887 E1.70717
G1 X42.514 Y173.227 E1.74826
G1 X42.072 Y173.462 E1.78671
G1 X41.513 Y173.62 E1.83133
G1 X41 Y173.654 E1.87082
G1 X40.489 Y173.586 E1.91042
G1 X40.003 Y173.418 E1.94992
G1 X39.559 Y173.158 E1.98944
G1 X39.19 Y172.832 E2.02726
G1 X38.937 Y172.51 E2.05872
G1 X38.695 Y172.056 E2.09824
G1 X38.547 Y171.563 E2.13778
G1 X38.5 Y171.051 E2.17728
G1 X38.555 Y170.539 E2.21684
G1 X38.71 Y170.048 E2.25639
G1 X38.96 Y169.598 E2.29593
G1 X39.294 Y169.207 E2.33543
G1 X39.699 Y168.889 E2.37498
G1 X40.158 Y168.658 E2.41445
G1 X40.653 Y168.522 E2.45388
G1 X41.136 Y168.486 E2.49109
G1 X41.553 Y168.529 E2.52329
G1 X42.047 Y168.672 E2.5628
G1 X42.503 Y168.911 E2.60235
G1 X42.903 Y169.235 E2.64189
G1 X43.215 Y169.605 E2.67907
G1 X43.279 Y169.721 E2.68925
G1 E2.18925 F240
G92 E0
G1 X43.279 Y169.721 F9000
G1 X80.198 Y188.042
G1 E.5 F240
;TYPE:External perimeter
G1 F1800
G1 X80.17 Y188.367 E.52506
G1 X80.057 Y188.746 E.55544
G1 X79.872 Y189.096 E.58585
G1 X79.622 Y189.402 E.6162
G1 X79.315 Y189.652 E.64661
G1 X78.966 Y189.837 E.67695
G1 X78.586 Y189.949 E.70738
G1 X78.192 Y189.983 E.73776
G1 X77.799 Y189.938 E.76815
G1 X77.423 Y189.817 E.79849
G1 X77.078 Y189.623 E.82889
G1 X76.778 Y189.365 E.85928
G1 X76.535 Y189.053 E.88966
G1 X76.36 Y188.698 E.92006
G1 X76.258 Y188.324 E.94984
G1 X76.231 Y188.029 E.9726
G1 X76.266 Y187.626 E1.00367
G1 X76.378 Y187.247 E1.03403
G1 X76.564 Y186.897 E1.06448
G1 X76.814 Y186.591 E1.09483
G1 X77.121 Y186.341 E1.12524
G1 X77.47 Y186.156 E1.15558
G1 X77.849 Y186.045 E1.18592
G1 X78.228 Y186.01 E1.21516
G1 X78.54 Y186.037 E1.23922
G1 X78.922 Y186.139 E1.26959
G1 X79.276 Y186.315 E1.29996
G1 X79.588 Y186.558 E1.33034
G1 X79.846 Y186.858 E1.36073
G1 X80.039 Y187.203 E1.3911
G1 X80.16 Y187.58 E1.42151
G1 X80.202 Y187.952 E1.45027
G1 X80.106 Y188.545 F9000
G1 X80.797 Y188.068
;TYPE:Perimeter
G1 F1800
G1 X80.747 Y188.528 E1.48581
G1 X80.592 Y189.019 E1.52536
G1 X80.342 Y189.469 E1.5649
G1 X80.008 Y189.861 E1.60446
G1 X79.603 Y190.179 E1.64401
G1 X79.144 Y190.41 E1.68348
G1 X78.647 Y190.545 E1.72304
G1 X78.134 Y190.58 E1.76254
G1 X77.623 Y190.512 E1.80214
G1 X77.137 Y190.344 E1.84164
G1 X76.693 Y190.084 E1.88116
G1 X76.31 Y189.74 E1.92071
G1 X76.002 Y189.327 E1.96029
G1 X75.782 Y188.862 E1.99981
G1 X75.661 Y188.385 E2.03761
G1 X75.632 Y188.003 E2.06704
G1 X75.68 Y187.499 E2.10593
G1 X75.829 Y187.006 E2.14549
G1 X76.073 Y186.552 E2.18508
G1 X76.397 Y186.16 E2.22415
G1 X76.788 Y185.841 E2.26291
G1 X77.23 Y185.605 E2.3014
G1 X77.787 Y185.448 E2.34585
G1 X78.27 Y185.412 E2.38306
G1 X78.687 Y185.455 E2.41526
G1 X79.181 Y185.598 E2.45477
G1 X79.637 Y185.836 E2.49428
G1 X80.037 Y186.16 E2.53382
G1 X80.365 Y186.557 E2.57338
G1 X80.607 Y187.011 E2.6129
G1 X80.755 Y187.504 E2.65244
G1 X80.799 Y187.979 E2.68908
G1 E2.18908 F240
G92 E0
G1 X80.799 Y187.979 F9000
G1 X83.721 Y59.74
G1 E.5 F240
;TYPE:External perimeter
G1 F1800
G1 X83.694 Y59.756 E.50241
G1 X83.625 Y59.948 E.51808
G1 X83.93 Y212.672 E12.24986
G1 X83.856 Y213.177 E12.28907
G1 X83.649 Y213.618 E12.32649
G1 X83.486 Y213.798 E12.34514
G1 X83.188 Y214.071 E12.37619
G1 X82.782 Y214.258 E12.41053
G1 X82.348 Y214.359 E12.44476
G1 X37.294 Y214.451 E15.90567
G1 X36.789 Y214.377 E15.94488
G1 X36.342 Y214.167 E15.98282
G1 X36.101 Y213.97 E16.00673
G1 X35.806 Y213.574 E16.04466
