; generated by PrusaSlicer 2.8.1+MacOS-arm64 on 2024-11-27 at 05:07:17 UTC


;
;

;
;
; 

; external perimeters extrusion width = 0.55mm
; perimeters extrusion width = 0.60mm
; infill extrusion width = 0.60mm
; solid infill extrusion width = 0.60mm
; top infill extrusion width = 0.55mm
; first layer extrusion width = 0.60mm

; external perimeters extrusion width = 0.55mm
; perimeters extrusion width = 0.60mm
; infill extrusion width = 0.60mm
; solid infill extrusion width = 0.60mm
; top infill extrusion width = 0.55mm
; first layer extrusion width = 0.60mm

M73 P0 R181

EXCLUDE_OBJECT_DEFINE NAME='g_lid' CENTER=57.444,124.105 POLYGON=[[87.824,35.189],[88.491,35.339],[89.140,35.772],[89.574,36.421],[89.724,37.088],[89.726,60.187],[89.666,60.673],[89.490,61.129],[89.140,61.601],[88.669,61.950],[88.116,62.148],[81.226,62.187],[81.226,214.897],[81.140,215.477],[80.832,216.088],[80.417,216.503],[79.900,216.780],[79.324,216.894],[34.226,216.897],[33.645,216.811],[33.115,216.560],[32.620,216.088],[32.343,215.570],[32.226,214.897],[32.226,37.187],[32.312,36.606],[32.620,35.995],[33.035,35.580],[33.552,35.304],[34.128,35.189]]
EXCLUDE_OBJECT_DEFINE NAME='f_lid' CENTER=153.447,119.794 POLYGON=[[213.138,29.883],[213.895,30.073],[214.455,30.466],[214.888,31.115],[215.040,31.881],[215.040,162.981],[214.954,163.561],[214.703,164.092],[214.069,164.696],[213.621,164.894],[213.138,164.978],[178.040,164.981],[177.185,165.173],[176.494,165.712],[176.157,166.307],[176.040,166.981],[176.038,213.181],[175.923,213.759],[175.644,214.278],[175.304,214.633],[174.798,214.934],[174.029,215.083],[138.696,214.883],[84.240,214.883],[84.240,162.981],[84.393,162.215],[84.694,161.712],[85.129,161.318],[85.660,161.067],[86.142,160.983],[107.240,160.981],[107.240,31.881],[107.326,31.300],[107.577,30.769],[107.897,30.399],[108.298,30.117],[108.754,29.941],[109.240,29.881]]

M190 S70 ; set bed temperature and wait for it to be reached
M104 S245 ; set temperature
;TYPE:Custom
START_PRINT BED_TEMP=70 HOTEND_TEMP=245 FILAMENT_TYPE=PET EXTRUSION_MULTIPLIER=0.96
M109 S245 ; set temperature and wait for it to be reached
G21 ; set units to millimeters
G90 ; use absolute coordinates
M82 ; use absolute distances for extrusion
G92 E0
; Filament gcode
; ########################### NOTE OFFSET CHANGES ####################################
; Prevents PETG buildup on nozzle.
; PETG does not like to be touching the nozzle, this causes buildup on nozzle
; Once the bed z distance is finaly chuned a small offset for PETG works perfectly
SET_GCODE_OFFSET Z=0.06
; ####################################################################################
M107
;LAYER_CHANGE
;Z:0.3
;HEIGHT:0.3
G1 E-.55 F600
G1 Z.8 F9000
EXCLUDE_OBJECT_START NAME='g_lid'
G92 E0
G1 X78.107 Y85.181
G1 Z.3
G1 E.6 F1200
;TYPE:Perimeter
;WIDTH:0.6
G1 F1800
G3 X77.723 Y85.937 I-3.581 J-1.344 E.65449
G3 X77.085 Y86.61 I-3.075 J-2.276 E.71411
G3 X76.276 Y87.065 I-2.268 J-3.081 E.77378
G3 X75.37 Y87.262 I-1.258 J-3.612 E.83339
G3 X74.445 Y87.183 I-.139 J-3.823 E.89308
G3 X73.585 Y86.835 I.995 J-3.693 E.95273
G3 X72.866 Y86.249 I2.04 J-3.237 E1.01236
G3 X72.355 Y85.502 I2.965 J-2.577 E1.07053
G1 X72.163 Y84.979 E1.10626
G3 X72.057 Y84.123 I4.257 J-.96 E1.16167
G3 X72.206 Y83.207 I3.823 J.148 E1.22133
G3 X72.617 Y82.375 I3.609 J1.268 E1.28099
G3 X73.255 Y81.702 I3.075 J2.275 E1.34061
G3 X74.064 Y81.246 I2.268 J3.081 E1.40032
G3 X74.96 Y81.05 I1.255 J3.589 E1.45929
G1 X75.531 Y81.058 E1.49591
G1 X75.83 Y81.114 E1.51542
G1 X76.338 Y81.27 E1.5495
G3 X77.137 Y81.743 I-1.534 J3.504 E1.6092
G3 X77.76 Y82.43 I-2.499 J2.896 E1.66882
G3 X78.154 Y83.27 I-3.241 J2.031 E1.72847
G3 X78.283 Y84.189 I-3.697 J.986 E1.78813
G3 X78.135 Y85.105 I-3.823 J-.148 E1.84778
G3 X78.133 Y85.111 I-3.609 J-1.268 E1.84819
G1 X78.133 Y85.111 F9000
G1 X77.605 Y84.999
G1 F1800
G1 X77.259 Y85.669 E1.89655
G1 X76.721 Y86.217 E1.9458
G1 X76.044 Y86.583 E1.99516
G3 X75.29 Y86.732 I-1.053 J-3.331 E2.04455
G3 X74.525 Y86.653 I-.025 J-3.493 E2.09397
G3 X73.817 Y86.352 I1.006 J-3.344 E2.14341
G3 X73.23 Y85.856 I1.948 J-2.901 E2.1928
G1 X72.86 Y85.308 E2.23521
G1 X72.671 Y84.808 E2.26949
G1 X72.592 Y84.083 E2.31626
G3 X72.728 Y83.326 I3.485 J.236 E2.36569
G3 X73.081 Y82.643 I3.26 J1.253 E2.4151
G3 X73.62 Y82.094 I2.746 J2.158 E2.46454
G3 X74.296 Y81.729 I1.988 J2.873 E2.51391
G3 X75.04 Y81.579 I1.049 J3.299 E2.56268
G3 X75.672 Y81.626 I.112 J2.826 E2.60341
G1 X76.18 Y81.782 E2.63749
G1 X76.835 Y82.185 E2.68681
G1 X77.342 Y82.764 E2.73617
G1 X77.656 Y83.466 E2.78549
G1 X77.749 Y84.229 E2.83479
G3 X77.629 Y84.928 I-3.486 J-.236 E2.88035
G1 X77.629 Y84.928 F9000
G1 X77.101 Y84.814
;TYPE:External perimeter
G1 F1800
G1 X77.09 Y84.866 E2.88376
G1 X76.795 Y85.401 E2.92294
G1 X76.356 Y85.825 E2.96208
G1 X75.812 Y86.1 E3.00117
G1 X75.21 Y86.203 E3.04034
G1 X74.605 Y86.124 E3.07947
G1 X74.05 Y85.87 E3.11861
G1 X73.594 Y85.463 E3.15781
G1 X73.317 Y85.029 E3.19083
G1 X73.165 Y84.572 E3.22172
G1 X73.126 Y84.043 E3.25574
G1 X73.25 Y83.445 E3.29491
G1 X73.545 Y82.911 E3.33404
G1 X73.984 Y82.487 E3.37318
G1 X74.529 Y82.211 E3.41236
G1 X75.121 Y82.109 E3.45089
G1 X75.514 Y82.137 E3.47616
G1 X76.022 Y82.294 E3.51026
G1 X76.533 Y82.628 E3.54941
G1 X76.923 Y83.098 E3.58858
G1 X77.157 Y83.661 E3.62768
G1 X77.214 Y84.269 E3.66684
G1 X77.116 Y84.741 E3.69776
G1 X76.904 Y85.194 F9000
G1 E3.14776 F600
G92 E0
G1 X56.913 Y64.678 Z.8 F9000
G1 X36.475 Y43.705
G1 Z.3
G1 E.6 F1200
;TYPE:Perimeter
G1 F1800
G3 X35.908 Y43.305 I1.915 J-3.313 E.64456
G3 X35.382 Y42.693 I2.45 J-2.639 E.69642
G3 X35.009 Y41.879 I3.486 J-2.091 E.75396
G3 X34.88 Y40.96 I3.696 J-.985 E.81362
G3 X35.028 Y40.044 I3.823 J.148 E.87327
G3 X35.44 Y39.213 I3.61 J1.268 E.9329
G1 X35.785 Y38.811 E.96687
G3 X36.408 Y38.314 I2.318 J2.267 E1.01811
G3 X38.081 Y37.876 I1.659 J2.918 E1.13029
G1 X38.589 Y37.933 E1.16307
G1 X39.243 Y38.142 E1.2071
G1 X39.709 Y38.397 E1.24117
G3 X40.399 Y39.018 I-2.197 J3.13 E1.30085
G3 X40.874 Y39.815 I-3.024 J2.344 E1.3605
G3 X41.093 Y40.716 I-3.579 J1.348 E1.42011
G3 X41.037 Y41.642 I-3.818 J.234 E1.47975
G3 X40.711 Y42.511 I-3.717 J-.902 E1.53942
G3 X40.143 Y43.245 I-3.287 J-1.958 E1.59909
G3 X39.384 Y43.778 I-2.564 J-2.84 E1.65872
G3 X38.501 Y44.064 I-1.613 J-3.469 E1.71839
G3 X37.573 Y44.078 I-.518 J-3.79 E1.77806
G3 X36.683 Y43.817 I.622 J-3.775 E1.83769
G3 X36.54 Y43.742 I1.707 J-3.425 E1.84805
G1 X36.54 Y43.742 F9000
G1 X36.748 Y43.232
G1 F1800
G1 X36.232 Y42.878 E1.88818
G1 X35.809 Y42.369 E1.93062
G1 X35.508 Y41.683 E1.97866
G3 X35.415 Y40.92 I3.4 J-.801 E2.02806
G3 X35.551 Y40.163 I3.485 J.236 E2.07749
G1 X35.904 Y39.48 E2.1268
G1 X36.443 Y38.932 E2.1761
G1 X37.119 Y38.566 E2.2254
G3 X38.042 Y38.41 I1.005 J3.128 E2.28564
G1 X38.456 Y38.452 E2.31233
G1 X38.987 Y38.613 E2.34792
G1 X39.453 Y38.867 E2.38196
G1 X40.015 Y39.392 E2.43128
G1 X40.397 Y40.059 E2.48058
G1 X40.566 Y40.809 E2.52989
G3 X40.506 Y41.576 I-3.492 J.112 E2.57933
G3 X40.222 Y42.291 I-3.37 J-.922 E2.62877
G3 X39.741 Y42.89 I-2.947 J-1.875 E2.67814
G3 X39.104 Y43.321 I-2.264 J-2.66 E2.72757
G3 X38.369 Y43.545 I-1.379 J-3.209 E2.77695
G3 X37.6 Y43.543 I-.373 J-3.473 E2.82637
G3 X36.866 Y43.313 I.668 J-3.43 E2.8758
G1 X36.809 Y43.275 E2.88019
G1 X36.809 Y43.275 F9000
G1 X37.008 Y42.781
;TYPE:External perimeter
G1 F1800
G1 X36.555 Y42.451 E2.91613
G1 X36.236 Y42.046 E2.94919
G1 X36.006 Y41.488 E2.9879
G1 X35.949 Y40.88 E3.02706
G1 X36.073 Y40.283 E3.06616
G1 X36.368 Y39.748 E3.10534
G1 X36.807 Y39.324 E3.14448
G1 X37.351 Y39.049 E3.18357
G1 X38.004 Y38.944 E3.22599
G3 X38.731 Y39.083 I-.098 J2.475 E3.27364
G1 X39.197 Y39.337 E3.30768
G1 X39.632 Y39.766 E3.34686
G1 X39.921 Y40.303 E3.38597
G1 X40.038 Y40.902 E3.42511
G1 X39.974 Y41.509 E3.46425
G1 X39.734 Y42.07 E3.50338
G1 X39.339 Y42.536 E3.54256
G1 X38.825 Y42.864 E3.58166
G1 X38.236 Y43.026 E3.62084
G1 X37.626 Y43.008 E3.65998
G1 X37.072 Y42.818 E3.69754
G1 X36.664 Y42.529 F9000
G1 E3.14754 F600
G92 E0
G1 X36.378 Y71.173 Z.8 F9000
G1 X35.345 Y174.572
G1 Z.3
G1 E.6 F1200
;TYPE:Perimeter
G1 F1800
G3 X35.142 Y174.072 I3.658 J-1.777 E.63463
G3 X35.013 Y173.154 I3.697 J-.985 E.69423
G3 X35.162 Y172.237 I3.822 J.147 E.75396
G3 X35.573 Y171.406 I3.609 J1.269 E.81356
G3 X36.211 Y170.732 I3.075 J2.275 E.87323
G3 X37.02 Y170.277 I2.268 J3.081 E.9329
G3 X37.916 Y170.081 I1.255 J3.59 E.99187
G1 X38.487 Y170.089 E1.02849
G1 X39.066 Y170.214 E1.06648
G3 X39.843 Y170.59 I-1.503 J4.096 E1.12193
G3 X40.532 Y171.211 I-2.199 J3.131 E1.18156
G3 X41.007 Y172.008 I-3.023 J2.344 E1.24121
G3 X41.227 Y172.911 I-3.586 J1.35 E1.30096
G3 X41.17 Y173.836 I-3.826 J.231 E1.36054
G3 X40.844 Y174.704 I-3.717 J-.903 E1.42015
G3 X40.276 Y175.438 I-3.287 J-1.958 E1.47982
G3 X39.517 Y175.972 I-2.563 J-2.84 E1.53948
G3 X38.634 Y176.258 I-1.613 J-3.47 E1.59915
G3 X37.706 Y176.271 I-.518 J-3.791 E1.65882
G3 X36.816 Y176.01 I.622 J-3.774 E1.71845
G3 X36.041 Y175.498 I1.708 J-3.425 E1.77817
G3 X35.515 Y174.886 I2.449 J-2.638 E1.83003
G3 X35.378 Y174.639 I3.488 J-2.091 E1.84815
G1 X35.378 Y174.639 F9000
G1 X35.841 Y174.333
G1 F1800
G1 X35.641 Y173.877 E1.88008
G3 X35.548 Y173.113 I3.4 J-.802 E1.92954
G3 X35.684 Y172.357 I3.484 J.237 E1.9789
G1 X36.037 Y171.674 E2.02821
G1 X36.576 Y171.125 E2.07755
G1 X37.252 Y170.76 E2.12682
G3 X37.996 Y170.61 I1.049 J3.3 E2.17559
G1 X38.523 Y170.632 E2.20942
G1 X39.067 Y170.78 E2.24558
G1 X39.586 Y171.06 E2.2834
G3 X40.216 Y171.664 I-2.973 J3.73 E2.33945
G1 X40.53 Y172.252 E2.3822
G3 X40.699 Y173.003 I-3.308 J1.138 E2.43167
G3 X40.639 Y173.769 I-3.501 J.11 E2.48105
G3 X40.356 Y174.484 I-3.37 J-.922 E2.53047
G3 X39.874 Y175.084 I-2.948 J-1.874 E2.57993
G3 X39.237 Y175.515 I-2.264 J-2.66 E2.62936
G3 X38.502 Y175.739 I-1.38 J-3.21 E2.67874
G3 X37.733 Y175.736 I-.373 J-3.474 E2.72816
G3 X36.999 Y175.507 I.668 J-3.428 E2.77757
G1 X36.365 Y175.071 E2.82692
G1 X35.942 Y174.563 E2.86932
G1 X35.871 Y174.401 E2.88066
G1 X35.871 Y174.401 F9000
G1 X36.314 Y174.105
;TYPE:External perimeter
G1 F1800
G1 X36.139 Y173.681 E2.91008
G1 X36.082 Y173.073 E2.94924
G1 X36.206 Y172.476 E2.98834
G1 X36.501 Y171.942 E3.02747
G1 X36.94 Y171.518 E3.06661
G1 X37.485 Y171.242 E3.10579
G1 X38.077 Y171.14 E3.14432
G3 X38.864 Y171.277 I-.011 J2.393 E3.19579
G1 X39.33 Y171.531 E3.22983
G1 X39.765 Y171.959 E3.26897
G1 X40.054 Y172.497 E3.30814
G1 X40.172 Y173.096 E3.34729
G1 X40.107 Y173.703 E3.38644
G1 X39.867 Y174.264 E3.42557
G1 X39.472 Y174.729 E3.4647
G1 X38.958 Y175.057 E3.5038
G1 X38.37 Y175.22 E3.54293
G1 X37.76 Y175.201 E3.58207
G1 X37.182 Y175.004 E3.62123
G1 X36.688 Y174.644 E3.66043
G1 X36.369 Y174.239 E3.69349
G1 X36.342 Y174.174 E3.698
G1 X36.162 Y173.708 F9000
G1 E3.148 F600
G92 E0
G1 X62.565 Y184.817 Z.8 F9000
G1 X78.104 Y191.355
G1 Z.3
G1 E.6 F1200
;TYPE:Perimeter
G1 F1800
G3 X77.944 Y191.704 I-3.551 J-1.422 E.62463
G3 X77.376 Y192.438 I-3.287 J-1.958 E.6843
G3 X76.617 Y192.972 I-2.563 J-2.84 E.74396
G3 X75.734 Y193.258 I-1.613 J-3.47 E.80363
G3 X74.806 Y193.271 I-.518 J-3.791 E.8633
G3 X73.916 Y193.01 I.622 J-3.775 E.92293
G3 X73.142 Y192.498 I1.707 J-3.423 E.98259
G3 X72.553 Y191.781 I2.64 J-2.768 E1.04225
G3 X72.201 Y190.922 I3.34 J-1.867 E1.10193
G3 X72.11 Y190.053 I3.761 J-.836 E1.15809
G3 X72.262 Y189.238 I4.73 J.458 E1.21133
G3 X72.673 Y188.406 I3.608 J1.267 E1.27099
G3 X73.311 Y187.732 I3.075 J2.276 E1.33066
G3 X74.12 Y187.277 I2.268 J3.081 E1.39033
G3 X75.016 Y187.081 I1.255 J3.59 E1.4493
G1 X75.587 Y187.089 E1.48592
G1 X76.166 Y187.214 E1.52391
G3 X76.943 Y187.59 I-1.503 J4.096 E1.57936
G3 X77.632 Y188.211 I-2.198 J3.13 E1.63899
G3 X78.107 Y189.008 I-3.024 J2.345 E1.69864
G3 X78.326 Y189.91 I-3.579 J1.349 E1.75832
G3 X78.27 Y190.836 I-3.817 J.233 E1.81796
G3 X78.132 Y191.285 I-3.717 J-.903 E1.8481
G1 X78.132 Y191.285 F9000
G1 X77.612 Y191.148
G1 F1800
G3 X77.456 Y191.484 I-3.243 J-1.301 E1.87187
G1 X76.974 Y192.084 E1.92123
G1 X76.337 Y192.515 E1.97056
G1 X75.602 Y192.739 E2.01984
G3 X74.833 Y192.736 I-.373 J-3.474 E2.06926
G3 X74.099 Y192.507 I.668 J-3.429 E2.11867
G3 X73.465 Y192.072 I1.649 J-3.08 E2.16808
G3 X72.988 Y191.469 I2.483 J-2.457 E2.21749
G3 X72.709 Y190.752 I3.099 J-1.617 E2.26693
G1 X72.646 Y190.093 E2.30939
G1 X72.784 Y189.357 E2.35741
G3 X73.137 Y188.674 I3.26 J1.253 E2.40682
G3 X73.676 Y188.125 I2.747 J2.158 E2.45626
G3 X74.352 Y187.76 I1.988 J2.872 E2.50563
G3 X75.549 Y187.623 I.929 J2.819 E2.58344
G1 X76.034 Y187.733 E2.61533
G1 X76.686 Y188.06 E2.66211
G1 X77.248 Y188.585 E2.71143
G1 X77.63 Y189.252 E2.76073
G1 X77.799 Y190.003 E2.8101
G3 X77.739 Y190.769 I-3.491 J.112 E2.85948
G3 X77.639 Y191.078 I-3.37 J-.922 E2.88032
G1 X77.639 Y191.078 F9000
G1 X77.108 Y190.935
;TYPE:External perimeter
G1 F1800
G1 X76.967 Y191.264 E2.90328
G1 X76.572 Y191.729 E2.94241
G1 X76.058 Y192.057 E2.98151
G1 X75.47 Y192.22 E3.02064
G1 X74.86 Y192.201 E3.05978
G1 X74.282 Y192.003 E3.09896
G1 X73.788 Y191.645 E3.13809
G1 X73.423 Y191.156 E3.17722
G1 X73.217 Y190.581 E3.21639
G1 X73.181 Y190.067 E3.24944
G1 X73.306 Y189.476 E3.28818
G1 X73.601 Y188.941 E3.32736
G1 X74.04 Y188.518 E3.36646
G1 X74.585 Y188.242 E3.40564
G1 X75.177 Y188.14 E3.44417
G3 X75.964 Y188.277 I-.011 J2.394 E3.49564
G1 X76.43 Y188.531 E3.52968
G1 X76.865 Y188.959 E3.56882
G1 X77.154 Y189.497 E3.60799
G1 X77.272 Y190.096 E3.64714
G1 X77.207 Y190.703 E3.68629
G1 X77.137 Y190.866 E3.69767
G1 X76.907 Y191.31 F9000
G1 E3.14767 F600
G92 E0
G1 X77.622 Y162.674 Z.8 F9000
G1 X80.156 Y61.118
G1 Z.3
G1 E.6 F1200
;TYPE:Perimeter
G1 F1800
G1 X79.99 Y61.297 E.61566
G1 X79.817 Y61.651 E.64093
G1 X79.755 Y62.054 E.66708
G1 X79.755 Y214.746 E10.4597
G3 X79.653 Y215.182 I-1.279 J-.067 E10.48857
G1 X79.468 Y215.344 E10.50434
G1 X79.235 Y215.423 E10.52012
G1 X34.377 Y215.425 E13.397
G3 X33.935 Y215.321 I.048 J-1.195 E13.4263
G1 X33.781 Y215.163 E13.44045
G1 X33.697 Y214.796 E13.4646
G1 X33.697 Y37.288 E24.84875
G1 X33.781 Y36.92 E24.87296
G1 X33.997 Y36.724 E24.89167
G1 X34.327 Y36.658 E24.91325
G1 X87.701 Y36.66 E28.33629
G1 X88.012 Y36.759 E28.35722
G1 X88.193 Y36.976 E28.37534
G1 X88.253 Y37.207 E28.39065
G1 X88.255 Y60.103 E29.85904
G1 X88.167 Y60.451 E29.88206
G1 X87.946 Y60.651 E29.90118
G1 X87.674 Y60.715 E29.9191
G1 X81.094 Y60.715 E30.3411
G1 X80.654 Y60.79 E30.36973
G1 X80.259 Y61.007 E30.39863
G1 X80.207 Y61.064 E30.40358
G1 X80.207 Y61.064 F9000
G1 X80.528 Y61.498
G1 F1800
G1 X80.362 Y61.722 E30.42146
G1 X80.29 Y62.054 E30.44325
G1 X80.29 Y214.746 E40.23587
G1 X80.236 Y215.203 E40.26538
G1 X80.104 Y215.483 E40.28523
G1 X79.896 Y215.713 E40.30512
G1 X79.612 Y215.882 E40.32631
G1 X79.268 Y215.959 E40.34892
G1 X34.377 Y215.961 E43.22792
G1 X33.92 Y215.907 E43.25743
G1 X33.621 Y215.765 E43.27866
G1 X33.397 Y215.542 E43.29893
G1 X33.218 Y215.213 E43.32295
G1 X33.162 Y214.835 E43.34746
G1 X33.162 Y37.9 E54.69486
G1 X33.175 Y37.16 E54.74233
G1 X33.27 Y36.751 E54.76926
G1 X33.472 Y36.446 E54.79272
G1 X33.822 Y36.212 E54.81972
G1 X34.288 Y36.122 E54.85016
G1 X87.649 Y36.125 E58.27237
G1 X88.024 Y36.172 E58.29661
G1 X88.312 Y36.309 E58.31706
G1 X88.542 Y36.517 E58.33695
G1 X88.712 Y36.8 E58.35812
G1 X88.788 Y37.207 E58.38467
G1 X88.79 Y60.063 E59.8505
G1 X88.754 Y60.434 E59.87441
G1 X88.631 Y60.729 E59.89491
G1 X88.435 Y60.969 E59.91478
G1 X88.177 Y61.141 E59.93467
G1 X87.694 Y61.251 E59.96644
G1 X81.094 Y61.251 E60.38972
G1 X80.83 Y61.296 E60.4069
G1 X80.578 Y61.443 E60.42561
G1 X80.578 Y61.443 F9000
G1 X80.922 Y61.861
;TYPE:External perimeter
G1 F1800
G1 X80.897 Y61.873 E60.42739
G1 X80.826 Y62.054 E60.43986
G1 X80.826 Y214.746 E70.23248
G1 X80.754 Y215.36 E70.27213
G1 X80.554 Y215.784 E70.3022
G1 X80.239 Y216.131 E70.33226
G1 X79.831 Y216.376 E70.36278
G1 X79.301 Y216.494 E70.3976
G1 X34.377 Y216.497 E73.27872
G1 X33.762 Y216.425 E73.31843
G3 X33.209 Y216.12 I1.706 J-3.754 E73.35897
G1 X32.855 Y215.718 E73.39332
G1 X32.698 Y215.364 E73.41816
G1 X32.626 Y214.875 E73.44986
G1 X32.626 Y37.337 E84.83593
G1 X32.698 Y36.72 E84.87577
M73 P0 R180
G1 X32.855 Y36.365 E84.90066
G1 X33.094 Y36.059 E84.92556
G3 X33.755 Y35.66 I1.826 J2.273 E84.97522
G1 X34.248 Y35.587 E85.00718
G1 X87.649 Y35.589 E88.43195
