; generated by PrusaSlicer 2.8.0+MacOS-arm64 on 2024-10-04 at 11:57:40 UTC


;
;

;
;
; 

; external perimeters extrusion width = 0.68mm
; perimeters extrusion width = 0.68mm
; infill extrusion width = 0.68mm
; solid infill extrusion width = 0.68mm
; top infill extrusion width = 0.60mm
; support material extrusion width = 0.60mm

; external perimeters extrusion width = 0.68mm
; perimeters extrusion width = 0.68mm
; infill extrusion width = 0.68mm
; solid infill extrusion width = 0.68mm
; top infill extrusion width = 0.60mm
; support material extrusion width = 0.60mm


EXCLUDE_OBJECT_DEFINE NAME='f_lid' CENTER=165.255,122.477 POLYGON=[[224.947,32.566],[225.704,32.756],[226.263,33.150],[226.697,33.799],[226.849,34.564],[226.849,165.664],[226.763,166.244],[226.512,166.775],[225.877,167.379],[225.430,167.578],[224.947,167.661],[189.849,167.664],[188.994,167.856],[188.303,168.395],[187.966,168.990],[187.849,169.664],[187.847,215.865],[187.731,216.442],[187.453,216.961],[187.035,217.377],[186.607,217.617],[185.838,217.766],[150.505,217.567],[96.049,217.567],[96.049,165.664],[96.201,164.899],[96.443,164.472],[96.858,164.057],[97.375,163.781],[97.951,163.666],[119.049,163.664],[119.049,34.564],[119.135,33.983],[119.386,33.453],[119.706,33.082],[120.106,32.800],[120.563,32.624],[121.049,32.564]]
EXCLUDE_OBJECT_DEFINE NAME='g_lid' CENTER=66.045,128.474 POLYGON=[[89.361,35.683],[90.028,35.833],[90.677,36.266],[91.111,36.915],[91.263,37.680],[91.263,215.390],[91.177,215.971],[90.869,216.582],[90.454,216.997],[89.843,217.304],[89.263,217.390],[35.763,217.390],[35.182,217.304],[34.652,217.053],[34.217,216.659],[33.915,216.156],[33.765,215.488],[33.763,192.390],[33.823,191.904],[33.999,191.448],[34.349,190.976],[34.820,190.626],[35.373,190.429],[42.263,190.390],[42.263,37.680],[42.349,37.100],[42.600,36.569],[42.994,36.134],[43.498,35.833],[44.165,35.683]]

;TYPE:Custom
START_PRINT BED_TEMP=70 HOTEND_TEMP=235 FILAMENT_TYPE=PET EXTRUSION_MULTIPLIER=0.92 PERIMETER_SPEED=70
G21 ; set units to millimeters
G90 ; use absolute coordinates
M82 ; use absolute distances for extrusion
G92 E0
; Filament gcode
; ########################### NOTE OFFSET CHANGES ####################################
; Prevents PETG buildup on nozzle.
; SET_GCODE_OFFSET Z=0.06
; ####################################################################################
M107
;LAYER_CHANGE
;Z:0.35
;HEIGHT:0.35
G1 E-.5 F240
G1 Z.35 F9000
EXCLUDE_OBJECT_START NAME='g_lid'
G92 E0
G1 X64.862 Y125.527
G1 E.5 F240
G92 E0
;TYPE:External perimeter
;WIDTH:0.675
G1 F1800
G1 X67.204 Y125.527 E.18808
G1 X67.49 Y125.591 E.21162
G1 X67.718 Y125.807 E.23684
;WIDTH:0.712425
G1 X67.772 Y125.873 E.24412
;WIDTH:0.749851
G1 X67.825 Y125.939 E.25177
;WIDTH:0.783797
G1 X67.892 Y126.215 E.27872
;WIDTH:0.785229
G1 X67.89 Y127.154 E.36799
G1 X67.83 Y127.382 E.3904
;WIDTH:0.753096
G1 X67.695 Y127.53 E.40858
;WIDTH:0.714048
G1 X67.56 Y127.677 E.42565
;WIDTH:0.675
G1 X67.211 Y127.79 E.45511
G1 X63.395 Y127.791 E.76157
G1 X63.038 Y127.685 E.79148
G1 X62.814 Y127.491 E.81528
G1 X62.702 Y127.153 E.84388
G1 X62.687 Y127.011 E.85535
G1 X62.687 Y124.103 E1.08889
G1 X62.71 Y123.561 E1.13246
G1 X62.787 Y123.055 E1.17356
G1 X62.962 Y122.558 E1.21588
G1 X63.268 Y122.143 E1.25729
G1 X63.7 Y121.87 E1.29833
G1 X64.257 Y121.77 E1.34378
G1 X67.93 Y121.77 E1.63875
G1 X68.714 Y121.834 E1.70192
G1 X69.245 Y121.969 E1.74592
G1 X69.58 Y122.118 E1.77536
G1 X69.994 Y122.413 E1.81618
G1 X70.374 Y122.875 E1.86422
G1 X70.584 Y123.273 E1.90036
G1 X70.73 Y123.7 E1.9366
G1 X70.874 Y124.52 E2.00346
G1 X70.918 Y125.477 E2.0804
G1 X70.918 Y127.604 E2.25122
G1 X70.883 Y128.483 E2.32187
G1 X70.737 Y129.336 E2.39137
G1 X70.528 Y129.909 E2.44035
G1 X70.147 Y130.49 E2.49615
G1 X69.698 Y130.875 E2.54365
G1 X69.243 Y131.103 E2.58452
G1 X68.941 Y131.189 E2.60974
G1 X68.092 Y131.297 E2.67847
G1 X63.298 Y131.3 E3.06347
G1 X62.933 Y131.172 E3.09453
G1 X62.756 Y130.969 E3.11616
G1 X62.677 Y130.616 E3.14521
G1 X62.68 Y129.662 E3.22182
G1 X62.782 Y129.311 E3.25117
G1 X62.947 Y129.15 E3.26968
G1 X63.31 Y129.037 E3.30021
G1 X67.862 Y129.037 E3.66577
G1 X68.3 Y128.973 E3.70132
G1 X68.481 Y128.855 E3.71867
G1 X68.613 Y128.428 E3.75456
;WIDTH:0.68647
G1 X68.645 Y127.838 E3.80292
;WIDTH:0.735196
G1 X68.623 Y127.575 E3.82624
;WIDTH:0.783923
G1 X68.6 Y127.311 E3.85139
G1 X68.6 Y126.217 E3.9552
;WIDTH:0.783797
G1 X68.619 Y125.961 E3.97955
;WIDTH:0.747531
G1 X68.637 Y125.705 E4.00265
;WIDTH:0.711265
G1 X68.655 Y125.45 E4.02442
;WIDTH:0.675
G1 X68.626 Y124.806 E4.07619
G1 X68.553 Y124.376 E4.11122
G1 X68.43 Y124.179 E4.12987
G1 X68.106 Y124.064 E4.15748
G1 X67.122 Y124.045 E4.23652
G1 X64.897 Y124.046 E4.41521
G1 X64.854 Y124.388 E4.44289
G1 X64.862 Y125.437 E4.52714
G1 X65.455 Y125.526 F9000
G1 E4.02714 F240
G92 E0
G1 X66.246 Y121.17 F9000
G1 E.5 F240
;TYPE:Perimeter
G1 F1800
G1 X67.93 Y121.17 E.63524
G1 X68.764 Y121.236 E.70243
G1 X69.398 Y121.389 E.75481
G1 X69.884 Y121.6 E.79736
G1 X70.337 Y121.916 E.84172
G1 X70.838 Y122.494 E.90315
G1 X71.101 Y122.96 E.94612
G1 X71.283 Y123.452 E.98825
G1 X71.465 Y124.417 E1.06711
G1 X71.518 Y125.477 E1.15234
G1 X71.518 Y127.604 E1.32316
G1 X71.482 Y128.507 E1.39574
G1 X71.328 Y129.439 E1.4716
G1 X71.089 Y130.12 E1.52956
G1 X70.645 Y130.825 E1.59647
G1 X70.469 Y131.019 E1.61751
G1 X70.079 Y131.339 E1.65802
G1 X69.553 Y131.623 E1.70603
G1 X69.051 Y131.779 E1.74825
G1 X68.167 Y131.892 E1.81982
G1 X63.301 Y131.9 E2.2106
G1 X62.993 Y131.846 E2.23571
G1 X62.575 Y131.654 E2.27265
G1 X62.292 Y131.365 E2.30513
G1 X62.159 Y131.067 E2.33134
G1 X62.077 Y130.614 E2.36831
G1 X62.08 Y129.66 E2.44492
G1 X62.183 Y129.183 E2.48411
G1 X62.276 Y128.989 E2.50139
G1 X62.547 Y128.697 E2.53338
;WIDTH:0.69807
G1 X63.009 Y128.476 E2.57609
;WIDTH:0.725487
G1 X63.31 Y128.412 E2.60288
G1 X62.815 Y128.25 E2.64823
;WIDTH:0.677457
G1 X62.402 Y127.939 E2.68992
;WIDTH:0.675
G1 X62.183 Y127.552 E2.72563
G1 X62.087 Y127.011 E2.76976
G1 X62.087 Y124.103 E3.0033
G1 X62.11 Y123.535 E3.04895
G1 X62.19 Y122.982 E3.09382
G1 X62.397 Y122.356 E3.14677
G1 X62.536 Y122.105 E3.16981
G1 X62.86 Y121.702 E3.21134
G1 X63.364 Y121.37 E3.25981
G1 X63.68 Y121.254 E3.28684
G1 X64.257 Y121.17 E3.33367
G1 X66.156 Y121.17 E3.48618
G1 E2.98618 F240
G92 E0
G1 X66.156 Y121.17 F9000
G1 X63.31 Y128.412
G1 E.5 F240
;WIDTH:0.725487
G1 F1800
G1 X63.395 Y128.414 E.5074
;WIDTH:0.721581
G1 X67.211 Y128.414 E.83765
;WIDTH:0.768862
G1 X67.396 Y128.39 E.85498
;WIDTH:0.816143
G1 X67.582 Y128.366 E.87358
;WIDTH:0.863425
G1 X67.768 Y128.343 E.89336
;WIDTH:0.889024
G1 X67.834 Y128.327 E.90076
;WIDTH:0.914623
G1 X67.899 Y128.311 E.90828
G1 E.40828 F240
G92 E0
G1 X67.899 Y128.311 F9000
G1 X67.123 Y124.786
G1 E.5 F240
;WIDTH:0.957149
G1 F1800
G1 X67.164 Y124.771 E.50516
;WIDTH:0.92732
G1 X67.204 Y124.756 E.51003
;WIDTH:0.897491
G1 X67.278 Y124.733 E.51856
;WIDTH:0.849585
G1 X67.351 Y124.709 E.52653
;WIDTH:0.801679
G1 X67.425 Y124.686 E.53407
;WIDTH:0.753774
G1 X67.499 Y124.662 E.54114
;WIDTH:0.705868
G1 X67.572 Y124.639 E.5476
;WIDTH:0.657962
G1 X67.646 Y124.615 E.55367
;WIDTH:0.610056
G1 X67.72 Y124.592 E.55922
;WIDTH:0.583286
G1 X68.037 Y124.614 E.58084
G1 X68.073 Y124.838 E.59627
G1 X68.101 Y125.403 E.63475
G1 X68.005 Y125.296 E.64453
;WIDTH:0.609769
G1 X67.787 Y125.152 E.66323
;WIDTH:0.636253
G1 X67.568 Y125.007 E.68296
;WIDTH:0.682095
G1 X67.504 Y124.976 E.68874
;WIDTH:0.727937
G1 X67.441 Y124.944 E.69492
;WIDTH:0.77378
G1 X67.377 Y124.913 E.70157
;WIDTH:0.819622
G1 X67.313 Y124.881 E.7087
;WIDTH:0.865464
G1 X67.25 Y124.849 E.71618
;WIDTH:0.911306
G1 X67.203 Y124.826 E.72204
G1 X67.203 Y124.826 F9000
G1 X65.597 Y124.786
;WIDTH:0.957149
G1 F1800
G1 X67.123 Y124.786 E.90223
G1 E.40223 F240
G92 E0
G1 X67.123 Y124.786 F9000
G1 X46.388 Y168.854
G1 E.5 F240
;TYPE:External perimeter
;WIDTH:0.675
G1 F1800
G1 X46.358 Y168.745 E.50908
G1 X46.333 Y168.44 E.53366
G1 X46.368 Y168.047 E.56535
G1 X46.481 Y167.668 E.59711
G1 X46.667 Y167.318 E.62894
G1 X46.918 Y167.013 E.66066
G1 X47.225 Y166.763 E.69246
G1 X47.575 Y166.579 E.72422
G1 X47.954 Y166.469 E.75591
G1 X48.333 Y166.435 E.78647
G1 X48.645 Y166.462 E.81162
G1 X49.026 Y166.565 E.84332
G1 X49.38 Y166.742 E.8751
G1 X49.692 Y166.986 E.90691
G1 X49.949 Y167.286 E.93863
G1 X50.142 Y167.632 E.97045
G1 X50.262 Y168.008 E1.00215
G1 X50.305 Y168.402 E1.03398
G1 X50.27 Y168.796 E1.06575
G1 X50.157 Y169.175 E1.09751
G1 X49.971 Y169.524 E1.12927
G1 X49.72 Y169.829 E1.16099
G1 X49.413 Y170.079 E1.19279
G1 X49.063 Y170.263 E1.22455
G1 X48.683 Y170.374 E1.25634
G1 X48.289 Y170.407 E1.28809
G1 X47.896 Y170.362 E1.31986
G1 X47.52 Y170.24 E1.35161
G1 X47.175 Y170.045 E1.38344
G1 X46.876 Y169.787 E1.41516
G1 X46.634 Y169.474 E1.44693
G1 X46.459 Y169.119 E1.47872
G1 X46.411 Y168.941 E1.49353
G1 X46.357 Y168.343 F9000
G1 X45.804 Y168.972
;TYPE:Perimeter
G1 F1800
G1 X45.762 Y168.804 E1.50744
G1 X45.734 Y168.396 E1.54028
G1 X45.791 Y167.884 E1.58165
G1 X45.947 Y167.394 E1.62295
G1 X46.198 Y166.944 E1.66433
G1 X46.532 Y166.553 E1.70563
G1 X46.938 Y166.236 E1.747
G1 X47.398 Y166.006 E1.7883
G1 X47.893 Y165.872 E1.82948
G1 X48.376 Y165.836 E1.86838
G1 X48.793 Y165.88 E1.90205
G1 X49.286 Y166.024 E1.9433
G1 X49.742 Y166.264 E1.98468
G1 X50.142 Y166.589 E2.02607
G1 X50.468 Y166.986 E2.06732
G1 X50.71 Y167.44 E2.10864
G1 X50.857 Y167.934 E2.15003
G1 X50.903 Y168.446 E2.19131
G1 X50.847 Y168.958 E2.23267
G1 X50.691 Y169.448 E2.27397
G1 X50.44 Y169.898 E2.31535
G1 X50.105 Y170.289 E2.3567
G1 X49.7 Y170.606 E2.398
G1 X49.24 Y170.836 E2.4393
G1 X48.743 Y170.971 E2.48066
G1 X48.229 Y171.004 E2.52202
G1 X47.719 Y170.935 E2.56335
G1 X47.233 Y170.767 E2.60465
G1 X46.79 Y170.505 E2.64598
G1 X46.407 Y170.161 E2.68732
G1 X46.1 Y169.747 E2.72871
G1 X45.882 Y169.281 E2.77003
G1 X45.826 Y169.059 E2.78842
G1 E2.28842 F240
G92 E0
G1 X45.826 Y169.059 F9000
G1 X87.342 Y210.868
G1 E.5 F240
;TYPE:External perimeter
G1 F1800
G1 X87.439 Y211.171 E.52555
G1 X87.482 Y211.564 E.5573
G1 X87.447 Y211.958 E.58907
G1 X87.334 Y212.337 E.62083
G1 X87.148 Y212.686 E.65259
G1 X86.897 Y212.992 E.68437
G1 X86.59 Y213.242 E.71617
G1 X86.24 Y213.425 E.74789
G1 X85.86 Y213.536 E.77968
G1 X85.466 Y213.57 E.81144
G1 X85.132 Y213.536 E.8384
G1 X84.697 Y213.402 E.87495
G1 X84.352 Y213.208 E.90674
G1 X84.053 Y212.949 E.93851
G1 X83.815 Y212.643 E.96964
G1 X83.673 Y212.373 E.99414
G1 X83.553 Y211.997 E1.02584
G1 X83.51 Y211.603 E1.05767
G1 X83.545 Y211.209 E1.08944
G1 X83.658 Y210.83 E1.1212
G1 X83.844 Y210.481 E1.15296
G1 X84.095 Y210.175 E1.18474
G1 X84.402 Y209.926 E1.21648
G1 X84.752 Y209.742 E1.24824
G1 X85.131 Y209.631 E1.27996
G1 X85.51 Y209.597 E1.31052
G1 X85.822 Y209.624 E1.33567
G1 X86.203 Y209.727 E1.36737
G1 X86.557 Y209.904 E1.39915
G1 X86.869 Y210.148 E1.43096
G1 X87.126 Y210.448 E1.46268
G1 X87.313 Y210.783 E1.49349
G1 X87.45 Y211.367 F9000
G1 X87.905 Y210.663
;TYPE:Perimeter
G1 F1800
G1 X88.034 Y211.096 E1.52977
G1 X88.081 Y211.609 E1.57114
G1 X88.024 Y212.12 E1.61243
G1 X87.868 Y212.611 E1.6538
G1 X87.617 Y213.06 E1.69511
G1 X87.283 Y213.452 E1.73647
G1 X86.877 Y213.768 E1.77779
G1 X86.417 Y213.999 E1.81913
G1 X85.92 Y214.133 E1.86047
G1 X85.406 Y214.167 E1.90184
G1 X85.072 Y214.133 E1.9288
G1 X84.575 Y213.999 E1.97014
G1 X84.115 Y213.768 E2.01148
G1 X83.709 Y213.452 E2.0528
G1 X83.375 Y213.061 E2.0941
G1 X83.104 Y212.564 E2.13956
G1 X82.958 Y212.071 E2.18085
G1 X82.911 Y211.559 E2.22214
G1 X82.968 Y211.047 E2.26351
G1 X83.124 Y210.557 E2.30481
G1 X83.375 Y210.107 E2.34619
G1 X83.709 Y209.716 E2.38749
G1 X84.115 Y209.399 E2.42886
G1 X84.575 Y209.169 E2.47016
G1 X85.07 Y209.034 E2.51136
G1 X85.553 Y208.999 E2.55025
G1 X85.97 Y209.043 E2.58392
G1 X86.464 Y209.187 E2.62524
G1 X86.919 Y209.426 E2.66651
G1 X87.319 Y209.751 E2.7079
G1 X87.646 Y210.149 E2.74927
G1 X87.874 Y210.579 E2.78836
G1 E2.28836 F240
G92 E0
G1 X87.874 Y210.579 F9000
G1 X83.647 Y80.372
G1 E.5 F240
;TYPE:External perimeter
G1 F1800
G1 X83.54 Y80.18 E.51765
G1 X83.42 Y79.803 E.54942
G1 X83.376 Y79.42 E.58038
G1 X83.412 Y79.016 E.61295
G1 X83.525 Y78.637 E.64471
G1 X83.711 Y78.288 E.67647
G1 X83.962 Y77.982 E.70825
G1 X84.269 Y77.732 E.74005
G1 X84.619 Y77.548 E.77181
G1 X84.998 Y77.438 E.8035
G1 X85.377 Y77.404 E.83406
G1 X85.689 Y77.431 E.85921
G1 X86.07 Y77.534 E.89091
G1 X86.424 Y77.711 E.92269
G1 X86.736 Y77.955 E.9545
G1 X86.993 Y78.255 E.98622
G1 X87.186 Y78.601 E1.01804
G1 X87.306 Y78.977 E1.04974
G1 X87.349 Y79.371 E1.08157
G1 X87.314 Y79.765 E1.11334
G1 X87.201 Y80.144 E1.1451
G1 X87.015 Y80.493 E1.17686
G1 X86.764 Y80.799 E1.20864
G1 X86.457 Y81.048 E1.24038
G1 X86.107 Y81.232 E1.27214
G1 X85.727 Y81.343 E1.30393
G1 X85.333 Y81.376 E1.33568
G1 X84.94 Y81.331 E1.36745
G1 X84.564 Y81.209 E1.3992
G1 X84.219 Y81.015 E1.43099
G1 X83.925 Y80.762 E1.46214
G1 X83.733 Y80.525 E1.48664
G1 X83.691 Y80.45 E1.49354
G1 X83.458 Y79.897 F9000
G1 X83.123 Y80.656
;TYPE:Perimeter
G1 F1800
G1 X82.972 Y80.371 E1.51944
G1 X82.825 Y79.878 E1.56075
G1 X82.777 Y79.395 E1.59973
G1 X82.826 Y78.888 E1.64064
G1 X82.976 Y78.395 E1.68202
G1 X83.22 Y77.941 E1.72341
G1 X83.543 Y77.552 E1.76402
G1 X83.937 Y77.231 E1.80483
G1 X84.38 Y76.997 E1.84506
G1 X84.937 Y76.841 E1.89151
G1 X85.42 Y76.805 E1.93041
G1 X85.837 Y76.85 E1.96409
G1 X86.33 Y76.994 E2.00534
G1 X86.786 Y77.233 E2.04669
G1 X87.186 Y77.558 E2.08808
G1 X87.513 Y77.955 E2.12939
G1 X87.754 Y78.41 E2.17074
G1 X87.901 Y78.903 E2.21205
G1 X87.947 Y79.415 E2.25333
G1 X87.891 Y79.927 E2.29469
G1 X87.735 Y80.417 E2.33599
G1 X87.484 Y80.867 E2.37737
G1 X87.15 Y81.258 E2.41867
G1 X86.744 Y81.575 E2.46004
G1 X86.284 Y81.805 E2.50134
G1 X85.787 Y81.94 E2.5427
G1 X85.273 Y81.973 E2.58406
G1 X84.763 Y81.904 E2.62539
G1 X84.277 Y81.736 E2.66669
G1 X83.834 Y81.474 E2.70802
G1 X83.466 Y81.148 E2.7475
G1 X83.213 Y80.825 E2.78045
G1 X83.166 Y80.736 E2.78853
G1 E2.28853 F240
G92 E0
G1 X83.166 Y80.736 F9000
G1 X46.284 Y62.333
G1 E.5 F240
;TYPE:External perimeter
G1 F1800
G1 X46.312 Y62.016 E.52556
G1 X46.425 Y61.637 E.55732
G1 X46.611 Y61.288 E.58908
G1 X46.862 Y60.982 E.62086
G1 X47.119 Y60.766 E.64782
G1 X47.519 Y60.548 E.6844
G1 X47.898 Y60.438 E.71609
G1 X48.277 Y60.404 E.74665
G1 X48.589 Y60.431 E.7718
G1 X48.97 Y60.534 E.8035
G1 X49.324 Y60.711 E.83528
G1 X49.636 Y60.955 E.86709
G1 X49.893 Y61.255 E.89881
G1 X50.086 Y61.601 E.93063
G1 X50.206 Y61.977 E.96233
G1 X50.249 Y62.371 E.99416
G1 X50.214 Y62.765 E1.02593
G1 X50.101 Y63.144 E1.05769
G1 X49.915 Y63.493 E1.08945
G1 X49.664 Y63.799 E1.12123
G1 X49.357 Y64.048 E1.15297
G1 X49.007 Y64.232 E1.18473
G1 X48.627 Y64.343 E1.21652
G1 X48.233 Y64.376 E1.24827
G1 X47.84 Y64.331 E1.28004
G1 X47.464 Y64.209 E1.31179
G1 X47.126 Y64.02 E1.34289
G1 X46.89 Y63.826 E1.36742
G1 X46.633 Y63.526 E1.39914
G1 X46.44 Y63.18 E1.43096
G1 X46.32 Y62.803 E1.46273
G1 X46.278 Y62.422 E1.49351
G1 X46.378 Y61.831 F9000
G1 X45.685 Y62.303
;TYPE:Perimeter
G1 F1800
G1 X45.735 Y61.854 E1.52979
G1 X45.891 Y61.363 E1.57116
G1 X46.142 Y60.914 E1.61247
G1 X46.476 Y60.523 E1.65377
G1 X46.734 Y60.306 E1.68084
G1 X47.177 Y60.045 E1.72213
G1 X47.663 Y59.876 E1.76345
G1 X48.164 Y59.808 E1.80405
G1 X48.737 Y59.85 E1.85019
G1 X49.231 Y59.994 E1.89151
G1 X49.686 Y60.233 E1.93278
G1 X50.086 Y60.558 E1.97417
G1 X50.413 Y60.955 E2.01548
G1 X50.654 Y61.41 E2.05683
G1 X50.801 Y61.903 E2.09814
G1 X50.847 Y62.415 E2.13942
G1 X50.791 Y62.927 E2.18078
G1 X50.635 Y63.417 E2.22208
G1 X50.384 Y63.867 E2.26346
G1 X50.059 Y64.25 E2.3038
G1 X49.644 Y64.575 E2.34613
G1 X49.184 Y64.805 E2.38743
G1 X48.687 Y64.94 E2.42879
G1 X48.173 Y64.973 E2.47015
G1 X47.663 Y64.904 E2.51148
G1 X47.177 Y64.736 E2.55278
G1 X46.752 Y64.489 E2.59226
G1 X46.44 Y64.222 E2.62524
G1 X46.113 Y63.826 E2.66648
G1 X45.872 Y63.371 E2.70783
G1 X45.725 Y62.878 E2.74914
G1 X45.681 Y62.392 E2.78833
G1 E2.28833 F240
G92 E0
G1 X45.681 Y62.392 F9000
G1 X42.504 Y190.636
G1 E.5 F240
;TYPE:External perimeter
G1 F1800
G1 X42.531 Y190.62 E.50252
G1 X42.6 Y190.428 E.5189
G1 X42.6 Y37.704 E12.78391
G1 X42.675 Y37.199 E12.82491
G1 X42.883 Y36.759 E12.864
G1 X43.21 Y36.398 E12.90312
G1 X43.634 Y36.144 E12.94281
G1 X44.186 Y36.02 E12.98824
