; generated by PrusaSlicer 2.8.1+MacOS-arm64 on 2024-10-29 at 13:56:41 UTC


;
;

;
;
; 

; external perimeters extrusion width = 0.55mm
; perimeters extrusion width = 0.60mm
; infill extrusion width = 0.60mm
; solid infill extrusion width = 0.60mm
; top infill extrusion width = 0.55mm
; first layer extrusion width = 0.60mm

; external perimeters extrusion width = 0.55mm
; perimeters extrusion width = 0.60mm
; infill extrusion width = 0.60mm
; solid infill extrusion width = 0.60mm
; top infill extrusion width = 0.55mm
; first layer extrusion width = 0.60mm

M73 P0 R181

EXCLUDE_OBJECT_DEFINE NAME='f_lid' CENTER=142.302,106.451 POLYGON=[[201.994,16.539],[202.751,16.729],[203.310,17.123],[203.743,17.772],[203.896,18.537],[203.896,149.637],[203.809,150.218],[203.558,150.748],[202.924,151.353],[202.476,151.551],[201.994,151.635],[166.896,151.637],[166.040,151.829],[165.350,152.368],[165.012,152.963],[164.896,153.637],[164.893,199.838],[164.809,200.322],[164.556,200.854],[164.159,201.289],[163.653,201.590],[162.884,201.739],[127.551,201.540],[73.096,201.540],[73.096,149.637],[73.248,148.872],[73.489,148.446],[73.904,148.031],[74.422,147.754],[74.997,147.639],[96.096,147.637],[96.096,18.537],[96.182,17.957],[96.433,17.426],[96.752,17.055],[97.153,16.773],[97.610,16.597],[98.096,16.537]]
EXCLUDE_OBJECT_DEFINE NAME='g_lid' CENTER=43.133,106.831 POLYGON=[[66.450,14.039],[67.207,14.229],[67.834,14.694],[68.235,15.363],[68.352,16.037],[68.352,193.747],[68.266,194.328],[67.958,194.938],[67.543,195.353],[67.025,195.630],[66.352,195.747],[12.852,195.747],[12.271,195.661],[11.660,195.353],[11.245,194.938],[10.969,194.421],[10.854,193.845],[10.852,170.747],[10.912,170.261],[11.088,169.804],[11.437,169.333],[11.909,168.983],[12.461,168.785],[19.352,168.747],[19.352,16.037],[19.438,15.456],[19.689,14.926],[20.083,14.491],[20.586,14.189],[21.253,14.039]]

M190 S70 ; set bed temperature and wait for it to be reached
M104 S230 ; set temperature
;TYPE:Custom
START_PRINT BED_TEMP=70 HOTEND_TEMP=230 FILAMENT_TYPE=PET EXTRUSION_MULTIPLIER=0.96
M109 S230 ; set temperature and wait for it to be reached
G21 ; set units to millimeters
G90 ; use absolute coordinates
M82 ; use absolute distances for extrusion
G92 E0
; Filament gcode
; ########################### NOTE OFFSET CHANGES ####################################
; Prevents PETG buildup on nozzle.
; PETG does not like to be touching the nozzle, this causes buildup on nozzle
; Once the bed z distance is finaly chuned a small offset for PETG works perfectly
SET_GCODE_OFFSET Z=0.24
; ####################################################################################
M107
;LAYER_CHANGE
;Z:0.3
;HEIGHT:0.3
G1 E-.55 F600
G1 Z.8 F9000
EXCLUDE_OBJECT_START NAME='g_lid'
G92 E0
G1 X22.972 Y145.934
G1 Z.3
G1 E.6 F1200
;TYPE:Perimeter
;WIDTH:0.6
G1 F1800
G1 X23.318 Y145.265 E.6483
G1 X23.857 Y144.716 E.69764
G1 X24.534 Y144.351 E.74697
G3 X25.278 Y144.202 I1.049 J3.3 E.79573
G1 X25.805 Y144.223 E.82955
G1 X26.349 Y144.371 E.86571
G1 X26.868 Y144.652 E.90356
G3 X27.43 Y145.177 I-2.089 J2.798 E.95298
G3 X27.812 Y145.844 I-2.822 J2.059 E1.00238
G3 X27.981 Y146.595 I-3.308 J1.137 E1.05185
G3 X27.92 Y147.36 I-3.502 J.11 E1.10117
G3 X27.637 Y148.075 I-3.368 J-.922 E1.15059
G3 X27.156 Y148.675 I-2.948 J-1.874 E1.20001
G3 X26.519 Y149.106 I-2.265 J-2.66 E1.24944
G3 X25.783 Y149.33 I-1.38 J-3.209 E1.29888
G3 X25.014 Y149.327 I-.372 J-3.473 E1.3483
G3 X24.28 Y149.098 I.668 J-3.429 E1.39771
G1 X23.647 Y148.663 E1.44697
G1 X23.169 Y148.06 E1.49632
G1 X22.891 Y147.343 E1.54564
G1 X22.828 Y146.685 E1.58803
G1 X22.847 Y146.466 E1.60213
G1 X22.952 Y146.006 E1.63239
G1 X23.476 Y146.119 F9000
;TYPE:External perimeter
G1 F1800
G1 X23.487 Y146.067 E1.6358
G1 X23.782 Y145.533 E1.67493
G1 X24.221 Y145.109 E1.71407
G1 X24.766 Y144.833 E1.75325
G1 X25.359 Y144.731 E1.79184
G3 X26.145 Y144.868 I-.012 J2.394 E1.84325
G1 X26.612 Y145.122 E1.87734
G1 X27.046 Y145.55 E1.91643
G1 X27.335 Y146.088 E1.9556
G1 X27.453 Y146.687 E1.99475
G1 X27.389 Y147.294 E2.03389
G1 X27.149 Y147.855 E2.07302
G1 X26.754 Y148.32 E2.11215
G1 X26.24 Y148.649 E2.15129
G1 X25.651 Y148.811 E2.19047
G1 X25.041 Y148.792 E2.22961
G1 X24.464 Y148.595 E2.26871
G1 X23.97 Y148.236 E2.30787
G1 X23.604 Y147.747 E2.34704
G1 X23.398 Y147.172 E2.38621
G1 X23.363 Y146.658 E2.41925
G1 X23.369 Y146.585 E2.42395
G1 X23.459 Y146.192 E2.44981
G1 X23.673 Y145.74 F9000
G1 E1.89981 F600
G92 E0
G1 X43.515 Y166.4 Z.8 F9000
G1 X64.428 Y188.174
G1 Z.3
G1 E.6 F1200
;TYPE:Perimeter
G1 F1800
G1 X64.756 Y188.548 E.6319
G1 X65.07 Y189.25 E.68122
G1 X65.163 Y190.013 E.73052
G3 X65.027 Y190.77 I-3.485 J-.236 E.77995
G1 X64.674 Y191.453 E.82926
G1 X64.135 Y192.002 E.8786
G1 X63.459 Y192.367 E.92787
G3 X62.704 Y192.517 I-1.054 J-3.33 E.97734
G3 X61.94 Y192.438 I-.024 J-3.494 E1.0267
G1 X61.232 Y192.137 E1.07604
G1 X60.645 Y191.64 E1.12537
G1 X60.275 Y191.093 E1.16772
G1 X60.086 Y190.593 E1.202
G1 X60.006 Y189.867 E1.24884
G3 X60.142 Y189.11 I3.486 J.236 E1.29827
G3 X60.496 Y188.427 I3.261 J1.253 E1.34771
G3 X61.148 Y187.791 I2.758 J2.175 E1.40629
G1 X61.711 Y187.513 E1.44656
G3 X62.907 Y187.377 I.929 J2.821 E1.5243
G1 X63.595 Y187.567 E1.57008
G1 X64.25 Y187.97 E1.6194
G1 X64.379 Y188.117 E1.63194
G1 X64.379 Y188.117 F9000
G1 X64.045 Y188.529
;TYPE:External perimeter
G1 F1800
G1 X64.338 Y188.882 E1.66136
G1 X64.572 Y189.446 E1.70052
G1 X64.629 Y190.054 E1.73968
G1 X64.505 Y190.651 E1.77878
G1 X64.21 Y191.185 E1.81791
G1 X63.771 Y191.609 E1.85705
G1 X63.226 Y191.885 E1.89623
G1 X62.625 Y191.987 E1.93533
G1 X62.019 Y191.908 E1.97452
G1 X61.465 Y191.654 E2.01361
G1 X61.009 Y191.248 E2.05277
G1 X60.732 Y190.813 E2.08584
G1 X60.58 Y190.357 E2.11667
G1 X60.54 Y189.827 E2.15076
G1 X60.665 Y189.23 E2.18988
G1 X60.959 Y188.695 E2.22903
G1 X61.437 Y188.242 E2.27127
G1 X61.943 Y187.996 E2.30735
G1 X62.536 Y187.894 E2.34594
G1 X62.929 Y187.922 E2.37121
G1 X63.437 Y188.079 E2.40531
G1 X63.948 Y188.413 E2.44446
G1 X63.997 Y188.472 E2.44938
G1 X64.308 Y188.863 F9000
G1 E1.89938 F600
G92 E0
G1 X64.4 Y160.218 Z.8 F9000
G1 X64.735 Y56.601
G1 Z.3
G1 E.6 F1200
;TYPE:Perimeter
G1 F1800
G1 X64.856 Y56.813 E.61565
G1 X65.025 Y57.563 E.66496
G3 X64.964 Y58.33 I-3.492 J.112 E.71441
G3 X64.681 Y59.044 I-3.369 J-.923 E.76377
G1 X64.2 Y59.644 E.81309
G1 X63.563 Y60.075 E.86242
G1 X62.827 Y60.299 E.91176
G3 X62.058 Y60.296 I-.372 J-3.473 E.96118
G3 X61.324 Y60.067 I.668 J-3.429 E1.01059
G3 X60.69 Y59.632 I1.65 J-3.081 E1.06
G1 X60.268 Y59.123 E1.1024
G1 X59.966 Y58.437 E1.15047
G3 X59.873 Y57.674 I3.4 J-.801 E1.19987
G3 X60.009 Y56.917 I3.486 J.236 E1.2493
G3 X60.362 Y56.234 I3.26 J1.253 E1.29871
G3 X60.901 Y55.685 I2.748 J2.159 E1.34815
G3 X61.578 Y55.32 I1.988 J2.872 E1.39758
G3 X62.774 Y55.183 I.928 J2.82 E1.47532
G1 X63.26 Y55.294 E1.50729
G1 X63.912 Y55.621 E1.55407
G1 X64.474 Y56.146 E1.60339
G1 X64.698 Y56.536 E1.63223
G1 X64.698 Y56.536 F9000
G1 X64.258 Y56.831
;TYPE:External perimeter
G1 F1800
G1 X64.379 Y57.057 E1.64867
G1 X64.497 Y57.656 E1.68782
G1 X64.433 Y58.263 E1.72696
G1 X64.193 Y58.824 E1.76609
G1 X63.798 Y59.289 E1.80522
G1 X63.284 Y59.618 E1.84436
G1 X62.695 Y59.78 E1.88354
G1 X62.085 Y59.761 E1.92268
G1 X61.508 Y59.564 E1.96178
G1 X61.014 Y59.205 E2.00094
G1 X60.695 Y58.8 E2.034
G1 X60.465 Y58.241 E2.07277
G1 X60.407 Y57.634 E2.11188
G1 X60.531 Y57.036 E2.15105
G1 X60.826 Y56.502 E2.19018
G1 X61.265 Y56.078 E2.22932
G1 X61.81 Y55.803 E2.26847
G1 X62.403 Y55.7 E2.30707
G3 X63.189 Y55.837 I-.011 J2.393 E2.35848
G1 X63.656 Y56.091 E2.39257
G1 X64.09 Y56.52 E2.43171
G1 X64.223 Y56.765 E2.44959
G1 X64.402 Y57.232 F9000
G1 E1.89959 F600
G92 E0
G1 X37.97 Y46.191 Z.8 F9000
G1 X22.916 Y39.903
G1 Z.3
G1 E.6 F1200
;TYPE:Perimeter
G1 F1800
G1 X23.262 Y39.234 E.6483
G1 X23.801 Y38.685 E.69764
G1 X24.478 Y38.32 E.74697
G3 X25.222 Y38.171 I1.049 J3.3 E.79573
G1 X25.749 Y38.192 E.82955
G1 X26.293 Y38.34 E.86571
G1 X26.812 Y38.621 E.90356
G3 X27.374 Y39.146 I-2.088 J2.798 E.95298
G3 X27.756 Y39.813 I-2.823 J2.06 E1.00238
G3 X27.937 Y40.715 I-3.277 J1.125 E1.06156
G1 X27.864 Y41.33 E1.10128
G3 X27.581 Y42.044 I-3.369 J-.923 E1.15064
G3 X27.1 Y42.644 I-2.948 J-1.874 E1.20006
G3 X26.463 Y43.075 I-2.265 J-2.66 E1.24949
G3 X25.727 Y43.299 I-1.38 J-3.21 E1.29893
G3 X24.958 Y43.296 I-.372 J-3.473 E1.34835
G3 X24.224 Y43.067 I.668 J-3.429 E1.39776
G1 X23.671 Y42.706 E1.44011
G1 X23.18 Y42.139 E1.48821
G1 X22.866 Y41.437 E1.53753
G3 X22.773 Y40.674 I3.4 J-.801 E1.58693
G3 X22.893 Y39.974 I3.486 J.236 E1.63256
G1 X22.893 Y39.974 F9000
G1 X23.421 Y40.089
;TYPE:External perimeter
G1 F1800
G1 X23.431 Y40.036 E1.63602
G1 X23.726 Y39.502 E1.67515
G1 X24.166 Y39.078 E1.71434
G1 X24.71 Y38.803 E1.75343
G1 X25.303 Y38.7 E1.79203
G3 X26.089 Y38.837 I-.012 J2.394 E1.84344
G1 X26.557 Y39.092 E1.87762
G1 X26.99 Y39.52 E1.91667
G1 X27.279 Y40.057 E1.95578
G1 X27.401 Y40.707 E1.99819
G1 X27.333 Y41.263 E2.03411
G1 X27.093 Y41.824 E2.07324
G1 X26.698 Y42.289 E2.11237
G1 X26.184 Y42.618 E2.15151
G1 X25.595 Y42.78 E2.19069
G1 X24.985 Y42.761 E2.22983
G1 X24.408 Y42.564 E2.26893
G1 X23.983 Y42.271 E2.30204
G1 X23.599 Y41.805 E2.34077
G1 X23.365 Y41.241 E2.37993
G1 X23.307 Y40.634 E2.41904
G1 X23.405 Y40.162 E2.44996
G1 X23.617 Y39.709 F9000
G1 E1.89996 F600
G92 E0
G1 X22.83 Y68.343 Z.8 F9000
G1 X20.05 Y169.436
G1 Z.3
G1 E.6 F1200
;TYPE:Perimeter
G1 F1800
G1 X20.215 Y169.211 E.61789
G1 X20.287 Y168.879 E.63968
G1 X20.287 Y16.188 E10.43223
G1 X20.342 Y15.73 E10.46181
G1 X20.474 Y15.451 E10.4816
G1 X20.682 Y15.221 E10.50149
G1 X20.965 Y15.051 E10.52266
G1 X21.31 Y14.975 E10.54532
G1 X66.259 Y14.975 E13.42804
G1 X66.65 Y15.023 E13.4533
G1 X66.938 Y15.159 E13.47373
G1 X67.168 Y15.367 E13.49362
G1 X67.327 Y15.633 E13.51349
G1 X67.416 Y16.076 E13.54247
G1 X67.416 Y193.033 E24.89128
G1 X67.403 Y193.774 E24.93881
M73 P0 R180
G1 X67.307 Y194.183 E24.96575
G1 X67.106 Y194.487 E24.98912
G1 X66.756 Y194.722 E25.01616
G1 X66.29 Y194.811 E25.04659
G1 X13.002 Y194.811 E28.46412
G1 X12.545 Y194.757 E28.49363
G1 X12.265 Y194.625 E28.51348
G1 X12.036 Y194.417 E28.53332
G1 X11.866 Y194.133 E28.55455
G1 X11.79 Y193.789 E28.57714
G1 X11.787 Y170.871 E30.04694
G1 X11.824 Y170.5 E30.07085
G1 X11.946 Y170.204 E30.09138
G1 X12.143 Y169.965 E30.11124
G1 X12.4 Y169.793 E30.13107
G1 X12.884 Y169.683 E30.1629
G1 X19.484 Y169.683 E30.58618
G1 X19.748 Y169.638 E30.60336
G1 X20 Y169.49 E30.6221
G1 X20 Y169.49 F9000
G1 X19.656 Y169.073
;TYPE:External perimeter
G1 F1800
G1 X19.681 Y169.061 E30.62388
G1 X19.752 Y168.879 E30.63641
G1 X19.752 Y16.188 E40.42896
G1 X19.823 Y15.573 E40.46866
G1 X20.024 Y15.15 E40.4987
G1 X20.339 Y14.802 E40.5288
G1 X20.747 Y14.558 E40.55929
G1 X21.277 Y14.439 E40.59413
G1 X66.267 Y14.439 E43.47948
G1 X66.813 Y14.508 E43.51478
G1 X67.239 Y14.709 E43.54499
G1 X67.586 Y15.024 E43.57505
G1 X67.827 Y15.426 E43.60511
G3 X67.952 Y16.076 I-4.77 J1.251 E43.64759
G1 X67.952 Y193.596 E55.0325
G1 X67.879 Y194.214 E55.07241
G1 X67.722 Y194.568 E55.09725
G1 X67.484 Y194.874 E55.12211
G3 X66.822 Y195.274 I-1.826 J-2.273 E55.17186
G1 X66.33 Y195.347 E55.20376
G1 X13.002 Y195.347 E58.62385
G1 X12.388 Y195.275 E58.6635
G1 X11.964 Y195.075 E58.69357
G1 X11.617 Y194.76 E58.72363
G1 X11.373 Y194.352 E58.75412
G1 X11.254 Y193.822 E58.78896
G1 X11.252 Y170.871 E60.26088
G1 X11.301 Y170.362 E60.29367
G1 X11.482 Y169.926 E60.32395
G1 X11.779 Y169.564 E60.35398
G1 X12.169 Y169.303 E60.38408
G3 X12.864 Y169.147 I1.133 J3.413 E60.42984
G1 X19.484 Y169.147 E60.8544
G1 X19.51 Y169.146 E60.85607
G1 X19.589 Y169.106 E60.86175
G1 X19.742 Y168.631 F9000
G1 E60.31175 F600
G92 E0
G1 X27.943 Y141.185 Z.8 F9000
G1 X65.606 Y15.135
G1 Z.3
G1 E.6 F1200
;TYPE:Solid infill
;WIDTH:0.601139
G1 F1800
G1 X67.014 Y16.543 E.72797
G1 X67.014 Y17.302 E.77675
G1 X65.088 Y15.376 E.95181
G1 X64.329 Y15.376 E1.00059
G1 X67.014 Y18.061 E1.24463
G1 X67.014 Y18.821 E1.29347
G1 X63.57 Y15.376 E1.60654
G1 X62.811 Y15.376 E1.65532
G1 X67.014 Y19.58 E2.03738
G1 X67.014 Y20.339 E2.08616
G1 X62.052 Y15.376 E2.53721
G1 X61.293 Y15.376 E2.58599
G1 X67.014 Y21.098 E3.10602
G1 X67.014 Y21.857 E3.1548
G1 X60.534 Y15.376 E3.74382
G1 X59.775 Y15.376 E3.7926
G1 X67.014 Y22.616 E4.4506
G1 X67.014 Y23.375 E4.49938
G1 X59.016 Y15.376 E5.22637
G1 X58.256 Y15.376 E5.27521
G1 X67.014 Y24.134 E6.07123
G1 X67.014 Y24.893 E6.12001
G1 X57.497 Y15.376 E6.98502
G1 X56.738 Y15.376 E7.0338
G1 X67.014 Y25.652 E7.96779
G1 X67.014 Y26.411 E8.01657
G1 X55.979 Y15.376 E9.01955
G1 X55.22 Y15.376 E9.06833
G1 X67.014 Y27.171 E10.14034
G1 X67.014 Y27.93 E10.18912
G1 X54.461 Y15.376 E11.33012
G1 X53.702 Y15.376 E11.3789
G1 X67.014 Y28.689 E12.58888
G1 X67.014 Y29.448 E12.63766
G1 X52.943 Y15.376 E13.91663
G1 X52.184 Y15.376 E13.96541
G1 X67.014 Y30.207 E15.31337
G1 X67.014 Y30.966 E15.36215
G1 X51.425 Y15.376 E16.77909
G1 X50.666 Y15.376 E16.82787
G1 X67.014 Y31.725 E18.3138
G1 X67.014 Y32.484 E18.36258
G1 X49.907 Y15.376 E19.91749
G1 X49.147 Y15.376 E19.96633
G1 X67.014 Y33.243 E21.59028
G1 X67.014 Y34.002 E21.63906
G1 X48.388 Y15.376 E23.33199
G1 X47.629 Y15.376 E23.38077
G1 X67.014 Y34.761 E25.14269
G1 X67.014 Y35.521 E25.19153
G1 X46.87 Y15.376 E27.02248
G1 X46.111 Y15.376 E27.07126
G1 X67.014 Y36.28 E28.9712
G1 X67.014 Y37.039 E29.01998
G1 X45.352 Y15.376 E30.9889
G1 X44.593 Y15.376 E31.03768
G1 X67.014 Y37.798 E33.07559
G1 X67.014 Y38.557 E33.12437
G1 X43.834 Y15.376 E35.23126
G1 X43.075 Y15.376 E35.28004
G1 X67.014 Y39.316 E37.45592
G1 X67.014 Y40.075 E37.5047
G1 X42.316 Y15.376 E39.74957
G1 X41.557 Y15.376 E39.79835
G1 X67.014 Y40.834 E42.1122
G1 X67.014 Y41.593 E42.16098
G1 X40.797 Y15.376 E44.54386
G1 X40.038 Y15.376 E44.59264
G1 X67.014 Y42.352 E47.04451
G1 X67.014 Y43.111 E47.09329
G1 X39.279 Y15.376 E49.61415
G1 X38.52 Y15.377 E49.66293
G1 X67.014 Y43.871 E52.25277
G1 X67.014 Y44.63 E52.30155
G1 X37.761 Y15.377 E54.96038
G1 X37.002 Y15.377 E55.00916
G1 X67.014 Y45.389 E57.73698
G1 X67.014 Y46.148 E57.78576
G1 X36.243 Y15.377 E60.58256
G1 X35.484 Y15.377 E60.63134
G1 X67.014 Y46.907 E63.49713
G1 X67.014 Y47.666 E63.54591
G1 X34.725 Y15.377 E66.48068
G1 X33.966 Y15.377 E66.52946
G1 X67.014 Y48.425 E69.53322
G1 X67.014 Y49.184 E69.582
G1 X33.207 Y15.377 E72.65475
G1 X32.448 Y15.377 E72.70353
M73 P0 R179
G1 X67.014 Y49.943 E75.84526
G1 X67.014 Y50.702 E75.89404
G1 X31.688 Y15.377 E79.1048
G1 X30.929 Y15.377 E79.15358
G1 X67.014 Y51.461 E82.43333
G1 X67.014 Y52.221 E82.48217
G1 X30.17 Y15.377 E85.83095
G1 X29.411 Y15.377 E85.87973
G1 X67.014 Y52.98 E89.2975
G1 X67.014 Y53.739 E89.34628
G1 X28.652 Y15.377 E92.83303
G1 X27.893 Y15.377 E92.88181
G1 X67.014 Y54.498 E96.43755
G1 X67.014 Y55.257 E96.48633
G1 X27.134 Y15.377 E100.11106
G1 X26.375 Y15.377 E100.15984
G1 X67.014 Y56.016 E103.85355
G1 X67.014 Y56.775 E103.90233
G1 X25.616 Y15.377 E107.66503
G1 X24.857 Y15.377 E107.71381
G1 X67.014 Y57.534 E111.54549
G1 X67.014 Y58.293 E111.59427
G1 X24.098 Y15.377 E115.49494
G1 X23.339 Y15.377 E115.54372
G1 X62.74 Y54.778 E119.12491
G2 X62.016 Y54.814 I-.251 J2.258 E119.1717
M73 P1 R179
G1 X22.579 Y15.377 E122.75616
G1 X21.82 Y15.377 E122.80494
G1 X61.402 Y54.959 E126.40258
G1 X60.891 Y55.207 E126.43909
G1 X21.115 Y15.43 E130.05441
G2 X20.744 Y15.819 I.27 J.629 E130.08991
G1 X60.467 Y55.541 E133.70032
G2 X60.107 Y55.895 I2.511 J2.915 E133.73279
G1 X60.089 Y55.922 E133.73488
G1 X20.689 Y16.522 E137.31598
G1 X20.689 Y17.282 E137.36482
G1 X59.805 Y56.397 E140.92006
G2 X59.592 Y56.944 I1.361 J.846 E140.958
G1 X20.689 Y18.041 E144.49393
G1 X20.689 Y18.8 E144.54271
G1 X59.73 Y57.841 E148.09118
G1 E147.54118 F600
G92 E0
G1 X59.73 Y57.841 F9000
G1 X65.116 Y57.154 Z.395
G1 Z.3
G1 E.6 F1200
G1 F1800
G1 X67.014 Y59.052 E.77251
G1 X67.014 Y59.811 E.82129
G1 X65.384 Y58.181 E.96944
G3 X65.236 Y58.792 I-1.701 J-.09 E1.01008
G1 X67.014 Y60.571 E1.17173
G1 X67.014 Y61.33 E1.22051
G1 X64.988 Y59.304 E1.40465
G3 X64.658 Y59.732 I-1.912 J-1.135 E1.43947
G1 X67.014 Y62.089 E1.65365
G1 X67.014 Y62.848 E1.70243
G1 X64.271 Y60.105 E1.95174
G1 X63.805 Y60.398 E1.98712
G1 X67.014 Y63.607 E2.27879
G1 X67.014 Y64.366 E2.32757
