; generated by PrusaSlicer 2.8.1+MacOS-arm64 on 2024-10-29 at 08:56:34 UTC


;
;

;
;
; 

; external perimeters extrusion width = 0.55mm
; perimeters extrusion width = 0.60mm
; infill extrusion width = 0.60mm
; solid infill extrusion width = 0.60mm
; top infill extrusion width = 0.55mm
; first layer extrusion width = 0.60mm

; external perimeters extrusion width = 0.55mm
; perimeters extrusion width = 0.60mm
; infill extrusion width = 0.60mm
; solid infill extrusion width = 0.60mm
; top infill extrusion width = 0.55mm
; first layer extrusion width = 0.60mm

M73 P0 R181

EXCLUDE_OBJECT_DEFINE NAME='f_lid' CENTER=140.740,107.537 POLYGON=[[200.432,17.626],[201.189,17.816],[201.748,18.210],[202.181,18.858],[202.334,19.624],[202.334,150.724],[202.248,151.304],[201.997,151.835],[201.362,152.439],[200.914,152.638],[200.432,152.721],[165.334,152.724],[164.479,152.916],[163.788,153.455],[163.451,154.050],[163.334,154.724],[163.331,200.925],[163.247,201.409],[162.994,201.941],[162.598,202.376],[162.091,202.677],[161.322,202.826],[125.989,202.627],[71.534,202.627],[71.534,150.724],[71.686,149.958],[71.988,149.455],[72.423,149.061],[72.953,148.810],[73.436,148.726],[94.534,148.724],[94.534,19.624],[94.620,19.043],[94.871,18.513],[95.191,18.142],[95.591,17.860],[96.048,17.684],[96.534,17.624]]
EXCLUDE_OBJECT_DEFINE NAME='g_lid' CENTER=43.963,107.357 POLYGON=[[74.343,18.441],[75.010,18.591],[75.659,19.024],[76.093,19.673],[76.243,20.340],[76.245,43.438],[76.185,43.924],[76.009,44.381],[75.659,44.853],[75.188,45.202],[74.635,45.400],[67.745,45.438],[67.745,198.148],[67.659,198.729],[67.351,199.340],[66.936,199.755],[66.419,200.031],[65.843,200.146],[20.745,200.148],[20.164,200.062],[19.634,199.811],[19.139,199.340],[18.862,198.822],[18.745,198.148],[18.745,20.438],[18.831,19.858],[19.139,19.247],[19.554,18.832],[20.071,18.555],[20.647,18.441]]

M190 S70 ; set bed temperature and wait for it to be reached
M104 S230 ; set temperature
;TYPE:Custom
START_PRINT BED_TEMP=70 HOTEND_TEMP=230 FILAMENT_TYPE=PET EXTRUSION_MULTIPLIER=0.96
M109 S230 ; set temperature and wait for it to be reached
G21 ; set units to millimeters
G90 ; use absolute coordinates
M82 ; use absolute distances for extrusion
G92 E0
; Filament gcode
; ########################### NOTE OFFSET CHANGES ####################################
; Prevents PETG buildup on nozzle.
; PETG does not like to be touching the nozzle, this causes buildup on nozzle
; Once the bed z distance is finaly chuned a small offset for PETG works perfectly
SET_GCODE_OFFSET Z=0.2
; ####################################################################################
M107
;LAYER_CHANGE
;Z:0.3
;HEIGHT:0.3
G1 E-.55 F600
G1 Z.8 F9000
EXCLUDE_OBJECT_START NAME='g_lid'
G92 E0
G1 X64.124 Y68.251
G1 Z.3
G1 E.6 F1200
;TYPE:Perimeter
;WIDTH:0.6
G1 F1800
G1 X63.778 Y68.92 E.6483
G1 X63.24 Y69.469 E.6976
G1 X62.563 Y69.834 E.74693
G3 X61.809 Y69.984 I-1.053 J-3.33 E.79633
G3 X61.044 Y69.905 I-.025 J-3.493 E.84575
G3 X60.336 Y69.604 I1.006 J-3.345 E.89519
G3 X59.749 Y69.108 I1.948 J-2.901 E.94458
G1 X59.379 Y68.56 E.98699
G1 X59.19 Y68.06 E1.02127
G1 X59.111 Y67.334 E1.06811
G3 X59.247 Y66.578 I3.485 J.237 E1.11747
G3 X59.6 Y65.895 I3.26 J1.252 E1.16688
G3 X60.139 Y65.346 I2.746 J2.158 E1.21632
G3 X60.815 Y64.98 I1.988 J2.873 E1.26572
G3 X61.559 Y64.831 I1.049 J3.3 E1.31448
G3 X62.191 Y64.877 I.112 J2.825 E1.3552
G1 X62.699 Y65.034 E1.3893
G1 X63.354 Y65.437 E1.43862
G1 X63.861 Y66.015 E1.48793
G1 X64.175 Y66.717 E1.53725
G1 X64.268 Y67.481 E1.58661
G3 X64.148 Y68.18 I-3.486 J-.237 E1.63217
G1 X64.148 Y68.18 F9000
G1 X63.62 Y68.066
;TYPE:External perimeter
G1 F1800
G1 X63.609 Y68.118 E1.63558
G1 X63.314 Y68.653 E1.67476
G1 X62.875 Y69.076 E1.71386
G1 X62.331 Y69.352 E1.75298
G1 X61.729 Y69.454 E1.79214
G1 X61.124 Y69.375 E1.83127
G1 X60.569 Y69.121 E1.87041
G1 X60.113 Y68.715 E1.90957
G1 X59.836 Y68.28 E1.94264
G1 X59.684 Y67.824 E1.97347
G1 X59.645 Y67.294 E2.00755
G1 X59.769 Y66.697 E2.04665
G1 X60.064 Y66.162 E2.08583
G1 X60.503 Y65.739 E2.12493
G1 X61.048 Y65.463 E2.16411
G1 X61.64 Y65.361 E2.20264
G1 X62.033 Y65.389 E2.22791
G1 X62.541 Y65.546 E2.26201
G1 X63.052 Y65.88 E2.30116
G1 X63.442 Y66.349 E2.34028
G1 X63.676 Y66.913 E2.37944
G1 X63.733 Y67.521 E2.4186
G1 X63.635 Y67.992 E2.44945
G1 X63.423 Y68.445 F9000
G1 E1.89945 F600
G92 E0
G1 X43.618 Y47.75 Z.8 F9000
G1 X23.267 Y26.484
G1 Z.3
G1 E.6 F1200
;TYPE:Perimeter
G1 F1800
G1 X22.751 Y26.13 E.64013
G1 X22.328 Y25.621 E.68257
G1 X22.027 Y24.935 E.73061
G3 X21.934 Y24.172 I3.399 J-.801 E.78001
G3 X22.07 Y23.415 I3.485 J.236 E.82944
G1 X22.423 Y22.732 E.87875
G1 X22.962 Y22.183 E.92809
G1 X23.638 Y21.818 E.97736
G3 X24.561 Y21.661 I1.005 J3.127 E1.03761
G1 X24.975 Y21.704 E1.0643
G1 X25.506 Y21.865 E1.09989
G1 X25.972 Y22.119 E1.13393
G1 X26.534 Y22.644 E1.18325
G1 X26.916 Y23.311 E1.23255
G1 X27.085 Y24.061 E1.28186
G3 X27.025 Y24.828 I-3.492 J.112 E1.3313
G3 X26.741 Y25.542 I-3.37 J-.923 E1.38068
G3 X26.26 Y26.142 I-2.947 J-1.874 E1.4301
G3 X25.623 Y26.573 I-2.264 J-2.66 E1.47953
G3 X24.888 Y26.797 I-1.379 J-3.209 E1.52891
G3 X24.119 Y26.794 I-.373 J-3.473 E1.57833
G3 X23.385 Y26.565 I.668 J-3.429 E1.62774
G1 X23.328 Y26.526 E1.63217
G1 X23.328 Y26.526 F9000
G1 X23.527 Y26.032
;TYPE:External perimeter
G1 F1800
G1 X23.074 Y25.703 E1.66808
G1 X22.755 Y25.298 E1.70114
G1 X22.525 Y24.739 E1.73991
G1 X22.468 Y24.132 E1.77901
G1 X22.592 Y23.534 E1.81818
G1 X22.887 Y23 E1.85731
G1 X23.326 Y22.576 E1.89645
G1 X23.87 Y22.301 E1.93554
G1 X24.523 Y22.196 E1.97796
G3 X25.25 Y22.335 I-.098 J2.475 E2.02561
G1 X25.716 Y22.589 E2.05965
G1 X26.151 Y23.018 E2.09883
G1 X26.44 Y23.555 E2.13794
G1 X26.557 Y24.154 E2.17708
G1 X26.493 Y24.761 E2.21622
G1 X26.253 Y25.322 E2.25535
G1 X25.858 Y25.787 E2.29448
G1 X25.344 Y26.116 E2.33362
G1 X24.755 Y26.278 E2.3728
G1 X24.145 Y26.259 E2.41194
G1 X23.591 Y26.07 E2.44948
G1 X23.183 Y25.781 F9000
G1 E1.89948 F600
G92 E0
G1 X23.004 Y54.425 Z.8 F9000
G1 X22.36 Y157.584
G1 Z.3
G1 E.6 F1200
;TYPE:Perimeter
G1 F1800
G1 X22.16 Y157.128 E.63193
G3 X22.067 Y156.365 I3.4 J-.801 E.68133
G3 X22.203 Y155.608 I3.484 J.236 E.73076
G1 X22.556 Y154.925 E.78007
G1 X23.095 Y154.377 E.82937
G1 X23.771 Y154.011 E.87867
G3 X24.515 Y153.862 I1.049 J3.301 E.92743
G1 X25.042 Y153.883 E.96125
G1 X25.586 Y154.032 E.99742
G1 X26.105 Y154.312 E1.03524
G3 X26.735 Y154.916 I-2.973 J3.73 E1.09129
G1 X27.049 Y155.504 E1.13404
G3 X27.218 Y156.255 I-3.308 J1.138 E1.18351
G3 X27.158 Y157.021 I-3.501 J.11 E1.23289
G3 X26.875 Y157.736 I-3.37 J-.922 E1.28231
G3 X26.393 Y158.335 I-2.948 J-1.875 E1.33172
G3 X25.756 Y158.766 I-2.264 J-2.659 E1.38115
G3 X25.021 Y158.99 I-1.38 J-3.209 E1.43053
G3 X24.252 Y158.988 I-.373 J-3.474 E1.47995
G3 X23.518 Y158.758 I.668 J-3.429 E1.52938
G1 X22.884 Y158.323 E1.57869
G1 X22.461 Y157.814 E1.62113
G1 X22.39 Y157.653 E1.63241
G1 X22.39 Y157.653 F9000
G1 X22.833 Y157.357
;TYPE:External perimeter
G1 F1800
G1 X22.658 Y156.933 E1.66183
G1 X22.601 Y156.325 E1.70099
G1 X22.725 Y155.728 E1.74009
G1 X23.02 Y155.193 E1.77927
G1 X23.459 Y154.769 E1.81841
G1 X24.004 Y154.494 E1.85756
G1 X24.596 Y154.392 E1.89609
G3 X25.383 Y154.528 I-.011 J2.393 E1.94755
G1 X25.849 Y154.782 E1.98159
G1 X26.284 Y155.211 E2.02077
G1 X26.573 Y155.748 E2.05988
G1 X26.691 Y156.347 E2.09903
G1 X26.626 Y156.954 E2.13818
G1 X26.386 Y157.515 E2.17731
G1 X25.991 Y157.981 E2.21649
G1 X25.477 Y158.309 E2.25559
G1 X24.889 Y158.471 E2.29471
G1 X24.279 Y158.453 E2.33385
G1 X23.701 Y158.255 E2.37303
G1 X23.207 Y157.896 E2.41219
G1 X22.888 Y157.491 E2.44525
G1 X22.861 Y157.426 E2.44976
G1 X22.681 Y156.96 F9000
G1 E1.89976 F600
G92 E0
G1 X49.084 Y168.069 Z.8 F9000
G1 X64.131 Y174.399
G1 Z.3
G1 E.6 F1200
;TYPE:Perimeter
G1 F1800
G3 X63.975 Y174.736 I-3.243 J-1.3 E.62383
G1 X63.493 Y175.335 E.67314
G1 X62.856 Y175.766 E.72247
G1 X62.121 Y175.99 E.77175
G3 X61.352 Y175.988 I-.373 J-3.474 E.82117
G3 X60.618 Y175.758 I.668 J-3.429 E.8706
G3 X59.984 Y175.323 I1.649 J-3.079 E.92001
G3 X59.507 Y174.72 I2.483 J-2.457 E.96942
G3 X59.228 Y174.003 I3.099 J-1.616 E1.01886
G1 X59.165 Y173.345 E1.06125
G1 X59.303 Y172.608 E1.10934
G3 X59.656 Y171.925 I3.26 J1.253 E1.15875
G3 X60.195 Y171.377 I2.747 J2.159 E1.20815
G3 X60.871 Y171.011 I1.988 J2.871 E1.25755
G3 X62.068 Y170.875 I.929 J2.82 E1.33535
G1 X62.553 Y170.985 E1.36724
G1 X63.205 Y171.312 E1.41402
G1 X63.767 Y171.837 E1.46334
G1 X64.149 Y172.504 E1.51264
G1 X64.318 Y173.254 E1.56195
G3 X64.258 Y174.021 I-3.491 J.112 E1.61139
G3 X64.158 Y174.329 I-3.37 J-.922 E1.63217
G1 X64.158 Y174.329 F9000
G1 X63.627 Y174.187
;TYPE:External perimeter
G1 F1800
G1 X63.486 Y174.515 E1.65507
G1 X63.091 Y174.981 E1.69425
G1 X62.577 Y175.309 E1.73335
G1 X61.989 Y175.471 E1.77247
G1 X61.379 Y175.453 E1.81161
G1 X60.801 Y175.255 E1.85079
G1 X60.307 Y174.896 E1.88995
G1 X59.942 Y174.408 E1.92903
G1 X59.736 Y173.833 E1.9682
G1 X59.7 Y173.318 E2.00131
G1 X59.825 Y172.728 E2.03999
G1 X60.12 Y172.193 E2.07917
G1 X60.559 Y171.769 E2.11831
G1 X61.104 Y171.494 E2.15746
G1 X61.696 Y171.392 E2.19599
G3 X62.483 Y171.528 I-.011 J2.393 E2.24745
G1 X62.949 Y171.782 E2.28149
G1 X63.384 Y172.211 E2.32067
G1 X63.673 Y172.748 E2.35978
G1 X63.791 Y173.347 E2.39893
G1 X63.726 Y173.954 E2.43808
G1 X63.656 Y174.118 E2.44952
G1 X63.426 Y174.562 F9000
G1 E1.89952 F600
G92 E0
G1 X64.225 Y145.928 Z.8 F9000
G1 X67.047 Y44.75
G1 Z.3
G1 E.6 F1200
;TYPE:Perimeter
G1 F1800
G1 X66.881 Y44.974 E.61788
G1 X66.809 Y45.306 E.63967
G1 X66.809 Y197.998 E10.43229
G1 X66.755 Y198.455 E10.4618
G1 X66.623 Y198.735 E10.48165
G1 X66.415 Y198.964 E10.50149
G1 X66.131 Y199.134 E10.52272
G1 X65.787 Y199.21 E10.54531
G1 X20.896 Y199.213 E13.42431
G1 X20.439 Y199.158 E13.45383
G1 X20.14 Y199.017 E13.47503
G1 X19.916 Y198.794 E13.4953
G1 X19.737 Y198.465 E13.51932
G1 X19.681 Y198.087 E13.54383
G1 X19.681 Y21.152 E24.89123
G1 X19.694 Y20.411 E24.93876
G1 X19.789 Y20.003 E24.96563
G1 X19.991 Y19.698 E24.98909
G1 X20.341 Y19.463 E25.01613
G1 X20.807 Y19.374 E25.04656
G1 X74.168 Y19.376 E28.46877
G1 X74.543 Y19.424 E28.49302
G1 X74.831 Y19.561 E28.51347
G1 X75.061 Y19.769 E28.53336
G1 X75.231 Y20.052 E28.55453
G1 X75.307 Y20.459 E28.58108
G1 X75.309 Y43.314 E30.04684
G1 X75.273 Y43.686 E30.07081
G1 X75.15 Y43.981 E30.09131
G1 X74.954 Y44.22 E30.11113
G1 X74.696 Y44.392 E30.13102
G1 X74.213 Y44.503 E30.1628
G1 X67.613 Y44.503 E30.58608
G1 X67.349 Y44.547 E30.60324
G1 X67.097 Y44.695 E30.62198
G1 X67.097 Y44.695 F9000
G1 X67.441 Y45.112
;TYPE:External perimeter
G1 F1800
G1 X67.416 Y45.125 E30.62379
G1 X67.345 Y45.306 E30.63626
G1 X67.345 Y197.998 E40.42888
G1 X67.273 Y198.612 E40.46853
G1 X67.073 Y199.036 E40.4986
G1 X66.758 Y199.383 E40.52866
G1 X66.35 Y199.627 E40.55915
G1 X65.82 Y199.746 E40.59399
G1 X20.896 Y199.748 E43.47511
G1 X20.281 Y199.676 E43.51482
G3 X19.728 Y199.372 I1.706 J-3.753 E43.55533
G1 X19.374 Y198.97 E43.58968
M73 P0 R180
G1 X19.217 Y198.615 E43.61457
G1 X19.145 Y198.126 E43.64627
G1 X19.145 Y20.589 E55.03227
G1 X19.217 Y19.971 E55.07217
G1 X19.374 Y19.617 E55.09701
G1 X19.613 Y19.311 E55.12191
G3 X20.274 Y18.911 I1.826 J2.273 E55.17161
G1 X20.767 Y18.838 E55.20357
G1 X74.168 Y18.841 E58.62834
G1 X74.706 Y18.909 E58.66312
G1 X75.132 Y19.11 E58.69333
G1 X75.48 Y19.425 E58.72343
G3 X75.777 Y20.007 I-3.2 J2.002 E58.76539
G1 X75.843 Y20.459 E58.79469
G1 X75.845 Y43.314 E60.26045
G1 X75.795 Y43.823 E60.29325
G1 X75.615 Y44.259 E60.3235
G1 X75.317 Y44.622 E60.35362
G1 X74.928 Y44.882 E60.38363
G3 X74.233 Y45.038 I-1.133 J-3.413 E60.42939
G1 X67.613 Y45.038 E60.85395
G1 X67.587 Y45.04 E60.85562
G1 X67.508 Y45.079 E60.86127
G1 X67.354 Y45.555 F9000
G1 E60.31127 F600
G92 E0
G1 X75.147 Y21.184 Z.747 F9000
G1 Z.3
G1 E.6 F1200
;TYPE:Solid infill
;WIDTH:0.601168
G1 F1800
G1 X73.741 Y19.778 E.7278
G1 X72.982 Y19.778 E.77658
G1 X74.906 Y21.702 E.95146
G1 X74.906 Y22.461 E1.00024
G1 X72.223 Y19.778 E1.24411
G1 X71.463 Y19.778 E1.29296
G1 X74.906 Y23.22 E1.60587
G1 X74.906 Y23.979 E1.65465
G1 X70.704 Y19.778 E2.03655
G1 X69.945 Y19.778 E2.08533
G1 X74.906 Y24.738 E2.53622
G1 X74.906 Y25.498 E2.58507
G1 X69.186 Y19.778 E3.10499
G1 X68.427 Y19.778 E3.15377
G1 X74.906 Y26.257 E3.74268
G1 X74.906 Y27.016 E3.79146
G1 X67.668 Y19.778 E4.44936
G1 X66.908 Y19.778 E4.49821
G1 X74.906 Y27.775 E5.22515
G1 X74.906 Y28.535 E5.274
G1 X66.149 Y19.778 E6.06997
G1 X65.39 Y19.778 E6.11875
G1 X74.906 Y29.294 E6.98371
G1 X74.906 Y30.053 E7.03249
G1 X64.631 Y19.778 E7.96644
G1 X63.872 Y19.777 E8.01522
G1 X74.906 Y30.812 E9.01821
G1 X74.907 Y31.571 E9.06699
G1 X63.113 Y19.777 E10.13901
G1 X62.353 Y19.777 E10.18786
G1 X74.907 Y32.331 E11.32896
G1 X74.907 Y33.09 E11.37774
G1 X61.594 Y19.777 E12.58783
G1 X60.835 Y19.777 E12.63661
G1 X74.907 Y33.849 E13.91569
G1 X74.907 Y34.608 E13.96447
G1 X60.076 Y19.777 E15.31254
G1 X59.317 Y19.777 E15.36132
G1 X74.907 Y35.367 E16.77838
G1 X74.907 Y36.127 E16.82723
G1 X58.558 Y19.777 E18.31333
G1 X57.798 Y19.777 E18.36218
G1 X74.907 Y36.886 E19.91731
G1 X74.907 Y37.645 E19.96609
G1 X57.039 Y19.777 E21.59021
G1 X56.28 Y19.777 E21.63899
G1 X74.907 Y38.404 E23.3321
G1 X74.907 Y39.163 E23.38088
G1 X55.521 Y19.777 E25.14298
G1 X54.762 Y19.777 E25.19176
G1 X74.907 Y39.923 E27.0229
G1 X74.907 Y40.682 E27.07168
G1 X54.003 Y19.777 E28.97181
G1 X53.243 Y19.777 E29.02066
G1 X74.908 Y41.441 E30.98987
G1 X74.908 Y42.2 E31.03865
G1 X52.484 Y19.777 E33.07685
G1 X51.725 Y19.777 E33.12563
G1 X74.908 Y42.959 E35.23282
G3 X74.881 Y43.582 I-3.284 J.17 E35.27296
G1 X74.849 Y43.66 E35.27838
G1 X50.966 Y19.777 E37.44924
G1 X50.207 Y19.777 E37.49802
G1 X74.471 Y44.041 E39.70351
G3 X74.198 Y44.101 I-.31 J-.758 E39.72156
G1 X73.772 Y44.101 E39.74894
G1 X49.448 Y19.777 E41.95989
G1 X48.688 Y19.777 E42.00874
G1 X73.013 Y44.101 E44.21973
G1 X72.254 Y44.101 E44.26851
G1 X47.929 Y19.777 E46.4795
G1 X47.17 Y19.777 E46.52828
G1 X71.494 Y44.101 E48.73923
G1 X70.735 Y44.101 E48.78801
G1 X46.411 Y19.777 E50.99896
G1 X45.652 Y19.777 E51.04774
G1 X69.976 Y44.101 E53.25869
G1 X69.217 Y44.101 E53.30747
G1 X44.893 Y19.777 E55.51842
G1 X44.134 Y19.777 E55.5672
G1 X68.458 Y44.101 E57.77815
G1 X67.699 Y44.101 E57.82693
G1 X43.374 Y19.777 E60.03792
G1 X42.615 Y19.777 E60.0867
G1 X67.071 Y44.233 E62.30965
G2 X66.658 Y44.579 I.472 J.983 E62.34464
G1 X41.856 Y19.777 E64.59904
G1 X41.097 Y19.777 E64.64782
G1 X66.428 Y45.107 E66.95025
G1 X66.41 Y45.229 E66.95818
G1 X66.41 Y45.849 E66.99803
G1 X40.338 Y19.776 E69.36791
G1 X39.579 Y19.776 E69.41669
G1 X66.41 Y46.608 E71.85556
G1 X66.41 Y47.367 E71.90434
G1 X38.819 Y19.776 E74.41224
G1 X38.06 Y19.776 E74.46102
G1 X66.41 Y48.126 E77.03791
G1 X66.41 Y48.885 E77.08669
G1 X37.301 Y19.776 E79.73257
G1 X36.542 Y19.776 E79.78135
G1 X66.41 Y49.644 E82.49622
G1 X66.41 Y50.403 E82.545
G1 X35.783 Y19.776 E85.32886
G1 X35.024 Y19.776 E85.37764
G1 X66.41 Y51.162 E88.23049
G1 X66.41 Y51.922 E88.27934
G1 X34.264 Y19.776 E91.20127
G1 X33.505 Y19.776 E91.25005
G1 X66.41 Y52.681 E94.24097
G1 X66.41 Y53.44 E94.28975
M73 P0 R179
G1 X32.746 Y19.776 E97.34966
G1 X31.987 Y19.776 E97.39844
G1 X66.41 Y54.199 E100.52734
G1 X66.41 Y54.958 E100.57612
G1 X31.228 Y19.776 E103.77401
G1 X30.469 Y19.776 E103.82279
G1 X66.41 Y55.717 E107.08967
G1 X66.41 Y56.476 E107.13845
G1 X29.709 Y19.776 E110.47437
G1 X28.95 Y19.776 E110.52315
G1 X66.41 Y57.235 E113.92806
G1 X66.41 Y57.995 E113.97691
G1 X28.191 Y19.776 E117.45085
G1 X27.432 Y19.776 E117.49963
G1 X66.41 Y58.754 E121.04256
G1 X66.41 Y59.513 E121.09134
G1 X26.673 Y19.776 E124.70326
G1 X25.914 Y19.776 E124.75204
M73 P1 R179
G1 X66.41 Y60.272 E128.43295
G1 X66.41 Y61.031 E128.48173
G1 X25.154 Y19.776 E132.23168
G1 X24.395 Y19.776 E132.28046
G1 X66.41 Y61.79 E136.0994
G1 X66.41 Y62.549 E136.14818
G1 X27.401 Y23.541 E139.69389
G2 X27.278 Y23.136 I-2.444 J.52 E139.72113
G2 X26.829 Y22.37 I-3.444 J1.507 E139.77833
G2 X26.173 Y21.771 I-2.847 J2.454 E139.83556
G2 X25.427 Y21.404 I-2.29 J3.723 E139.88908
G1 X25.209 Y21.349 E139.90353
G1 X23.636 Y19.776 E140.04651
G1 X22.877 Y19.776 E140.09529
G1 X24.369 Y21.268 E140.23091
G1 X23.771 Y21.356 E140.26976
