; generated by PrusaSlicer 2.8.1+MacOS-arm64 on 2024-10-09 at 09:22:50 UTC


;
;

;
;
; 

; external perimeters extrusion width = 0.68mm
; perimeters extrusion width = 0.68mm
; infill extrusion width = 0.68mm
; solid infill extrusion width = 0.68mm
; top infill extrusion width = 0.60mm

; external perimeters extrusion width = 0.68mm
; perimeters extrusion width = 0.68mm
; infill extrusion width = 0.68mm
; solid infill extrusion width = 0.68mm
; top infill extrusion width = 0.60mm


EXCLUDE_OBJECT_DEFINE NAME='g_lid' CENTER=64.330,129.708 POLYGON=[[87.646,36.916],[88.403,37.106],[89.030,37.571],[89.431,38.240],[89.548,38.914],[89.548,216.624],[89.462,217.204],[89.155,217.815],[88.740,218.230],[88.129,218.538],[87.548,218.624],[34.048,218.624],[33.468,218.538],[32.937,218.287],[32.502,217.893],[32.201,217.389],[32.051,216.722],[32.048,193.624],[32.108,193.138],[32.284,192.681],[32.634,192.210],[33.105,191.860],[33.658,191.662],[40.548,191.624],[40.548,38.914],[40.634,38.333],[40.885,37.803],[41.280,37.368],[41.783,37.066],[42.450,36.916]]
EXCLUDE_OBJECT_DEFINE NAME='f_lid' CENTER=165.705,123.413 POLYGON=[[225.396,33.502],[226.153,33.692],[226.712,34.085],[227.146,34.734],[227.298,35.500],[227.298,166.600],[227.212,167.180],[226.961,167.711],[226.326,168.315],[225.879,168.513],[225.396,168.597],[190.298,168.600],[189.443,168.792],[188.752,169.331],[188.415,169.926],[188.298,170.600],[188.296,216.800],[188.181,217.378],[187.902,217.897],[187.484,218.312],[187.056,218.553],[186.287,218.702],[150.954,218.502],[96.498,218.502],[96.498,166.600],[96.650,165.834],[96.892,165.408],[97.307,164.993],[97.824,164.716],[98.400,164.602],[119.498,164.600],[119.498,35.500],[119.584,34.919],[119.835,34.388],[120.155,34.018],[120.555,33.736],[121.012,33.559],[121.498,33.500]]

;TYPE:Custom
START_PRINT BED_TEMP=70 HOTEND_TEMP=230 FILAMENT_TYPE=PET EXTRUSION_MULTIPLIER=0.95 PERIMETER_SPEED=70
G21 ; set units to millimeters
G90 ; use absolute coordinates
M82 ; use absolute distances for extrusion
G92 E0
; Filament gcode
; ########################### NOTE OFFSET CHANGES ####################################
; Prevents PETG buildup on nozzle.
; SET_GCODE_OFFSET Z=0.06
; ####################################################################################
M107
;LAYER_CHANGE
;Z:0.35
;HEIGHT:0.35
G1 E-.5 F240
G1 Z.35 F9000
EXCLUDE_OBJECT_START NAME='g_lid'
G92 E0
G1 X63.148 Y126.761
G1 E.5 F240
;TYPE:External perimeter
;WIDTH:0.675
G1 F1800
G1 X65.49 Y126.761 E.69422
G1 X65.776 Y126.825 E.71852
G1 X66.004 Y127.041 E.74456
;WIDTH:0.712425
G1 X66.057 Y127.106 E.75195
;WIDTH:0.749851
G1 X66.111 Y127.172 E.7599
;WIDTH:0.783797
G1 X66.177 Y127.449 E.7878
;WIDTH:0.785229
G1 X66.175 Y128.387 E.87988
G1 X66.116 Y128.616 E.90309
;WIDTH:0.753096
G1 X65.98 Y128.763 E.92186
;WIDTH:0.714048
G1 X65.845 Y128.91 E.93949
;WIDTH:0.675
G1 X65.496 Y129.024 E.96994
G1 X61.681 Y129.024 E1.28631
G1 X61.324 Y128.919 E1.31717
G1 X61.099 Y128.724 E1.34186
G1 X60.987 Y128.386 E1.37139
G1 X60.973 Y128.244 E1.38322
G1 X60.972 Y125.337 E1.62429
G1 X60.995 Y124.794 E1.66936
G1 X61.072 Y124.288 E1.7118
G1 X61.247 Y123.792 E1.75542
G1 X61.554 Y123.377 E1.79823
G1 X61.986 Y123.103 E1.84065
G1 X62.543 Y123.004 E1.88756
G1 X66.216 Y123.004 E2.19215
G1 X67 Y123.068 E2.25738
G1 X67.531 Y123.203 E2.30282
G1 X67.865 Y123.352 E2.33315
G1 X68.279 Y123.647 E2.37531
G1 X68.659 Y124.109 E2.42492
G1 X68.87 Y124.507 E2.46228
G1 X69.015 Y124.933 E2.4996
G1 X69.159 Y125.754 E2.56872
G1 X69.204 Y126.711 E2.64817
G1 X69.204 Y128.838 E2.82456
G1 X69.168 Y129.716 E2.89743
G1 X69.022 Y130.57 E2.96928
G1 X68.813 Y131.143 E3.01986
G1 X68.433 Y131.724 E3.07743
G1 X67.984 Y132.108 E3.12642
G1 X67.528 Y132.336 E3.1687
G1 X67.226 Y132.423 E3.19476
G1 X66.377 Y132.53 E3.26572
G1 X61.583 Y132.534 E3.66327
G1 X61.218 Y132.405 E3.69537
G1 X61.042 Y132.203 E3.71759
G1 X60.962 Y131.849 E3.74769
G1 X60.965 Y130.896 E3.82672
G1 X61.067 Y130.544 E3.85711
G1 X61.232 Y130.384 E3.87617
G1 X61.595 Y130.27 E3.90772
G1 X66.147 Y130.27 E4.2852
G1 X66.585 Y130.207 E4.3219
G1 X66.767 Y130.089 E4.33989
G1 X66.899 Y129.661 E4.37703
;WIDTH:0.68647
G1 X66.93 Y129.072 E4.42688
;WIDTH:0.735196
G1 X66.908 Y128.808 E4.45105
;WIDTH:0.783923
G1 X66.886 Y128.544 E4.47701
G1 X66.886 Y127.45 E4.5842
;WIDTH:0.783797
G1 X66.904 Y127.195 E4.60924
;WIDTH:0.747531
G1 X66.922 Y126.939 E4.63309
;WIDTH:0.711265
G1 X66.94 Y126.683 E4.65566
;WIDTH:0.675
G1 X66.911 Y126.039 E4.70912
G1 X66.838 Y125.61 E4.74521
G1 X66.716 Y125.412 E4.7645
G1 X66.392 Y125.298 E4.79298
G1 X65.408 Y125.279 E4.8746
G1 X63.182 Y125.28 E5.0592
G1 X63.14 Y125.622 E5.08777
G1 X63.147 Y126.671 E5.17476
G1 X63.74 Y126.759 F9000
G1 E4.67476 F240
G92 E0
G1 X64.532 Y122.404 F9000
G1 E.5 F240
;TYPE:Perimeter
G1 F1800
G1 X66.216 Y122.404 E.63965
G1 X67.049 Y122.47 E.70894
G1 X67.684 Y122.623 E.76311
G1 X68.169 Y122.834 E.80697
G1 X68.622 Y123.15 E.85277
G1 X69.123 Y123.728 E.9162
G1 X69.386 Y124.193 E.9605
G1 X69.569 Y124.686 E1.00411
G1 X69.75 Y125.65 E1.08545
G1 X69.804 Y126.711 E1.17355
G1 X69.804 Y128.838 E1.34994
G1 X69.768 Y129.741 E1.42488
G1 X69.613 Y130.673 E1.50323
G1 X69.375 Y131.353 E1.56297
G1 X68.931 Y132.059 E1.63213
G1 X68.754 Y132.253 E1.65391
G1 X68.364 Y132.572 E1.69569
G1 X67.838 Y132.857 E1.7453
G1 X67.336 Y133.013 E1.78889
G1 X66.453 Y133.125 E1.8627
G1 X61.587 Y133.134 E2.26622
G1 X61.278 Y133.079 E2.29225
G1 X60.86 Y132.887 E2.3304
G1 X60.577 Y132.599 E2.36388
G1 X60.445 Y132.3 E2.39098
G1 X60.362 Y131.848 E2.42909
G1 X60.365 Y130.894 E2.5082
G1 X60.468 Y130.417 E2.54867
G1 X60.561 Y130.222 E2.56659
G1 X60.833 Y129.93 E2.59968
;WIDTH:0.69807
G1 X61.295 Y129.71 E2.64375
;WIDTH:0.725487
G1 X61.595 Y129.645 E2.67135
G1 X61.1 Y129.484 E2.71815
;WIDTH:0.677457
G1 X60.688 Y129.173 E2.76113
;WIDTH:0.675
G1 X60.469 Y128.786 E2.79801
G1 X60.373 Y128.245 E2.84357
G1 X60.373 Y125.337 E3.08472
G1 X60.396 Y124.769 E3.13186
G1 X60.476 Y124.216 E3.1782
G1 X60.682 Y123.59 E3.23285
G1 X60.821 Y123.338 E3.25672
G1 X61.146 Y122.936 E3.29959
G1 X61.649 Y122.604 E3.34957
G1 X61.966 Y122.487 E3.37759
G1 X62.543 Y122.404 E3.42593
G1 X64.442 Y122.404 E3.58341
G1 X64.442 Y122.404 F9000
G1 X64.954 Y121.808
G1 F1800
G1 X66.216 Y121.804 E3.68806
G1 X67.099 Y121.872 E3.7615
G1 X67.837 Y122.043 E3.82432
G1 X68.359 Y122.254 E3.87101
G1 X68.917 Y122.621 E3.92639
G1 X69.221 Y122.902 E3.96072
G1 X69.587 Y123.347 E4.0085
G1 X69.919 Y123.918 E4.06327
G1 X70.134 Y124.486 E4.11363
G1 X70.341 Y125.547 E4.20327
G1 X70.404 Y126.711 E4.29994
G1 X70.404 Y128.838 E4.47633
G1 X70.367 Y129.765 E4.55326
G1 X70.204 Y130.776 E4.63818
G1 X69.937 Y131.564 E4.70718
G1 X69.777 Y131.874 E4.73611
G1 X69.429 Y132.393 E4.78793
G1 X69.134 Y132.717 E4.82427
G1 X68.744 Y133.036 E4.86605
G1 X68.454 Y133.223 E4.89467
G1 X67.949 Y133.46 E4.94093
G1 X67.435 Y133.605 E4.98522
G1 X66.528 Y133.72 E5.06104
G1 X61.587 Y133.734 E5.47078
G1 X61.147 Y133.668 E5.50768
G1 X60.655 Y133.468 E5.55172
G1 X60.278 Y133.169 E5.59162
G1 X60.026 Y132.849 E5.6254
G1 X59.861 Y132.441 E5.6619
G1 X59.762 Y131.85 E5.71159
G1 X59.765 Y130.892 E5.79103
G1 X59.824 Y130.48 E5.82554
G1 X59.967 Y130.059 E5.86241
G1 X60.284 Y129.619 E5.90738
G1 X60.065 Y129.333 E5.93725
G1 X59.844 Y128.809 E5.98441
G1 X59.773 Y128.245 E6.03155
G1 X59.773 Y125.337 E6.2727
G1 X59.797 Y124.743 E6.322
G1 X59.883 Y124.124 E6.37382
G1 X60.117 Y123.388 E6.43786
G1 X60.348 Y122.969 E6.47754
G1 X60.725 Y122.508 E6.52693
G1 X61.005 Y122.291 E6.55631
G1 X61.478 Y122.016 E6.60168
G1 X61.868 Y121.895 E6.63554
G1 X62.362 Y121.815 E6.67704
G1 X64.864 Y121.808 E6.88452
G1 E6.38452 F240
G92 E0
G1 X64.864 Y121.808 F9000
G1 X61.595 Y129.645
G1 E.5 F240
;WIDTH:0.725487
G1 F1800
G1 X61.681 Y129.647 E.50773
;WIDTH:0.721581
G1 X65.496 Y129.647 E.84866
;WIDTH:0.768862
G1 X65.682 Y129.624 E.86663
;WIDTH:0.816143
G1 X65.868 Y129.6 E.88584
;WIDTH:0.863425
G1 X66.054 Y129.576 E.90628
;WIDTH:0.889024
G1 X66.119 Y129.561 E.91379
;WIDTH:0.914623
G1 X66.185 Y129.545 E.92167
G1 E.42167 F240
G92 E0
G1 X66.185 Y129.545 F9000
G1 X65.408 Y126.02
G1 E.5 F240
;WIDTH:0.957149
G1 F1800
G1 X65.449 Y126.005 E.50532
;WIDTH:0.92732
G1 X65.489 Y125.99 E.51035
;WIDTH:0.897491
G1 X65.563 Y125.966 E.51919
;WIDTH:0.849585
G1 X65.637 Y125.943 E.52749
;WIDTH:0.801679
G1 X65.711 Y125.919 E.5353
;WIDTH:0.753774
G1 X65.784 Y125.896 E.54248
;WIDTH:0.705868
G1 X65.858 Y125.872 E.54926
;WIDTH:0.657962
G1 X65.932 Y125.849 E.5555
;WIDTH:0.610056
G1 X66.005 Y125.826 E.56116
;WIDTH:0.583286
G1 X66.322 Y125.848 E.58348
G1 X66.358 Y126.072 E.59942
G1 X66.386 Y126.637 E.63916
G1 X66.291 Y126.53 E.64921
;WIDTH:0.609769
G1 X66.072 Y126.386 E.66858
;WIDTH:0.636253
G1 X65.853 Y126.241 E.68895
;WIDTH:0.682095
G1 X65.789 Y126.209 E.69495
;WIDTH:0.727937
G1 X65.726 Y126.178 E.70129
;WIDTH:0.77378
G1 X65.662 Y126.146 E.7082
;WIDTH:0.819622
G1 X65.599 Y126.115 E.71543
;WIDTH:0.865464
G1 X65.535 Y126.083 E.72325
;WIDTH:0.911306
G1 X65.489 Y126.06 E.72919
G1 X65.489 Y126.06 F9000
G1 X63.883 Y126.02
;WIDTH:0.957149
G1 F1800
G1 X65.408 Y126.02 E.91513
G1 E.41513 F240
G92 E0
G1 X65.408 Y126.02 F9000
G1 X44.673 Y170.087
G1 E.5 F240
;TYPE:External perimeter
;WIDTH:0.675
G1 F1800
G1 X44.644 Y169.978 E.50935
G1 X44.618 Y169.674 E.53465
G1 X44.653 Y169.28 E.56745
G1 X44.766 Y168.901 E.60025
G1 X44.952 Y168.552 E.63305
G1 X45.203 Y168.247 E.66581
G1 X45.51 Y167.997 E.69864
G1 X45.86 Y167.813 E.73143
G1 X46.239 Y167.702 E.76418
G1 X46.618 Y167.668 E.79574
G1 X46.93 Y167.695 E.82171
G1 X47.312 Y167.799 E.85454
G1 X47.665 Y167.976 E.88729
G1 X47.977 Y168.219 E.92008
G1 X48.234 Y168.52 E.9529
G1 X48.427 Y168.865 E.98568
G1 X48.547 Y169.242 E1.01849
G1 X48.591 Y169.635 E1.05128
G1 X48.555 Y170.029 E1.08409
G1 X48.442 Y170.408 E1.11689
G1 X48.257 Y170.758 E1.14972
G1 X48.005 Y171.063 E1.18253
G1 X47.698 Y171.313 E1.21536
G1 X47.348 Y171.497 E1.24815
G1 X46.969 Y171.608 E1.2809
G1 X46.574 Y171.641 E1.31377
G1 X46.181 Y171.596 E1.34657
G1 X45.805 Y171.473 E1.37938
G1 X45.461 Y171.279 E1.41213
G1 X45.162 Y171.02 E1.44493
G1 X44.92 Y170.707 E1.47774
G1 X44.744 Y170.353 E1.51052
G1 X44.697 Y170.174 E1.52587
G1 X44.642 Y169.577 F9000
G1 X44.089 Y170.206
;TYPE:Perimeter
G1 F1800
G1 X44.047 Y170.038 E1.54023
G1 X44.02 Y169.629 E1.57422
G1 X44.076 Y169.118 E1.61685
G1 X44.232 Y168.628 E1.65949
G1 X44.483 Y168.178 E1.70222
G1 X44.818 Y167.787 E1.74492
G1 X45.223 Y167.47 E1.78757
G1 X45.684 Y167.24 E1.83029
G1 X46.179 Y167.105 E1.87284
G1 X46.661 Y167.07 E1.91292
G1 X47.078 Y167.114 E1.94769
G1 X47.572 Y167.258 E1.99036
G1 X48.028 Y167.497 E2.03305
G1 X48.427 Y167.822 E2.07573
G1 X48.754 Y168.22 E2.11845
G1 X48.996 Y168.674 E2.16111
G1 X49.143 Y169.167 E2.20377
G1 X49.189 Y169.68 E2.24648
G1 X49.133 Y170.192 E2.28919
G1 X48.976 Y170.682 E2.33186
G1 X48.726 Y171.132 E2.37455
G1 X48.391 Y171.523 E2.41725
G1 X47.985 Y171.84 E2.45997
G1 X47.525 Y172.07 E2.50262
G1 X47.028 Y172.204 E2.54531
G1 X46.515 Y172.238 E2.58794
G1 X46.005 Y172.169 E2.63062
G1 X45.518 Y172 E2.67337
G1 X45.075 Y171.739 E2.71601
G1 X44.693 Y171.394 E2.7587
G1 X44.386 Y170.981 E2.80137
G1 X44.167 Y170.515 E2.84407
G1 X44.111 Y170.293 E2.86306
G1 X44.111 Y170.293 F9000
G1 X43.494 Y170.326
G1 F1800
G1 X43.425 Y169.846 E2.90327
G1 X43.447 Y169.25 E2.95273
G1 X43.59 Y168.632 E3.00533
G1 X43.852 Y168.055 E3.05788
G1 X44.224 Y167.541 E3.1105
G1 X44.69 Y167.111 E3.16308
G1 X45.231 Y166.783 E3.21555
G1 X45.507 Y166.666 E3.24041
G1 X46.118 Y166.509 E3.29272
G1 X46.704 Y166.471 E3.34142
G1 X47.226 Y166.533 E3.38501
G1 X47.75 Y166.681 E3.43016
G1 X48.211 Y166.903 E3.47259
G1 X48.658 Y167.222 E3.51813
G1 X49.099 Y167.677 E3.57068
G1 X49.441 Y168.211 E3.62327
G1 X49.671 Y168.802 E3.67586
G1 X49.78 Y169.426 E3.72839
G1 X49.762 Y170.06 E3.78099
G1 X49.619 Y170.678 E3.83359
G1 X49.357 Y171.255 E3.88614
G1 X48.985 Y171.768 E3.93869
G1 X48.519 Y172.198 E3.99127
G1 X47.977 Y172.527 E4.04385
G1 X47.381 Y172.742 E4.09639
G1 X46.754 Y172.835 E4.14895
G1 X46.121 Y172.801 E4.20152
G1 X45.507 Y172.643 E4.2541
G1 X44.936 Y172.366 E4.30673
G1 X44.432 Y171.982 E4.35927
G1 X44.014 Y171.506 E4.4118
G1 X43.699 Y170.956 E4.46436
G1 X43.518 Y170.412 E4.5119
G1 E4.0119 F240
G92 E0
G1 X43.518 Y170.412 F9000
G1 X85.628 Y212.101
G1 E.5 F240
;TYPE:External perimeter
G1 F1800
G1 X85.724 Y212.404 E.52636
G1 X85.768 Y212.798 E.55924
G1 X85.732 Y213.192 E.59205
G1 X85.619 Y213.571 E.62485
G1 X85.434 Y213.92 E.65761
G1 X85.182 Y214.226 E.69048
G1 X84.876 Y214.475 E.7232
G1 X84.525 Y214.659 E.75606
G1 X84.146 Y214.77 E.78881
G1 X83.751 Y214.804 E.82169
G1 X83.417 Y214.77 E.84953
G1 X82.982 Y214.636 E.88728
G1 X82.638 Y214.442 E.92003
G1 X82.339 Y214.183 E.95283
G1 X82.1 Y213.877 E.98503
G1 X81.958 Y213.607 E1.01033
G1 X81.838 Y213.23 E1.04314
G1 X81.795 Y212.837 E1.07592
G1 X81.831 Y212.443 E1.10873
G1 X81.943 Y212.064 E1.1415
G1 X82.129 Y211.715 E1.1743
G1 X82.38 Y211.409 E1.20712
G1 X82.687 Y211.159 E1.23995
G1 X83.037 Y210.975 E1.27274
G1 X83.417 Y210.865 E1.30555
G1 X83.795 Y210.831 E1.33702
G1 X84.107 Y210.858 E1.36299
G1 X84.489 Y210.961 E1.3958
G1 X84.843 Y211.138 E1.42862
G1 X85.154 Y211.382 E1.4614
G1 X85.411 Y211.682 E1.49416
G1 X85.598 Y212.017 E1.52598
G1 X85.735 Y212.601 F9000
G1 X86.191 Y211.896
;TYPE:Perimeter
G1 F1800
G1 X86.32 Y212.33 E1.56353
G1 X86.366 Y212.842 E1.60616
G1 X86.31 Y213.354 E1.64887
G1 X86.153 Y213.844 E1.69154
G1 X85.903 Y214.294 E1.73423
G1 X85.568 Y214.685 E1.77693
G1 X85.162 Y215.002 E1.81965
G1 X84.702 Y215.232 E1.8623
G1 X84.205 Y215.367 E1.90501
G1 X83.692 Y215.4 E1.94764
G1 X83.357 Y215.367 E1.97556
G1 X82.861 Y215.232 E2.01819
G1 X82.4 Y215.002 E2.06091
G1 X81.995 Y214.685 E2.10356
G1 X81.66 Y214.294 E2.14626
G1 X81.39 Y213.798 E2.19309
G1 X81.243 Y213.305 E2.23575
G1 X81.197 Y212.792 E2.27846
G1 X81.253 Y212.281 E2.32109
G1 X81.41 Y211.79 E2.36384
G1 X81.66 Y211.341 E2.40646
G1 X81.995 Y210.95 E2.44916
G1 X82.4 Y210.633 E2.49181
G1 X82.861 Y210.402 E2.53457
G1 X83.356 Y210.268 E2.5771
G1 X83.838 Y210.232 E2.61718
G1 X84.255 Y210.277 E2.65196
G1 X84.749 Y210.421 E2.69463
G1 X85.205 Y210.66 E2.73732
G1 X85.604 Y210.985 E2.78
G1 X85.931 Y211.382 E2.82265
G1 X86.16 Y211.812 E2.86305
G1 X86.16 Y211.812 F9000
G1 X86.763 Y211.687
;WIDTH:0.751901
G1 F1800
G1 X86.885 Y211.952 E2.89034
;WIDTH:0.795238
G1 X86.923 Y212.024 E2.89844
;WIDTH:0.838575
G1 X86.962 Y212.096 E2.90708
;WIDTH:0.881912
G1 X87.001 Y212.168 E2.91621
;WIDTH:0.925249
G1 X87.039 Y212.24 E2.92578
G1 X87.079 Y212.775 E2.98883
;WIDTH:0.924375
G1 X87.043 Y213.391 E3.06127
G1 X86.996 Y213.481 E3.07319
;WIDTH:0.878821
G1 X86.949 Y213.572 E3.08457
;WIDTH:0.833267
G1 X86.901 Y213.662 E3.09526
;WIDTH:0.787713
G1 X86.854 Y213.753 E3.10535
;WIDTH:0.742159
G1 X86.806 Y213.843 E3.11476
;WIDTH:0.696605
G1 X86.534 Y214.417 E3.16933
;WIDTH:0.675
G1 X86.162 Y214.931 E3.22195
G1 X85.696 Y215.361 E3.27453
G1 X85.154 Y215.69 E3.32711
;WIDTH:0.713269
G1 X85.011 Y215.762 E3.34123
;WIDTH:0.751539
G1 X84.867 Y215.834 E3.35628
;WIDTH:0.789809
G1 X84.724 Y215.906 E3.3721
;WIDTH:0.828079
G1 X84.58 Y215.978 E3.38886
;WIDTH:0.868156
G1 X84.52 Y216.013 E3.39648
;WIDTH:0.908233
G1 X84.459 Y216.048 E3.40458
;WIDTH:0.948311
G1 X84.399 Y216.083 E3.41296
G1 X83.781 Y216.125 E3.48773
;WIDTH:0.937844
G1 X83.285 Y216.095 E3.54699
G1 X83.184 Y216.046 E3.56038
;WIDTH:0.894036
G1 X83.084 Y215.998 E3.57294
;WIDTH:0.850229
G1 X82.984 Y215.95 E3.58483
;WIDTH:0.806422
G1 X82.884 Y215.902 E3.59604
;WIDTH:0.762614
G1 X82.784 Y215.854 E3.60658
;WIDTH:0.718807
G1 X82.684 Y215.806 E3.61645
;WIDTH:0.675
G1 X82.113 Y215.529 E3.66908
G1 X81.609 Y215.145 E3.72162
G1 X81.191 Y214.668 E3.77422
G1 X80.926 Y214.228 E3.81681
G1 X80.714 Y213.671 E3.86623
G1 X80.606 Y213.046 E3.91883
G1 X80.624 Y212.412 E3.97143
G1 X80.767 Y211.795 E4.02395
G1 X81.029 Y211.217 E4.07658
G1 X81.401 Y210.704 E4.12913
G1 X81.867 Y210.274 E4.18171
G1 X82.408 Y209.945 E4.23422
G1 X83.005 Y209.73 E4.28684
G1 X83.622 Y209.638 E4.33857
G1 X84.141 Y209.653 E4.38163
G1 X84.729 Y209.778 E4.43148
G1 X85.312 Y210.026 E4.48402
G1 X85.835 Y210.385 E4.53663
G1 X86.276 Y210.84 E4.58918
