; generated by PrusaSlicer 2.8.1+MacOS-arm64 on 2024-10-11 at 05:21:21 UTC


;
;

;
;
; 

; external perimeters extrusion width = 0.68mm
; perimeters extrusion width = 0.68mm
; infill extrusion width = 0.68mm
; solid infill extrusion width = 0.68mm
; top infill extrusion width = 0.60mm

; external perimeters extrusion width = 0.68mm
; perimeters extrusion width = 0.68mm
; infill extrusion width = 0.68mm
; solid infill extrusion width = 0.68mm
; top infill extrusion width = 0.60mm


EXCLUDE_OBJECT_DEFINE NAME='f_lid' CENTER=91.797,119.506 POLYGON=[[151.488,29.594],[152.245,29.784],[152.805,30.178],[153.238,30.827],[153.390,31.592],[153.390,162.692],[153.304,163.273],[153.053,163.803],[152.419,164.408],[151.971,164.606],[151.488,164.690],[116.390,164.692],[115.535,164.884],[114.844,165.423],[114.507,166.018],[114.390,166.692],[114.388,212.893],[114.273,213.470],[113.994,213.989],[113.576,214.405],[113.148,214.645],[112.379,214.794],[77.046,214.595],[22.590,214.595],[22.590,162.692],[22.743,161.927],[23.044,161.423],[23.479,161.029],[24.010,160.778],[24.492,160.694],[45.590,160.692],[45.590,31.592],[45.676,31.012],[45.927,30.481],[46.247,30.110],[46.648,29.828],[47.104,29.652],[47.590,29.592]]
EXCLUDE_OBJECT_DEFINE NAME='g_lid' CENTER=184.991,121.308 POLYGON=[[208.307,28.516],[209.064,28.706],[209.623,29.100],[210.057,29.749],[210.209,30.514],[210.209,208.224],[210.123,208.805],[209.815,209.415],[209.400,209.830],[208.883,210.107],[208.209,210.224],[154.709,210.224],[154.128,210.138],[153.518,209.830],[153.103,209.415],[152.826,208.898],[152.711,208.322],[152.709,185.224],[152.769,184.738],[152.945,184.281],[153.295,183.810],[153.766,183.460],[154.319,183.262],[161.209,183.224],[161.209,30.514],[161.295,29.933],[161.546,29.403],[161.940,28.968],[162.444,28.666],[163.111,28.516]]

;TYPE:Custom
START_PRINT BED_TEMP=70 HOTEND_TEMP=230 FILAMENT_TYPE=PET EXTRUSION_MULTIPLIER=0.95 PERIMETER_SPEED=70
G21 ; set units to millimeters
G90 ; use absolute coordinates
M82 ; use absolute distances for extrusion
G92 E0
; Filament gcode
; ########################### NOTE OFFSET CHANGES ####################################
; Prevents PETG buildup on nozzle.
; SET_GCODE_OFFSET Z=0.06
; ####################################################################################
M107
;LAYER_CHANGE
;Z:0.35
;HEIGHT:0.35
G1 E-.5 F240
G1 Z.35 F9000
EXCLUDE_OBJECT_START NAME='f_lid'
G92 E0
G1 X109.907 Y155.189
G1 E.5 F240
;TYPE:External perimeter
;WIDTH:0.675
G1 F1800
G1 X109.809 Y155.491 E.52633
G1 X109.615 Y155.836 E.55915
G1 X109.356 Y156.135 E.59195
G1 X109.043 Y156.377 E.62476
G1 X108.688 Y156.552 E.65758
G1 X108.314 Y156.653 E.68971
G1 X108.01 Y156.678 E.715
G1 X107.616 Y156.643 E.7478
G1 X107.237 Y156.53 E.7806
G1 X106.888 Y156.344 E.8134
G1 X106.587 Y156.099 E.84558
G1 X106.389 Y155.867 E.87087
G1 X106.188 Y155.527 E.90362
G1 X106.058 Y155.153 E.93645
G1 X106.005 Y154.761 E.96925
G1 X106.022 Y154.426 E.99707
G1 X106.134 Y153.985 E1.0348
G1 X106.311 Y153.631 E1.06762
G1 X106.555 Y153.319 E1.10047
G1 X106.855 Y153.062 E1.13323
G1 X107.201 Y152.869 E1.16608
G1 X107.577 Y152.749 E1.19881
G1 X107.971 Y152.706 E1.23168
G1 X108.365 Y152.741 E1.26448
G1 X108.744 Y152.854 E1.29728
G1 X109.093 Y153.04 E1.33008
G1 X109.399 Y153.291 E1.3629
G1 X109.648 Y153.598 E1.39568
G1 X109.832 Y153.948 E1.42847
G1 X109.943 Y154.328 E1.4613
G1 X109.977 Y154.722 E1.49409
G1 X109.933 Y155.103 E1.5259
G1 X109.703 Y155.657 F9000
G1 X110.477 Y155.349
;TYPE:Perimeter
G1 F1800
G1 X110.405 Y155.613 E1.54859
G1 X110.175 Y156.073 E1.59124
G1 X109.858 Y156.479 E1.63396
G1 X109.467 Y156.813 E1.6766
G1 X109.017 Y157.064 E1.71933
G1 X108.528 Y157.22 E1.76189
G1 X108.008 Y157.279 E1.80529
G1 X107.504 Y157.233 E1.84726
G1 X106.963 Y157.064 E1.89426
G1 X106.514 Y156.813 E1.93692
G1 X106.138 Y156.496 E1.9777
G1 X105.877 Y156.18 E2.01169
G1 X105.624 Y155.732 E2.05436
G1 X105.465 Y155.243 E2.097
G1 X105.406 Y154.731 E2.13974
G1 X105.423 Y154.396 E2.16756
G1 X105.532 Y153.893 E2.21024
G1 X105.739 Y153.422 E2.2529
G1 X106.036 Y153.001 E2.29563
G1 X106.41 Y152.647 E2.33833
G1 X106.846 Y152.374 E2.38099
G1 X107.328 Y152.194 E2.42366
G1 X107.836 Y152.112 E2.46633
G1 X108.351 Y152.133 E2.50907
G1 X108.851 Y152.255 E2.55175
G1 X109.317 Y152.474 E2.59445
G1 X109.73 Y152.78 E2.63708
G1 X110.074 Y153.163 E2.67977
G1 X110.336 Y153.606 E2.72245
G1 X110.504 Y154.092 E2.76509
G1 X110.573 Y154.603 E2.80785
G1 X110.54 Y155.116 E2.85048
G1 X110.5 Y155.262 E2.86303
G1 X110.5 Y155.262 F9000
G1 X111.051 Y155.51
G1 F1800
G1 X110.979 Y155.79 E2.887
G1 X110.72 Y156.327 E2.93644
G1 X110.318 Y156.864 E2.99207
G1 X109.841 Y157.282 E3.04467
G1 X109.321 Y157.583 E3.0945
G1 X108.69 Y157.798 E3.14978
G1 X108.181 Y157.872 E3.19243
G1 X107.585 Y157.85 E3.24189
G1 X106.968 Y157.707 E3.29441
G1 X106.39 Y157.444 E3.34707
G1 X105.877 Y157.073 E3.39957
G1 X105.52 Y156.703 E3.44221
G1 X105.19 Y156.206 E3.49168
G1 X104.946 Y155.621 E3.54424
G1 X104.822 Y155 E3.59675
G1 X104.824 Y154.366 E3.64933
G1 X104.951 Y153.745 E3.70189
G1 X105.199 Y153.161 E3.75451
G1 X105.558 Y152.639 E3.80705
G1 X106.013 Y152.197 E3.85965
G1 X106.546 Y151.855 E3.91217
G1 X107.137 Y151.625 E3.96476
G1 X107.762 Y151.517 E4.01736
G1 X108.396 Y151.535 E4.06996
G1 X109.013 Y151.677 E4.12246
G1 X109.59 Y151.94 E4.17505
G1 X110.104 Y152.311 E4.22762
G1 X110.534 Y152.777 E4.2802
G1 X110.863 Y153.319 E4.33278
G1 X111.078 Y153.916 E4.3854
G1 X111.17 Y154.543 E4.43795
G1 X111.137 Y155.176 E4.49051
G1 X111.073 Y155.423 E4.51167
G1 E4.01167 F240
G92 E0
G1 X111.073 Y155.423 F9000
G1 X50.103 Y137.101
G1 E.5 F240
;TYPE:External perimeter
G1 F1800
G1 X50.134 Y136.985 E.50996
G1 X50.311 Y136.631 E.54278
G1 X50.555 Y136.319 E.57563
G1 X50.855 Y136.062 E.60839
G1 X51.201 Y135.869 E.64124
G1 X51.577 Y135.749 E.67397
G1 X51.971 Y135.706 E.70684
G1 X52.365 Y135.741 E.73964
G1 X52.744 Y135.854 E.77244
G1 X53.093 Y136.04 E.80524
G1 X53.399 Y136.291 E.83806
G1 X53.644 Y136.591 E.87018
G1 X53.832 Y136.948 E.90364
G1 X53.94 Y137.312 E.93513
G1 X53.976 Y137.623 E.96109
G1 X53.95 Y138.018 E.99392
G1 X53.847 Y138.399 E1.02665
G1 X53.67 Y138.753 E1.05947
G1 X53.426 Y139.065 E1.09232
G1 X53.126 Y139.322 E1.12508
G1 X52.78 Y139.515 E1.15793
G1 X52.403 Y139.635 E1.19074
G1 X52.01 Y139.678 E1.22352
G1 X51.616 Y139.643 E1.25632
G1 X51.237 Y139.53 E1.28912
G1 X50.888 Y139.344 E1.32192
G1 X50.582 Y139.093 E1.35474
G1 X50.332 Y138.786 E1.38757
G1 X50.149 Y138.436 E1.42032
G1 X50.038 Y138.057 E1.45307
G1 X50.004 Y137.678 E1.48463
G1 X50.031 Y137.366 E1.5106
G1 X50.079 Y137.188 E1.52589
G1 X50.328 Y136.642 F9000
G1 X49.539 Y136.912
;TYPE:Perimeter
G1 F1800
G1 X49.594 Y136.725 E1.54205
G1 X49.833 Y136.269 E1.58474
G1 X50.158 Y135.869 E1.62748
G1 X50.555 Y135.543 E1.67008
G1 X51.01 Y135.301 E1.71282
G1 X51.503 Y135.154 E1.75548
G1 X52.016 Y135.108 E1.79819
G1 X52.527 Y135.164 E1.84082
G1 X53.017 Y135.32 E1.88346
G1 X53.467 Y135.571 E1.92619
G1 X53.858 Y135.905 E1.96883
G1 X54.163 Y136.29 E2.00956
G1 X54.395 Y136.741 E2.05162
G1 X54.535 Y137.236 E2.09428
G1 X54.575 Y137.653 E2.12902
G1 X54.531 Y138.166 E2.17172
G1 X54.387 Y138.66 E2.21439
G1 X54.148 Y139.115 E2.25701
G1 X53.823 Y139.515 E2.29975
G1 X53.425 Y139.842 E2.34247
G1 X52.971 Y140.083 E2.38509
G1 X52.478 Y140.23 E2.42775
G1 X51.965 Y140.277 E2.47047
G1 X51.454 Y140.22 E2.51311
G1 X50.963 Y140.064 E2.55583
G1 X50.514 Y139.813 E2.59849
G1 X50.123 Y139.479 E2.64113
G1 X49.806 Y139.073 E2.68385
G1 X49.575 Y138.613 E2.72654
G1 X49.441 Y138.118 E2.76907
G1 X49.405 Y137.635 E2.80923
G1 X49.45 Y137.218 E2.84401
G1 X49.514 Y136.998 E2.86301
G1 X49.514 Y136.998 F9000
G1 X48.963 Y136.717
G1 F1800
G1 X49.199 Y136.161 E2.9131
G1 X49.558 Y135.639 E2.96564
G1 X50.013 Y135.197 E3.01824
G1 X50.546 Y134.855 E3.07076
G1 X51.137 Y134.625 E3.12335
G1 X51.762 Y134.517 E3.17595
G1 X52.396 Y134.535 E3.22855
G1 X53.013 Y134.677 E3.28105
G1 X53.59 Y134.94 E3.33364
G1 X54.104 Y135.311 E3.38621
G1 X54.534 Y135.777 E3.43879
G1 X54.682 Y135.989 E3.46023
G1 X54.919 Y136.434 E3.50204
G1 X55.083 Y136.93 E3.54536
G1 X55.166 Y137.441 E3.58829
G1 X55.157 Y138.018 E3.63614
G1 X55.03 Y138.639 E3.6887
G1 X54.782 Y139.223 E3.74132
G1 X54.423 Y139.746 E3.79393
G1 X53.968 Y140.187 E3.84648
G1 X53.434 Y140.529 E3.89907
G1 X52.844 Y140.759 E3.95158
G1 X52.219 Y140.867 E4.00418
G1 X51.585 Y140.85 E4.05677
G1 X50.968 Y140.707 E4.10929
G1 X50.39 Y140.444 E4.16195
G1 X49.877 Y140.073 E4.21445
G1 X49.447 Y139.607 E4.26703
G1 X49.118 Y139.065 E4.31961
G1 X48.903 Y138.469 E4.37215
G1 X48.811 Y137.852 E4.42388
G1 X48.826 Y137.332 E4.46702
G1 X48.938 Y136.804 E4.51178
G1 E4.01178 F240
G92 E0
G1 X48.938 Y136.804 F9000
G1 X72.353 Y209.565
G1 E.5 F240
;TYPE:External perimeter
G1 F1800
G1 X72.237 Y209.53 E.51005
G1 X71.888 Y209.344 E.54285
G1 X71.582 Y209.093 E.57567
G1 X71.332 Y208.786 E.6085
G1 X71.149 Y208.436 E.64125
G1 X71.038 Y208.057 E.674
G1 X71.004 Y207.678 E.70556
G1 X71.031 Y207.366 E.73153
G1 X71.134 Y206.985 E.76426
G1 X71.311 Y206.631 E.79708
G1 X71.555 Y206.319 E.82993
G1 X71.855 Y206.062 E.86269
G1 X72.201 Y205.869 E.89554
G1 X72.571 Y205.75 E.92777
G1 X72.971 Y205.706 E.96114
G1 X73.365 Y205.741 E.99394
G1 X73.744 Y205.854 E1.02674
G1 X74.093 Y206.04 E1.05954
G1 X74.426 Y206.324 E1.09583
G1 X74.648 Y206.598 E1.12507
G1 X74.83 Y206.941 E1.15727
G1 X74.923 Y207.231 E1.18253
G1 X74.976 Y207.623 E1.21533
G1 X74.95 Y208.018 E1.24816
G1 X74.847 Y208.399 E1.28089
G1 X74.67 Y208.753 E1.31371
G1 X74.426 Y209.065 E1.34656
G1 X74.126 Y209.322 E1.37932
G1 X73.78 Y209.515 E1.41217
G1 X73.403 Y209.635 E1.44498
G1 X73.01 Y209.678 E1.47776
G1 X72.616 Y209.643 E1.51056
G1 X72.439 Y209.59 E1.52588
G1 X71.899 Y209.328 F9000
G1 X72.149 Y210.123
;TYPE:Perimeter
G1 F1800
G1 X71.963 Y210.064 E1.54206
G1 X71.514 Y209.813 E1.58472
G1 X71.123 Y209.479 E1.62736
G1 X70.806 Y209.073 E1.67008
G1 X70.575 Y208.613 E1.71277
G1 X70.441 Y208.118 E1.7553
G1 X70.405 Y207.635 E1.79546
G1 X70.45 Y207.218 E1.83024
G1 X70.594 Y206.724 E1.87291
G1 X70.833 Y206.269 E1.91553
G1 X71.158 Y205.869 E1.95827
G1 X71.555 Y205.543 E2.00087
G1 X72.01 Y205.301 E2.04361
G1 X72.482 Y205.157 E2.08453
G1 X72.983 Y205.106 E2.12629
G1 X73.489 Y205.154 E2.16844
G1 X73.971 Y205.298 E2.21016
G1 X74.424 Y205.539 E2.25271
G1 X74.817 Y205.86 E2.29479
G1 X75.154 Y206.275 E2.33912
G1 X75.398 Y206.75 E2.3834
G1 X75.516 Y207.142 E2.41735
G1 X75.575 Y207.653 E2.46001
G1 X75.531 Y208.166 E2.50271
G1 X75.387 Y208.66 E2.54538
G1 X75.148 Y209.115 E2.588
G1 X74.823 Y209.515 E2.63074
G1 X74.425 Y209.842 E2.67346
G1 X73.971 Y210.083 E2.71608
G1 X73.478 Y210.23 E2.75874
G1 X72.965 Y210.277 E2.80146
G1 X72.454 Y210.22 E2.8441
G1 X72.235 Y210.151 E2.86314
G1 X72.235 Y210.151 F9000
G1 X71.941 Y210.695
G1 F1800
G1 X71.39 Y210.444 E2.91335
G1 X70.877 Y210.073 E2.96585
G1 X70.447 Y209.607 E3.01843
G1 X70.118 Y209.065 E3.07101
G1 X69.903 Y208.469 E3.12355
G1 X69.811 Y207.852 E3.17528
G1 X69.826 Y207.332 E3.21842
G1 X69.951 Y206.745 E3.26819
G1 X70.199 Y206.161 E3.32081
G1 X70.558 Y205.639 E3.37335
G1 X71.013 Y205.197 E3.42595
G1 X71.546 Y204.855 E3.47847
G1 X72.137 Y204.625 E3.53106
G1 X72.393 Y204.563 E3.5529
G1 X72.92 Y204.505 E3.59687
G1 X73.429 Y204.537 E3.63916
G1 X74.013 Y204.677 E3.68896
G1 X74.59 Y204.94 E3.74155
G1 X75.104 Y205.311 E3.79412
G1 X75.534 Y205.777 E3.8467
G1 X75.862 Y206.319 E3.89924
G1 X76.048 Y206.798 E3.94185
G1 X76.159 Y207.384 E3.99131
G1 X76.157 Y208.018 E4.04389
G1 X76.03 Y208.639 E4.09645
G1 X75.782 Y209.223 E4.14907
G1 X75.423 Y209.746 E4.20168
G1 X74.968 Y210.187 E4.25423
G1 X74.434 Y210.529 E4.30682
G1 X73.844 Y210.759 E4.35933
G1 X73.219 Y210.867 E4.41193
G1 X72.585 Y210.85 E4.46452
G1 X72.026 Y210.72 E4.51211
G1 E4.01211 F240
G92 E0
G1 X72.026 Y210.72 F9000
G1 X53.098 Y34.908
G1 E.5 F240
;TYPE:External perimeter
G1 F1800
G1 X53.317 Y34.927 E.51823
G1 X53.696 Y35.04 E.55103
G1 X54.045 Y35.226 E.58383
G1 X54.351 Y35.477 E.61665
G1 X54.6 Y35.784 E.64943
G1 X54.784 Y36.134 E.68222
G1 X54.895 Y36.514 E.71505
G1 X54.929 Y36.908 E.74784
G1 X54.883 Y37.301 E.78065
G1 X54.761 Y37.677 E.81343
G1 X54.572 Y38.016 E.84562
G1 X54.378 Y38.251 E.87089
G1 X54.077 Y38.508 E.90371
G1 X53.732 Y38.701 E.93649
G1 X53.355 Y38.821 E.9693
G1 X52.962 Y38.865 E1.00209
G1 X52.568 Y38.829 E1.0349
G1 X52.189 Y38.716 E1.0677
G1 X51.84 Y38.53 E1.1005
G1 X51.534 Y38.279 E1.13332
G1 X51.284 Y37.972 E1.16615
G1 X51.1 Y37.622 E1.19894
G1 X50.99 Y37.243 E1.23167
G1 X50.956 Y36.864 E1.26323
G1 X50.974 Y36.605 E1.28476
G1 X51.086 Y36.171 E1.32193
G1 X51.263 Y35.817 E1.35475
G1 X51.507 Y35.505 E1.3876
G1 X51.807 Y35.248 E1.42036
G1 X52.153 Y35.056 E1.45317
G1 X52.529 Y34.935 E1.48593
G1 X52.923 Y34.892 E1.5188
G1 X53.008 Y34.9 E1.52588
G1 X53.597 Y35.019 F9000
G1 X53.157 Y34.315
;TYPE:Perimeter
G1 F1800
G1 X53.479 Y34.35 E1.55274
G1 X53.969 Y34.506 E1.59538
G1 X54.419 Y34.757 E1.63811
G1 X54.81 Y35.092 E1.68081
G1 X55.127 Y35.497 E1.72346
G1 X55.357 Y35.957 E1.76611
G1 X55.492 Y36.454 E1.80882
G1 X55.525 Y36.968 E1.85153
G1 X55.456 Y37.478 E1.89421
G1 X55.288 Y37.964 E1.93685
G1 X55.041 Y38.39 E1.97769
G1 X54.775 Y38.701 E2.01163
G1 X54.377 Y39.028 E2.05435
G1 X53.923 Y39.27 E2.09701
G1 X53.43 Y39.416 E2.13965
G1 X52.917 Y39.463 E2.18237
G1 X52.406 Y39.406 E2.22501
G1 X51.915 Y39.25 E2.26773
G1 X51.466 Y38.999 E2.31039
G1 X51.075 Y38.665 E2.35303
G1 X50.758 Y38.259 E2.39575
G1 X50.527 Y37.799 E2.43844
G1 X50.393 Y37.304 E2.48097
G1 X50.357 Y36.821 E2.52113
G1 X50.376 Y36.561 E2.54275
G1 X50.546 Y35.91 E2.59855
G1 X50.785 Y35.455 E2.64117
G1 X51.11 Y35.056 E2.68385
G1 X51.507 Y34.729 E2.7265
G1 X51.962 Y34.487 E2.76924
G1 X52.455 Y34.34 E2.8119
G1 X52.968 Y34.294 E2.85461
G1 X53.068 Y34.305 E2.86295
G1 X53.068 Y34.305 F9000
G1 X53.217 Y33.717
G1 F1800
G1 X53.348 Y33.721 E2.87382
G1 X53.965 Y33.863 E2.92632
G1 X54.542 Y34.126 E2.97891
G1 X55.056 Y34.497 E3.03148
G1 X55.486 Y34.963 E3.08406
G1 X55.815 Y35.505 E3.13664
G1 X56.03 Y36.102 E3.18926
G1 X56.122 Y36.729 E3.24181
G1 X56.089 Y37.362 E3.29437
G1 X55.931 Y37.976 E3.34695
G1 X55.654 Y38.546 E3.3995
G1 X55.352 Y38.962 E3.44213
G1 X54.92 Y39.373 E3.49158
G1 X54.386 Y39.715 E3.54417
G1 X53.796 Y39.945 E3.59668
G1 X53.171 Y40.054 E3.64929
G1 X52.537 Y40.036 E3.70189
G1 X51.92 Y39.893 E3.75441
G1 X51.342 Y39.631 E3.80704
G1 X50.829 Y39.259 E3.85959
G1 X50.399 Y38.793 E3.91217
G1 X50.07 Y38.251 E3.96475
G1 X49.855 Y37.655 E4.01729
G1 X49.763 Y37.038 E4.06902
G1 X49.778 Y36.518 E4.11216
G1 X49.903 Y35.931 E4.16193
G1 X50.151 Y35.347 E4.21455
G1 X50.51 Y34.825 E4.26709
G1 X50.965 Y34.383 E4.31969
G1 X51.498 Y34.041 E4.37221
G1 X52.089 Y33.811 E4.4248
G1 X52.714 Y33.703 E4.4774
G1 X53.127 Y33.714 E4.51166
G1 E4.01166 F240
G92 E0
G1 X53.127 Y33.714 F9000
G1 X107.53 Y34.413
G1 E.5 F240
;TYPE:External perimeter
G1 F1800
G1 X107.64 Y34.424 E.50917
G1 X107.981 Y34.526 E.53869
G1 X108.295 Y34.693 E.56818
G1 X108.569 Y34.92 E.59769
G1 X108.793 Y35.196 E.62717
G1 X108.958 Y35.511 E.65666
G1 X109.057 Y35.853 E.68619
G1 X109.087 Y36.207 E.71565
G1 X109.046 Y36.561 E.7452
G1 X108.935 Y36.899 E.7747
G1 X108.745 Y37.225 E.80599
G1 X108.381 Y37.597 E.84915
G1 X108.008 Y37.818 E.8851
G1 X107.669 Y37.926 E.9146
G1 X107.315 Y37.964 E.94412
G1 X107.01 Y37.941 E.96948
G1 X106.62 Y37.829 E1.00313
G1 X106.29 Y37.647 E1.03438
G1 X105.911 Y37.296 E1.07722
G1 X105.679 Y36.926 E1.11344
G1 X105.562 Y36.589 E1.14302
G1 X105.515 Y36.237 E1.17247
G1 X105.539 Y35.882 E1.20198
G1 X105.633 Y35.538 E1.23155
G1 X105.792 Y35.221 E1.26096
G1 X106.012 Y34.941 E1.29049
G1 X106.282 Y34.71 E1.31996
G1 X106.593 Y34.537 E1.34947
G1 X106.932 Y34.429 E1.37897
G1 X107.286 Y34.391 E1.40849
G1 X107.44 Y34.405 E1.42131
G1 X108.018 Y34.566 F9000
G1 X107.619 Y33.825
;TYPE:Perimeter
G1 F1800
G1 X107.803 Y33.846 E1.43667
G1 X108.255 Y33.992 E1.47606
G1 X108.669 Y34.224 E1.51542
G1 X109.029 Y34.534 E1.55482
G1 X109.32 Y34.909 E1.59418
G1 X109.532 Y35.334 E1.63357
G1 X109.654 Y35.793 E1.67296
G1 X109.684 Y36.267 E1.71235
G1 X109.619 Y36.738 E1.75178
G1 X109.462 Y37.186 E1.79115
G1 X109.197 Y37.62 E1.83332
G1 X108.814 Y38.014 E1.87889
