; generated by PrusaSlicer 2.8.0+MacOS-arm64 on 2024-09-05 at 13:22:53 UTC


;
;

;
;
; 

; external perimeters extrusion width = 0.68mm
; perimeters extrusion width = 0.68mm
; infill extrusion width = 0.68mm
; solid infill extrusion width = 0.68mm
; top infill extrusion width = 0.60mm


EXCLUDE_OBJECT_DEFINE NAME='bed_alignment_bracket' CENTER=120.631,127.048 POLYGON=[[129.757,95.924],[132.373,98.540],[132.373,155.556],[125.446,162.484],[109.446,162.484],[109.446,91.613],[125.446,91.613]]

;TYPE:Custom
START_PRINT BED_TEMP=65 HOTEND_TEMP=220 FILAMENT_TYPE=PLA EXTRUSION_MULTIPLIER=0.95 PERIMETER_SPEED=80
G21 ; set units to millimeters
G90 ; use absolute coordinates
M82 ; use absolute distances for extrusion
G92 E0
; Filament gcode
M107
;LAYER_CHANGE
;Z:0.35
;HEIGHT:0.35
G1 E-.5 F240
G1 Z.35 F9000
EXCLUDE_OBJECT_START NAME='bed_alignment_bracket'
G92 E0
G1 X109.783 Y91.95
G1 E.5 F240
G92 E0
;TYPE:External perimeter
;WIDTH:0.675
G1 F1800
G1 X125.306 Y91.95 E1.28728
G1 X132.036 Y98.68 E2.07655
G1 X132.036 Y103.289 E2.45876
G1 X132.036 Y155.417 E6.78158
G1 X125.306 Y162.147 E7.57085
G1 X109.783 Y162.147 E8.85813
G1 X109.783 Y92.04 E14.6719
G1 X110.377 Y91.951 F9000
G1 X110.383 Y92.55
;TYPE:Perimeter
G1 F1800
G1 X125.057 Y92.55 E15.88877
G1 X131.436 Y98.929 E16.63688
G1 X131.436 Y103.289 E16.99844
G1 X131.436 Y155.168 E21.30062
G1 X125.057 Y161.547 E22.04873
G1 X110.383 Y161.547 E23.2656
G1 X110.383 Y92.64 E28.97986
G1 E28.47986 F240
G92 E0
G1 X124.601 Y92.73 F9000
G1 E.5 F240
;TYPE:Solid infill
;WIDTH:0.675134
G1 F1800
G1 X130.986 Y99.115 E1.24898
G1 X130.986 Y99.964 E1.3194
G1 X124.022 Y93 E2.1363
G1 X123.174 Y93 E2.20664
G1 X130.986 Y100.812 E3.12301
G1 X130.986 Y101.661 E3.19343
G1 X122.325 Y93 E4.20939
G1 X121.477 Y93 E4.27973
G1 X130.986 Y102.509 E5.39516
G1 X130.986 Y103.358 E5.46558
G1 X120.628 Y93 E6.6806
G1 X119.78 Y93 E6.75094
G1 X130.986 Y104.207 E8.06549
G1 X130.986 Y105.055 E8.13583
G1 X118.931 Y93 E9.54992
G1 X118.082 Y93 E9.62034
G1 X130.986 Y105.904 E11.13402
G1 X130.986 Y106.752 E11.20436
G1 X117.234 Y93 E12.81751
G1 X116.385 Y93 E12.88793
G1 X130.986 Y107.601 E14.60067
G1 X130.986 Y108.449 E14.67101
G1 X115.537 Y93 E16.48322
G1 X114.688 Y93 E16.55364
G1 X130.986 Y109.298 E18.46544
G1 X130.986 Y110.146 E18.53578
G1 X113.84 Y93 E20.54705
G1 X112.991 Y93 E20.61747
G1 X130.986 Y110.995 E22.72833
G1 X130.986 Y111.844 E22.79875
G1 X112.143 Y93 E25.00915
G1 X111.294 Y93 E25.07957
G1 X130.986 Y112.692 E27.3895
G1 X130.986 Y113.541 E27.45992
G1 X110.833 Y93.388 E29.82392
G1 X110.833 Y94.236 E29.89426
G1 X130.986 Y114.389 E32.25826
G1 X130.986 Y115.238 E32.32868
G1 X110.833 Y95.085 E34.69268
G1 X110.833 Y95.933 E34.76302
G1 X130.986 Y116.086 E37.12702
G1 X130.986 Y116.935 E37.19744
G1 X110.833 Y96.782 E39.56144
G1 X110.833 Y97.63 E39.63178
G1 X130.986 Y117.783 E41.99578
G1 X130.986 Y118.632 E42.0662
G1 X110.833 Y98.479 E44.4302
G1 X110.833 Y99.327 E44.50054
G1 X130.986 Y119.481 E46.8646
G1 X130.986 Y120.329 E46.93494
G1 X110.833 Y100.176 E49.29894
G1 X110.833 Y101.025 E49.36936
G1 X130.986 Y121.178 E51.73336
G1 X130.986 Y122.026 E51.8037
G1 X110.833 Y101.873 E54.1677
G1 X110.833 Y102.722 E54.23812
G1 X130.986 Y122.875 E56.60212
G1 X130.986 Y123.723 E56.67246
G1 X110.833 Y103.57 E59.03646
G1 X110.833 Y104.419 E59.10688
G1 X130.986 Y124.572 E61.47088
G1 X130.986 Y125.421 E61.5413
G1 X110.833 Y105.267 E63.90536
G1 X110.833 Y106.116 E63.97578
G1 X130.986 Y126.269 E66.33978
G1 X130.986 Y127.118 E66.4102
G1 X110.833 Y106.964 E68.77426
G1 X110.833 Y107.813 E68.84468
G1 X130.986 Y127.966 E71.20868
G1 X130.986 Y128.815 E71.2791
G1 X110.833 Y108.662 E73.6431
G1 X110.833 Y109.51 E73.71344
G1 X130.986 Y129.663 E76.07744
G1 X130.986 Y130.512 E76.14786
G1 X110.833 Y110.359 E78.51186
G1 X110.833 Y111.207 E78.5822
G1 X130.986 Y131.36 E80.9462
G1 X130.986 Y132.209 E81.01662
G1 X110.833 Y112.056 E83.38062
G1 X110.833 Y112.904 E83.45096
G1 X130.986 Y133.058 E85.81502
G1 X130.986 Y133.906 E85.88536
G1 X110.833 Y113.753 E88.24936
G1 X110.833 Y114.602 E88.31978
G1 X130.986 Y134.755 E90.68378
G1 X130.986 Y135.603 E90.75412
G1 X110.833 Y115.45 E93.11812
G1 X110.833 Y116.299 E93.18854
G1 X130.986 Y136.452 E95.55254
G1 X130.986 Y137.3 E95.62288
G1 X110.833 Y117.147 E97.98688
G1 X110.833 Y117.996 E98.0573
G1 X130.986 Y138.149 E100.4213
G1 X130.986 Y138.998 E100.49172
G1 X110.833 Y118.844 E102.85578
G1 X110.833 Y119.693 E102.9262
G1 X130.986 Y139.846 E105.2902
G1 X130.986 Y140.695 E105.36062
G1 X110.833 Y120.541 E107.72468
G1 X110.833 Y121.39 E107.7951
G1 X130.986 Y141.543 E110.1591
G1 X130.986 Y142.392 E110.22952
G1 X110.833 Y122.239 E112.59352
G1 X110.833 Y123.087 E112.66386
G1 X130.986 Y143.24 E115.02786
G1 X130.986 Y144.089 E115.09828
G1 X110.833 Y123.936 E117.46228
G1 X110.833 Y124.784 E117.53262
G1 X130.986 Y144.937 E119.89662
G1 X130.986 Y145.786 E119.96704
G1 X110.833 Y125.633 E122.33104
G1 X110.833 Y126.481 E122.40138
G1 X130.986 Y146.635 E124.76544
G1 X130.986 Y147.483 E124.83578
G1 X110.833 Y127.33 E127.19978
G1 X110.833 Y128.179 E127.2702
G1 X130.986 Y148.332 E129.6342
G1 X130.986 Y149.18 E129.70454
G1 X110.833 Y129.027 E132.06854
G1 X110.833 Y129.876 E132.13896
G1 X130.986 Y150.029 E134.50296
G1 X130.986 Y150.877 E134.5733
G1 X110.833 Y130.724 E136.9373
G1 X110.833 Y131.573 E137.00772
G1 X130.986 Y151.726 E139.37172
G1 X130.986 Y152.574 E139.44206
G1 X110.833 Y132.421 E141.80606
G1 X110.833 Y133.27 E141.87648
G1 X130.986 Y153.423 E144.24048
G1 X130.986 Y154.272 E144.3109
G1 X110.833 Y134.118 E146.67496
G1 X110.833 Y134.967 E146.74538
G1 X130.917 Y155.051 E149.10129
G1 X130.493 Y155.475 E149.15103
G1 X110.833 Y135.816 E151.45715
G1 X110.833 Y136.664 E151.52749
G1 X130.068 Y155.899 E153.78381
G1 X129.644 Y156.324 E153.83361
G1 X110.833 Y137.513 E156.04019
G1 X110.833 Y138.361 E156.11053
G1 X129.22 Y156.748 E158.26738
G1 X128.796 Y157.172 E158.31712
G1 X110.833 Y139.21 E160.42417
G1 X110.833 Y140.058 E160.49451
G1 X128.371 Y157.597 E162.55183
G1 X127.947 Y158.021 E162.60157
G1 X110.833 Y140.907 E164.60909
G1 X110.833 Y141.755 E164.67943
G1 X127.523 Y158.445 E166.63721
G1 X127.098 Y158.869 E166.68701
G1 X110.833 Y142.604 E168.59494
G1 X110.833 Y143.453 E168.66536
G1 X126.674 Y159.294 E170.52355
G1 X126.25 Y159.718 E170.57329
G1 X110.833 Y144.301 E172.38175
G1 X110.833 Y145.15 E172.45217
G1 X125.826 Y160.142 E174.21083
G1 X125.401 Y160.567 E174.26068
G1 X110.833 Y145.998 E175.96961
G1 X110.833 Y146.847 E176.04003
G1 X124.977 Y160.991 E177.69916
G1 X124.871 Y161.097 E177.71159
G1 X124.234 Y161.097 E177.76443
G1 X110.833 Y147.695 E179.33646
G1 X110.833 Y148.544 E179.40688
G1 X123.386 Y161.097 E180.87938
G1 X122.537 Y161.097 E180.9498
G1 X110.833 Y149.393 E182.32271
G1 X110.833 Y150.241 E182.39305
G1 X121.689 Y161.097 E183.66649
G1 X120.84 Y161.097 E183.73691
G1 X110.833 Y151.09 E184.91076
G1 X110.833 Y151.938 E184.9811
G1 X119.992 Y161.097 E186.05548
G1 X119.143 Y161.097 E186.1259
G1 X110.833 Y152.787 E187.10069
G1 X110.833 Y153.635 E187.17103
G1 X118.294 Y161.097 E188.04629
G1 X117.446 Y161.097 E188.11663
G1 X110.833 Y154.484 E188.89235
G1 X110.833 Y155.332 E188.96269
G1 X116.597 Y161.097 E189.63888
G1 X115.749 Y161.097 E189.70922
G1 X110.833 Y156.181 E190.28588
G1 X110.833 Y157.03 E190.3563
G1 X114.9 Y161.097 E190.83337
G1 X114.052 Y161.097 E190.90371
G1 X110.833 Y157.878 E191.28131
G1 X110.833 Y158.727 E191.35173
G1 X113.203 Y161.097 E191.62974
G1 X112.355 Y161.097 E191.70008
G1 X110.833 Y159.575 E191.87861
G1 X110.833 Y160.424 E191.94903
G1 X111.776 Y161.367 E192.05965
;LAYER_CHANGE
;Z:0.55
;HEIGHT:0.2
G1 Z.55 F9000
M104 S215 ; set temperature
G1 E191.55965 F240
G92 E0
G1 X111.776 Y161.367 Z.55 F9000
G1 X109.783 Y91.95
G1 E.5 F240
G92 E0
;TYPE:External perimeter
;WIDTH:0.674999
G1 F1920
G1 X125.306 Y91.95 E.77506
G1 X132.036 Y98.68 E1.25027
G1 X132.036 Y103.289 E1.4804
G1 X132.036 Y155.417 E4.08314
G1 X125.306 Y162.147 E4.55835
G1 X109.783 Y162.147 E5.33341
G1 X109.783 Y92.04 E8.83383
G1 X110.377 Y91.951 F9000
G1 X110.415 Y92.582
;TYPE:Perimeter
G1 F4800
G1 X125.044 Y92.582 E9.56425
G1 X131.404 Y98.942 E10.01334
G1 X131.404 Y103.289 E10.23038
G1 X131.404 Y155.155 E12.82003
G1 X125.044 Y161.514 E13.26908
G1 X110.415 Y161.514 E13.9995
G1 X110.415 Y92.672 E17.43676
G1 X110.415 Y92.672 F9000
G1 X111.061 Y93.107
;TYPE:Solid infill
;WIDTH:0.82836
G1 F2880
G1 X110.991 Y93.038 E17.44286
G1 X110.897 Y93.063 E17.44889
G1 X110.871 Y93.158 E17.455
G1 X110.941 Y93.228 E17.46114
G1 X111.035 Y93.202 E17.46719
G1 X111.035 Y93.202 F9000
G1 X110.681 Y94.438
;WIDTH:0.55292
G1 F2880
G1 X110.636 Y94.393 E17.46975
G1 X110.575 Y94.41 E17.4723
G1 X110.558 Y94.471 E17.47485
G1 X110.603 Y94.516 E17.47741
G1 X110.665 Y94.5 E17.47999
;WIDTH:0.593613
G1 X110.74 Y94.404 E17.48529
;WIDTH:0.634306
G1 X110.814 Y94.308 E17.49095
;WIDTH:0.674999
G1 X110.889 Y94.212 E17.49703
G1 X112.045 Y93.056 E17.57866
G1 X112.141 Y92.981 E17.58474
;WIDTH:0.634306
G1 X112.237 Y92.906 E17.59043
;WIDTH:0.593613
G1 X112.333 Y92.832 E17.5957
;WIDTH:0.55292
G1 X112.271 Y92.848 E17.59828
G1 X112.226 Y92.803 E17.60084
G1 X112.243 Y92.741 E17.60343
G1 X112.304 Y92.725 E17.60597
G1 X112.349 Y92.77 E17.60853
;WIDTH:0.674999
G1 X112.939 Y93.056 E17.64127
G1 X110.889 Y95.106 E17.78602
G1 X110.889 Y96 E17.83066
G1 X113.833 Y93.056 E18.03854
G1 X114.727 Y93.056 E18.08318
G1 X110.889 Y96.894 E18.35419
G1 X110.889 Y97.788 E18.39883
G1 X115.621 Y93.056 E18.73296
G1 X116.515 Y93.056 E18.7776
G1 X110.889 Y98.681 E19.17482
G1 X110.889 Y99.575 E19.21946
G1 X117.408 Y93.056 E19.67977
G1 X118.302 Y93.056 E19.72441
G1 X110.889 Y100.469 E20.24785
G1 X110.889 Y101.363 E20.29249
G1 X119.196 Y93.056 E20.87906
G1 X120.09 Y93.056 E20.9237
G1 X110.889 Y102.257 E21.57339
G1 X110.889 Y103.151 E21.61803
G1 X120.984 Y93.056 E22.33085
G1 X121.878 Y93.056 E22.37549
G1 X110.889 Y104.045 E23.15144
G1 X110.889 Y104.939 E23.19608
G1 X122.772 Y93.056 E24.03515
G1 X123.666 Y93.056 E24.07979
G1 X110.889 Y105.833 E24.98199
G1 X110.889 Y106.726 E25.02658
G1 X124.56 Y93.056 E25.99187
G1 X124.703 Y92.993 E25.99967
;WIDTH:0.634306
G1 X124.847 Y92.929 E26.00703
;WIDTH:0.593613
G1 X124.991 Y92.865 E26.01388
;WIDTH:0.55292
G1 X124.929 Y92.882 E26.01647
G1 X124.884 Y92.837 E26.01903
G1 X124.9 Y92.775 E26.02161
G1 X124.962 Y92.759 E26.02419
G1 X125.007 Y92.804 E26.02675
;WIDTH:0.674999
G1 X125.151 Y93.359 E26.05538
G1 X110.889 Y107.62 E27.0624
G1 X110.889 Y108.514 E27.10704
G1 X125.598 Y93.806 E28.14563
G1 X126.045 Y94.253 E28.17719
G1 X110.889 Y109.408 E29.24734
G1 X110.889 Y110.302 E29.29198
G1 X126.491 Y94.7 E30.39366
G1 X126.938 Y95.147 E30.42522
G1 X110.889 Y111.196 E31.55846
G1 X110.889 Y112.09 E31.6031
G1 X127.385 Y95.594 E32.7679
G1 X127.832 Y96.041 E32.79946
G1 X110.889 Y112.984 E33.99583
G1 X110.889 Y113.878 E34.04047
G1 X128.279 Y96.488 E35.2684
G1 X128.726 Y96.935 E35.29996
G1 X110.889 Y114.772 E36.55945
G1 X110.889 Y115.665 E36.60404
G1 X129.173 Y97.382 E37.89506
G1 X129.62 Y97.829 E37.92662
G1 X110.889 Y116.559 E39.2492
G1 X110.889 Y117.453 E39.29384
G1 X130.067 Y98.276 E40.64799
G1 X130.514 Y98.722 E40.67952
G1 X110.889 Y118.347 E42.06527
G1 X110.889 Y119.241 E42.10991
G1 X130.93 Y99.2 E43.52503
G1 X131.089 Y99.138 E43.53355
;WIDTH:0.635904
G1 X131.249 Y99.076 E43.54159
;WIDTH:0.596808
G1 X131.182 Y99.093 E43.54461
G1 X131.133 Y99.045 E43.54761
G1 X131.151 Y98.978 E43.55065
G1 X131.218 Y98.96 E43.55369
G1 X131.266 Y99.009 E43.55669
;WIDTH:0.674999
G1 X130.93 Y100.094 E43.6134
G1 X110.889 Y120.135 E45.02852
G1 X110.889 Y121.029 E45.07316
G1 X130.93 Y100.988 E46.48828
G1 X130.93 Y101.882 E46.53292
G1 X110.889 Y121.923 E47.94804
G1 X110.889 Y122.817 E47.99268
G1 X130.93 Y102.776 E49.4078
G1 X130.93 Y103.67 E49.45244
G1 X110.889 Y123.71 E50.86753
G1 X110.889 Y124.604 E50.91217
G1 X130.93 Y104.564 E52.32726
G1 X130.93 Y105.458 E52.3719
G1 X110.889 Y125.498 E53.78699
G1 X110.889 Y126.392 E53.83163
G1 X130.93 Y106.352 E55.24672
G1 X130.93 Y107.246 E55.29136
G1 X110.889 Y127.286 E56.70645
G1 X110.889 Y128.18 E56.75109
G1 X130.93 Y108.139 E58.16621
G1 X130.93 Y109.033 E58.21085
G1 X110.889 Y129.074 E59.62597
G1 X110.889 Y129.968 E59.67061
G1 X130.93 Y109.927 E61.08573
G1 X130.93 Y110.821 E61.13037
G1 X110.889 Y130.862 E62.54549
G1 X110.889 Y131.756 E62.59013
G1 X130.93 Y111.715 E64.00525
G1 X130.93 Y112.609 E64.04989
G1 X110.889 Y132.649 E65.46498
G1 X110.889 Y133.543 E65.50962
G1 X130.93 Y113.503 E66.92471
G1 X130.93 Y114.397 E66.96935
G1 X110.889 Y134.437 E68.38444
G1 X110.889 Y135.331 E68.42908
G1 X130.93 Y115.291 E69.84417
G1 X130.93 Y116.184 E69.88876
G1 X110.889 Y136.225 E71.30388
G1 X110.889 Y137.119 E71.34852
G1 X130.93 Y117.078 E72.76364
G1 X130.93 Y117.972 E72.80828
G1 X110.889 Y138.013 E74.2234
G1 X110.889 Y138.907 E74.26804
G1 X130.93 Y118.866 E75.68316
G1 X130.93 Y119.76 E75.7278
G1 X110.889 Y139.801 E77.14292
G1 X110.889 Y140.694 E77.18751
G1 X130.93 Y120.654 E78.6026
G1 X130.93 Y121.548 E78.64724
G1 X110.889 Y141.588 E80.06233
G1 X110.889 Y142.482 E80.10697
G1 X130.93 Y122.442 E81.52206
G1 X130.93 Y123.336 E81.5667
G1 X110.889 Y143.376 E82.98179
G1 X110.889 Y144.27 E83.02643
G1 X130.93 Y124.23 E84.44152
G1 X130.93 Y125.123 E84.48611
G1 X110.889 Y145.164 E85.90123
G1 X110.889 Y146.058 E85.94587
G1 X130.93 Y126.017 E87.36099
G1 X130.93 Y126.911 E87.40563
G1 X110.889 Y146.952 E88.82075
G1 X110.889 Y147.846 E88.86539
G1 X130.93 Y127.805 E90.28051
G1 X130.93 Y128.699 E90.32515
G1 X110.889 Y148.74 E91.74027
G1 X110.889 Y149.633 E91.78486
G1 X130.93 Y129.593 E93.19995
G1 X130.93 Y130.487 E93.24459
G1 X110.889 Y150.527 E94.65968
G1 X110.889 Y151.421 E94.70432
G1 X130.93 Y131.381 E96.11941
G1 X130.93 Y132.275 E96.16405
G1 X110.889 Y152.315 E97.57914
G1 X110.889 Y153.209 E97.62378
G1 X130.93 Y133.168 E99.0389
G1 X130.93 Y134.062 E99.08354
G1 X110.889 Y154.103 E100.49866
G1 X110.889 Y154.997 E100.5433
G1 X130.93 Y134.956 E101.95842
G1 X130.93 Y135.85 E102.00306
G1 X110.889 Y155.891 E103.41818
G1 X110.889 Y156.785 E103.46282
G1 X130.93 Y136.744 E104.87794
G1 X130.93 Y137.638 E104.92258
G1 X110.889 Y157.678 E106.33767
G1 X110.889 Y158.572 E106.38231
G1 X130.93 Y138.532 E107.7974
G1 X130.93 Y139.426 E107.84204
G1 X110.889 Y159.466 E109.25713
G1 X110.889 Y160.36 E109.30177
G1 X130.93 Y140.32 E110.71686
G1 X130.93 Y141.214 E110.7615
G1 X111.103 Y161.04 E112.16147
G1 X110.994 Y161.093 E112.16752
;WIDTH:0.634306
G1 X110.886 Y161.146 E112.17314
;WIDTH:0.593613
G1 X110.777 Y161.198 E112.17839
;WIDTH:0.55292
G1 X110.732 Y161.153 E112.18095
G1 X110.67 Y161.169 E112.18353
G1 X110.654 Y161.231 E112.18611
G1 X110.699 Y161.276 E112.18867
G1 X110.76 Y161.26 E112.19121
;WIDTH:0.674999
G1 X111.997 Y161.04 E112.25394
G1 X130.93 Y142.107 E113.59082
G1 X130.93 Y143.001 E113.63546
G1 X112.891 Y161.04 E114.90922
G1 X113.785 Y161.04 E114.95386
G1 X130.93 Y143.895 E116.16449
G1 X130.93 Y144.789 E116.20913
G1 X114.679 Y161.04 E117.35663
G1 X115.572 Y161.04 E117.40122
G1 X130.93 Y145.683 E118.48563
G1 X130.93 Y146.577 E118.53027
G1 X116.466 Y161.04 E119.55156
G1 X117.36 Y161.04 E119.5962
G1 X130.93 Y147.471 E120.55436
G1 X130.93 Y148.365 E120.599
G1 X118.254 Y161.04 E121.49403
G1 X119.148 Y161.04 E121.53867
G1 X130.93 Y149.259 E122.37058
G1 X130.93 Y150.152 E122.41517
G1 X120.042 Y161.04 E123.18399
G1 X120.936 Y161.04 E123.22863
G1 X130.93 Y151.046 E123.93432
G1 X130.93 Y151.94 E123.97896
G1 X121.83 Y161.04 E124.62152
G1 X122.724 Y161.04 E124.66616
G1 X130.93 Y152.834 E125.2456
G1 X130.93 Y153.728 E125.29024
G1 X123.617 Y161.04 E125.80658
G1 X124.511 Y161.04 E125.85122
G1 X130.93 Y154.622 E126.30444
G1 X130.949 Y154.798 E126.31328
;WIDTH:0.635904
G1 X130.969 Y154.975 E126.32162
;WIDTH:0.596808
G1 X124.864 Y161.08 E126.69938
;LAYER_CHANGE
;Z:0.75
;HEIGHT:0.2
G1 Z.75 F9000
G1 E126.19938 F240
G92 E0
G1 X124.864 Y161.08 Z.75 F9000
G1 X109.783 Y91.95
G1 E.5 F240
G92 E0
;TYPE:External perimeter
;WIDTH:0.674999
G1 F1920
G1 X125.306 Y91.95 E.77506
G1 X132.036 Y98.68 E1.25027
G1 X132.036 Y103.289 E1.4804
G1 X132.036 Y155.417 E4.08314
G1 X125.306 Y162.147 E4.55835
G1 X109.783 Y162.147 E5.33341
G1 X109.783 Y92.04 E8.83383
