; generated by PrusaSlicer 2.8.0+MacOS-arm64 on 2024-09-05 at 12:32:04 UTC


;
;

;
;
; 

; external perimeters extrusion width = 0.68mm
; perimeters extrusion width = 0.68mm
; infill extrusion width = 0.68mm
; solid infill extrusion width = 0.68mm
; top infill extrusion width = 0.60mm

; external perimeters extrusion width = 0.68mm
; perimeters extrusion width = 0.68mm
; infill extrusion width = 0.68mm
; solid infill extrusion width = 0.68mm
; top infill extrusion width = 0.60mm


EXCLUDE_OBJECT_DEFINE NAME='z_bottom_shield_bracket_1_(2)' CENTER=124.999,146.276 POLYGON=[[100.000,128.009],[170.000,128.007],[170.000,169.009],[166.000,173.009],[150.000,173.009],[150.000,153.009],[100.000,153.009],[100.000,173.009],[84.000,173.009],[80.000,169.009],[80.000,127.996]]
EXCLUDE_OBJECT_DEFINE NAME='z_bottom_shield_bracket_1' CENTER=125.002,103.727 POLYGON=[[100.000,96.991],[150.000,96.991],[150.000,76.991],[166.000,76.991],[170.000,80.991],[170.000,122.004],[80.000,121.993],[80.000,80.991],[84.000,76.991],[100.000,76.991]]

;TYPE:Custom
START_PRINT BED_TEMP=65 HOTEND_TEMP=220 FILAMENT_TYPE=PLA EXTRUSION_MULTIPLIER=0.95 PERIMETER_SPEED=80
G21 ; set units to millimeters
G90 ; use absolute coordinates
M82 ; use absolute distances for extrusion
G92 E0
; Filament gcode
M107
;LAYER_CHANGE
;Z:0.35
;HEIGHT:0.35
G1 E-.5 F240
G1 Z.35 F9000
EXCLUDE_OBJECT_START NAME='z_bottom_shield_bracket_1'
G92 E0
G1 X137.592 Y108.543
G1 E.5 F240
G92 E0
;TYPE:External perimeter
;WIDTH:0.675
G1 F1800
G1 X137.386 Y108.212 E.03233
G1 X137.193 Y107.662 E.08067
G1 X137.116 Y107.093 E.12829
G1 X137.153 Y106.519 E.17599
G1 X137.303 Y105.965 E.22359
G1 X137.559 Y105.45 E.27128
G1 X137.913 Y104.997 E.31896
G1 X138.35 Y104.623 E.36666
G1 X138.851 Y104.343 E.41425
G1 X139.399 Y104.168 E.46196
G1 X139.966 Y104.105 E.50927
G1 X140.676 Y104.186 E.56853
G1 X141.225 Y104.378 E.61676
G1 X141.719 Y104.673 E.66447
G1 X142.144 Y105.059 E.71208
G1 X142.484 Y105.522 E.75972
G1 X142.726 Y106.044 E.80743
G1 X142.86 Y106.603 E.8551
G1 X142.88 Y107.177 E.90273
G1 X142.786 Y107.744 E.95039
G1 X142.582 Y108.281 E.99803
G1 X142.275 Y108.767 E1.0457
G1 X141.878 Y109.183 E1.09339
G1 X141.406 Y109.511 E1.14105
G1 X140.879 Y109.74 E1.1887
G1 X140.317 Y109.86 E1.23636
G1 X139.742 Y109.866 E1.28405
G1 X139.178 Y109.758 E1.33167
G1 X138.646 Y109.54 E1.37935
G1 X138.168 Y109.221 E1.42701
G1 X137.762 Y108.814 E1.47468
G1 X137.64 Y108.619 E1.49375
G1 X137.357 Y108.09 F9000
G1 X137.087 Y108.853
;TYPE:Perimeter
G1 F1800
G1 X136.874 Y108.525 E1.52618
G1 X136.624 Y107.854 E1.58556
G1 X136.52 Y107.168 E1.6431
G1 X136.554 Y106.475 E1.70064
G1 X136.725 Y105.802 E1.75822
G1 X137.026 Y105.177 E1.81575
G1 X137.444 Y104.623 E1.8733
G1 X137.964 Y104.164 E1.93082
G1 X138.565 Y103.816 E1.98841
G1 X139.222 Y103.595 E2.04589
G1 X139.906 Y103.508 E2.10307
G1 X140.75 Y103.591 E2.1734
G1 X141.43 Y103.814 E2.23275
G1 X142.032 Y104.161 E2.29037
G1 X142.552 Y104.619 E2.34783
G1 X142.972 Y105.172 E2.40542
G1 X143.273 Y105.797 E2.46295
G1 X143.445 Y106.469 E2.52047
G1 X143.48 Y107.162 E2.57801
G1 X143.402 Y107.705 E2.6235
G1 X143.313 Y108.061 E2.65393
G1 X143.102 Y108.585 E2.70077
G1 X142.779 Y109.093 E2.75069
G1 X142.307 Y109.602 E2.80826
G1 X141.744 Y110.007 E2.86577
G1 X141.112 Y110.293 E2.9233
G1 X140.436 Y110.448 E2.98081
G1 X139.742 Y110.466 E3.03838
G1 X139.059 Y110.346 E3.09589
G1 X138.413 Y110.093 E3.15342
G1 X137.83 Y109.717 E3.21095
G1 X137.333 Y109.233 E3.26848
G1 X137.136 Y108.929 E3.29852
G1 X137.136 Y108.929 F9000
G1 X136.566 Y109.172
G1 F1800
G1 X136.362 Y108.838 E3.33098
G1 X136.22 Y108.534 E3.3588
G1 X136.056 Y108.045 E3.40157
G1 X135.925 Y107.242 E3.46904
G1 X135.956 Y106.43 E3.53643
G1 X136.148 Y105.64 E3.60385
G1 X136.492 Y104.903 E3.6713
G1 X136.975 Y104.249 E3.73872
G1 X137.578 Y103.704 E3.80612
G1 X138.278 Y103.29 E3.87356
G1 X139.045 Y103.022 E3.94094
G1 X139.846 Y102.911 E4.008
G1 X140.181 Y102.915 E4.03578
G1 X140.824 Y102.995 E4.08951
G1 X141.636 Y103.251 E4.16011
G1 X142.344 Y103.649 E4.22746
G1 X142.96 Y104.18 E4.2949
G1 X143.459 Y104.822 E4.36233
G1 X143.82 Y105.55 E4.42972
G1 X144.03 Y106.336 E4.49719
G1 X144.08 Y107.147 E4.56457
G1 X143.993 Y107.809 E4.61994
G1 X143.871 Y108.28 E4.66029
G1 X143.635 Y108.86 E4.71222
G1 X143.283 Y109.418 E4.76693
G1 X142.737 Y110.02 E4.83433
G1 X142.082 Y110.503 E4.90182
G1 X141.345 Y110.846 E4.96923
G1 X140.555 Y111.036 E5.03661
G1 X139.742 Y111.066 E5.10408
G1 X138.94 Y110.934 E5.17148
G1 X138.18 Y110.646 E5.23888
G1 X137.492 Y110.212 E5.30634
G1 X136.903 Y109.652 E5.37374
G1 X136.697 Y109.387 E5.40157
G1 X136.613 Y109.249 E5.41497
G1 E4.91497 F240
G92 E0
G1 X136.613 Y109.249 F9000
G1 X163.01 Y106.622
G1 E.5 F240
;TYPE:External perimeter
G1 F1800
G1 X163.03 Y107.188 E.54697
G1 X162.931 Y107.785 E.59715
G1 X162.715 Y108.35 E.64731
G1 X162.392 Y108.861 E.69744
G1 X161.974 Y109.298 E.74759
G1 X161.478 Y109.643 E.79769
G1 X160.923 Y109.883 E.84783
G1 X160.332 Y110.009 E.89794
G1 X159.727 Y110.015 E.94811
G1 X159.134 Y109.901 E.99819
G1 X158.574 Y109.672 E1.04836
G1 X158.071 Y109.336 E1.09852
G1 X157.625 Y108.884 E1.15118
G1 X157.312 Y108.403 E1.19877
G1 X157.086 Y107.842 E1.24893
G1 X156.967 Y107.105 E1.31084
G1 X157.005 Y106.493 E1.36169
G1 X157.163 Y105.91 E1.41178
G1 X157.433 Y105.369 E1.46192
G1 X157.806 Y104.893 E1.51207
G1 X158.265 Y104.499 E1.56223
G1 X158.793 Y104.205 E1.61235
G1 X159.369 Y104.021 E1.66249
G1 X159.966 Y103.955 E1.7123
G1 X160.713 Y104.041 E1.77466
G1 X161.29 Y104.243 E1.82536
G1 X161.809 Y104.553 E1.87549
G1 X162.257 Y104.96 E1.92568
G1 X162.614 Y105.447 E1.97575
G1 X162.868 Y105.996 E2.02591
G1 X162.997 Y106.534 E2.07179
G1 X163.021 Y107.133 F9000
G1 X163.599 Y106.563
;TYPE:Perimeter
G1 F1800
G1 X163.629 Y107.173 E2.12244
G1 X163.521 Y107.889 E2.18249
G1 X163.274 Y108.569 E2.24249
G1 X162.896 Y109.186 E2.30249
G1 X162.404 Y109.717 E2.36252
G1 X161.816 Y110.139 E2.42254
G1 X161.329 Y110.363 E2.46699
G1 X160.985 Y110.489 E2.49737
G1 X160.451 Y110.597 E2.54255
G1 X159.727 Y110.615 E2.60261
G1 X159.015 Y110.489 E2.66257
G1 X158.341 Y110.225 E2.7226
G1 X157.733 Y109.832 E2.78264
G1 X157.155 Y109.257 E2.85025
G1 X156.808 Y108.728 E2.90271
G1 X156.527 Y108.061 E2.96273
G1 X156.42 Y107.501 E3.01001
G1 X156.366 Y106.993 E3.05237
G1 X156.407 Y106.449 E3.09761
G1 X156.585 Y105.747 E3.15767
G1 X156.9 Y105.095 E3.21772
G1 X157.337 Y104.519 E3.27768
G1 X157.879 Y104.04 E3.33766
G1 X158.506 Y103.678 E3.3977
G1 X159.192 Y103.448 E3.4577
G1 X159.906 Y103.358 E3.51738
G1 X160.787 Y103.445 E3.59079
G1 X161.496 Y103.679 E3.6527
G1 X162.122 Y104.041 E3.71267
G1 X162.665 Y104.52 E3.77272
G1 X163.101 Y105.097 E3.83269
G1 X163.415 Y105.749 E3.8927
G1 X163.594 Y106.45 E3.9527
G1 X163.595 Y106.474 E3.95469
G1 X163.595 Y106.474 F9000
G1 X164.19 Y106.504
G1 F1800
G1 X164.229 Y107.158 E4.00902
G1 X164.112 Y107.993 E4.07894
G1 X163.832 Y108.788 E4.14884
G1 X163.4 Y109.512 E4.21875
G1 X162.833 Y110.135 E4.28861
G1 X162.154 Y110.634 E4.35849
G1 X161.562 Y110.916 E4.41287
G1 X161.104 Y111.077 E4.45313
G1 X160.57 Y111.185 E4.49831
G1 X159.727 Y111.215 E4.56826
G1 X158.896 Y111.077 E4.63812
G1 X158.108 Y110.777 E4.70804
G1 X157.395 Y110.327 E4.77796
G1 X156.685 Y109.63 E4.86047
G1 X156.304 Y109.054 E4.91774
G1 X155.969 Y108.28 E4.98768
G1 X155.827 Y107.591 E5.04602
G1 X155.764 Y107.048 E5.09135
G1 X155.808 Y106.404 E5.14488
G1 X156.008 Y105.585 E5.21479
G1 X156.366 Y104.822 E5.28468
G1 X156.868 Y104.145 E5.35457
G1 X157.494 Y103.58 E5.4245
G1 X158.219 Y103.151 E5.49436
G1 X159.015 Y102.875 E5.56423
G1 X159.845 Y102.761 E5.63371
G1 X160.181 Y102.765 E5.66158
G1 X160.861 Y102.85 E5.71841
G1 X161.188 Y102.929 E5.74631
G1 X161.701 Y103.115 E5.79156
G1 X162.435 Y103.529 E5.86144
G1 X163.073 Y104.08 E5.93135
G1 X163.589 Y104.747 E6.00128
G1 X163.962 Y105.502 E6.07111
G1 X164.178 Y106.317 E6.14103
G1 X164.184 Y106.415 E6.14917
G1 E5.64917 F240
G92 E0
G1 X164.184 Y106.415 F9000
G1 X163.021 Y86.924
G1 E.5 F240
;TYPE:External perimeter
G1 F1800
G1 X163.03 Y87.188 E.52191
G1 X162.931 Y87.785 E.57209
G1 X162.688 Y88.403 E.62716
G1 X162.392 Y88.861 E.67238
G1 X161.974 Y89.298 E.72253
G1 X161.478 Y89.643 E.77263
G1 X160.923 Y89.883 E.82277
G1 X160.332 Y90.009 E.87288
G1 X159.727 Y90.015 E.92305
G1 X159.134 Y89.901 E.97313
G1 X158.574 Y89.672 E1.0233
G1 X158.071 Y89.336 E1.07346
G1 X157.645 Y88.907 E1.1236
G1 X157.312 Y88.403 E1.17369
G1 X157.049 Y87.703 E1.2357
G1 X156.966 Y87.097 E1.28642
G1 X157.005 Y86.493 E1.33661
G1 X157.163 Y85.91 E1.3867
G1 X157.433 Y85.369 E1.43684
G1 X157.806 Y84.893 E1.48699
G1 X158.265 Y84.499 E1.53715
G1 X158.793 Y84.205 E1.58727
G1 X159.369 Y84.021 E1.63741
G1 X159.966 Y83.955 E1.68722
G1 X160.713 Y84.041 E1.74958
G1 X161.29 Y84.243 E1.80028
G1 X161.809 Y84.553 E1.85041
G1 X162.257 Y84.96 E1.9006
G1 X162.614 Y85.447 E1.95067
G1 X162.868 Y85.996 E2.00083
G1 X163.009 Y86.584 E2.05097
G1 X163.017 Y86.834 E2.07171
G1 X162.98 Y87.433 F9000
G1 X163.617 Y86.924
;TYPE:Perimeter
G1 F1800
G1 X163.629 Y87.173 E2.09238
G1 X163.521 Y87.889 E2.15243
G1 X163.274 Y88.569 E2.21243
G1 X163.192 Y88.728 E2.22727
G1 X162.896 Y89.186 E2.27249
G1 X162.404 Y89.717 E2.33252
G1 X161.816 Y90.139 E2.39254
G1 X161.156 Y90.436 E2.45256
G1 X160.451 Y90.597 E2.51253
G1 X159.727 Y90.615 E2.57259
G1 X159.015 Y90.489 E2.63255
G1 X158.341 Y90.225 E2.69258
G1 X157.733 Y89.832 E2.75262
G1 X157.215 Y89.326 E2.81267
G1 X156.808 Y88.728 E2.87266
G1 X156.486 Y87.909 E2.94564
G1 X156.37 Y87.171 E3.00759
G1 X156.407 Y86.449 E3.06754
G1 X156.585 Y85.747 E3.1276
G1 X156.9 Y85.095 E3.18765
G1 X157.337 Y84.519 E3.24761
G1 X157.879 Y84.04 E3.30759
G1 X158.506 Y83.678 E3.36763
G1 X159.192 Y83.448 E3.42763
G1 X159.906 Y83.358 E3.48731
G1 X160.787 Y83.445 E3.56072
G1 X161.496 Y83.679 E3.62263
G1 X162.122 Y84.041 E3.6826
G1 X162.665 Y84.52 E3.74265
G1 X163.101 Y85.097 E3.80262
G1 X163.415 Y85.749 E3.86263
G1 X163.594 Y86.45 E3.92263
G1 X163.613 Y86.834 E3.95451
G1 X163.613 Y86.834 F9000
G1 X164.215 Y86.924
G1 F1800
G1 X164.229 Y87.158 E3.97395
G1 X164.112 Y87.993 E4.04387
G1 X163.832 Y88.788 E4.11377
G1 X163.696 Y89.054 E4.13854
G1 X163.4 Y89.512 E4.18376
G1 X162.833 Y90.135 E4.25362
G1 X162.154 Y90.634 E4.3235
G1 X161.389 Y90.989 E4.39344
G1 X160.57 Y91.185 E4.46328
G1 X159.996 Y91.215 E4.51095
G1 X159.476 Y91.194 E4.55411
G1 X158.896 Y91.077 E4.60318
G1 X158.108 Y90.777 E4.6731
G1 X157.395 Y90.327 E4.74302
G1 X156.786 Y89.745 E4.81288
G1 X156.304 Y89.054 E4.88275
G1 X156.155 Y88.753 E4.9106
G1 X155.922 Y88.114 E4.967
G1 X155.843 Y87.787 E4.9949
G1 X155.775 Y87.246 E5.04012
G1 X155.808 Y86.404 E5.11
G1 X156.008 Y85.585 E5.17991
G1 X156.366 Y84.822 E5.2498
G1 X156.868 Y84.145 E5.31969
G1 X157.494 Y83.58 E5.38962
G1 X158.219 Y83.151 E5.45948
G1 X159.016 Y82.875 E5.52942
G1 X159.845 Y82.761 E5.59881
G1 X160.181 Y82.765 E5.62668
G1 X160.861 Y82.85 E5.68351
G1 X161.701 Y83.115 E5.75655
G1 X162.435 Y83.529 E5.82643
G1 X163.073 Y84.08 E5.89634
G1 X163.589 Y84.747 E5.96627
G1 X163.962 Y85.502 E6.0361
G1 X164.178 Y86.317 E6.10602
G1 X164.21 Y86.834 E6.14898
G1 E5.64898 F240
G92 E0
G1 X164.21 Y86.834 F9000
G1 X112.671 Y108.048
G1 E.5 F240
;TYPE:External perimeter
G1 F1800
G1 X112.582 Y108.281 E.52068
G1 X112.275 Y108.767 E.56835
G1 X111.878 Y109.183 E.61604
G1 X111.406 Y109.511 E.6637
G1 X110.879 Y109.74 E.71135
G1 X110.317 Y109.86 E.75901
G1 X109.742 Y109.866 E.8067
G1 X109.178 Y109.758 E.85432
G1 X108.646 Y109.54 E.902
G1 X108.168 Y109.221 E.94966
G1 X107.762 Y108.814 E.99733
G1 X107.386 Y108.212 E1.05619
G1 X107.188 Y107.644 E1.10607
G1 X107.116 Y107.093 E1.15215
G1 X107.153 Y106.519 E1.19985
G1 X107.303 Y105.965 E1.24745
G1 X107.559 Y105.45 E1.29514
G1 X107.913 Y104.997 E1.34282
G1 X108.35 Y104.623 E1.39052
G1 X108.851 Y104.343 E1.43811
G1 X109.399 Y104.168 E1.48582
G1 X109.966 Y104.105 E1.53313
G1 X110.676 Y104.186 E1.59239
G1 X111.225 Y104.378 E1.64062
G1 X111.719 Y104.673 E1.68833
G1 X112.144 Y105.059 E1.73594
G1 X112.484 Y105.522 E1.78358
G1 X112.726 Y106.044 E1.83129
G1 X112.86 Y106.603 E1.87896
G1 X112.88 Y107.177 E1.92659
G1 X112.786 Y107.744 E1.97425
G1 X112.703 Y107.964 E1.99375
G1 X112.434 Y108.5 F9000
G1 X113.22 Y108.279
;TYPE:Perimeter
G1 F1800
G1 X113.14 Y108.5 E2.01324
G1 X112.779 Y109.093 E2.07081
G1 X112.307 Y109.602 E2.12838
G1 X111.744 Y110.007 E2.18589
G1 X111.112 Y110.293 E2.24342
G1 X110.436 Y110.448 E2.30093
G1 X109.742 Y110.466 E2.3585
G1 X109.059 Y110.346 E2.41601
G1 X108.413 Y110.093 E2.47354
G1 X107.83 Y109.717 E2.53107
G1 X107.333 Y109.233 E2.5886
G1 X107.004 Y108.738 E2.63789
G1 X106.789 Y108.342 E2.67526
G1 X106.608 Y107.8 E2.72265
G1 X106.52 Y107.168 E2.77557
G1 X106.554 Y106.475 E2.83311
G1 X106.725 Y105.802 E2.89069
G1 X107.026 Y105.177 E2.94822
G1 X107.444 Y104.623 E3.00577
G1 X107.964 Y104.164 E3.06329
G1 X108.565 Y103.816 E3.12088
G1 X109.222 Y103.595 E3.17836
G1 X109.906 Y103.508 E3.23554
G1 X110.75 Y103.591 E3.30587
G1 X111.43 Y103.814 E3.36522
G1 X112.032 Y104.161 E3.42284
G1 X112.552 Y104.619 E3.4803
G1 X112.972 Y105.172 E3.53789
G1 X113.273 Y105.797 E3.59542
G1 X113.445 Y106.469 E3.65294
G1 X113.48 Y107.162 E3.71048
G1 X113.377 Y107.848 E3.76801
G1 X113.251 Y108.195 E3.79862
G1 X113.251 Y108.195 F9000
G1 X113.772 Y108.512
G1 F1800
G1 X113.699 Y108.72 E3.8169
G1 X113.283 Y109.418 E3.88428
G1 X112.737 Y110.02 E3.95168
G1 X112.082 Y110.503 E4.01917
G1 X111.345 Y110.846 E4.08658
G1 X110.555 Y111.036 E4.15396
G1 X109.742 Y111.066 E4.22143
G1 X108.94 Y110.934 E4.28883
G1 X108.18 Y110.646 E4.35623
G1 X107.492 Y110.212 E4.42369
G1 X106.903 Y109.652 E4.49109
G1 X106.492 Y109.051 E4.55147
G1 X106.223 Y108.543 E4.59914
G1 X106.029 Y107.955 E4.65049
G1 X105.925 Y107.242 E4.71024
G1 X105.956 Y106.43 E4.77763
G1 X106.148 Y105.64 E4.84505
G1 X106.492 Y104.903 E4.9125
G1 X106.975 Y104.249 E4.97992
G1 X107.578 Y103.704 E5.04732
G1 X108.278 Y103.29 E5.11476
G1 X109.045 Y103.022 E5.18214
G1 X109.846 Y102.911 E5.2492
G1 X110.181 Y102.915 E5.27698
G1 X110.824 Y102.995 E5.33071
G1 X111.636 Y103.251 E5.40131
G1 X112.344 Y103.649 E5.46866
G1 X112.96 Y104.18 E5.5361
G1 X113.459 Y104.822 E5.60353
G1 X113.82 Y105.55 E5.67092
G1 X114.03 Y106.336 E5.73839
G1 X114.08 Y107.147 E5.80577
G1 X113.968 Y107.952 E5.87317
G1 X113.801 Y108.427 E5.91492
G1 E5.41492 F240
G92 E0
G1 X113.801 Y108.427 F9000
G1 X87.042 Y107.658
G1 E.5 F240
;TYPE:External perimeter
G1 F1800
G1 X86.966 Y107.097 E.54695
G1 X87.005 Y106.493 E.59714
G1 X87.163 Y105.91 E.64723
G1 X87.433 Y105.369 E.69737
G1 X87.806 Y104.893 E.74752
G1 X88.265 Y104.499 E.79768
G1 X88.793 Y104.205 E.8478
G1 X89.369 Y104.021 E.89794
G1 X89.966 Y103.955 E.94775
G1 X90.713 Y104.041 E1.01011
G1 X91.29 Y104.243 E1.06081
G1 X91.809 Y104.553 E1.11094
G1 X92.257 Y104.96 E1.16113
G1 X92.614 Y105.447 E1.2112
G1 X92.868 Y105.996 E1.26136
G1 X93.009 Y106.584 E1.3115
G1 X93.03 Y107.188 E1.36162
G1 X92.931 Y107.785 E1.4118
G1 X92.715 Y108.35 E1.46196
G1 X92.392 Y108.861 E1.51209
G1 X91.974 Y109.298 E1.56224
G1 X91.478 Y109.643 E1.61234
G1 X90.923 Y109.883 E1.66248
G1 X90.332 Y110.009 E1.71259
G1 X89.697 Y110.014 E1.76525
G1 X89.134 Y109.901 E1.81287
G1 X88.574 Y109.672 E1.86304
G1 X88.071 Y109.336 E1.9132
G1 X87.558 Y108.794 E1.97509
G1 X87.245 Y108.267 E2.02592
G1 X87.064 Y107.745 E2.07174
G1 X86.98 Y107.15 F9000
G1 X86.461 Y107.775
;TYPE:Perimeter
G1 F1800
G1 X86.37 Y107.171 E2.12239
G1 X86.407 Y106.449 E2.18234
G1 X86.585 Y105.747 E2.2424
G1 X86.9 Y105.095 E2.30245
G1 X87.337 Y104.519 E2.36241
G1 X87.879 Y104.04 E2.42239
G1 X88.506 Y103.678 E2.48243
G1 X89.192 Y103.448 E2.54243
G1 X89.906 Y103.358 E2.60211
G1 X90.787 Y103.445 E2.67552
G1 X91.496 Y103.679 E2.73743
G1 X92.122 Y104.041 E2.7974
G1 X92.665 Y104.52 E2.85745
G1 X93.101 Y105.097 E2.91742
G1 X93.415 Y105.749 E2.97743
G1 X93.594 Y106.45 E3.03743
G1 X93.629 Y107.173 E3.09746
G1 X93.521 Y107.889 E3.15751
G1 X93.274 Y108.569 E3.21751
G1 X92.896 Y109.186 E3.27751
G1 X92.404 Y109.717 E3.33754
G1 X91.816 Y110.139 E3.39756
G1 X91.156 Y110.436 E3.45758
G1 X90.451 Y110.597 E3.51755
G1 X89.638 Y110.61 E3.58498
G1 X89.015 Y110.489 E3.63761
G1 X88.341 Y110.225 E3.69764
