; generated by PrusaSlicer 2.8.0+MacOS-arm64 on 2024-09-05 at 15:15:35 UTC


;
;

;
;
; 

; external perimeters extrusion width = 0.68mm
; perimeters extrusion width = 0.68mm
; infill extrusion width = 0.68mm
; solid infill extrusion width = 0.68mm
; top infill extrusion width = 0.60mm

; external perimeters extrusion width = 0.68mm
; perimeters extrusion width = 0.68mm
; infill extrusion width = 0.68mm
; solid infill extrusion width = 0.68mm
; top infill extrusion width = 0.60mm


EXCLUDE_OBJECT_DEFINE NAME='z_top_shield_bracket_2' CENTER=125.002,103.727 POLYGON=[[100.000,96.991],[150.000,96.991],[150.000,76.991],[166.000,76.991],[170.000,80.991],[170.000,122.004],[80.000,121.993],[80.000,80.991],[84.000,76.991],[100.000,76.991]]
EXCLUDE_OBJECT_DEFINE NAME='z_top_shield_bracket_1' CENTER=124.999,146.276 POLYGON=[[100.000,128.009],[170.000,128.007],[170.000,169.009],[166.000,173.009],[150.000,173.009],[150.000,153.009],[100.000,153.009],[100.000,173.009],[84.000,173.009],[80.000,169.009],[80.000,127.996]]

;TYPE:Custom
START_PRINT BED_TEMP=65 HOTEND_TEMP=220 FILAMENT_TYPE=PLA EXTRUSION_MULTIPLIER=0.95 PERIMETER_SPEED=70
G21 ; set units to millimeters
G90 ; use absolute coordinates
M82 ; use absolute distances for extrusion
G92 E0
; Filament gcode
M107
;LAYER_CHANGE
;Z:0.35
;HEIGHT:0.35
G1 E-.5 F240
G1 Z.35 F9000
EXCLUDE_OBJECT_START NAME='z_top_shield_bracket_2'
G92 E0
G1 X137.592 Y108.543
G1 E.5 F240
G92 E0
;TYPE:External perimeter
;WIDTH:0.675
G1 F1800
G1 X137.386 Y108.212 E.03233
G1 X137.193 Y107.662 E.08067
G1 X137.116 Y107.093 E.12829
G1 X137.153 Y106.519 E.17599
G1 X137.303 Y105.965 E.22359
G1 X137.559 Y105.45 E.27128
G1 X137.913 Y104.997 E.31896
G1 X138.35 Y104.623 E.36666
G1 X138.851 Y104.343 E.41425
G1 X139.399 Y104.168 E.46196
G1 X139.966 Y104.105 E.50927
G1 X140.676 Y104.186 E.56853
G1 X141.225 Y104.378 E.61676
G1 X141.719 Y104.673 E.66447
G1 X142.144 Y105.059 E.71208
G1 X142.484 Y105.522 E.75972
G1 X142.726 Y106.044 E.80743
G1 X142.86 Y106.603 E.8551
G1 X142.88 Y107.177 E.90273
G1 X142.786 Y107.744 E.95039
G1 X142.582 Y108.281 E.99803
G1 X142.275 Y108.767 E1.0457
G1 X141.878 Y109.183 E1.09339
G1 X141.406 Y109.511 E1.14105
G1 X140.879 Y109.74 E1.1887
G1 X140.317 Y109.86 E1.23636
G1 X139.742 Y109.866 E1.28405
G1 X139.178 Y109.758 E1.33167
G1 X138.646 Y109.54 E1.37935
G1 X138.168 Y109.221 E1.42701
G1 X137.762 Y108.814 E1.47468
G1 X137.64 Y108.619 E1.49375
G1 X137.357 Y108.09 F9000
G1 X137.087 Y108.853
;TYPE:Perimeter
G1 F1800
G1 X136.874 Y108.525 E1.52618
G1 X136.624 Y107.854 E1.58556
G1 X136.52 Y107.168 E1.6431
G1 X136.554 Y106.475 E1.70064
G1 X136.725 Y105.802 E1.75822
G1 X137.026 Y105.177 E1.81575
G1 X137.444 Y104.623 E1.8733
G1 X137.964 Y104.164 E1.93082
G1 X138.565 Y103.816 E1.98841
G1 X139.222 Y103.595 E2.04589
G1 X139.906 Y103.508 E2.10307
G1 X140.75 Y103.591 E2.1734
G1 X141.43 Y103.814 E2.23275
G1 X142.032 Y104.161 E2.29037
G1 X142.552 Y104.619 E2.34783
G1 X142.972 Y105.172 E2.40542
G1 X143.273 Y105.797 E2.46295
G1 X143.445 Y106.469 E2.52047
G1 X143.48 Y107.162 E2.57801
G1 X143.402 Y107.705 E2.6235
G1 X143.313 Y108.061 E2.65393
G1 X143.102 Y108.585 E2.70077
G1 X142.779 Y109.093 E2.75069
G1 X142.307 Y109.602 E2.80826
G1 X141.744 Y110.007 E2.86577
G1 X141.112 Y110.293 E2.9233
G1 X140.436 Y110.448 E2.98081
G1 X139.742 Y110.466 E3.03838
G1 X139.059 Y110.346 E3.09589
G1 X138.413 Y110.093 E3.15342
G1 X137.83 Y109.717 E3.21095
G1 X137.333 Y109.233 E3.26848
G1 X137.136 Y108.929 E3.29852
G1 X137.136 Y108.929 F9000
G1 X136.566 Y109.172
G1 F1800
G1 X136.362 Y108.838 E3.33098
G1 X136.22 Y108.534 E3.3588
G1 X136.056 Y108.045 E3.40157
G1 X135.925 Y107.242 E3.46904
G1 X135.956 Y106.43 E3.53643
G1 X136.148 Y105.64 E3.60385
G1 X136.492 Y104.903 E3.6713
G1 X136.975 Y104.249 E3.73872
G1 X137.578 Y103.704 E3.80612
G1 X138.278 Y103.29 E3.87356
G1 X139.045 Y103.022 E3.94094
G1 X139.846 Y102.911 E4.008
G1 X140.181 Y102.915 E4.03578
G1 X140.824 Y102.995 E4.08951
G1 X141.636 Y103.251 E4.16011
G1 X142.344 Y103.649 E4.22746
G1 X142.96 Y104.18 E4.2949
G1 X143.459 Y104.822 E4.36233
G1 X143.82 Y105.55 E4.42972
G1 X144.03 Y106.336 E4.49719
G1 X144.08 Y107.147 E4.56457
G1 X143.993 Y107.809 E4.61994
G1 X143.871 Y108.28 E4.66029
G1 X143.635 Y108.86 E4.71222
G1 X143.283 Y109.418 E4.76693
G1 X142.737 Y110.02 E4.83433
G1 X142.082 Y110.503 E4.90182
G1 X141.345 Y110.846 E4.96923
G1 X140.555 Y111.036 E5.03661
G1 X139.742 Y111.066 E5.10408
G1 X138.94 Y110.934 E5.17148
G1 X138.18 Y110.646 E5.23888
G1 X137.492 Y110.212 E5.30634
G1 X136.903 Y109.652 E5.37374
G1 X136.697 Y109.387 E5.40157
G1 X136.613 Y109.249 E5.41497
G1 X136.613 Y109.249 F9000
G1 X136.055 Y109.486
G1 F1800
G1 X135.85 Y109.151 E5.44754
G1 X135.651 Y108.725 E5.48653
G1 X135.487 Y108.236 E5.5293
G1 X135.394 Y107.828 E5.564
G1 X135.33 Y107.317 E5.60671
G1 X135.319 Y106.899 E5.64139
G1 X135.358 Y106.385 E5.68414
G1 X135.431 Y105.973 E5.71884
G1 X135.57 Y105.477 E5.76156
G1 X135.723 Y105.088 E5.79622
G1 X135.958 Y104.629 E5.83898
G1 X136.506 Y103.875 E5.91628
G1 X137.193 Y103.245 E5.99358
G1 X137.991 Y102.763 E6.07089
G1 X138.868 Y102.448 E6.14817
G1 X139.277 Y102.366 E6.18276
G1 X139.786 Y102.315 E6.22518
G1 X140.255 Y102.32 E6.26408
G1 X140.898 Y102.4 E6.31781
G1 X141.357 Y102.511 E6.35697
G1 X141.841 Y102.687 E6.39968
G1 X142.657 Y103.137 E6.47696
G1 X143.368 Y103.74 E6.55427
G1 X143.946 Y104.472 E6.63162
G1 X144.367 Y105.304 E6.70895
G1 X144.54 Y105.874 E6.75835
G1 X144.658 Y106.469 E6.80865
G1 X144.679 Y107.132 E6.86366
G1 X144.648 Y107.549 E6.89834
G1 X144.559 Y108.057 E6.94111
G1 X144.43 Y108.499 E6.97929
G1 X144.168 Y109.135 E7.03633
G1 X143.787 Y109.744 E7.0959
G1 X143.526 Y110.07 E7.13053
G1 X143.166 Y110.439 E7.17328
G1 X142.846 Y110.708 E7.20795
G1 X142.42 Y110.998 E7.25069
G1 X142.053 Y111.198 E7.28535
G1 X141.578 Y111.399 E7.32812
G1 X141.179 Y111.522 E7.36274
G1 X140.674 Y111.624 E7.40546
G1 X140.258 Y111.665 E7.44012
G1 X139.742 Y111.665 E7.48291
G1 X139.326 Y111.624 E7.51757
G1 X138.821 Y111.522 E7.56029
G1 X138.422 Y111.399 E7.59491
G1 X137.947 Y111.198 E7.63768
G1 X137.58 Y110.998 E7.67234
G1 X137.154 Y110.708 E7.71508
G1 X136.834 Y110.439 E7.74975
G1 X136.474 Y110.071 E7.79244
G1 X136.185 Y109.699 E7.8315
G1 X136.102 Y109.563 E7.84471
G1 E7.34471 F240
G92 E0
G1 X136.102 Y109.563 F9000
G1 X163.01 Y106.622
G1 E.5 F240
;TYPE:External perimeter
G1 F1800
G1 X163.03 Y107.188 E.54697
G1 X162.931 Y107.785 E.59715
G1 X162.715 Y108.35 E.64731
G1 X162.392 Y108.861 E.69744
G1 X161.974 Y109.298 E.74759
G1 X161.478 Y109.643 E.79769
G1 X160.923 Y109.883 E.84783
G1 X160.332 Y110.009 E.89794
G1 X159.727 Y110.015 E.94811
G1 X159.134 Y109.901 E.99819
G1 X158.574 Y109.672 E1.04836
G1 X158.071 Y109.336 E1.09852
G1 X157.625 Y108.884 E1.15118
G1 X157.312 Y108.403 E1.19877
G1 X157.086 Y107.842 E1.24893
G1 X156.967 Y107.105 E1.31084
G1 X157.005 Y106.493 E1.36169
G1 X157.163 Y105.91 E1.41178
G1 X157.433 Y105.369 E1.46192
G1 X157.806 Y104.893 E1.51207
G1 X158.265 Y104.499 E1.56223
G1 X158.793 Y104.205 E1.61235
G1 X159.369 Y104.021 E1.66249
G1 X159.966 Y103.955 E1.7123
G1 X160.713 Y104.041 E1.77466
G1 X161.29 Y104.243 E1.82536
G1 X161.809 Y104.553 E1.87549
G1 X162.257 Y104.96 E1.92568
G1 X162.614 Y105.447 E1.97575
G1 X162.868 Y105.996 E2.02591
G1 X162.997 Y106.534 E2.07179
G1 X163.021 Y107.133 F9000
G1 X163.599 Y106.563
;TYPE:Perimeter
G1 F1800
G1 X163.629 Y107.173 E2.12244
G1 X163.521 Y107.889 E2.18249
G1 X163.274 Y108.569 E2.24249
G1 X162.896 Y109.186 E2.30249
G1 X162.404 Y109.717 E2.36252
G1 X161.816 Y110.139 E2.42254
G1 X161.329 Y110.363 E2.46699
G1 X160.985 Y110.489 E2.49737
G1 X160.451 Y110.597 E2.54255
G1 X159.727 Y110.615 E2.60261
G1 X159.015 Y110.489 E2.66257
G1 X158.341 Y110.225 E2.7226
G1 X157.733 Y109.832 E2.78264
G1 X157.155 Y109.257 E2.85025
G1 X156.808 Y108.728 E2.90271
G1 X156.527 Y108.061 E2.96273
G1 X156.42 Y107.501 E3.01001
G1 X156.366 Y106.993 E3.05237
G1 X156.407 Y106.449 E3.09761
G1 X156.585 Y105.747 E3.15767
G1 X156.9 Y105.095 E3.21772
G1 X157.337 Y104.519 E3.27768
G1 X157.879 Y104.04 E3.33766
G1 X158.506 Y103.678 E3.3977
G1 X159.192 Y103.448 E3.4577
G1 X159.906 Y103.358 E3.51738
G1 X160.787 Y103.445 E3.59079
G1 X161.496 Y103.679 E3.6527
G1 X162.122 Y104.041 E3.71267
G1 X162.665 Y104.52 E3.77272
G1 X163.101 Y105.097 E3.83269
G1 X163.415 Y105.749 E3.8927
G1 X163.594 Y106.45 E3.9527
G1 X163.595 Y106.474 E3.95469
G1 X163.595 Y106.474 F9000
G1 X164.19 Y106.504
G1 F1800
G1 X164.229 Y107.158 E4.00902
G1 X164.112 Y107.993 E4.07894
G1 X163.832 Y108.788 E4.14884
G1 X163.4 Y109.512 E4.21875
G1 X162.833 Y110.135 E4.28861
G1 X162.154 Y110.634 E4.35849
G1 X161.562 Y110.916 E4.41287
G1 X161.104 Y111.077 E4.45313
G1 X160.57 Y111.185 E4.49831
G1 X159.727 Y111.215 E4.56826
G1 X158.896 Y111.077 E4.63812
G1 X158.108 Y110.777 E4.70804
G1 X157.395 Y110.327 E4.77796
G1 X156.685 Y109.63 E4.86047
G1 X156.304 Y109.054 E4.91774
G1 X155.969 Y108.28 E4.98768
G1 X155.827 Y107.591 E5.04602
G1 X155.764 Y107.048 E5.09135
G1 X155.808 Y106.404 E5.14488
G1 X156.008 Y105.585 E5.21479
G1 X156.366 Y104.822 E5.28468
G1 X156.868 Y104.145 E5.35457
G1 X157.494 Y103.58 E5.4245
G1 X158.219 Y103.151 E5.49436
G1 X159.015 Y102.875 E5.56423
G1 X159.845 Y102.761 E5.63371
G1 X160.181 Y102.765 E5.66158
G1 X160.861 Y102.85 E5.71841
G1 X161.188 Y102.929 E5.74631
G1 X161.701 Y103.115 E5.79156
G1 X162.435 Y103.529 E5.86144
G1 X163.073 Y104.08 E5.93135
G1 X163.589 Y104.747 E6.00128
G1 X163.962 Y105.502 E6.07111
G1 X164.178 Y106.317 E6.14103
G1 X164.184 Y106.415 E6.14917
G1 X164.184 Y106.415 F9000
G1 X164.781 Y106.445
G1 F1800
G1 X164.829 Y107.143 E6.20719
G1 X164.798 Y107.56 E6.24187
G1 X164.703 Y108.097 E6.28709
G1 X164.391 Y109.007 E6.36687
G1 X163.904 Y109.837 E6.44667
G1 X163.263 Y110.554 E6.52643
G1 X162.492 Y111.13 E6.60624
G1 X161.795 Y111.469 E6.67051
G1 X161.223 Y111.665 E6.72065
G1 X160.689 Y111.773 E6.76583
G1 X160.273 Y111.815 E6.8005
G1 X159.727 Y111.815 E6.84578
G1 X159.311 Y111.773 E6.88045
G1 X158.777 Y111.665 E6.92563
G1 X158.378 Y111.542 E6.96025
G1 X157.875 Y111.33 E7.00552
G1 X157.508 Y111.13 E7.04018
G1 X157.058 Y110.823 E7.08535
G1 X156.737 Y110.554 E7.12008
G1 X156.215 Y110.003 E7.18302
G1 X155.8 Y109.379 E7.24517
G1 X155.583 Y108.939 E7.28585
G1 X155.342 Y108.296 E7.34279
G1 X155.234 Y107.68 E7.39465
G1 X155.164 Y107.043 E7.44779
G1 X155.21 Y106.359 E7.50464
G1 X155.283 Y105.947 E7.53934
G1 X155.43 Y105.422 E7.58455
G1 X155.583 Y105.033 E7.61921
G1 X155.832 Y104.548 E7.66442
G1 X156.059 Y104.197 E7.69908
G1 X156.399 Y103.771 E7.74428
G1 X156.691 Y103.471 E7.779
G1 X157.108 Y103.121 E7.82415
G1 X157.454 Y102.885 E7.85888
G1 X157.932 Y102.625 E7.904
G1 X158.318 Y102.462 E7.93875
G1 X158.839 Y102.301 E7.98397
G1 X159.247 Y102.219 E8.01848
G1 X159.785 Y102.165 E8.06332
G1 X160.255 Y102.17 E8.1023
G1 X160.935 Y102.255 E8.15913
G1 X161.394 Y102.365 E8.19827
G1 X161.906 Y102.552 E8.24347
G1 X162.283 Y102.733 E8.27815
G1 X162.748 Y103.017 E8.32333
G1 X163.481 Y103.641 E8.40316
G1 X164.076 Y104.397 E8.48294
G1 X164.509 Y105.256 E8.56271
G1 X164.763 Y106.183 E8.64242
G1 X164.775 Y106.355 E8.65672
G1 E8.15672 F240
G92 E0
G1 X164.775 Y106.355 F9000
G1 X162.877 Y86.033
G1 E.5 F240
;TYPE:External perimeter
G1 F1800
G1 X163.009 Y86.584 E.54699
G1 X163.03 Y87.188 E.59711
G1 X162.931 Y87.785 E.64729
G1 X162.688 Y88.403 E.70236
G1 X162.392 Y88.861 E.74758
G1 X161.974 Y89.298 E.79773
G1 X161.478 Y89.643 E.84783
G1 X160.923 Y89.883 E.89797
G1 X160.332 Y90.009 E.94808
G1 X159.727 Y90.015 E.99825
G1 X159.134 Y89.901 E1.04833
G1 X158.574 Y89.672 E1.0985
G1 X158.071 Y89.336 E1.14866
G1 X157.645 Y88.907 E1.1988
G1 X157.312 Y88.403 E1.24889
G1 X157.049 Y87.703 E1.3109
G1 X156.966 Y87.097 E1.36162
G1 X157.005 Y86.493 E1.41181
G1 X157.163 Y85.91 E1.4619
G1 X157.433 Y85.369 E1.51204
G1 X157.806 Y84.893 E1.56219
G1 X158.265 Y84.499 E1.61235
G1 X158.793 Y84.205 E1.66247
G1 X159.369 Y84.021 E1.71261
G1 X159.966 Y83.955 E1.76242
G1 X160.713 Y84.041 E1.82478
G1 X161.29 Y84.243 E1.87548
G1 X161.809 Y84.553 E1.92561
G1 X162.257 Y84.96 E1.9758
G1 X162.614 Y85.447 E2.02587
G1 X162.847 Y85.949 E2.07176
G1 X162.989 Y86.532 F9000
G1 X163.443 Y85.859
;TYPE:Perimeter
G1 F1800
G1 X163.594 Y86.45 E2.12234
G1 X163.629 Y87.173 E2.18237
G1 X163.521 Y87.889 E2.24242
G1 X163.274 Y88.569 E2.30242
G1 X163.192 Y88.728 E2.31726
G1 X162.896 Y89.186 E2.36248
G1 X162.404 Y89.717 E2.42251
G1 X161.816 Y90.139 E2.48253
G1 X161.156 Y90.436 E2.54255
G1 X160.451 Y90.597 E2.60252
G1 X159.727 Y90.615 E2.66258
G1 X159.015 Y90.489 E2.72254
G1 X158.341 Y90.225 E2.78257
G1 X157.733 Y89.832 E2.84261
G1 X157.215 Y89.326 E2.90266
G1 X156.808 Y88.728 E2.96265
G1 X156.486 Y87.909 E3.03563
G1 X156.37 Y87.171 E3.09758
G1 X156.407 Y86.449 E3.15753
G1 X156.585 Y85.747 E3.21759
G1 X156.9 Y85.095 E3.27764
G1 X157.337 Y84.519 E3.3376
G1 X157.879 Y84.04 E3.39758
G1 X158.506 Y83.678 E3.45762
G1 X159.192 Y83.448 E3.51762
G1 X159.906 Y83.358 E3.5773
G1 X160.787 Y83.445 E3.65071
G1 X161.496 Y83.679 E3.71262
G1 X162.122 Y84.041 E3.77259
G1 X162.665 Y84.52 E3.83264
G1 X163.101 Y85.097 E3.89261
G1 X163.415 Y85.749 E3.95262
G1 X163.421 Y85.771 E3.95451
G1 X163.421 Y85.771 F9000
G1 X164.01 Y85.683
G1 F1800
G1 X164.178 Y86.317 E4.0089
G1 X164.229 Y87.158 E4.07877
G1 X164.112 Y87.993 E4.14869
G1 X163.832 Y88.788 E4.21859
G1 X163.696 Y89.054 E4.24336
G1 X163.4 Y89.512 E4.28858
G1 X162.833 Y90.135 E4.35844
G1 X162.154 Y90.634 E4.42832
G1 X161.389 Y90.989 E4.49826
G1 X160.57 Y91.185 E4.5681
G1 X159.996 Y91.215 E4.61577
G1 X159.476 Y91.194 E4.65893
G1 X158.896 Y91.077 E4.708
G1 X158.108 Y90.777 E4.77792
G1 X157.395 Y90.327 E4.84784
G1 X156.786 Y89.745 E4.9177
G1 X156.304 Y89.054 E4.98757
G1 X156.155 Y88.753 E5.01542
G1 X155.922 Y88.114 E5.07182
G1 X155.843 Y87.787 E5.09972
G1 X155.775 Y87.246 E5.14494
G1 X155.808 Y86.404 E5.21482
G1 X156.008 Y85.585 E5.28473
G1 X156.366 Y84.822 E5.35462
G1 X156.868 Y84.145 E5.42451
G1 X157.494 Y83.58 E5.49444
G1 X158.219 Y83.151 E5.5643
G1 X159.016 Y82.875 E5.63424
G1 X159.845 Y82.761 E5.70363
G1 X160.181 Y82.765 E5.7315
G1 X160.861 Y82.85 E5.78833
G1 X161.701 Y83.115 E5.86137
G1 X162.435 Y83.529 E5.93125
G1 X163.073 Y84.08 E6.00116
G1 X163.589 Y84.747 E6.07109
G1 X163.962 Y85.502 E6.14092
G1 X163.987 Y85.597 E6.14907
G1 X163.987 Y85.597 F9000
G1 X164.578 Y85.508
G1 F1800
G1 X164.763 Y86.183 E6.20711
G1 X164.829 Y87.143 E6.28691
G1 X164.798 Y87.56 E6.32159
G1 X164.703 Y88.097 E6.36681
G1 X164.391 Y89.007 E6.44659
G1 X164.2 Y89.379 E6.48127
G1 X163.904 Y89.837 E6.52649
G1 X163.263 Y90.554 E6.60625
G1 X162.492 Y91.13 E6.68606
G1 X161.622 Y91.542 E6.76589
G1 X161.223 Y91.665 E6.80051
G1 X160.689 Y91.773 E6.84569
G1 X159.996 Y91.815 E6.90326
G1 X159.44 Y91.795 E6.9494
G1 X158.777 Y91.665 E7.00543
G1 X158.378 Y91.542 E7.04005
G1 X157.875 Y91.33 E7.08532
G1 X157.058 Y90.823 E7.16506
G1 X156.357 Y90.164 E7.24485
G1 X155.8 Y89.379 E7.32467
G1 X155.591 Y88.958 E7.36365
G1 X155.358 Y88.319 E7.42005
G1 X155.248 Y87.862 E7.45903
G1 X155.18 Y87.32 E7.50433
G1 X155.17 Y86.903 E7.53892
G1 X155.21 Y86.359 E7.58415
G1 X155.43 Y85.422 E7.66397
G1 X155.832 Y84.548 E7.74375
G1 X156.399 Y83.771 E7.82352
G1 X156.691 Y83.471 E7.85824
G1 X157.108 Y83.121 E7.90339
G1 X157.932 Y82.625 E7.98315
G1 X158.839 Y82.301 E8.06302
G1 X159.247 Y82.219 E8.09753
G1 X159.785 Y82.165 E8.14237
G1 X160.255 Y82.17 E8.18135
G1 X160.935 Y82.255 E8.23818
G1 X161.394 Y82.365 E8.27732
G1 X161.906 Y82.552 E8.32252
G1 X162.748 Y83.017 E8.40228
G1 X163.081 Y83.27 E8.43696
G1 X163.481 Y83.641 E8.4822
G1 X163.852 Y84.085 E8.53018
G1 X164.285 Y84.759 E8.59661
G1 X164.509 Y85.256 E8.64182
G1 X164.554 Y85.421 E8.656
G1 E8.156 F240
G92 E0
G1 X164.554 Y85.421 F9000
G1 X112.722 Y107.914
G1 E.5 F240
;TYPE:External perimeter
G1 F1800
G1 X112.582 Y108.281 E.53257
G1 X112.275 Y108.767 E.58024
G1 X111.878 Y109.183 E.62793
G1 X111.406 Y109.511 E.67559
G1 X110.879 Y109.74 E.72324
G1 X110.317 Y109.86 E.7709
G1 X109.742 Y109.866 E.81859
G1 X109.178 Y109.758 E.86621
G1 X108.646 Y109.54 E.91389
G1 X108.168 Y109.221 E.96155
G1 X107.762 Y108.814 E1.00922
G1 X107.386 Y108.212 E1.06808
