; generated by PrusaSlicer 2.8.0+MacOS-arm64 on 2024-09-06 at 09:38:22 UTC


;
;

;
;
; 

; external perimeters extrusion width = 0.68mm
; perimeters extrusion width = 0.68mm
; infill extrusion width = 0.68mm
; solid infill extrusion width = 0.68mm
; top infill extrusion width = 0.60mm
; support material extrusion width = 0.60mm


EXCLUDE_OBJECT_DEFINE NAME='h2_extruder_bracket' CENTER=124.909,125.000 POLYGON=[[152.936,105.178],[152.936,144.822],[149.758,148.000],[97.094,148.000],[97.094,102.000],[149.758,102.000]]

;TYPE:Custom
START_PRINT BED_TEMP=75 HOTEND_TEMP=240 FILAMENT_TYPE=PET EXTRUSION_MULTIPLIER=0.88 PERIMETER_SPEED=80
G21 ; set units to millimeters
G90 ; use absolute coordinates
M82 ; use absolute distances for extrusion
G92 E0
; Filament gcode
; ########################### NOTE OFFSET CHANGES ####################################
; Prevents PETG buildup on nozzle.
; SET_GCODE_OFFSET Z=0.06
; ####################################################################################
M107
;LAYER_CHANGE
;Z:0.35
;HEIGHT:0.35
G1 E-.5 F240
G1 Z.35 F9000
EXCLUDE_OBJECT_START NAME='h2_extruder_bracket'
G92 E0
G1 X127.277 Y104.606
G1 E.5 F240
G92 E0
;TYPE:External perimeter
;WIDTH:0.675
G1 F1800
G1 X127.381 Y104.793 E.01644
G1 X127.498 Y105.161 E.0461
G1 X127.54 Y105.544 E.0757
G1 X127.506 Y105.928 E.10531
G1 X127.33 Y106.426 E.14588
G1 X127.129 Y106.745 E.17484
G1 X126.969 Y106.936 E.19398
G1 X126.532 Y107.254 E.2355
G1 X126.329 Y107.358 E.25302
G1 X125.938 Y107.468 E.28422
G1 X125.553 Y107.495 E.31387
G1 X124.992 Y107.397 E.35762
G1 X124.569 Y107.199 E.3935
G1 X124.263 Y106.959 E.42337
G1 X123.996 Y106.635 E.45562
G1 X123.852 Y106.386 E.47772
G1 X123.71 Y105.964 E.51192
G1 X123.668 Y105.581 E.54152
G1 X123.703 Y105.197 E.57114
G1 X123.813 Y104.827 E.60079
G1 X123.994 Y104.487 E.63038
G1 X124.239 Y104.189 E.66001
G1 X124.538 Y103.946 E.68961
G1 X124.88 Y103.767 E.71926
G1 X125.249 Y103.659 E.74879
G1 X125.653 Y103.629 E.77991
G1 X126.216 Y103.728 E.82382
G1 X126.639 Y103.926 E.8597
G1 X126.943 Y104.163 E.88931
G1 X127.194 Y104.456 E.91895
G1 X127.233 Y104.527 E.92517
G1 X127.465 Y105.081 F9000
G1 E.42517 F240
G92 E0
G1 X115.045 Y104.522 F9000
G1 E.5 F240
G1 F1800
G1 X115.196 Y104.793 E.52383
G1 X115.313 Y105.161 E.55349
G1 X115.355 Y105.544 E.58309
G1 X115.303 Y105.992 E.61773
G1 X115.124 Y106.466 E.65665
G1 X114.826 Y106.893 E.69665
G1 X114.485 Y107.179 E.73084
G1 X114.144 Y107.358 E.76042
G1 X113.753 Y107.468 E.79162
G1 X113.389 Y107.498 E.81968
G1 X113.006 Y107.454 E.84929
G1 X112.64 Y107.335 E.87885
G1 X112.304 Y107.145 E.9085
G1 X112.012 Y106.893 E.93813
G1 X111.722 Y106.481 E.97683
G1 X111.583 Y106.16 E1.0037
G1 X111.507 Y105.85 E1.02822
G1 X111.506 Y105.278 E1.07216
G1 X111.628 Y104.827 E1.10805
G1 X111.809 Y104.487 E1.13764
G1 X112.054 Y104.189 E1.16727
G1 X112.353 Y103.946 E1.19687
G1 X112.695 Y103.767 E1.22652
G1 X113.065 Y103.659 E1.25613
G1 X113.468 Y103.629 E1.28717
G1 X114.031 Y103.728 E1.33108
G1 X114.454 Y103.926 E1.36696
G1 X114.758 Y104.163 E1.39657
G1 X114.999 Y104.445 E1.42507
G1 X115.248 Y104.991 F9000
G1 E.92507 F240
G92 E0
G1 X140.18 Y108.76 F9000
G1 E.5 F240
G1 F1800
G1 X140.267 Y108.902 E.51279
G1 X140.273 Y108.962 E.51742
G1 X140.273 Y141.038 E2.98139
G1 X140.203 Y141.231 E2.99716
G1 X140.025 Y141.333 E3.01292
G1 X139.973 Y141.338 E3.01693
G1 X129.305 Y141.329 E3.83641
G1 X128.942 Y141.265 E3.86472
G1 X128.562 Y141.121 E3.89594
G1 X127.696 Y140.578 E3.97446
G1 X127.102 Y140.313 E4.02442
G1 X126.252 Y140.099 E4.09175
G1 X125.604 Y140.051 E4.14166
G1 X124.952 Y140.099 E4.19188
G1 X124.107 Y140.313 E4.25884
G1 X123.512 Y140.578 E4.30887
G1 X122.646 Y141.121 E4.38739
G1 X122.288 Y141.258 E4.41684
G1 X121.776 Y141.334 E4.4566
G1 X117.276 Y141.336 E4.80228
G1 X116.814 Y141.258 E4.83827
G1 X116.307 Y141.045 E4.88051
G1 X115.433 Y140.501 E4.95959
G1 X114.787 Y140.219 E5.01374
G1 X113.949 Y140.033 E5.07968
G1 X113.315 Y140.002 E5.12844
G1 X112.461 Y140.106 E5.19453
G1 X111.85 Y140.289 E5.24352
G1 X111.268 Y140.561 E5.29287
G1 X110.436 Y141.1 E5.36902
G1 X110.093 Y141.24 E5.39748
G1 X109.53 Y141.333 E5.44131
G1 X105.05 Y141.337 E5.78545
G1 X104.849 Y141.26 E5.80198
G1 X104.754 Y141.089 E5.81701
G1 X104.75 Y141.038 E5.82094
G1 X104.757 Y108.899 E8.28975
G1 X104.849 Y108.74 E8.30386
G1 X105.05 Y108.662 E8.32042
G1 X109.514 Y108.662 E8.66333
G1 X109.978 Y108.731 E8.69936
G1 X110.437 Y108.883 E8.7365
G1 X111.308 Y109.436 E8.81575
G1 X111.907 Y109.707 E8.86625
G1 X112.765 Y109.925 E8.93425
G1 X113.419 Y109.974 E8.98463
G1 X114.077 Y109.924 E9.03532
G1 X114.931 Y109.707 E9.10301
G1 X115.53 Y109.436 E9.15351
G1 X116.401 Y108.883 E9.23276
G1 X116.763 Y108.744 E9.26255
G1 X117.279 Y108.666 E9.30264
G1 X121.786 Y108.665 E9.64885
G1 X122.27 Y108.748 E9.68657
G1 X122.624 Y108.885 E9.71573
G1 X123.493 Y109.436 E9.79477
G1 X124.092 Y109.707 E9.84527
G1 X124.95 Y109.925 E9.91327
G1 X125.604 Y109.974 E9.96365
G1 X126.262 Y109.924 E10.01434
G1 X127.116 Y109.707 E10.08203
G1 X127.715 Y109.436 E10.13253
G1 X128.587 Y108.883 E10.21185
G1 X129.024 Y108.721 E10.24765
G1 X129.585 Y108.671 E10.29091
G1 X139.973 Y108.662 E11.08888
G1 X140.111 Y108.71 E11.1001
G1 X140.262 Y109.291 F9000
G1 X140.599 Y108.334
;TYPE:Perimeter
G1 F1800
G1 X140.662 Y108.383 E11.10623
G1 X140.819 Y108.653 E11.13022
G1 X140.873 Y108.962 E11.15432
G1 X140.873 Y141.038 E13.61829
G1 X140.819 Y141.347 E13.64239
G1 X140.662 Y141.616 E13.66632
G1 X140.371 Y141.845 E13.69477
G1 X140.129 Y141.924 E13.71433
G1 X139.973 Y141.937 E13.72635
G1 X129.304 Y141.929 E14.54591
G1 X128.743 Y141.831 E14.58966
G1 X128.255 Y141.636 E14.63003
G1 X127.372 Y141.091 E14.70974
G1 X126.905 Y140.882 E14.74904
G1 X126.156 Y140.693 E14.80838
G1 X125.604 Y140.652 E14.8509
G1 X125.049 Y140.694 E14.89366
G1 X124.304 Y140.882 E14.95268
G1 X123.795 Y141.109 E14.99549
G1 X122.965 Y141.629 E15.07073
G1 X122.424 Y141.843 E15.11542
G1 X121.865 Y141.927 E15.15884
G1 X117.275 Y141.935 E15.51143
G1 X116.747 Y141.866 E15.55233
G1 X116.271 Y141.68 E15.59159
G1 X115.82 Y141.447 E15.63058
G1 X115.284 Y141.091 E15.68001
G1 X114.6 Y140.792 E15.73735
G1 X113.869 Y140.63 E15.79487
G1 X113.337 Y140.604 E15.83579
G1 X112.584 Y140.696 E15.89406
G1 X112.064 Y140.851 E15.93574
G1 X111.559 Y141.087 E15.97856
G1 X110.762 Y141.604 E16.05154
G1 X110.242 Y141.822 E16.09485
G1 X109.628 Y141.925 E16.14267
G1 X105.05 Y141.937 E16.49434
G1 X104.823 Y141.908 E16.51192
G1 X104.617 Y141.827 E16.52892
G1 X104.32 Y141.563 E16.55944
G1 X104.164 Y141.193 E16.59029
G1 X104.15 Y141.038 E16.60225
G1 X104.15 Y108.962 E19.06622
G1 X104.171 Y108.771 E19.08098
G1 X104.32 Y108.437 E19.10907
G1 X104.617 Y108.173 E19.13959
G1 X104.894 Y108.076 E19.16214
G1 X105.05 Y108.063 E19.17416
G1 X109.514 Y108.063 E19.51707
G1 X110.04 Y108.122 E19.55773
G1 X110.541 Y108.277 E19.59801
G1 X111.165 Y108.635 E19.65327
G1 X111.594 Y108.907 E19.69229
G1 X112.106 Y109.138 E19.73544
G1 X112.862 Y109.331 E19.79538
G1 X113.419 Y109.372 E19.83828
G1 X113.98 Y109.33 E19.88149
G1 X114.732 Y109.138 E19.94111
G1 X115.245 Y108.907 E19.98433
G1 X116.08 Y108.377 E20.0603
G1 X116.607 Y108.163 E20.10399
G1 X117.19 Y108.073 E20.1493
G1 X121.787 Y108.065 E20.50243
G1 X122.302 Y108.133 E20.54233
G1 X122.781 Y108.295 E20.58117
G1 X123.821 Y108.926 E20.67461
G1 X124.291 Y109.138 E20.71422
G1 X125.047 Y109.331 E20.77416
G1 X125.604 Y109.372 E20.81706
G1 X126.165 Y109.33 E20.86027
G1 X126.917 Y109.138 E20.91989
G1 X127.43 Y108.907 E20.96311
G1 X128.265 Y108.377 E21.03908
G1 X128.769 Y108.171 E21.0809
G1 X129.304 Y108.072 E21.12269
G1 X139.973 Y108.063 E21.94225
G1 X140.371 Y108.155 E21.97363
G1 X140.528 Y108.278 E21.98895
G1 E21.48895 F240
G92 E0
G1 X140.528 Y108.278 F9000
G1 X115.13 Y145.299
G1 E.5 F240
;TYPE:External perimeter
G1 F1800
G1 X115.029 Y145.488 E.51646
G1 X114.784 Y145.786 E.54609
G1 X114.485 Y146.029 E.57569
G1 X114.144 Y146.208 E.60527
G1 X113.774 Y146.316 E.63488
G1 X113.389 Y146.349 E.66456
G1 X113.006 Y146.304 E.69418
G1 X112.64 Y146.185 E.72374
G1 X112.304 Y145.995 E.75339
G1 X112.001 Y145.727 E.78446
G1 X111.679 Y145.255 E.82835
G1 X111.525 Y144.814 E.86423
G1 X111.483 Y144.431 E.89383
G1 X111.522 Y144.032 E.92463
G1 X111.628 Y143.677 E.95309
G1 X111.728 Y143.481 E.96999
G1 X112.033 Y143.058 E1.01005
G1 X112.462 Y142.736 E1.05125
G1 X112.695 Y142.617 E1.07135
G1 X113.065 Y142.509 E1.10096
G1 X113.468 Y142.479 E1.132
G1 X114.031 Y142.578 E1.17591
G1 X114.454 Y142.776 E1.21179
G1 X114.833 Y143.098 E1.24999
G1 X115.02 Y143.326 E1.27264
G1 X115.23 Y143.743 E1.30851
G1 X115.313 Y144.011 E1.33006
G1 X115.355 Y144.394 E1.35966
G1 X115.321 Y144.778 E1.38927
G1 X115.211 Y145.147 E1.41885
G1 X115.172 Y145.219 E1.42514
G1 X114.833 Y145.714 F9000
G1 E.92514 F240
G92 E0
G1 X124.605 Y142.811 F9000
G1 E.5 F240
G1 F1800
G1 X124.88 Y142.667 E.52385
G1 X125.275 Y142.556 E.55537
G1 X125.653 Y142.529 E.58448
G1 X126.216 Y142.628 E.62839
G1 X126.639 Y142.826 E.66427
G1 X126.943 Y143.063 E.69388
G1 X127.196 Y143.36 E.72385
G1 X127.381 Y143.693 E.75311
G1 X127.498 Y144.061 E.78277
G1 X127.54 Y144.444 E.81237
G1 X127.506 Y144.828 E.84198
G1 X127.396 Y145.197 E.87156
G1 X127.214 Y145.538 E.90125
G1 X126.969 Y145.836 E.93088
G1 X126.67 Y146.079 E.96048
G1 X126.329 Y146.258 E.99006
G1 X125.958 Y146.366 E1.01974
G1 X125.574 Y146.399 E1.04935
G1 X125.191 Y146.354 E1.07897
G1 X124.825 Y146.235 E1.10853
G1 X124.489 Y146.045 E1.13818
G1 X124.197 Y145.793 E1.16781
G1 X123.961 Y145.488 E1.19743
G1 X123.791 Y145.142 E1.22704
G1 X123.691 Y144.747 E1.25834
G1 X123.703 Y144.097 E1.30828
G1 X123.813 Y143.727 E1.33793
G1 X123.994 Y143.387 E1.36752
G1 X124.239 Y143.089 E1.39715
G1 X124.527 Y142.855 E1.42566
G1 X125.079 Y142.622 F9000
G1 E.92566 F240
G92 E0
G1 X97.431 Y102.337 F9000
G1 E.5 F240
G1 F1800
G1 X149.618 Y102.337 E4.50883
G1 X152.598 Y105.318 E4.83262
G1 X152.598 Y107.425 E4.99447
G1 X152.598 Y144.682 E7.85643
G1 X149.618 Y147.662 E8.18016
G1 X97.431 Y147.662 E12.18899
G1 X97.431 Y102.427 E15.66379
G1 X98.024 Y102.338 F9000
G1 X98.031 Y102.937
;TYPE:Perimeter
G1 F1800
G1 X112.27 Y102.937 E16.75758
;WIDTH:0.719792
G1 X112.489 Y102.96 E16.77576
;WIDTH:0.764584
G1 X112.708 Y102.982 E16.79519
;WIDTH:0.809377
G1 X112.928 Y103.005 E16.81599
G1 X112.789 Y103.062 E16.83012
;WIDTH:0.775569
G1 X112.651 Y103.12 E16.84355
;WIDTH:0.741761
G1 X112.513 Y103.178 E16.85633
;WIDTH:0.707953
G1 X112.066 Y103.419 E16.89748
;WIDTH:0.675
G1 X111.668 Y103.729 E16.93623
G1 X111.34 Y104.113 E16.97502
G1 X111.094 Y104.554 E17.01381
G1 X110.94 Y105.034 E17.05253
G1 X110.907 Y105.497 E17.08819
G1 X110.941 Y106.094 E17.13412
G1 X111.094 Y106.571 E17.1726
G1 X111.34 Y107.012 E17.21139
G1 X111.668 Y107.395 E17.25013
G1 X112.066 Y107.706 E17.28893
G1 X112.518 Y107.931 E17.32772
G1 X113.005 Y108.063 E17.36648
G1 X113.509 Y108.095 E17.40527
G1 X114.009 Y108.027 E17.44403
G1 X114.486 Y107.862 E17.4828
G1 X114.92 Y107.605 E17.52155
G1 X115.295 Y107.267 E17.56033
G1 X115.596 Y106.861 E17.59915
G1 X115.81 Y106.404 E17.63791
G1 X115.929 Y105.914 E17.67664
G1 X115.949 Y105.41 E17.71539
G1 X115.869 Y104.911 E17.75421
G1 X115.691 Y104.439 E17.79296
G1 X115.424 Y104.011 E17.83171
G1 X115.076 Y103.644 E17.87056
G1 X114.664 Y103.354 E17.90926
;WIDTH:0.715222
G1 X114.561 Y103.291 E17.91916
;WIDTH:0.755445
G1 X114.459 Y103.228 E17.9296
;WIDTH:0.795667
G1 X114.357 Y103.164 E17.94071
;WIDTH:0.83589
G1 X114.254 Y103.101 E17.95247
;WIDTH:0.876113
G1 X114.152 Y103.038 E17.96477
G1 X114.273 Y103.018 E17.97735
;WIDTH:0.83589
G1 X114.395 Y102.998 E17.98939
;WIDTH:0.795667
G1 X114.516 Y102.978 E18.00071
;WIDTH:0.755445
G1 X114.637 Y102.957 E18.01141
;WIDTH:0.715222
G1 X114.759 Y102.937 E18.02154
;WIDTH:0.675
G1 X124.455 Y102.937 E18.76635
;WIDTH:0.719793
G1 X124.674 Y102.96 E18.78453
;WIDTH:0.764586
G1 X124.893 Y102.982 E18.80396
;WIDTH:0.809379
G1 X125.112 Y103.005 E18.82466
G1 X124.974 Y103.062 E18.8387
;WIDTH:0.775571
G1 X124.836 Y103.12 E18.85213
;WIDTH:0.741763
G1 X124.698 Y103.178 E18.86491
;WIDTH:0.707955
G1 X124.251 Y103.419 E18.90606
;WIDTH:0.675
G1 X123.853 Y103.729 E18.94481
G1 X123.525 Y104.113 E18.9836
G1 X123.279 Y104.554 E19.02239
G1 X123.125 Y105.034 E19.06111
G1 X123.07 Y105.536 E19.0999
G1 X123.115 Y106.039 E19.13869
G1 X123.258 Y106.522 E19.17738
G1 X123.495 Y106.968 E19.21618
G1 X123.815 Y107.358 E19.25493
G1 X124.268 Y107.72 E19.29947
G1 X124.726 Y107.943 E19.3386
G1 X125.264 Y108.054 E19.3808
G1 X125.694 Y108.095 E19.41398
G1 X126.194 Y108.027 E19.45274
G1 X126.671 Y107.862 E19.49151
G1 X127.105 Y107.605 E19.53026
G1 X127.48 Y107.267 E19.56904
G1 X127.781 Y106.861 E19.60786
G1 X127.995 Y106.404 E19.64662
G1 X128.114 Y105.914 E19.68535
G1 X128.134 Y105.41 E19.7241
G1 X128.054 Y104.911 E19.76292
G1 X127.876 Y104.439 E19.80167
G1 X127.609 Y104.011 E19.84042
G1 X127.261 Y103.644 E19.87927
G1 X126.849 Y103.354 E19.91797
;WIDTH:0.715223
G1 X126.746 Y103.291 E19.92787
;WIDTH:0.755446
G1 X126.644 Y103.228 E19.93831
;WIDTH:0.795669
G1 X126.542 Y103.164 E19.94942
;WIDTH:0.835892
G1 X126.439 Y103.101 E19.96118
;WIDTH:0.876115
G1 X126.337 Y103.038 E19.97348
G1 X126.458 Y103.018 E19.98606
;WIDTH:0.835892
G1 X126.58 Y102.998 E19.9981
;WIDTH:0.795669
G1 X126.701 Y102.978 E20.00942
;WIDTH:0.755446
G1 X126.822 Y102.957 E20.02012
;WIDTH:0.715223
G1 X126.944 Y102.937 E20.03025
;WIDTH:0.675
G1 X149.37 Y102.937 E21.75294
G1 X151.999 Y105.566 E22.03854
G1 X151.999 Y107.425 E22.18134
G1 X151.999 Y144.434 E25.02425
G1 X149.37 Y147.063 E25.30985
G1 X126.747 Y147.063 E27.04767
;WIDTH:0.711511
G1 X126.529 Y147.044 E27.0655
;WIDTH:0.748022
G1 X126.311 Y147.026 E27.08435
;WIDTH:0.784533
G1 X126.094 Y147.008 E27.10413
G1 X126.302 Y146.926 E27.12444
;WIDTH:0.743335
G1 X126.509 Y146.844 E27.14349
;WIDTH:0.702137
G1 X126.957 Y146.606 E27.18422
;WIDTH:0.675
G1 X127.355 Y146.295 E27.22302
G1 X127.683 Y145.912 E27.26176
G1 X127.929 Y145.471 E27.30055
G1 X128.083 Y144.99 E27.33935
G1 X128.139 Y144.489 E27.37807
G1 X128.094 Y143.986 E27.41686
G1 X127.95 Y143.502 E27.45565
G1 X127.713 Y143.056 E27.49445
G1 X127.384 Y142.657 E27.53418
G1 X126.936 Y142.302 E27.57809
G1 X126.476 Y142.079 E27.61736
G1 X125.941 Y141.971 E27.65929
G1 X125.511 Y141.929 E27.69248
G1 X125.014 Y141.997 E27.73101
G1 X124.538 Y142.163 E27.76973
G1 X124.103 Y142.42 E27.80854
G1 X123.728 Y142.758 E27.84732
G1 X123.428 Y143.163 E27.88604
G1 X123.213 Y143.62 E27.92484
G1 X123.091 Y144.178 E27.96872
G1 X123.125 Y144.991 E28.03123
G1 X123.279 Y145.471 E28.06995
G1 X123.525 Y145.912 E28.10874
G1 X123.853 Y146.295 E28.14748
G1 X124.251 Y146.606 E28.18628
;WIDTH:0.688011
G1 X124.701 Y146.838 E28.22601
;WIDTH:0.731451
G1 X124.943 Y146.925 E28.24762
;WIDTH:0.774891
G1 X125.185 Y147.013 E28.27069
G1 X124.994 Y147.029 E28.28787
;WIDTH:0.742919
G1 X124.727 Y147.046 E28.31075
;WIDTH:0.708959
G1 X124.461 Y147.063 E28.33238
;WIDTH:0.675
G1 X114.575 Y147.063 E29.09179
;WIDTH:0.714979
G1 X114.409 Y147.043 E29.10549
;WIDTH:0.754959
G1 X114.244 Y147.023 E29.11996
;WIDTH:0.794939
G1 X114.078 Y147.003 E29.13537
;WIDTH:0.834919
G1 X113.913 Y146.983 E29.15154
G1 X114.028 Y146.938 E29.16355
;WIDTH:0.801671
G1 X114.18 Y146.863 E29.17932
;WIDTH:0.759447
G1 X114.333 Y146.787 E29.19429
;WIDTH:0.717223
G1 X114.486 Y146.712 E29.2083
;WIDTH:0.675
G1 X114.92 Y146.455 E29.24705
G1 X115.295 Y146.117 E29.28583
G1 X115.596 Y145.711 E29.32465
G1 X115.81 Y145.254 E29.36341
G1 X115.929 Y144.764 E29.40214
G1 X115.949 Y144.26 E29.44089
G1 X115.869 Y143.761 E29.47971
G1 X115.691 Y143.289 E29.51846
G1 X115.424 Y142.861 E29.55721
G1 X115.076 Y142.494 E29.59606
G1 X114.664 Y142.204 E29.63476
G1 X114.174 Y141.995 E29.67568
G1 X113.672 Y141.906 E29.71484
G1 X113.326 Y141.879 E29.7415
G1 X112.829 Y141.947 E29.78003
G1 X112.353 Y142.113 E29.81875
G1 X111.918 Y142.37 E29.85756
G1 X111.543 Y142.708 E29.89634
G1 X111.243 Y143.113 E29.93506
G1 X111.028 Y143.57 E29.97386
G1 X110.909 Y144.061 E30.01267
G1 X110.889 Y144.565 E30.05142
G1 X110.969 Y145.063 E30.09017
G1 X111.183 Y145.594 E30.13415
G1 X111.671 Y146.248 E30.19683
G1 X112.066 Y146.556 E30.23531
;WIDTH:0.693281
G1 X112.515 Y146.79 E30.27539
