; generated by PrusaSlicer 2.8.1+MacOS-arm64 on 2024-10-14 at 08:29:46 UTC


;
;

;
;
; 

; external perimeters extrusion width = 0.68mm
; perimeters extrusion width = 0.68mm
; infill extrusion width = 0.68mm
; solid infill extrusion width = 0.68mm
; top infill extrusion width = 0.60mm


EXCLUDE_OBJECT_DEFINE NAME='box_retraction_test' CENTER=125.000,125.000 POLYGON=[[175.500,175.500],[74.500,175.500],[74.500,74.500],[175.500,74.500]]

;TYPE:Custom
START_PRINT BED_TEMP=70 HOTEND_TEMP=230 FILAMENT_TYPE=PET EXTRUSION_MULTIPLIER=0.95 PERIMETER_SPEED=70
G21 ; set units to millimeters
G90 ; use absolute coordinates
M82 ; use absolute distances for extrusion
G92 E0
; Filament gcode
; ########################### NOTE OFFSET CHANGES ####################################
; Prevents PETG buildup on nozzle.
; SET_GCODE_OFFSET Z=0.06
; ####################################################################################
M107
;LAYER_CHANGE
;Z:0.35
;HEIGHT:0.35
G1 E-.5 F240
G1 Z.35 F9000
EXCLUDE_OBJECT_START NAME='box_retraction_test'
G92 E0
G1 X175.214 Y74.786
G1 E.5 F240
;TYPE:External perimeter
;WIDTH:0.585111
G1 F1787
G1 X175.25 Y74.962 E.51267
G1 X175.25 Y175.038 E7.56814
G1 X175.214 Y175.214 E7.58081
G1 X175.038 Y175.25 E7.59348
G1 X74.962 Y175.25 E14.64895
G1 X74.786 Y175.214 E14.66162
G1 X74.75 Y175.038 E14.67429
G1 X74.75 Y74.962 E21.72976
G1 X74.786 Y74.786 E21.74243
G1 X74.962 Y74.75 E21.7551
G1 X175.038 Y74.75 E28.81057
G1 X175.125 Y74.768 E28.81683
G1 X175.245 Y75.356 F9000
;LAYER_CHANGE
;Z:0.65
;HEIGHT:0.3
G1 Z.65 F9000
G1 X175.213 Y74.787
;WIDTH:0.574741
G1 F1606
G1 X175.25 Y74.968 E28.828
;WIDTH:0.574381
G1 X175.25 Y175.032 E34.87482
;WIDTH:0.574741
G1 X175.213 Y175.213 E34.88599
G1 X175.032 Y175.25 E34.89716
;WIDTH:0.574381
G1 X74.968 Y175.25 E40.94398
;WIDTH:0.574739
G1 X74.787 Y175.213 E40.95515
G1 X74.75 Y175.032 E40.96632
;WIDTH:0.574381
G1 X74.75 Y74.968 E47.01314
;WIDTH:0.574739
G1 X74.787 Y74.787 E47.02431
G1 X74.968 Y74.75 E47.03548
;WIDTH:0.574381
G1 X175.032 Y74.75 E53.0823
;WIDTH:0.574741
G1 X175.125 Y74.769 E53.08804
G1 X175.245 Y75.357 F9000
;LAYER_CHANGE
;Z:0.95
;HEIGHT:0.3
G1 Z.95 F9000
G1 X175.213 Y74.787
G1 F1606
G1 X175.25 Y74.968 E53.09921
;WIDTH:0.574381
G1 X175.25 Y175.032 E59.14603
;WIDTH:0.574741
G1 X175.213 Y175.213 E59.1572
G1 X175.032 Y175.25 E59.16837
;WIDTH:0.574381
G1 X74.968 Y175.25 E65.21519
;WIDTH:0.574739
G1 X74.787 Y175.213 E65.22636
G1 X74.75 Y175.032 E65.23753
;WIDTH:0.574381
G1 X74.75 Y74.968 E71.28435
;WIDTH:0.574739
G1 X74.787 Y74.787 E71.29552
G1 X74.968 Y74.75 E71.30669
;WIDTH:0.574381
G1 X175.032 Y74.75 E77.35351
;WIDTH:0.574741
G1 X175.125 Y74.769 E77.35925
G1 X175.245 Y75.357 F9000
;LAYER_CHANGE
;Z:1.25
;HEIGHT:0.3
G1 Z1.25 F9000
G1 X175.213 Y74.787
G1 F1606
M106 S25.5
G1 X175.25 Y74.968 E77.37042
;WIDTH:0.574381
G1 X175.25 Y175.032 E83.41724
;WIDTH:0.574741
G1 X175.213 Y175.213 E83.42841
G1 X175.032 Y175.25 E83.43958
;WIDTH:0.574381
G1 X74.968 Y175.25 E89.4864
;WIDTH:0.574739
G1 X74.787 Y175.213 E89.49757
G1 X74.75 Y175.032 E89.50874
;WIDTH:0.574381
G1 X74.75 Y74.968 E95.55556
;WIDTH:0.574739
G1 X74.787 Y74.787 E95.56673
G1 X74.968 Y74.75 E95.5779
;WIDTH:0.574381
G1 X175.032 Y74.75 E101.62472
;WIDTH:0.574741
M107
G1 X175.125 Y74.769 E101.63046
G1 X175.245 Y75.357 F9000
;LAYER_CHANGE
;Z:1.55
;HEIGHT:0.3
G1 Z1.55 F9000
G1 X175.213 Y74.787
G1 F1606
M106 S25.5
G1 X175.25 Y74.968 E101.64163
;WIDTH:0.574381
G1 X175.25 Y175.032 E107.68845
;WIDTH:0.574741
G1 X175.213 Y175.213 E107.69962
G1 X175.032 Y175.25 E107.71079
;WIDTH:0.574381
G1 X74.968 Y175.25 E113.75761
;WIDTH:0.574739
G1 X74.787 Y175.213 E113.76878
G1 X74.75 Y175.032 E113.77995
;WIDTH:0.574381
G1 X74.75 Y74.968 E119.82677
;WIDTH:0.574739
G1 X74.787 Y74.787 E119.83794
G1 X74.968 Y74.75 E119.84911
;WIDTH:0.574381
G1 X175.032 Y74.75 E125.89593
;WIDTH:0.574741
M107
G1 X175.125 Y74.769 E125.90167
G1 X175.245 Y75.357 F9000
;LAYER_CHANGE
;Z:1.85
;HEIGHT:0.3
G1 Z1.85 F9000
G1 X175.213 Y74.787
G1 F1606
M106 S25.5
G1 X175.25 Y74.968 E125.91284
;WIDTH:0.574381
G1 X175.25 Y175.032 E131.95966
;WIDTH:0.574741
G1 X175.213 Y175.213 E131.97083
G1 X175.032 Y175.25 E131.982
;WIDTH:0.574381
G1 X74.968 Y175.25 E138.02882
;WIDTH:0.574739
G1 X74.787 Y175.213 E138.03999
G1 X74.75 Y175.032 E138.05116
;WIDTH:0.574381
G1 X74.75 Y74.968 E144.09798
;WIDTH:0.574739
G1 X74.787 Y74.787 E144.10915
G1 X74.968 Y74.75 E144.12032
;WIDTH:0.574381
G1 X175.032 Y74.75 E150.16714
;WIDTH:0.574741
M107
G1 X175.125 Y74.769 E150.17288
G1 X175.245 Y75.357 F9000
;LAYER_CHANGE
;Z:2.15
;HEIGHT:0.3
G1 Z2.15 F9000
G1 X175.213 Y74.787
G1 F1606
M106 S25.5
G1 X175.25 Y74.968 E150.18405
;WIDTH:0.574381
G1 X175.25 Y175.032 E156.23087
;WIDTH:0.574741
G1 X175.213 Y175.213 E156.24204
G1 X175.032 Y175.25 E156.25321
;WIDTH:0.574381
G1 X74.968 Y175.25 E162.30003
;WIDTH:0.574739
G1 X74.787 Y175.213 E162.3112
G1 X74.75 Y175.032 E162.32237
;WIDTH:0.574381
G1 X74.75 Y74.968 E168.36919
;WIDTH:0.574739
G1 X74.787 Y74.787 E168.38036
G1 X74.968 Y74.75 E168.39153
;WIDTH:0.574381
G1 X175.032 Y74.75 E174.43835
;WIDTH:0.574741
M107
G1 X175.125 Y74.769 E174.44409
G1 X175.245 Y75.357 F9000
;LAYER_CHANGE
;Z:2.45
;HEIGHT:0.3
G1 Z2.45 F9000
G1 X175.213 Y74.787
G1 F1606
M106 S25.5
G1 X175.25 Y74.968 E174.45526
;WIDTH:0.574381
G1 X175.25 Y175.032 E180.50208
;WIDTH:0.574741
G1 X175.213 Y175.213 E180.51325
G1 X175.032 Y175.25 E180.52442
;WIDTH:0.574381
G1 X74.968 Y175.25 E186.57124
;WIDTH:0.574739
G1 X74.787 Y175.213 E186.58241
G1 X74.75 Y175.032 E186.59358
;WIDTH:0.574381
G1 X74.75 Y74.968 E192.6404
;WIDTH:0.574739
G1 X74.787 Y74.787 E192.65157
G1 X74.968 Y74.75 E192.66274
;WIDTH:0.574381
G1 X175.032 Y74.75 E198.70956
;WIDTH:0.574741
M107
G1 X175.125 Y74.769 E198.7153
G1 X175.245 Y75.357 F9000
;LAYER_CHANGE
;Z:2.75
;HEIGHT:0.3
G1 Z2.75 F9000
G1 X175.213 Y74.787
G1 F1606
M106 S25.5
G1 X175.25 Y74.968 E198.72647
;WIDTH:0.574381
G1 X175.25 Y175.032 E204.77329
;WIDTH:0.574741
G1 X175.213 Y175.213 E204.78446
G1 X175.032 Y175.25 E204.79563
;WIDTH:0.574381
G1 X74.968 Y175.25 E210.84245
;WIDTH:0.574739
G1 X74.787 Y175.213 E210.85362
G1 X74.75 Y175.032 E210.86479
;WIDTH:0.574381
G1 X74.75 Y74.968 E216.91161
;WIDTH:0.574739
G1 X74.787 Y74.787 E216.92278
G1 X74.968 Y74.75 E216.93395
;WIDTH:0.574381
G1 X175.032 Y74.75 E222.98077
;WIDTH:0.574741
M107
G1 X175.125 Y74.769 E222.98651
G1 X175.245 Y75.357 F9000
;LAYER_CHANGE
;Z:3.05
;HEIGHT:0.3
G1 Z3.05 F9000
G1 X175.213 Y74.787
G1 F1606
M106 S25.5
G1 X175.25 Y74.968 E222.99768
;WIDTH:0.574381
G1 X175.25 Y175.032 E229.0445
;WIDTH:0.574741
G1 X175.213 Y175.213 E229.05567
G1 X175.032 Y175.25 E229.06684
;WIDTH:0.574381
G1 X74.968 Y175.25 E235.11366
;WIDTH:0.574739
G1 X74.787 Y175.213 E235.12483
G1 X74.75 Y175.032 E235.136
;WIDTH:0.574381
G1 X74.75 Y74.968 E241.18282
;WIDTH:0.574739
G1 X74.787 Y74.787 E241.19399
G1 X74.968 Y74.75 E241.20516
;WIDTH:0.574381
G1 X175.032 Y74.75 E247.25198
;WIDTH:0.574741
M107
G1 X175.125 Y74.769 E247.25772
G1 X175.245 Y75.357 F9000
;LAYER_CHANGE
;Z:3.35
;HEIGHT:0.3
G1 Z3.35 F9000
G1 X175.213 Y74.787
G1 F1606
M106 S25.5
G1 X175.25 Y74.968 E247.26889
;WIDTH:0.574381
G1 X175.25 Y175.032 E253.31571
;WIDTH:0.574741
G1 X175.213 Y175.213 E253.32688
G1 X175.032 Y175.25 E253.33805
;WIDTH:0.574381
G1 X74.968 Y175.25 E259.38487
;WIDTH:0.574739
G1 X74.787 Y175.213 E259.39604
G1 X74.75 Y175.032 E259.40721
;WIDTH:0.574381
G1 X74.75 Y74.968 E265.45403
;WIDTH:0.574739
G1 X74.787 Y74.787 E265.4652
G1 X74.968 Y74.75 E265.47637
;WIDTH:0.574381
G1 X175.032 Y74.75 E271.52319
;WIDTH:0.574741
M107
G1 X175.125 Y74.769 E271.52893
G1 X175.245 Y75.357 F9000
;LAYER_CHANGE
;Z:3.65
;HEIGHT:0.3
G1 Z3.65 F9000
G1 X175.213 Y74.787
G1 F1606
M106 S25.5
G1 X175.25 Y74.968 E271.5401
;WIDTH:0.574381
G1 X175.25 Y175.032 E277.58692
;WIDTH:0.574741
G1 X175.213 Y175.213 E277.59809
G1 X175.032 Y175.25 E277.60926
;WIDTH:0.574381
G1 X74.968 Y175.25 E283.65608
;WIDTH:0.574739
G1 X74.787 Y175.213 E283.66725
G1 X74.75 Y175.032 E283.67842
;WIDTH:0.574381
G1 X74.75 Y74.968 E289.72524
;WIDTH:0.574739
G1 X74.787 Y74.787 E289.73641
G1 X74.968 Y74.75 E289.74758
;WIDTH:0.574381
G1 X175.032 Y74.75 E295.7944
;WIDTH:0.574741
M107
G1 X175.125 Y74.769 E295.80014
G1 X175.245 Y75.357 F9000
;LAYER_CHANGE
;Z:3.95
;HEIGHT:0.3
G1 Z3.95 F9000
G1 X175.213 Y74.787
G1 F1606
M106 S25.5
G1 X175.25 Y74.968 E295.81131
;WIDTH:0.574381
G1 X175.25 Y175.032 E301.85813
;WIDTH:0.574741
G1 X175.213 Y175.213 E301.8693
G1 X175.032 Y175.25 E301.88047
;WIDTH:0.574381
G1 X74.968 Y175.25 E307.92729
;WIDTH:0.574739
G1 X74.787 Y175.213 E307.93846
G1 X74.75 Y175.032 E307.94963
;WIDTH:0.574381
G1 X74.75 Y74.968 E313.99645
;WIDTH:0.574739
G1 X74.787 Y74.787 E314.00762
G1 X74.968 Y74.75 E314.01879
;WIDTH:0.574381
G1 X175.032 Y74.75 E320.06561
;WIDTH:0.574741
M107
G1 X175.125 Y74.769 E320.07135
G1 X175.245 Y75.357 F9000
;LAYER_CHANGE
;Z:4.25
;HEIGHT:0.3
G1 Z4.25 F9000
G1 X175.213 Y74.787
G1 F1606
M106 S25.5
G1 X175.25 Y74.968 E320.08252
;WIDTH:0.574381
G1 X175.25 Y175.032 E326.12934
;WIDTH:0.574741
G1 X175.213 Y175.213 E326.14051
G1 X175.032 Y175.25 E326.15168
;WIDTH:0.574381
G1 X74.968 Y175.25 E332.1985
;WIDTH:0.574739
G1 X74.787 Y175.213 E332.20967
G1 X74.75 Y175.032 E332.22084
;WIDTH:0.574381
G1 X74.75 Y74.968 E338.26766
;WIDTH:0.574739
G1 X74.787 Y74.787 E338.27883
G1 X74.968 Y74.75 E338.29
;WIDTH:0.574381
G1 X175.032 Y74.75 E344.33682
;WIDTH:0.574741
M107
G1 X175.125 Y74.769 E344.34256
G1 X175.245 Y75.357 F9000
;LAYER_CHANGE
;Z:4.55
;HEIGHT:0.3
G1 Z4.55 F9000
G1 X175.213 Y74.787
G1 F1606
M106 S25.5
G1 X175.25 Y74.968 E344.35373
;WIDTH:0.574381
G1 X175.25 Y175.032 E350.40055
;WIDTH:0.574741
G1 X175.213 Y175.213 E350.41172
G1 X175.032 Y175.25 E350.42289
;WIDTH:0.574381
G1 X74.968 Y175.25 E356.46971
;WIDTH:0.574739
G1 X74.787 Y175.213 E356.48088
G1 X74.75 Y175.032 E356.49205
;WIDTH:0.574381
G1 X74.75 Y74.968 E362.53887
;WIDTH:0.574739
G1 X74.787 Y74.787 E362.55004
G1 X74.968 Y74.75 E362.56121
;WIDTH:0.574381
G1 X175.032 Y74.75 E368.60803
;WIDTH:0.574741
M107
G1 X175.125 Y74.769 E368.61377
G1 X175.245 Y75.357 F9000
;LAYER_CHANGE
;Z:4.85
;HEIGHT:0.3
G1 Z4.85 F9000
G1 X175.213 Y74.787
G1 F1606
M106 S25.5
G1 X175.25 Y74.968 E368.62494
;WIDTH:0.574381
G1 X175.25 Y175.032 E374.67176
;WIDTH:0.574741
G1 X175.213 Y175.213 E374.68293
G1 X175.032 Y175.25 E374.6941
;WIDTH:0.574381
G1 X74.968 Y175.25 E380.74092
;WIDTH:0.574739
G1 X74.787 Y175.213 E380.75209
G1 X74.75 Y175.032 E380.76326
;WIDTH:0.574381
G1 X74.75 Y74.968 E386.81008
;WIDTH:0.574739
G1 X74.787 Y74.787 E386.82125
G1 X74.968 Y74.75 E386.83242
;WIDTH:0.574381
G1 X175.032 Y74.75 E392.87924
;WIDTH:0.574741
M107
G1 X175.125 Y74.769 E392.88498
G1 X175.245 Y75.357 F9000
;LAYER_CHANGE
;Z:5.15
;HEIGHT:0.3
G1 Z5.15 F9000
G1 X175.213 Y74.787
G1 F1606
M106 S25.5
G1 X175.25 Y74.968 E392.89615
;WIDTH:0.574381
G1 X175.25 Y175.032 E398.94297
;WIDTH:0.574741
G1 X175.213 Y175.213 E398.95414
G1 X175.032 Y175.25 E398.96531
;WIDTH:0.574381
G1 X74.968 Y175.25 E405.01213
;WIDTH:0.574739
G1 X74.787 Y175.213 E405.0233
G1 X74.75 Y175.032 E405.03447
;WIDTH:0.574381
G1 X74.75 Y74.968 E411.08129
;WIDTH:0.574739
G1 X74.787 Y74.787 E411.09246
G1 X74.968 Y74.75 E411.10363
;WIDTH:0.574381
G1 X175.032 Y74.75 E417.15045
;WIDTH:0.574741
M107
G1 X175.125 Y74.769 E417.15619
G1 X175.245 Y75.357 F9000
;LAYER_CHANGE
;Z:5.45
;HEIGHT:0.3
G1 Z5.45 F9000
G1 X175.213 Y74.787
G1 F1606
M106 S25.5
G1 X175.25 Y74.968 E417.16736
;WIDTH:0.574381
G1 X175.25 Y175.032 E423.21418
;WIDTH:0.574741
G1 X175.213 Y175.213 E423.22535
G1 X175.032 Y175.25 E423.23652
;WIDTH:0.574381
G1 X74.968 Y175.25 E429.28334
;WIDTH:0.574739
G1 X74.787 Y175.213 E429.29451
G1 X74.75 Y175.032 E429.30568
;WIDTH:0.574381
G1 X74.75 Y74.968 E435.3525
;WIDTH:0.574739
G1 X74.787 Y74.787 E435.36367
G1 X74.968 Y74.75 E435.37484
;WIDTH:0.574381
G1 X175.032 Y74.75 E441.42166
;WIDTH:0.574741
M107
G1 X175.125 Y74.769 E441.4274
G1 X175.245 Y75.357 F9000
;LAYER_CHANGE
;Z:5.75
;HEIGHT:0.3
G1 Z5.75 F9000
G1 X175.213 Y74.787
G1 F1606
M106 S25.5
G1 X175.25 Y74.968 E441.43857
;WIDTH:0.574381
G1 X175.25 Y175.032 E447.48539
;WIDTH:0.574741
G1 X175.213 Y175.213 E447.49656
G1 X175.032 Y175.25 E447.50773
;WIDTH:0.574381
G1 X74.968 Y175.25 E453.55455
;WIDTH:0.574739
G1 X74.787 Y175.213 E453.56572
G1 X74.75 Y175.032 E453.57689
;WIDTH:0.574381
G1 X74.75 Y74.968 E459.62371
;WIDTH:0.574739
G1 X74.787 Y74.787 E459.63488
G1 X74.968 Y74.75 E459.64605
;WIDTH:0.574381
G1 X175.032 Y74.75 E465.69287
;WIDTH:0.574741
M107
G1 X175.125 Y74.769 E465.69861
G1 X175.245 Y75.357 F9000
;LAYER_CHANGE
;Z:6.05
;HEIGHT:0.3
G1 Z6.05 F9000
G1 X175.213 Y74.787
G1 F1606
M106 S25.5
G1 X175.25 Y74.968 E465.70978
;WIDTH:0.574381
G1 X175.25 Y175.032 E471.7566
;WIDTH:0.574741
G1 X175.213 Y175.213 E471.76777
G1 X175.032 Y175.25 E471.77894
;WIDTH:0.574381
G1 X74.968 Y175.25 E477.82576
;WIDTH:0.574739
G1 X74.787 Y175.213 E477.83693
G1 X74.75 Y175.032 E477.8481
;WIDTH:0.574381
G1 X74.75 Y74.968 E483.89492
;WIDTH:0.574739
G1 X74.787 Y74.787 E483.90609
G1 X74.968 Y74.75 E483.91726
;WIDTH:0.574381
G1 X175.032 Y74.75 E489.96408
;WIDTH:0.574741
M107
G1 X175.125 Y74.769 E489.96982
G1 X175.245 Y75.357 F9000
;LAYER_CHANGE
;Z:6.35
;HEIGHT:0.3
G1 Z6.35 F9000
G1 X175.213 Y74.787
G1 F1606
M106 S25.5
G1 X175.25 Y74.968 E489.98099
;WIDTH:0.574381
G1 X175.25 Y175.032 E496.02781
;WIDTH:0.574741
G1 X175.213 Y175.213 E496.03898
G1 X175.032 Y175.25 E496.05015
;WIDTH:0.574381
G1 X74.968 Y175.25 E502.09697
;WIDTH:0.574739
G1 X74.787 Y175.213 E502.10814
G1 X74.75 Y175.032 E502.11931
;WIDTH:0.574381
G1 X74.75 Y74.968 E508.16613
;WIDTH:0.574739
G1 X74.787 Y74.787 E508.1773
G1 X74.968 Y74.75 E508.18847
;WIDTH:0.574381
G1 X175.032 Y74.75 E514.23529
;WIDTH:0.574741
M107
G1 X175.125 Y74.769 E514.24103
G1 X175.245 Y75.357 F9000
;LAYER_CHANGE
;Z:6.65
;HEIGHT:0.3
G1 Z6.65 F9000
G1 X175.213 Y74.787
G1 F1606
M106 S25.5
G1 X175.25 Y74.968 E514.2522
;WIDTH:0.574381
G1 X175.25 Y175.032 E520.29902
;WIDTH:0.574741
G1 X175.213 Y175.213 E520.31019
G1 X175.032 Y175.25 E520.32136
;WIDTH:0.574381
G1 X74.968 Y175.25 E526.36818
;WIDTH:0.574739
G1 X74.787 Y175.213 E526.37935
G1 X74.75 Y175.032 E526.39052
;WIDTH:0.574381
G1 X74.75 Y74.968 E532.43734
;WIDTH:0.574739
G1 X74.787 Y74.787 E532.44851
G1 X74.968 Y74.75 E532.45968
;WIDTH:0.574381
G1 X175.032 Y74.75 E538.5065
;WIDTH:0.574741
M107
G1 X175.125 Y74.769 E538.51224
G1 X175.245 Y75.357 F9000
;LAYER_CHANGE
;Z:6.95
;HEIGHT:0.3
G1 Z6.95 F9000
G1 X175.213 Y74.787
G1 F1606
M106 S25.5
G1 X175.25 Y74.968 E538.52341
;WIDTH:0.574381
G1 X175.25 Y175.032 E544.57023
;WIDTH:0.574741
G1 X175.213 Y175.213 E544.5814
G1 X175.032 Y175.25 E544.59257
;WIDTH:0.574381
G1 X74.968 Y175.25 E550.63939
;WIDTH:0.574739
G1 X74.787 Y175.213 E550.65056
G1 X74.75 Y175.032 E550.66173
;WIDTH:0.574381
G1 X74.75 Y74.968 E556.70855
;WIDTH:0.574739
G1 X74.787 Y74.787 E556.71972
G1 X74.968 Y74.75 E556.73089
;WIDTH:0.574381
G1 X175.032 Y74.75 E562.77771
;WIDTH:0.574741
M107
G1 X175.125 Y74.769 E562.78345
G1 X175.245 Y75.357 F9000
;LAYER_CHANGE
;Z:7.25
;HEIGHT:0.3
G1 Z7.25 F9000
G1 X175.213 Y74.787
G1 F1606
M106 S25.5
G1 X175.25 Y74.968 E562.79462
;WIDTH:0.574381
G1 X175.25 Y175.032 E568.84144
;WIDTH:0.574741
G1 X175.213 Y175.213 E568.85261
G1 X175.032 Y175.25 E568.86378
;WIDTH:0.574381
G1 X74.968 Y175.25 E574.9106
;WIDTH:0.574739
G1 X74.787 Y175.213 E574.92177
G1 X74.75 Y175.032 E574.93294
;WIDTH:0.574381
G1 X74.75 Y74.968 E580.97976
;WIDTH:0.574739
G1 X74.787 Y74.787 E580.99093
G1 X74.968 Y74.75 E581.0021
;WIDTH:0.574381
G1 X175.032 Y74.75 E587.04892
;WIDTH:0.574741
M107
G1 X175.125 Y74.769 E587.05466
G1 X175.245 Y75.357 F9000
;LAYER_CHANGE
;Z:7.55
;HEIGHT:0.3
G1 Z7.55 F9000
G1 X175.213 Y74.787
G1 F1606
M106 S25.5
G1 X175.25 Y74.968 E587.06583
;WIDTH:0.574381
G1 X175.25 Y175.032 E593.11265
;WIDTH:0.574741
G1 X175.213 Y175.213 E593.12382
G1 X175.032 Y175.25 E593.13499
;WIDTH:0.574381
G1 X74.968 Y175.25 E599.18181
;WIDTH:0.574739
G1 X74.787 Y175.213 E599.19298
G1 X74.75 Y175.032 E599.20415
;WIDTH:0.574381
G1 X74.75 Y74.968 E605.25097
;WIDTH:0.574739
G1 X74.787 Y74.787 E605.26214
G1 X74.968 Y74.75 E605.27331
;WIDTH:0.574381
