; generated by PrusaSlicer 2.8.0+MacOS-arm64 on 2024-10-07 at 15:22:42 UTC


;
;

;
;
; 

; external perimeters extrusion width = 0.68mm
; perimeters extrusion width = 0.68mm
; infill extrusion width = 0.68mm
; solid infill extrusion width = 0.68mm
; top infill extrusion width = 0.60mm

; external perimeters extrusion width = 0.68mm
; perimeters extrusion width = 0.68mm
; infill extrusion width = 0.68mm
; solid infill extrusion width = 0.68mm
; top infill extrusion width = 0.60mm


EXCLUDE_OBJECT_DEFINE NAME='thrust_bearing_casing_r' CENTER=124.818,80.270 POLYGON=[[125.220,68.278],[126.206,68.352],[127.667,68.615],[129.078,69.053],[129.983,69.440],[130.858,69.903],[131.894,70.580],[132.851,71.357],[133.674,72.174],[134.883,73.739],[135.611,75.027],[136.004,75.928],[136.323,76.863],[136.656,78.310],[136.777,79.290],[136.811,80.675],[136.737,81.660],[136.474,83.122],[136.036,84.532],[135.648,85.438],[135.186,86.312],[134.360,87.546],[132.915,89.127],[131.350,90.337],[130.500,90.840],[129.161,91.458],[128.226,91.777],[126.779,92.109],[125.799,92.231],[124.364,92.263],[122.401,92.025],[121.442,91.786],[120.055,91.286],[119.165,90.856],[117.901,90.076],[117.118,89.475],[116.048,88.462],[115.404,87.712],[114.557,86.493],[113.870,85.186],[113.504,84.272],[113.214,83.326],[112.925,81.870],[112.830,79.736],[113.081,77.774],[113.326,76.817],[113.836,75.433],[114.272,74.547],[115.060,73.288],[115.667,72.509],[116.655,71.475],[117.603,70.683],[118.619,69.997],[120.391,69.117],[121.801,68.657],[122.769,68.448],[123.748,68.319]]
EXCLUDE_OBJECT_DEFINE NAME='thrust_bearing_casing_l' CENTER=125.434,187.149 POLYGON=[[125.743,174.574],[126.974,174.666],[128.190,174.877],[129.380,175.206],[130.532,175.650],[131.634,176.205],[132.677,176.866],[133.650,177.625],[134.544,178.476],[135.350,179.411],[136.061,180.420],[136.670,181.493],[137.170,182.622],[137.557,183.794],[137.827,184.999],[137.979,186.224],[138.009,187.458],[137.918,188.689],[137.707,189.905],[137.378,191.095],[136.934,192.247],[136.378,193.349],[135.718,194.392],[134.959,195.365],[134.108,196.259],[133.173,197.065],[132.164,197.776],[131.091,198.385],[129.962,198.885],[128.790,199.272],[127.585,199.542],[126.360,199.694],[125.126,199.724],[123.895,199.633],[122.679,199.422],[121.489,199.093],[120.337,198.649],[119.235,198.094],[118.192,197.433],[117.219,196.674],[116.325,195.823],[115.519,194.888],[114.808,193.879],[114.199,192.806],[113.699,191.677],[113.312,190.505],[113.042,189.300],[112.890,188.075],[112.860,186.841],[112.951,185.610],[113.162,184.394],[113.491,183.204],[113.935,182.052],[114.490,180.950],[115.151,179.907],[115.910,178.934],[116.761,178.040],[117.696,177.234],[118.705,176.523],[119.778,175.914],[120.907,175.414],[122.079,175.027],[123.284,174.757],[124.509,174.605]]

;TYPE:Custom
START_PRINT BED_TEMP=80 HOTEND_TEMP=225 FILAMENT_TYPE=FLEX EXTRUSION_MULTIPLIER=0.92 PERIMETER_SPEED=80
G21 ; set units to millimeters
G90 ; use absolute coordinates
M82 ; use absolute distances for extrusion
G92 E0
; Filament gcode
; ########################### NOTE OFFSET CHANGES ####################################
; Prevents PETG buildup on nozzle.
; SET_GCODE_OFFSET Z=0
; ####################################################################################
M107
;LAYER_CHANGE
;Z:0.35
;HEIGHT:0.35
G1 E-.5 F240
G1 Z.35 F9000
EXCLUDE_OBJECT_START NAME='thrust_bearing_casing_l'
G92 E0
G1 X127.577 Y190.128
G1 E.5 F240
G92 E0
;TYPE:External perimeter
;WIDTH:0.675
G1 F1800
G1 X126.978 Y190.481 E.05584
G1 X126.284 Y190.72 E.11479
G1 X125.556 Y190.817 E.17377
G1 X124.824 Y190.768 E.23269
G1 X124.116 Y190.575 E.29162
G1 X123.473 Y190.253 E.34937
G1 X122.913 Y189.817 E.40637
G1 X122.45 Y189.287 E.46289
G1 X122.094 Y188.674 E.51982
G1 X121.864 Y188.01 E.57625
G1 X121.762 Y187.305 E.63346
G1 X121.785 Y186.606 E.68963
G1 X121.969 Y185.873 E.75032
G1 X122.274 Y185.236 E.80704
G1 X122.712 Y184.648 E.86592
G1 X123.258 Y184.158 E.92484
G1 X123.891 Y183.785 E.98384
G1 X124.585 Y183.546 E1.04279
G1 X125.313 Y183.449 E1.10177
G1 X126.045 Y183.498 E1.16069
G1 X126.753 Y183.691 E1.21962
G1 X127.409 Y184.02 E1.27856
G1 X127.973 Y184.462 E1.33611
G1 X128.435 Y184.998 E1.39294
G1 X128.746 Y185.513 E1.44126
G1 X128.97 Y186.114 E1.49277
G1 X129.099 Y186.815 E1.55001
G1 X129.09 Y187.519 E1.60655
G1 X128.947 Y188.215 E1.66361
G1 X128.845 Y188.512 E1.68883
G1 X128.595 Y189.03 E1.73502
G1 X128.081 Y189.693 E1.80239
G1 X127.649 Y190.074 E1.84865
G1 X127.136 Y190.386 F9000
G1 X128.363 Y190.244
;TYPE:Perimeter
G1 F1800
G1 X128.007 Y190.558 E1.88677
G1 X127.505 Y190.869 E1.93419
G1 X127.114 Y191.074 E1.96964
G1 X126.475 Y191.289 E2.02378
G1 X125.947 Y191.373 E2.06672
G1 X125.452 Y191.417 E2.10663
G1 X124.779 Y191.366 E2.16083
G1 X123.953 Y191.153 E2.22933
G1 X123.2 Y190.786 E2.2966
G1 X122.539 Y190.286 E2.36316
G1 X121.991 Y189.673 E2.42919
G1 X121.567 Y188.961 E2.49574
G1 X121.406 Y188.56 E2.53044
G1 X121.254 Y188.07 E2.57164
G1 X121.165 Y187.365 E2.62871
G1 X121.167 Y186.838 E2.67103
G1 X121.236 Y186.313 E2.71355
G1 X121.404 Y185.672 E2.76677
G1 X121.64 Y185.17 E2.81132
G1 X121.856 Y184.785 E2.84677
G1 X122.234 Y184.286 E2.89704
G1 X122.667 Y183.88 E2.94471
G1 X123.01 Y183.601 E2.98022
G1 X123.591 Y183.266 E3.03408
G1 X124.105 Y183.074 E3.07814
G1 X124.569 Y182.938 E3.11697
G1 X125.238 Y182.854 E3.17112
G1 X125.744 Y182.874 E3.21179
G1 X126.251 Y182.926 E3.25272
G1 X126.916 Y183.113 E3.3082
G1 X127.683 Y183.487 E3.37673
G1 X128.347 Y183.993 E3.44377
G1 X128.894 Y184.612 E3.51011
G1 X129.18 Y185.064 E3.55307
G1 X129.4 Y185.543 E3.5954
G1 X129.579 Y186.036 E3.63752
G1 X129.692 Y186.725 E3.69359
G1 X129.709 Y187.16 E3.72855
G1 X129.683 Y187.683 E3.7706
G1 X129.528 Y188.363 E3.82661
G1 X129.385 Y188.772 E3.86141
G1 X129.136 Y189.29 E3.90757
G1 X128.761 Y189.815 E3.95938
G1 X128.478 Y190.143 E3.99417
G1 X128.431 Y190.184 E3.99918
G1 X128.431 Y190.184 F9000
G1 X129.118 Y190.318
G1 F1800
G1 X128.91 Y190.562 E4.02493
G1 X128.404 Y191.008 E4.0791
G1 X127.805 Y191.388 E4.13607
G1 X127.308 Y191.642 E4.18089
G1 X126.666 Y191.857 E4.23526
G1 X126.021 Y191.968 E4.28782
G1 X125.519 Y192.019 E4.32834
G1 X124.734 Y191.965 E4.39153
G1 X124.151 Y191.832 E4.43955
G1 X123.665 Y191.689 E4.48023
G1 X122.926 Y191.32 E4.54656
G1 X122.47 Y190.999 E4.59134
G1 X122.063 Y190.67 E4.63337
G1 X121.531 Y190.059 E4.69843
G1 X121.227 Y189.591 E4.74325
G1 X120.957 Y189.091 E4.78888
G1 X120.717 Y188.364 E4.85036
G1 X120.622 Y187.954 E4.88416
G1 X120.555 Y187.287 E4.938
G1 X120.589 Y186.518 E4.99982
G1 X120.839 Y185.47 E5.08634
G1 X121.099 Y184.909 E5.136
G1 X121.348 Y184.461 E5.17716
G1 X121.756 Y183.923 E5.23138
G1 X122.27 Y183.43 E5.28858
G1 X122.707 Y183.084 E5.33334
G1 X123.291 Y182.746 E5.38753
G1 X123.914 Y182.506 E5.44115
G1 X124.481 Y182.344 E5.48851
G1 X125.163 Y182.258 E5.54371
G1 X125.789 Y182.275 E5.594
G1 X126.315 Y182.326 E5.63644
G1 X127.078 Y182.536 E5.69999
G1 X127.609 Y182.774 E5.74672
G1 X128.068 Y183.016 E5.78839
G1 X128.721 Y183.524 E5.85483
G1 X129.102 Y183.927 E5.89937
G1 X129.438 Y184.332 E5.94163
G1 X129.699 Y184.764 E5.98216
G1 X129.896 Y185.15 E6.01696
G1 X130.127 Y185.784 E6.07115
G1 X130.285 Y186.636 E6.14074
G1 X130.308 Y187.19 E6.18527
G1 X130.282 Y187.713 E6.22732
G1 X130.11 Y188.511 E6.29288
G1 X129.926 Y189.033 E6.33733
G1 X129.676 Y189.55 E6.38345
G1 X129.239 Y190.177 E6.44483
G1 X129.176 Y190.25 E6.45257
G1 X129.176 Y190.25 F9000
G1 X129.854 Y190.359
G1 F1800
G1 X129.591 Y190.705 E6.48747
G1 X129.272 Y191.042 E6.52474
G1 X128.801 Y191.458 E6.57521
G1 X128.444 Y191.712 E6.6104
G1 X127.878 Y192.039 E6.6629
G1 X127.496 Y192.211 E6.69654
G1 X126.857 Y192.426 E6.75068
G1 X126.449 Y192.519 E6.78429
G1 X125.78 Y192.603 E6.83844
G1 X125.362 Y192.613 E6.87202
G1 X124.689 Y192.563 E6.92622
G1 X124.278 Y192.49 E6.95974
G1 X123.621 Y192.306 E7.01453
G1 X123 Y192.032 E7.06904
G1 X122.517 Y191.779 E7.11283
G1 X121.66 Y191.115 E7.19989
G1 X120.949 Y190.292 E7.28723
G1 X120.514 Y189.535 E7.35735
G1 X120.307 Y189.068 E7.39837
G1 X120.108 Y188.423 E7.45258
G1 X120.011 Y187.874 E7.49735
G1 X119.958 Y187.347 E7.53989
G1 X119.97 Y186.749 E7.58792
G1 X120.021 Y186.243 E7.62876
G1 X120.274 Y185.268 E7.70965
G1 X120.559 Y184.649 E7.76438
G1 X120.798 Y184.2 E7.80523
G1 X121.466 Y183.344 E7.89243
G1 X122.257 Y182.66 E7.97641
G1 X123.197 Y182.123 E8.06335
G1 X124.224 Y181.781 E8.15028
G1 X125.299 Y181.647 E8.23728
G1 X126.378 Y181.728 E8.32418
G1 X127.379 Y182.002 E8.40753
G1 X128.352 Y182.487 E8.49484
G1 X129.209 Y183.152 E8.58195
G1 X129.92 Y183.975 E8.66929
G1 X130.219 Y184.464 E8.71532
G1 X130.459 Y184.945 E8.75849
G1 X130.69 Y185.579 E8.81268
G1 X130.82 Y186.159 E8.86041
G1 X130.907 Y186.757 E8.90894
G1 X130.888 Y187.609 E8.97738
G1 X130.819 Y188.156 E9.02166
G1 X130.652 Y188.81 E9.07587
G1 X130.466 Y189.293 E9.11744
G1 X130.217 Y189.81 E9.16352
G1 X129.953 Y190.227 E9.20316
G1 X129.908 Y190.287 E9.20918
G1 X130.562 Y190.39 F9000
G1 F1800
G1 X130.477 Y190.529 E9.22226
G1 X130.07 Y191.067 E9.27644
G1 X129.704 Y191.461 E9.31963
G1 X129.198 Y191.908 E9.37385
G1 X128.762 Y192.221 E9.41695
G1 X128.177 Y192.559 E9.47121
G1 X127.692 Y192.778 E9.51395
G1 X127.048 Y192.995 E9.56853
G1 X126.544 Y193.112 E9.61008
G1 X125.855 Y193.198 E9.66584
G1 X125.317 Y193.212 E9.70906
G1 X124.644 Y193.161 E9.76326
G1 X124.115 Y193.068 E9.80639
G1 X123.457 Y192.883 E9.86128
G1 X122.965 Y192.689 E9.90375
G1 X122.365 Y192.381 E9.95791
G1 X121.913 Y192.089 E10.00113
G1 X121.386 Y191.669 E10.05525
G1 X121.001 Y191.293 E10.09847
G1 X120.568 Y190.777 E10.15257
G1 X120.265 Y190.332 E10.1958
G1 X119.942 Y189.74 E10.24996
G1 X119.733 Y189.245 E10.29311
G1 X119.534 Y188.6 E10.34732
G1 X119.428 Y188.074 E10.39041
G1 X119.361 Y187.406 E10.44433
G1 X119.372 Y186.705 E10.50063
G1 X119.431 Y186.133 E10.54681
G1 X119.709 Y185.066 E10.63536
G1 X120.019 Y184.389 E10.69516
G1 X120.276 Y183.903 E10.73931
G1 X120.658 Y183.386 E10.79093
G1 X121.009 Y182.954 E10.83563
G1 X121.476 Y182.531 E10.88623
G1 X121.914 Y182.168 E10.93192
G1 X122.45 Y181.847 E10.98209
G1 X122.956 Y181.573 E11.0283
G1 X124.025 Y181.212 E11.11891
G1 X124.695 Y181.108 E11.17336
G1 X125.216 Y181.05 E11.21546
G1 X125.879 Y181.079 E11.26876
G1 X126.42 Y181.127 E11.31238
G1 X127.051 Y181.282 E11.36456
G1 X127.581 Y181.438 E11.40893
G1 X128.156 Y181.707 E11.45991
G1 X128.661 Y181.972 E11.50571
G1 X129.163 Y182.342 E11.55579
G1 X129.612 Y182.707 E11.60226
G1 X130.022 Y183.156 E11.65109
G1 X130.402 Y183.617 E11.69907
G1 X130.738 Y184.164 E11.75062
G1 X130.983 Y184.635 E11.79326
G1 X131.225 Y185.294 E11.84964
G1 X131.387 Y185.895 E11.89963
G1 X131.487 Y186.562 E11.95379
G1 X131.514 Y187.099 E11.99697
G1 X131.48 Y187.773 E12.05117
G1 X131.4 Y188.304 E12.09429
G1 X131.234 Y188.958 E12.14848
G1 X131.05 Y189.463 E12.19164
G1 X130.757 Y190.071 E12.24584
G1 X130.609 Y190.313 E12.26862
G1 X130.609 Y190.313 F9000
G1 X131.25 Y190.403
G1 F1800
G1 X131.086 Y190.705 E12.29622
G1 X130.673 Y191.263 E12.35197
G1 X130.279 Y191.741 E12.40172
G1 X129.377 Y192.534 E12.49817
G1 X128.705 Y192.947 E12.56151
G1 X128.24 Y193.203 E12.60414
G1 X127.518 Y193.47 E12.66596
G1 X126.989 Y193.636 E12.71049
G1 X126.245 Y193.754 E12.77099
G1 X125.682 Y193.815 E12.81647
G1 X124.948 Y193.785 E12.87547
G1 X124.361 Y193.733 E12.9228
G1 X123.664 Y193.564 E12.9804
G1 X123.086 Y193.393 E13.02881
G1 X122.452 Y193.1 E13.0849
G1 X121.899 Y192.808 E13.13512
G1 X121.348 Y192.406 E13.1899
G1 X120.855 Y192.004 E13.24099
G1 X120.404 Y191.515 E13.29441
G1 X119.985 Y191.006 E13.34736
G1 X119.647 Y190.452 E13.39948
G1 X119.331 Y189.861 E13.4533
G1 X119.113 Y189.268 E13.50404
G1 X118.961 Y188.777 E13.54532
G1 X118.85 Y188.289 E13.58551
G1 X118.778 Y187.605 E13.64074
G1 X118.75 Y187.005 E13.68898
G1 X118.794 Y186.385 E13.7389
G1 X118.887 Y185.815 E13.78528
G1 X119.144 Y184.864 E13.86439
G1 X119.478 Y184.128 E13.9293
G1 X119.714 Y183.67 E13.97068
G1 X120.18 Y183.023 E14.03471
G1 X120.505 Y182.614 E14.07666
G1 X121.079 Y182.081 E14.13957
G1 X121.492 Y181.732 E14.18299
G1 X122.15 Y181.327 E14.24504
G1 X122.629 Y181.063 E14.28896
G1 X123.341 Y180.8 E14.34992
G1 X123.88 Y180.63 E14.39531
G1 X124.62 Y180.513 E14.45548
G1 X125.187 Y180.451 E14.50129
G1 X125.924 Y180.481 E14.56053
G1 X126.508 Y180.533 E14.60762
G1 X127.214 Y180.704 E14.66596
G1 X127.782 Y180.873 E14.71355
G1 X128.43 Y181.173 E14.7709
G1 X128.969 Y181.458 E14.81986
G1 X129.537 Y181.873 E14.87635
G1 X130.014 Y182.262 E14.92578
G1 X130.481 Y182.771 E14.98126
G1 X130.884 Y183.26 E15.03215
G1 X131.258 Y183.864 E15.0892
G1 X131.538 Y184.407 E15.13826
G1 X131.788 Y185.088 E15.19652
G1 X131.953 Y185.653 E15.24379
G1 X132.065 Y186.368 E15.30191
G1 X132.117 Y186.958 E15.34948
G1 X132.086 Y187.669 E15.40663
G1 X132.023 Y188.266 E15.45484
G1 X131.854 Y188.955 E15.51181
G1 X131.675 Y189.533 E15.5604
G1 X131.378 Y190.164 E15.61641
G1 X131.292 Y190.323 E15.63093
G1 X131.292 Y190.323 F9000
G1 X131.924 Y190.412
G1 F1800
G1 X131.919 Y190.424 E15.63197
G1 X131.669 Y190.905 E15.6755
G1 X131.152 Y191.626 E15.74675
G1 X130.808 Y192.054 E15.79085
G1 X130.171 Y192.649 E15.86085
G1 X129.734 Y193.016 E15.90668
G1 X129.005 Y193.466 E15.97548
G1 X128.497 Y193.745 E16.02202
G1 X127.709 Y194.038 E16.08954
G1 X127.135 Y194.218 E16.13785
G1 X126.32 Y194.349 E16.20414
G1 X125.712 Y194.414 E16.25325
G1 X124.904 Y194.384 E16.31818
G1 X124.273 Y194.326 E16.36907
G1 X123.501 Y194.141 E16.43282
G1 X122.885 Y193.958 E16.48443
G1 X122.418 Y193.756 E16.52529
G1 X121.818 Y193.449 E16.57942
G1 X121.264 Y193.103 E16.63188
G1 X120.668 Y192.631 E16.69294
G1 X120.18 Y192.177 E16.74647
G1 X119.693 Y191.601 E16.80705
G1 X119.296 Y191.054 E16.86133
G1 X118.933 Y190.396 E16.92168
G1 X118.71 Y189.941 E16.96237
G1 X118.388 Y188.954 E17.04575
G1 X118.261 Y188.406 E17.09093
G1 X118.181 Y187.665 E17.15078
G1 X118.148 Y187.137 E17.19327
G1 X118.228 Y186.055 E17.2804
G1 X118.426 Y185.194 E17.35135
G1 X118.579 Y184.662 E17.39581
G1 X118.938 Y183.868 E17.46579
G1 X119.2 Y183.361 E17.51162
G1 X119.702 Y182.661 E17.5808
G1 X120.061 Y182.212 E17.62697
G1 X120.682 Y181.631 E17.69527
G1 X121.135 Y181.25 E17.74281
G1 X121.85 Y180.808 E17.81032
G1 X122.372 Y180.521 E17.85816
G1 X123.15 Y180.231 E17.92484
G1 X123.734 Y180.048 E17.97399
G1 X124.545 Y179.918 E18.03995
G1 X125.157 Y179.852 E18.08938
G1 X125.968 Y179.883 E18.15456
G1 X126.596 Y179.94 E18.2052
G1 X127.376 Y180.127 E18.26962
G1 X127.984 Y180.308 E18.32057
G1 X128.451 Y180.51 E18.36143
G1 X129.051 Y180.818 E18.41559
G1 X129.618 Y181.173 E18.46931
G1 X130.217 Y181.648 E18.5307
G1 X130.703 Y182.105 E18.58428
G1 X131.192 Y182.684 E18.64514
G1 X131.585 Y183.232 E18.6993
G1 X131.863 Y183.713 E18.74392
G1 X132.092 Y184.179 E18.78562
G1 X132.352 Y184.883 E18.84589
G1 X132.542 Y185.536 E18.90051
G1 X132.658 Y186.278 E18.96082
G1 X132.717 Y186.956 E19.01547
G1 X132.685 Y187.699 E19.07519
G1 X132.641 Y188.211 E19.11646
G1 X132.396 Y189.254 E19.2025
G1 X132.23 Y189.759 E19.24519
G1 X131.963 Y190.33 E19.29581
G1 E18.79581 F240
G92 E0
G1 X131.963 Y190.33 F9000
G1 X137.578 Y188.651
G1 E.5 F240
;TYPE:External perimeter
G1 F1800
G1 X137.568 Y188.751 E.50807
G1 X137.47 Y189.366 E.55808
G1 X137.352 Y189.933 E.60459
G1 X137.201 Y190.514 E.6528
G1 X137.022 Y191.088 E.70109
G1 X136.803 Y191.682 E.75193
G1 X136.58 Y192.206 E.79766
G1 X136.319 Y192.746 E.84583
G1 X136.031 Y193.272 E.89399
G1 X135.693 Y193.822 E.94583
G1 X135.38 Y194.281 E.99045
G1 X135.018 Y194.761 E1.03873
G1 X134.633 Y195.223 E1.08703
G1 X134.186 Y195.704 E1.13976
G1 X133.797 Y196.086 E1.18354
G1 X133.349 Y196.485 E1.23172
G1 X132.881 Y196.861 E1.27993
G1 X132.338 Y197.254 E1.33376
G1 X131.894 Y197.544 E1.37635
G1 X131.376 Y197.849 E1.42463
G1 X130.844 Y198.128 E1.47287
G1 X130.221 Y198.412 E1.52786
G1 X129.732 Y198.609 E1.5702
G1 X129.174 Y198.803 E1.61764
G1 X128.598 Y198.972 E1.66585
G1 X127.918 Y199.132 E1.72195
G1 X126.829 Y199.308 E1.81054
G1 X126.23 Y199.362 E1.85884
G1 X125.519 Y199.387 E1.91597
G1 X124.429 Y199.347 E2.00357
G1 X123.832 Y199.283 E2.05179
G1 X123.116 Y199.165 E2.11007
G1 X122.069 Y198.916 E2.1965
