; generated by PrusaSlicer 2.8.1+MacOS-arm64 on 2024-10-09 at 10:05:35 UTC


;
;

;
;
; 

; external perimeters extrusion width = 0.68mm
; perimeters extrusion width = 0.68mm
; infill extrusion width = 0.68mm
; solid infill extrusion width = 0.68mm
; top infill extrusion width = 0.60mm

; external perimeters extrusion width = 0.68mm
; perimeters extrusion width = 0.68mm
; infill extrusion width = 0.68mm
; solid infill extrusion width = 0.68mm
; top infill extrusion width = 0.60mm


EXCLUDE_OBJECT_DEFINE NAME='thrust_bearing_casing_l' CENTER=130.658,160.683 POLYGON=[[130.967,148.108],[132.198,148.199],[133.414,148.411],[134.603,148.739],[135.755,149.184],[136.858,149.739],[137.900,150.399],[138.874,151.158],[139.768,152.009],[140.574,152.944],[141.284,153.953],[141.893,155.027],[142.394,156.156],[142.781,157.328],[143.051,158.532],[143.203,159.757],[143.233,160.992],[143.142,162.223],[142.931,163.439],[142.602,164.628],[142.158,165.780],[141.602,166.883],[140.942,167.925],[140.183,168.898],[139.332,169.793],[138.397,170.599],[137.388,171.309],[136.314,171.918],[135.186,172.419],[134.013,172.806],[132.809,173.076],[131.584,173.228],[130.349,173.258],[129.118,173.167],[127.902,172.956],[126.713,172.627],[125.561,172.183],[124.459,171.627],[123.416,170.967],[122.443,170.208],[121.548,169.357],[120.742,168.422],[120.032,167.413],[119.423,166.339],[118.922,165.211],[118.536,164.038],[118.265,162.834],[118.114,161.609],[118.083,160.374],[118.175,159.143],[118.386,157.927],[118.715,156.738],[119.159,155.586],[119.714,154.483],[120.374,153.441],[121.133,152.468],[121.984,151.573],[122.919,150.767],[123.928,150.057],[125.002,149.448],[126.131,148.947],[127.303,148.561],[128.507,148.290],[129.732,148.139]]
EXCLUDE_OBJECT_DEFINE NAME='thrust_bearing_casing_r' CENTER=130.937,70.393 POLYGON=[[131.339,58.401],[132.325,58.475],[133.786,58.738],[135.197,59.176],[136.102,59.563],[136.977,60.026],[138.013,60.703],[138.970,61.480],[139.793,62.297],[141.002,63.862],[141.730,65.150],[142.123,66.051],[142.442,66.986],[142.775,68.433],[142.896,69.413],[142.930,70.798],[142.856,71.783],[142.593,73.245],[142.155,74.655],[141.767,75.561],[141.304,76.435],[140.479,77.669],[139.034,79.250],[137.469,80.460],[136.619,80.963],[135.280,81.581],[134.345,81.900],[132.898,82.232],[131.918,82.354],[130.483,82.386],[128.520,82.148],[127.561,81.909],[126.174,81.409],[125.284,80.979],[124.020,80.199],[123.237,79.598],[122.167,78.585],[121.522,77.835],[120.676,76.616],[119.989,75.309],[119.623,74.395],[119.332,73.449],[119.044,71.993],[118.949,69.859],[119.200,67.897],[119.445,66.940],[119.955,65.556],[120.391,64.669],[121.179,63.411],[121.786,62.632],[122.774,61.598],[123.722,60.806],[124.737,60.120],[126.510,59.240],[127.920,58.780],[128.888,58.571],[129.867,58.442]]

;TYPE:Custom
START_PRINT BED_TEMP=80 HOTEND_TEMP=225 FILAMENT_TYPE=FLEX EXTRUSION_MULTIPLIER=0.92 PERIMETER_SPEED=20
G21 ; set units to millimeters
G90 ; use absolute coordinates
M82 ; use absolute distances for extrusion
G92 E0
; Filament gcode
; ########################### NOTE OFFSET CHANGES ####################################
; Prevents PETG buildup on nozzle.
; SET_GCODE_OFFSET Z=0
; ####################################################################################
M107
;LAYER_CHANGE
;Z:0.35
;HEIGHT:0.35
G1 E-.5 F240
G1 Z.35 F9000
EXCLUDE_OBJECT_START NAME='thrust_bearing_casing_l'
G92 E0
G1 X132.801 Y163.662
G1 E.5 F240
;TYPE:External perimeter
;WIDTH:0.675
G1 F900
G1 X132.201 Y164.014 E.55587
G1 X131.508 Y164.254 E.61477
G1 X130.78 Y164.351 E.67375
G1 X130.048 Y164.302 E.73267
G1 X129.339 Y164.109 E.79168
G1 X128.697 Y163.786 E.8494
G1 X128.136 Y163.351 E.90641
G1 X127.674 Y162.821 E.96287
G1 X127.318 Y162.208 E1.0198
G1 X127.087 Y161.544 E1.07626
G1 X126.986 Y160.838 E1.13353
G1 X127.009 Y160.14 E1.18962
G1 X127.192 Y159.407 E1.25029
G1 X127.497 Y158.77 E1.30701
G1 X127.936 Y158.181 E1.366
G1 X128.482 Y157.691 E1.42492
G1 X129.115 Y157.319 E1.48388
G1 X129.809 Y157.08 E1.54283
G1 X130.536 Y156.982 E1.60174
G1 X131.269 Y157.031 E1.66074
G1 X131.977 Y157.224 E1.71967
G1 X132.633 Y157.554 E1.77864
G1 X133.196 Y157.996 E1.83612
G1 X133.658 Y158.532 E1.89295
G1 X133.97 Y159.046 E1.94124
G1 X134.194 Y159.648 E1.99282
G1 X134.322 Y160.348 E2.04997
G1 X134.314 Y161.053 E2.10659
G1 X134.171 Y161.748 E2.16357
G1 X134.068 Y162.046 E2.18889
G1 X133.819 Y162.563 E2.23497
G1 X133.305 Y163.227 E2.3024
G1 X132.873 Y163.608 E2.34866
G1 X132.36 Y163.919 F9000
G1 X133.135 Y164.151
;TYPE:Perimeter
G1 F900
G1 X132.729 Y164.402 E2.38699
G1 X132.338 Y164.607 E2.42244
G1 X131.699 Y164.822 E2.47658
G1 X131.17 Y164.906 E2.5196
G1 X130.675 Y164.951 E2.55952
G1 X130.003 Y164.9 E2.61364
G1 X129.177 Y164.686 E2.68216
G1 X128.423 Y164.32 E2.74947
G1 X127.762 Y163.82 E2.81603
G1 X127.215 Y163.207 E2.88201
G1 X126.791 Y162.495 E2.94856
G1 X126.629 Y162.094 E2.98329
G1 X126.478 Y161.603 E3.02454
G1 X126.389 Y160.898 E3.08161
G1 X126.39 Y160.371 E3.12393
G1 X126.46 Y159.847 E3.16639
G1 X126.628 Y159.205 E3.21968
G1 X126.864 Y158.703 E3.26423
G1 X127.08 Y158.318 E3.29968
G1 X127.458 Y157.819 E3.34995
G1 X127.89 Y157.414 E3.39751
G1 X128.234 Y157.135 E3.43308
G1 X128.815 Y156.8 E3.48694
G1 X129.329 Y156.608 E3.531
G1 X129.792 Y156.471 E3.56978
G1 X130.462 Y156.387 E3.62401
G1 X130.968 Y156.407 E3.66468
G1 X131.474 Y156.46 E3.70554
G1 X132.14 Y156.647 E3.76109
G1 X132.907 Y157.02 E3.82958
G1 X133.57 Y157.527 E3.89661
G1 X134.118 Y158.146 E3.963
G1 X134.403 Y158.597 E4.00584
G1 X134.624 Y159.077 E4.04828
G1 X134.802 Y159.57 E4.09037
G1 X134.916 Y160.259 E4.14645
G1 X134.933 Y160.694 E4.18141
G1 X134.907 Y161.216 E4.22338
G1 X134.752 Y161.896 E4.27939
G1 X134.609 Y162.306 E4.31426
G1 X134.359 Y162.823 E4.36038
G1 X133.984 Y163.348 E4.41219
G1 X133.702 Y163.676 E4.44693
G1 X133.231 Y164.092 E4.4974
G1 X133.212 Y164.104 E4.4992
G1 X133.212 Y164.104 F9000
G1 X133.47 Y164.642
G1 F900
G1 X133.029 Y164.922 E4.54115
G1 X132.532 Y165.175 E4.58594
G1 X131.89 Y165.391 E4.64034
G1 X131.245 Y165.502 E4.6929
G1 X130.743 Y165.553 E4.73342
G1 X129.958 Y165.498 E4.79662
G1 X129.375 Y165.365 E4.84464
G1 X128.889 Y165.222 E4.88532
G1 X128.15 Y164.854 E4.95162
G1 X127.694 Y164.532 E4.99645
G1 X127.286 Y164.203 E5.03854
G1 X126.755 Y163.592 E5.10355
G1 X126.451 Y163.124 E5.14837
G1 X126.181 Y162.624 E5.194
G1 X125.941 Y161.897 E5.25548
G1 X125.846 Y161.488 E5.2892
G1 X125.778 Y160.82 E5.34312
G1 X125.813 Y160.051 E5.40494
G1 X126.063 Y159.003 E5.49146
G1 X126.323 Y158.443 E5.54104
G1 X126.572 Y157.995 E5.5822
G1 X126.979 Y157.457 E5.63638
G1 X127.493 Y156.964 E5.69358
G1 X127.931 Y156.617 E5.73846
G1 X128.515 Y156.28 E5.79261
G1 X129.138 Y156.039 E5.84626
G1 X129.705 Y155.878 E5.89359
G1 X130.387 Y155.792 E5.94879
G1 X131.013 Y155.809 E5.99908
G1 X131.539 Y155.86 E6.04152
G1 X132.302 Y156.07 E6.10507
G1 X132.832 Y156.308 E6.15173
G1 X133.292 Y156.55 E6.19347
G1 X133.944 Y157.058 E6.25985
G1 X134.326 Y157.461 E6.30444
G1 X134.662 Y157.866 E6.3467
G1 X134.923 Y158.297 E6.38716
G1 X135.119 Y158.683 E6.42193
G1 X135.35 Y159.318 E6.4762
G1 X135.509 Y160.17 E6.5458
G1 X135.532 Y160.724 E6.59033
G1 X135.506 Y161.246 E6.6323
G1 X135.333 Y162.044 E6.69787
G1 X135.149 Y162.566 E6.74232
G1 X134.9 Y163.084 E6.78848
G1 X134.463 Y163.71 E6.84979
G1 X134.134 Y164.095 E6.89046
G1 X133.628 Y164.542 E6.94468
G1 X133.546 Y164.594 E6.95248
G1 X133.546 Y164.594 F9000
G1 X133.812 Y165.143
G1 F900
G1 X133.668 Y165.246 E6.9667
G1 X133.101 Y165.573 E7.01926
G1 X132.72 Y165.745 E7.05283
G1 X132.081 Y165.96 E7.10697
G1 X131.673 Y166.053 E7.14058
G1 X131.004 Y166.137 E7.19473
G1 X130.586 Y166.147 E7.22831
G1 X129.913 Y166.097 E7.28251
G1 X129.501 Y166.024 E7.31611
G1 X128.845 Y165.839 E7.37085
G1 X128.223 Y165.566 E7.4254
G1 X127.74 Y165.313 E7.46919
G1 X126.884 Y164.648 E7.55624
G1 X126.173 Y163.825 E7.64358
G1 X125.737 Y163.069 E7.71367
G1 X125.53 Y162.601 E7.75477
G1 X125.331 Y161.957 E7.8089
G1 X125.235 Y161.407 E7.85374
G1 X125.182 Y160.88 E7.89628
G1 X125.194 Y160.283 E7.94423
G1 X125.244 Y159.777 E7.98506
G1 X125.498 Y158.801 E8.06605
G1 X125.783 Y158.183 E8.1207
G1 X126.022 Y157.734 E8.16155
G1 X126.69 Y156.878 E8.24875
G1 X127.48 Y156.194 E8.33267
G1 X128.421 Y155.656 E8.41972
G1 X129.448 Y155.315 E8.50662
G1 X130.523 Y155.181 E8.59362
G1 X131.602 Y155.261 E8.68051
G1 X132.602 Y155.536 E8.7638
G1 X133.576 Y156.02 E8.85115
G1 X134.433 Y156.685 E8.93826
G1 X135.144 Y157.508 E9.0256
G1 X135.442 Y157.998 E9.07166
G1 X135.683 Y158.478 E9.11479
G1 X135.914 Y159.113 E9.16906
G1 X136.044 Y159.693 E9.21679
G1 X136.131 Y160.291 E9.26532
G1 X136.112 Y161.143 E9.33376
G1 X136.043 Y161.69 E9.37804
G1 X135.876 Y162.343 E9.43217
G1 X135.69 Y162.826 E9.47374
G1 X135.44 Y163.344 E9.51993
G1 X135.177 Y163.761 E9.55952
G1 X134.815 Y164.239 E9.60767
G1 X134.496 Y164.576 E9.64494
G1 X134.025 Y164.991 E9.69535
G1 X133.885 Y165.091 E9.70917
G1 X133.885 Y165.091 F9000
G1 X134.149 Y165.638
G1 F900
G1 X133.985 Y165.755 E9.72535
G1 X133.401 Y166.092 E9.7795
G1 X132.916 Y166.312 E9.82227
G1 X132.272 Y166.528 E9.87682
G1 X131.768 Y166.645 E9.91837
G1 X131.078 Y166.732 E9.97422
G1 X130.541 Y166.745 E10.01736
G1 X129.868 Y166.695 E10.07156
G1 X129.339 Y166.601 E10.11471
G1 X128.68 Y166.416 E10.16968
G1 X128.189 Y166.222 E10.21208
G1 X127.589 Y165.915 E10.26621
G1 X127.137 Y165.623 E10.30943
G1 X126.61 Y165.202 E10.3636
G1 X126.225 Y164.827 E10.40676
G1 X125.791 Y164.31 E10.46097
G1 X125.488 Y163.866 E10.50414
G1 X125.166 Y163.274 E10.55826
G1 X124.957 Y162.778 E10.60148
G1 X124.758 Y162.134 E10.65561
G1 X124.652 Y161.608 E10.6987
G1 X124.585 Y160.94 E10.75262
G1 X124.596 Y160.238 E10.809
G1 X124.655 Y159.666 E10.85518
G1 X124.933 Y158.6 E10.94365
G1 X125.242 Y157.922 E11.00349
G1 X125.499 Y157.436 E11.04764
G1 X125.882 Y156.919 E11.09931
G1 X126.233 Y156.487 E11.14401
G1 X126.699 Y156.064 E11.19455
G1 X127.137 Y155.701 E11.24024
G1 X127.673 Y155.381 E11.29037
G1 X128.18 Y155.107 E11.33665
G1 X129.249 Y154.745 E11.42729
G1 X129.918 Y154.642 E11.48165
G1 X130.44 Y154.584 E11.52383
G1 X131.103 Y154.613 E11.57713
G1 X131.643 Y154.66 E11.62066
G1 X132.275 Y154.816 E11.67294
G1 X132.804 Y154.971 E11.71721
G1 X133.38 Y155.24 E11.76826
G1 X133.885 Y155.506 E11.8141
G1 X134.387 Y155.876 E11.86418
G1 X134.835 Y156.241 E11.91059
G1 X135.245 Y156.69 E11.95942
G1 X135.626 Y157.151 E12.00745
G1 X135.962 Y157.698 E12.059
G1 X136.207 Y158.169 E12.10164
G1 X136.449 Y158.827 E12.15794
G1 X136.61 Y159.428 E12.20791
G1 X136.711 Y160.095 E12.26209
G1 X136.738 Y160.632 E12.30527
G1 X136.704 Y161.306 E12.35947
G1 X136.624 Y161.838 E12.40267
G1 X136.458 Y162.491 E12.45678
G1 X136.274 Y162.997 E12.50002
G1 X135.981 Y163.604 E12.55415
G1 X135.701 Y164.063 E12.59733
G1 X135.293 Y164.601 E12.65155
G1 X134.928 Y164.995 E12.69468
G1 X134.422 Y165.441 E12.74885
G1 X134.222 Y165.585 E12.76864
G1 X134.222 Y165.585 F9000
G1 X134.488 Y166.137
G1 F900
G1 X133.929 Y166.48 E12.82131
G1 X133.464 Y166.736 E12.86394
G1 X132.742 Y167.003 E12.92576
G1 X132.213 Y167.17 E12.97031
G1 X131.469 Y167.287 E13.03079
G1 X130.906 Y167.349 E13.07628
G1 X130.172 Y167.319 E13.13528
G1 X129.585 Y167.266 E13.18261
G1 X128.887 Y167.098 E13.24027
G1 X128.31 Y166.927 E13.2886
G1 X127.676 Y166.633 E13.34472
G1 X127.123 Y166.342 E13.3949
G1 X126.572 Y165.939 E13.44972
G1 X126.078 Y165.538 E13.50082
G1 X125.627 Y165.048 E13.5543
G1 X125.209 Y164.54 E13.60713
G1 X124.87 Y163.985 E13.65936
G1 X124.555 Y163.394 E13.71314
G1 X124.336 Y162.801 E13.76391
G1 X124.185 Y162.31 E13.80516
G1 X124.074 Y161.823 E13.84527
G1 X124.002 Y161.138 E13.90058
G1 X123.974 Y160.539 E13.94874
G1 X124.018 Y159.918 E13.99874
G1 X124.111 Y159.348 E14.04512
G1 X124.368 Y158.398 E14.12416
G1 X124.702 Y157.662 E14.18907
G1 X124.938 Y157.203 E14.23052
G1 X125.403 Y156.557 E14.29444
G1 X125.729 Y156.148 E14.33644
G1 X126.303 Y155.614 E14.3994
G1 X126.716 Y155.266 E14.44277
G1 X127.374 Y154.861 E14.50482
G1 X127.853 Y154.597 E14.54874
G1 X128.565 Y154.333 E14.60972
G1 X129.104 Y154.163 E14.65511
G1 X129.844 Y154.046 E14.71528
G1 X130.41 Y153.985 E14.761
G1 X131.147 Y154.014 E14.82023
G1 X131.732 Y154.067 E14.8674
G1 X132.437 Y154.238 E14.92566
G1 X133.006 Y154.406 E14.97331
G1 X133.654 Y154.707 E15.03069
G1 X134.193 Y154.991 E15.07962
G1 X134.761 Y155.407 E15.13616
G1 X135.238 Y155.796 E15.18559
G1 X135.705 Y156.304 E15.24101
G1 X136.108 Y156.794 E15.29196
G1 X136.481 Y157.398 E15.34897
G1 X136.761 Y157.941 E15.39803
G1 X137.012 Y158.622 E15.45632
G1 X137.177 Y159.186 E15.50351
G1 X137.288 Y159.901 E15.56162
G1 X137.341 Y160.491 E15.60919
G1 X137.31 Y161.202 E15.66634
G1 X137.247 Y161.8 E15.71463
G1 X137.077 Y162.488 E15.77154
G1 X136.898 Y163.067 E15.82021
G1 X136.602 Y163.698 E15.87618
G1 X136.31 Y164.239 E15.92555
G1 X135.897 Y164.797 E15.9813
G1 X135.503 Y165.275 E16.03105
G1 X134.601 Y166.068 E16.1275
G1 X134.565 Y166.089 E16.13085
G1 X134.565 Y166.089 F9000
G1 X134.826 Y166.631
G1 F900
G1 X134.229 Y167 E16.18721
G1 X133.72 Y167.279 E16.23382
G1 X132.933 Y167.572 E16.30126
G1 X132.359 Y167.752 E16.34957
G1 X131.543 Y167.883 E16.41594
G1 X130.936 Y167.948 E16.46497
G1 X130.127 Y167.917 E16.52999
G1 X129.496 Y167.86 E16.58087
G1 X128.725 Y167.675 E16.64455
G1 X128.108 Y167.492 E16.69623
G1 X127.642 Y167.29 E16.73702
G1 X127.041 Y166.982 E16.79125
G1 X126.488 Y166.637 E16.84359
G1 X125.892 Y166.165 E16.90465
G1 X125.404 Y165.71 E16.95823
G1 X124.917 Y165.135 E17.01874
G1 X124.52 Y164.588 E17.07302
G1 X124.157 Y163.929 E17.13344
G1 X123.934 Y163.475 E17.17406
G1 X123.612 Y162.487 E17.25751
G1 X123.485 Y161.939 E17.30269
G1 X123.405 Y161.198 E17.36254
G1 X123.371 Y160.67 E17.40503
G1 X123.451 Y159.589 E17.49208
G1 X123.65 Y158.727 E17.56313
G1 X123.803 Y158.196 E17.60751
G1 X124.161 Y157.402 E17.67746
G1 X124.424 Y156.895 E17.72333
G1 X124.925 Y156.195 E17.79246
G1 X125.284 Y155.745 E17.83869
G1 X125.906 Y155.165 E17.90699
G1 X126.359 Y154.784 E17.95453
G1 X127.074 Y154.341 E18.02208
G1 X127.596 Y154.055 E18.06988
G1 X128.374 Y153.765 E18.13656
G1 X128.958 Y153.581 E18.18573
G1 X129.769 Y153.451 E18.25169
G1 X130.381 Y153.386 E18.30112
G1 X131.192 Y153.416 E18.36629
G1 X131.82 Y153.474 E18.41694
G1 X132.6 Y153.661 E18.48136
G1 X133.208 Y153.841 E18.53228
G1 X133.675 Y154.043 E18.57314
G1 X134.275 Y154.351 E18.6273
G1 X134.842 Y154.706 E18.68102
G1 X135.441 Y155.182 E18.74246
G1 X135.927 Y155.638 E18.79598
G1 X136.416 Y156.218 E18.8569
G1 X136.809 Y156.766 E18.91106
G1 X137.087 Y157.247 E18.95568
G1 X137.316 Y157.712 E18.99731
G1 X137.576 Y158.417 E19.05765
G1 X137.765 Y159.069 E19.11217
G1 X137.882 Y159.812 E19.17257
G1 X137.941 Y160.49 E19.22722
G1 X137.909 Y161.232 E19.28686
G1 X137.865 Y161.745 E19.32821
G1 X137.62 Y162.787 E19.41417
G1 X137.454 Y163.292 E19.45686
G1 X137.142 Y163.958 E19.51592
G1 X136.893 Y164.439 E19.55942
G1 X136.375 Y165.159 E19.63065
G1 X136.032 Y165.588 E19.67476
G1 X135.395 Y166.183 E19.74476
G1 X134.958 Y166.55 E19.79059
G1 X134.902 Y166.584 E19.79585
G1 E19.29585 F240
G92 E0
G1 X134.902 Y166.584 F9000
G1 X142.802 Y162.185
G1 E.5 F240
;TYPE:External perimeter
G1 F900
G1 X142.791 Y162.285 E.50808
G1 X142.694 Y162.899 E.558
G1 X142.576 Y163.466 E.60451
G1 X142.425 Y164.048 E.6528
G1 X142.246 Y164.622 E.70109
G1 X142.026 Y165.215 E.75188
G1 X141.804 Y165.739 E.79758
G1 X141.542 Y166.279 E.84578
G1 X141.255 Y166.806 E.89397
G1 X140.916 Y167.356 E.94586
G1 X140.604 Y167.815 E.99043
G1 X140.242 Y168.295 E1.03871
G1 X139.857 Y168.756 E1.08694
G1 X139.41 Y169.238 E1.13973
G1 X139.02 Y169.62 E1.18357
G1 X138.572 Y170.019 E1.23175
G1 X138.105 Y170.395 E1.2799
G1 X137.561 Y170.788 E1.3338
G1 X137.118 Y171.078 E1.37632
G1 X136.6 Y171.383 E1.4246
G1 X136.067 Y171.662 E1.47291
G1 X135.445 Y171.946 E1.52782
G1 X134.956 Y172.142 E1.57013
G1 X134.397 Y172.337 E1.61768
G1 X133.822 Y172.506 E1.66581
G1 X133.142 Y172.666 E1.72191
G1 X132.052 Y172.842 E1.81058
G1 X131.454 Y172.896 E1.8588
G1 X130.743 Y172.921 E1.91593
G1 X129.653 Y172.88 E2.00353
G1 X129.056 Y172.816 E2.05175
G1 X128.34 Y172.698 E2.11003
G1 X127.293 Y172.45 E2.19644
