; generated by PrusaSlicer 2.8.0+MacOS-arm64 on 2024-09-05 at 12:56:54 UTC


;
;

;
;
; 

; external perimeters extrusion width = 0.68mm
; perimeters extrusion width = 0.68mm
; infill extrusion width = 0.68mm
; solid infill extrusion width = 0.68mm
; top infill extrusion width = 0.60mm
; first layer extrusion width = 0.70mm

; external perimeters extrusion width = 0.68mm
; perimeters extrusion width = 0.68mm
; infill extrusion width = 0.68mm
; solid infill extrusion width = 0.68mm
; top infill extrusion width = 0.60mm
; first layer extrusion width = 0.70mm


EXCLUDE_OBJECT_DEFINE NAME='thrust_bearing_casing_l' CENTER=126.763,80.847 POLYGON=[[127.204,68.856],[128.192,68.934],[129.655,69.202],[131.066,69.646],[131.973,70.038],[132.847,70.506],[133.882,71.189],[134.837,71.971],[135.607,72.737],[136.821,74.304],[137.326,75.155],[137.946,76.496],[138.397,77.911],[138.600,78.883],[138.722,79.864],[138.755,81.290],[138.677,82.278],[138.408,83.741],[137.964,85.152],[137.572,86.058],[137.104,86.933],[136.272,88.166],[134.873,89.692],[133.307,90.906],[132.456,91.411],[131.115,92.031],[130.178,92.351],[128.728,92.685],[127.746,92.807],[126.321,92.840],[125.333,92.762],[123.870,92.493],[122.458,92.049],[121.552,91.657],[120.678,91.190],[119.445,90.357],[117.919,88.958],[116.705,87.392],[116.199,86.541],[115.580,85.200],[115.259,84.263],[114.925,82.813],[114.803,81.831],[114.771,80.405],[114.849,79.417],[115.117,77.954],[115.561,76.543],[115.953,75.637],[116.421,74.762],[117.253,73.530],[118.652,72.004],[119.607,71.215],[120.563,70.574],[122.411,69.665],[123.348,69.344],[124.798,69.010],[125.779,68.888]]
EXCLUDE_OBJECT_DEFINE NAME='thrust_bearing_casing_r' CENTER=133.321,170.870 POLYGON=[[133.762,158.879],[134.750,158.956],[136.213,159.225],[137.624,159.669],[138.531,160.061],[139.405,160.528],[140.440,161.212],[141.395,161.993],[142.165,162.760],[143.379,164.326],[144.109,165.616],[144.504,166.519],[144.824,167.455],[145.158,168.906],[145.280,169.887],[145.313,171.313],[145.235,172.301],[144.966,173.764],[144.522,175.175],[144.130,176.081],[143.662,176.956],[142.830,178.189],[141.431,179.714],[139.865,180.928],[139.014,181.434],[137.673,182.054],[136.257,182.505],[135.286,182.708],[134.304,182.830],[132.879,182.863],[131.891,182.785],[130.428,182.516],[129.016,182.072],[128.110,181.680],[127.236,181.213],[126.003,180.380],[124.477,178.981],[123.263,177.415],[122.757,176.564],[122.138,175.223],[121.817,174.286],[121.483,172.836],[121.361,171.854],[121.329,170.428],[121.407,169.440],[121.675,167.977],[122.119,166.566],[122.511,165.660],[122.979,164.785],[123.811,163.552],[125.210,162.027],[126.165,161.238],[127.121,160.596],[128.969,159.687],[130.384,159.236],[131.356,159.033],[132.337,158.911]]

;TYPE:Custom
START_PRINT BED_TEMP=80 HOTEND_TEMP=230 FILAMENT_TYPE=FLEX EXTRUSION_MULTIPLIER=0.9 PERIMETER_SPEED=20
G21 ; set units to millimeters
G90 ; use absolute coordinates
M82 ; use absolute distances for extrusion
G92 E0
; Filament gcode
; ########################### NOTE OFFSET CHANGES ####################################
; Prevents PETG buildup on nozzle.
SET_GCODE_OFFSET Z=0
; ####################################################################################
M107
;LAYER_CHANGE
;Z:0.35
;HEIGHT:0.35
G1 E-.5 F240
G1 Z.35 F7800
EXCLUDE_OBJECT_START NAME='thrust_bearing_casing_l'
G92 E0
G1 X131.638 Y78.098
G1 E.5 F240
G92 E0
;TYPE:Perimeter
;WIDTH:0.7
G1 F1500
G1 X131.861 Y78.532 E.03993
G1 X132.064 Y79.049 E.08538
G1 X132.232 Y79.691 E.13969
G1 X132.336 Y80.447 E.20214
G1 X132.355 Y81.033 E.25012
G1 X132.232 Y81.971 E.32754
G1 X132.064 Y82.614 E.38193
G1 X131.861 Y83.13 E.42731
G1 X131.626 Y83.596 E.47002
G1 X131.304 Y84.095 E.51862
G1 X130.955 Y84.533 E.56445
G1 X130.567 Y84.93 E.60988
G1 X130.184 Y85.259 E.6512
G1 X129.77 Y85.542 E.69224
G1 X129.328 Y85.807 E.73441
G1 X128.677 Y86.086 E.79237
G1 X128.141 Y86.251 E.83827
G1 X127.597 Y86.361 E.88369
G1 X126.97 Y86.416 E.9352
G1 X126.278 Y86.399 E.99185
G1 X125.654 Y86.313 E1.0434
G1 X125.115 Y86.176 E1.08891
G1 X124.589 Y85.984 E1.13473
G1 X124.089 Y85.743 E1.18015
G1 X123.611 Y85.452 E1.22595
G1 X123.169 Y85.116 E1.27139
G1 X122.758 Y84.735 E1.31725
G1 X122.391 Y84.319 E1.36265
G1 X122.082 Y83.895 E1.40559
G1 X121.823 Y83.448 E1.44787
G1 X121.58 Y82.942 E1.49381
G1 X121.39 Y82.379 E1.54244
G1 X121.255 Y81.801 E1.59101
G1 X121.186 Y81.25 E1.63645
G1 X121.172 Y80.691 E1.68221
G1 X121.213 Y80.137 E1.72767
G1 X121.31 Y79.586 E1.77346
G1 X121.461 Y79.051 E1.81895
G1 X121.665 Y78.53 E1.86474
G1 X121.919 Y78.036 E1.9102
G1 X122.222 Y77.566 E1.95596
G1 X122.568 Y77.132 E2.00138
G1 X122.936 Y76.75 E2.04479
G1 X123.38 Y76.378 E2.09219
G1 X123.847 Y76.059 E2.13847
G1 X124.335 Y75.793 E2.18395
G1 X124.851 Y75.576 E2.22976
G1 X125.381 Y75.412 E2.27516
G1 X125.929 Y75.301 E2.32092
G1 X126.48 Y75.246 E2.36624
G1 X126.983 Y75.239 E2.40741
G1 X127.548 Y75.292 E2.45385
G1 X128.141 Y75.411 E2.50335
G1 X128.677 Y75.576 E2.54925
G1 X129.188 Y75.792 E2.59465
G1 X129.68 Y76.06 E2.6405
G1 X130.139 Y76.373 E2.68597
G1 X130.539 Y76.703 E2.72841
G1 X130.934 Y77.108 E2.77471
G1 X131.304 Y77.568 E2.82302
G1 X131.596 Y78.019 E2.86699
G1 X131.596 Y78.019 F7800
G1 X131.083 Y78.4
G1 F1500
G1 X131.234 Y78.654 E2.89117
G1 X131.482 Y79.277 E2.94605
G1 X131.613 Y79.777 E2.98835
G1 X131.717 Y80.532 E3.05072
G1 X131.717 Y81.129 E3.09958
G1 X131.613 Y81.885 E3.16203
G1 X131.482 Y82.385 E3.20433
G1 X131.279 Y82.902 E3.24978
G1 X131.08 Y83.29 E3.28547
G1 X130.779 Y83.756 E3.33087
G1 X130.49 Y84.114 E3.36852
G1 X130.12 Y84.494 E3.41192
G1 X129.787 Y84.774 E3.44752
G1 X129.328 Y85.087 E3.49299
G1 X128.817 Y85.349 E3.53998
G1 X128.334 Y85.55 E3.58279
G1 X127.474 Y85.749 E3.65503
G1 X126.986 Y85.792 E3.69512
G1 X126.293 Y85.774 E3.75185
G1 X125.808 Y85.707 E3.79192
G1 X125.27 Y85.57 E3.83735
G1 X124.616 Y85.304 E3.89513
G1 X124.085 Y85.023 E3.94429
G1 X123.546 Y84.618 E3.99946
G1 X123.139 Y84.222 E4.04593
G1 X122.805 Y83.842 E4.08733
G1 X122.365 Y83.135 E4.15548
G1 X122.149 Y82.675 E4.19707
G1 X121.982 Y82.18 E4.23982
G1 X121.873 Y81.708 E4.27946
G1 X121.806 Y81.173 E4.32358
G1 X121.797 Y80.714 E4.36115
G1 X121.836 Y80.184 E4.40464
G1 X121.922 Y79.719 E4.44334
G1 X122.062 Y79.221 E4.48567
G1 X122.258 Y78.744 E4.52787
G1 X122.492 Y78.288 E4.56981
G1 X122.827 Y77.81 E4.61758
G1 X123.217 Y77.342 E4.66743
G1 X123.781 Y76.857 E4.7283
G1 X124.146 Y76.607 E4.76451
G1 X124.634 Y76.342 E4.80995
G1 X125.035 Y76.173 E4.84556
G1 X125.566 Y76.009 E4.89104
G1 X125.992 Y75.923 E4.92661
G1 X126.542 Y75.868 E4.97184
G1 X127.148 Y75.873 E5.02143
G1 X128.018 Y76.024 E5.09369
G1 X128.516 Y76.187 E5.13657
G1 X128.988 Y76.386 E5.17849
G1 X129.787 Y76.889 E5.25576
G1 X130.12 Y77.169 E5.29136
G1 X130.508 Y77.566 E5.33679
G1 X130.899 Y78.092 E5.39043
G1 X131.037 Y78.323 E5.41245
G1 X131.037 Y78.323 F7800
G1 X130.536 Y78.698
G1 F1500
G1 X130.665 Y78.913 E5.43297
G1 X130.9 Y79.506 E5.48517
G1 X130.994 Y79.862 E5.5153
G1 X131.098 Y80.617 E5.57767
G1 X131.098 Y81.044 E5.61261
G1 X130.994 Y81.8 E5.67506
G1 X130.9 Y82.157 E5.70527
G1 X130.697 Y82.674 E5.75072
G1 X130.254 Y83.417 E5.82151
G1 X129.673 Y84.058 E5.89231
G1 X129.066 Y84.509 E5.9542
G1 X128.575 Y84.773 E5.99982
G1 X128.018 Y84.996 E6.04892
G1 X127.35 Y85.136 E6.10477
G1 X127.001 Y85.167 E6.13344
G1 X126.309 Y85.15 E6.19009
G1 X125.737 Y85.044 E6.2377
G1 X125.22 Y84.898 E6.28166
G1 X124.631 Y84.617 E6.33507
G1 X124.068 Y84.23 E6.39098
G1 X123.695 Y83.908 E6.43131
G1 X123.328 Y83.492 E6.47671
G1 X122.906 Y82.823 E6.54144
G1 X122.741 Y82.475 E6.57296
G1 X122.575 Y81.981 E6.61561
G1 X122.493 Y81.63 E6.64511
G1 X122.426 Y81.095 E6.68923
G1 X122.459 Y80.244 E6.75893
G1 X122.664 Y79.39 E6.8308
G1 X123.031 Y78.606 E6.90164
G1 X123.546 Y77.911 E6.97243
G1 X124.183 Y77.336 E7.04266
G1 X124.67 Y77.034 E7.08956
G1 X125.151 Y76.793 E7.13359
G1 X125.75 Y76.606 E7.18494
G1 X126.42 Y76.508 E7.24035
G1 X126.921 Y76.488 E7.28138
G1 X127.35 Y76.526 E7.31663
G1 X127.894 Y76.636 E7.36205
G1 X128.703 Y76.944 E7.43289
G1 X129.434 Y77.405 E7.50362
G1 X130.039 Y77.981 E7.57198
G1 X130.374 Y78.431 E7.61789
G1 X130.489 Y78.621 E7.63607
G1 X130.489 Y78.621 F7800
G1 X129.991 Y78.994
G1 F1500
G1 X130.031 Y79.051 E7.64177
G1 X130.319 Y79.734 E7.70243
G1 X130.479 Y80.702 E7.78272
G1 X130.449 Y81.176 E7.82159
G1 X130.375 Y81.714 E7.86603
G1 X130.213 Y82.197 E7.90772
G1 X130.031 Y82.612 E7.9448
G1 X129.729 Y83.078 E7.99024
G1 X129.225 Y83.621 E8.05087
G1 X128.714 Y83.993 E8.1026
G1 X128.332 Y84.197 E8.13804
G1 X127.845 Y84.396 E8.18109
G1 X127.226 Y84.524 E8.23282
G1 X126.542 Y84.53 E8.2888
G1 X126.116 Y84.496 E8.32377
G1 X125.578 Y84.359 E8.3692
G1 X124.902 Y84.054 E8.42989
G1 X124.446 Y83.732 E8.47557
G1 X124.076 Y83.396 E8.51647
G1 X123.735 Y83.002 E8.55911
G1 X123.447 Y82.511 E8.60569
G1 X123.333 Y82.276 E8.62707
G1 X123.167 Y81.782 E8.66972
G1 X123.048 Y81.038 E8.73138
G1 X123.082 Y80.29 E8.79266
G1 X123.265 Y79.559 E8.85433
G1 X123.587 Y78.891 E8.91502
G1 X124.034 Y78.301 E8.9756
G1 X124.585 Y77.814 E9.03578
G1 X125.232 Y77.439 E9.09698
G1 X125.934 Y77.203 E9.15759
G1 X126.483 Y77.13 E9.20291
G1 X127.086 Y77.121 E9.25226
G1 X127.77 Y77.249 E9.30921
G1 X128.46 Y77.519 E9.36985
G1 X129.082 Y77.921 E9.43046
G1 X129.592 Y78.417 E9.48868
G1 X129.94 Y78.92 E9.53874
G1 X129.94 Y78.92 F7800
G1 X129.441 Y79.294
;TYPE:External perimeter
G1 F1500
G1 X129.506 Y79.39 E9.54823
G1 X129.737 Y79.962 E9.59871
G1 X129.86 Y80.788 E9.66705
G1 X129.756 Y81.629 E9.7364
G1 X129.534 Y82.217 E9.78784
G1 X129.205 Y82.739 E9.83834
G1 X128.778 Y83.185 E9.88887
G1 X128.362 Y83.476 E9.93042
G1 X127.706 Y83.783 E9.98969
G1 X127.102 Y83.911 E10.04022
G1 X126.271 Y83.891 E10.10825
G1 X125.732 Y83.754 E10.15376
G1 X125.174 Y83.491 E10.20424
G1 X124.678 Y83.124 E10.25473
G1 X124.265 Y82.665 E10.30526
G1 X123.988 Y82.198 E10.34969
G1 X123.759 Y81.583 E10.4034
G1 X123.668 Y80.96 E10.45493
G1 X123.705 Y80.337 E10.506
G1 X123.867 Y79.728 E10.55757
G1 X124.143 Y79.176 E10.60808
G1 X124.523 Y78.69 E10.65857
G1 X124.986 Y78.293 E10.70848
G1 X125.53 Y77.988 E10.75952
G1 X126.118 Y77.8 E10.81004
G1 X126.729 Y77.733 E10.86034
G1 X127.102 Y77.751 E10.8909
G1 X127.65 Y77.862 E10.93666
G1 X128.217 Y78.095 E10.98683
G1 X128.73 Y78.438 E11.03733
G1 X129.144 Y78.853 E11.0853
G1 X129.391 Y79.22 E11.1215
G1 X129.65 Y79.761 F7800
G1 E10.6215 F240
G92 E0
G1 X130.221 Y79.553 F7800
G1 X130.258 Y79.657
G1 X130.313 Y79.833
G1 X130.358 Y80.011
G1 X130.394 Y80.191
G1 X130.422 Y80.373
G1 X130.44 Y80.556
G1 X130.449 Y80.734
G1 X130.45 Y80.833
G1 X130.449 Y80.929
G1 X130.44 Y81.107
G1 X130.422 Y81.29
G1 X130.394 Y81.472
G1 X130.358 Y81.652
G1 X130.313 Y81.83
G1 X128.202 Y89.879
G1 E.5 F240
;TYPE:Perimeter
G1 F1500
G1 X127.537 Y89.962 E.55484
G1 X126.401 Y89.988 E.64783
G1 X125.702 Y89.933 E.70521
G1 X124.557 Y89.722 E.80049
G1 X123.455 Y89.375 E.89504
G1 X122.792 Y89.089 E.95413
G1 X122.15 Y88.746 E1.0137
G1 X121.161 Y88.078 E1.11137
G1 X120.611 Y87.618 E1.17005
G1 X120.017 Y87.027 E1.23862
G1 X119.534 Y86.454 E1.29995
G1 X119.095 Y85.836 E1.36199
G1 X118.709 Y85.187 E1.42379
G1 X118.393 Y84.539 E1.48279
G1 X117.996 Y83.452 E1.57749
G1 X117.735 Y82.317 E1.6728
G1 X117.649 Y81.622 E1.73011
G1 X117.623 Y80.485 E1.82318
G1 X117.678 Y79.787 E1.88048
G1 X117.888 Y78.641 E1.97583
G1 X118.235 Y77.539 E2.07038
G1 X118.522 Y76.876 E2.1295
G1 X118.865 Y76.235 E2.189
G1 X119.533 Y75.246 E2.28667
G1 X119.993 Y74.696 E2.34535
G1 X120.583 Y74.102 E2.41387
G1 X121.156 Y73.62 E2.47515
G1 X121.781 Y73.176 E2.53789
G1 X122.399 Y72.809 E2.59671
G1 X123.472 Y72.313 E2.69345
G1 X124.131 Y72.088 E2.75044
G1 X125.294 Y71.82 E2.84811
G1 X125.989 Y71.734 E2.90542
G1 X127.118 Y71.708 E2.99784
G1 X127.823 Y71.763 E3.05571
G1 X128.968 Y71.973 E3.15098
G1 X130.064 Y72.318 E3.24501
G1 X130.613 Y72.555 E3.29395
G1 X131.084 Y72.794 E3.33717
G1 X131.704 Y73.149 E3.39564
G1 X132.338 Y73.596 E3.45912
G1 X132.914 Y74.078 E3.52058
G1 X133.508 Y74.669 E3.58915
G1 X133.991 Y75.242 E3.65048
G1 X134.414 Y75.836 E3.71016
G1 X134.999 Y76.87 E3.80738
G1 X135.288 Y77.529 E3.86627
G1 X135.493 Y78.13 E3.91824
G1 X135.802 Y79.47 E4.03078
G1 X135.879 Y80.164 E4.08792
G1 X135.902 Y81.21 E4.17354
G1 X135.847 Y81.908 E4.23084
G1 X135.637 Y83.054 E4.32619
G1 X135.29 Y84.156 E4.42074
G1 X135.004 Y84.819 E4.47983
G1 X134.66 Y85.461 E4.53944
G1 X133.993 Y86.45 E4.63706
G1 X133.533 Y87 E4.69574
G1 X132.942 Y87.593 E4.76425
G1 X132.369 Y88.076 E4.82558
G1 X131.751 Y88.515 E4.88762
G1 X131.101 Y88.901 E4.94949
G1 X130.454 Y89.217 E5.00842
G1 X129.366 Y89.614 E5.1032
G1 X128.29 Y89.862 E5.19356
G1 X128.317 Y90.494 F7800
G1 F1500
G1 X127.582 Y90.586 E5.25418
G1 X126.383 Y90.613 E5.35233
G1 X125.621 Y90.553 E5.41488
G1 X124.406 Y90.33 E5.51597
G1 X123.236 Y89.962 E5.61634
G1 X122.52 Y89.652 E5.68019
G1 X121.827 Y89.282 E5.74448
G1 X120.785 Y88.578 E5.84739
G1 X120.189 Y88.08 E5.91095
G1 X119.557 Y87.45 E5.98398
G1 X119.04 Y86.837 E6.04961
G1 X118.571 Y86.177 E6.11587
G1 X118.159 Y85.484 E6.18185
G1 X117.818 Y84.784 E6.24557
G1 X117.396 Y83.63 E6.34613
G1 X117.119 Y82.426 E6.44724
G1 X117.025 Y81.668 E6.50975
G1 X116.998 Y80.468 E6.60798
G1 X117.058 Y79.706 E6.67053
G1 X117.281 Y78.491 E6.77162
G1 X117.649 Y77.321 E6.87199
G1 X117.958 Y76.605 E6.93581
G1 X118.329 Y75.912 E7.00014
G1 X119.033 Y74.87 E7.10305
G1 X119.531 Y74.274 E7.16661
G1 X120.16 Y73.642 E7.23958
G1 X120.773 Y73.125 E7.30521
G1 X121.441 Y72.651 E7.37224
G1 X122.107 Y72.255 E7.43565
G1 X123.239 Y71.732 E7.5377
G1 X123.959 Y71.486 E7.59997
G1 X125.185 Y71.204 E7.70292
G1 X125.943 Y71.11 E7.76543
G1 X127.136 Y71.082 E7.86309
G1 X127.904 Y71.142 E7.92613
G1 X129.119 Y71.366 E8.02724
G1 X130.282 Y71.731 E8.12699
G1 X130.914 Y72.004 E8.18333
G1 X131.378 Y72.243 E8.22604
G1 X132.049 Y72.627 E8.28931
G1 X132.719 Y73.1 E8.35643
G1 X133.336 Y73.616 E8.42225
G1 X133.968 Y74.245 E8.49522
G1 X134.486 Y74.859 E8.56096
G1 X134.942 Y75.5 E8.62534
G1 X135.559 Y76.59 E8.72784
G1 X135.871 Y77.303 E8.79153
G1 X136.084 Y77.928 E8.84557
G1 X136.232 Y78.514 E8.89503
G1 X136.422 Y79.393 E8.96863
G1 X136.503 Y80.15 E9.03093
G1 X136.528 Y81.228 E9.11917
G1 X136.468 Y81.99 E9.18172
G1 X136.245 Y83.205 E9.28281
G1 X135.877 Y84.375 E9.38318
G1 X135.567 Y85.091 E9.44703
G1 X135.196 Y85.784 E9.51136
G1 X134.493 Y86.826 E9.61423
G1 X133.995 Y87.421 E9.67773
G1 X133.365 Y88.053 E9.75076
G1 X132.752 Y88.571 E9.81644
G1 X132.092 Y89.04 E9.8827
G1 X131.398 Y89.452 E9.94875
G1 X130.698 Y89.793 E10.01247
G1 X129.544 Y90.214 E10.113
G1 X128.405 Y90.477 E10.20866
G1 X128.405 Y90.477 F7800
G1 X128.432 Y91.11
G1 F1500
G1 X127.628 Y91.21 E10.27496
G1 X126.366 Y91.239 E10.37827
G1 X125.54 Y91.174 E10.44608
G1 X124.255 Y90.938 E10.553
G1 X123.018 Y90.548 E10.65914
G1 X122.248 Y90.215 E10.72779
G1 X121.504 Y89.817 E10.79684
G1 X120.408 Y89.078 E10.90502
G1 X119.767 Y88.542 E10.9734
G1 X119.097 Y87.874 E11.05083
G1 X118.545 Y87.22 E11.12087
G1 X118.047 Y86.519 E11.19124
G1 X117.608 Y85.781 E11.26151
G1 X117.242 Y85.029 E11.32995
G1 X116.796 Y83.808 E11.43633
G1 X116.503 Y82.535 E11.54323
G1 X116.401 Y81.714 E11.61093
G1 X116.372 Y80.45 E11.7144
G1 X116.437 Y79.624 E11.78221
G1 X116.673 Y78.34 E11.88905
G1 X117.062 Y77.102 E11.99525
G1 X117.395 Y76.333 E12.06383
G1 X117.793 Y75.589 E12.13288
G1 X118.533 Y74.493 E12.2411
G1 X119.069 Y73.852 E12.30948
G1 X119.736 Y73.182 E12.38685
G1 X120.39 Y72.631 E12.45683
G1 X121.1 Y72.127 E12.52808
G1 X121.816 Y71.702 E12.59622
G1 X123.006 Y71.152 E12.7035
G1 X123.788 Y70.884 E12.77115
G1 X125.076 Y70.588 E12.8793
G1 X125.897 Y70.486 E12.947
G1 X127.153 Y70.457 E13.04981
G1 X127.985 Y70.522 E13.11811
G1 X129.27 Y70.758 E13.22503
G1 X130.5 Y71.145 E13.33055
G1 X131.162 Y71.43 E13.38953
G1 X131.673 Y71.692 E13.43652
G1 X132.393 Y72.105 E13.50445
G1 X133.1 Y72.604 E13.57527
G1 X133.758 Y73.154 E13.64545
G1 X134.429 Y73.822 E13.72293
G1 X134.98 Y74.476 E13.79291
G1 X135.47 Y75.164 E13.86203
G1 X136.118 Y76.31 E13.96977
G1 X136.454 Y77.076 E14.03822
G1 X136.726 Y77.873 E14.10714
G1 X137.042 Y79.316 E14.22803
G1 X137.128 Y80.135 E14.29542
G1 X137.153 Y81.245 E14.38628
