; generated by PrusaSlicer 2.8.0+MacOS-arm64 on 2024-10-04 at 12:13:11 UTC


;
;

;
;
; 

; external perimeters extrusion width = 0.68mm
; perimeters extrusion width = 0.68mm
; infill extrusion width = 0.68mm
; solid infill extrusion width = 0.68mm
; top infill extrusion width = 0.60mm

; external perimeters extrusion width = 0.68mm
; perimeters extrusion width = 0.68mm
; infill extrusion width = 0.68mm
; solid infill extrusion width = 0.68mm
; top infill extrusion width = 0.60mm


EXCLUDE_OBJECT_DEFINE NAME='thrust_bearing_casing_l' CENTER=129.063,166.088 POLYGON=[[129.371,153.513],[130.602,153.604],[131.818,153.816],[133.008,154.144],[134.160,154.589],[135.262,155.144],[136.305,155.804],[137.278,156.563],[138.172,157.414],[138.978,158.349],[139.689,159.358],[140.298,160.432],[140.798,161.561],[141.185,162.733],[141.455,163.937],[141.607,165.162],[141.638,166.397],[141.546,167.628],[141.335,168.844],[141.006,170.033],[140.562,171.185],[140.007,172.288],[139.346,173.330],[138.587,174.303],[137.736,175.198],[136.801,176.004],[135.792,176.714],[134.719,177.323],[133.590,177.824],[132.418,178.211],[131.213,178.481],[129.988,178.633],[128.754,178.663],[127.523,178.572],[126.307,178.361],[125.117,178.032],[123.965,177.588],[122.863,177.032],[121.820,176.372],[120.847,175.613],[119.953,174.762],[119.147,173.827],[118.436,172.818],[117.827,171.744],[117.327,170.616],[116.940,169.443],[116.670,168.239],[116.518,167.014],[116.488,165.779],[116.579,164.548],[116.790,163.332],[117.119,162.143],[117.563,160.991],[118.119,159.888],[118.779,158.846],[119.538,157.873],[120.389,156.978],[121.324,156.172],[122.333,155.462],[123.406,154.853],[124.535,154.352],[125.707,153.966],[126.912,153.695],[128.137,153.544]]
EXCLUDE_OBJECT_DEFINE NAME='thrust_bearing_casing_r' CENTER=125.858,76.964 POLYGON=[[126.260,64.972],[127.246,65.046],[128.707,65.309],[130.118,65.747],[131.023,66.134],[131.898,66.597],[132.934,67.275],[133.891,68.051],[134.714,68.868],[135.923,70.433],[136.651,71.721],[137.044,72.622],[137.363,73.557],[137.696,75.005],[137.817,75.984],[137.851,77.369],[137.777,78.355],[137.514,79.816],[137.076,81.226],[136.689,82.132],[136.226,83.007],[135.400,84.241],[133.955,85.822],[132.390,87.031],[131.540,87.535],[130.201,88.152],[129.266,88.471],[127.819,88.804],[126.839,88.925],[125.404,88.957],[123.441,88.719],[122.482,88.481],[121.095,87.980],[120.205,87.550],[118.941,86.771],[118.158,86.169],[117.088,85.156],[116.444,84.406],[115.597,83.187],[114.910,81.880],[114.544,80.966],[114.254,80.020],[113.965,78.564],[113.870,76.430],[114.121,74.468],[114.366,73.511],[114.876,72.128],[115.312,71.241],[116.100,69.982],[116.707,69.203],[117.695,68.170],[118.643,67.377],[119.659,66.691],[121.432,65.811],[122.841,65.351],[123.809,65.142],[124.788,65.013]]

;TYPE:Custom
START_PRINT BED_TEMP=80 HOTEND_TEMP=230 FILAMENT_TYPE=FLEX EXTRUSION_MULTIPLIER=0.92 PERIMETER_SPEED=80
G21 ; set units to millimeters
G90 ; use absolute coordinates
M82 ; use absolute distances for extrusion
G92 E0
; Filament gcode
; ########################### NOTE OFFSET CHANGES ####################################
; Prevents PETG buildup on nozzle.
SET_GCODE_OFFSET Z=0
; ####################################################################################
M107
;LAYER_CHANGE
;Z:0.35
;HEIGHT:0.35
G1 E-.5 F240
G1 Z.35 F9000
EXCLUDE_OBJECT_START NAME='thrust_bearing_casing_l'
G92 E0
G1 X128.407 Y162.308
G1 E.5 F240
G92 E0
;TYPE:External perimeter
;WIDTH:0.675
G1 F1800
G1 X128.937 Y162.238 E.04293
G1 X129.699 Y162.289 E.10426
G1 X130.436 Y162.49 E.16561
G1 X131.109 Y162.828 E.22609
G1 X131.696 Y163.286 E.28588
G1 X132.107 Y163.737 E.33488
G1 X132.469 Y164.32 E.38999
G1 X132.739 Y165.004 E.44905
G1 X132.875 Y165.733 E.5086
G1 X132.868 Y166.467 E.56755
G1 X132.817 Y166.809 E.59532
G1 X132.677 Y167.356 E.64066
G1 X132.438 Y167.867 E.68596
G1 X132.267 Y168.167 E.71369
G1 X131.895 Y168.659 E.76322
G1 X131.249 Y169.22 E.83193
G1 X130.668 Y169.556 E.88583
G1 X129.945 Y169.805 E.94724
G1 X129.188 Y169.906 E1.00857
G1 X128.426 Y169.855 E1.0699
G1 X127.689 Y169.653 E1.13127
G1 X127.031 Y169.323 E1.19039
G1 X126.445 Y168.871 E1.24982
G1 X125.963 Y168.32 E1.30861
G1 X125.59 Y167.682 E1.36796
G1 X125.348 Y166.991 E1.42676
G1 X125.281 Y166.649 E1.45475
G1 X125.227 Y166.105 E1.49865
G1 X125.265 Y165.523 E1.54549
G1 X125.46 Y164.751 E1.60944
G1 X125.774 Y164.097 E1.6677
G1 X126.298 Y163.416 E1.73671
G1 X126.799 Y162.974 E1.79036
G1 X127.458 Y162.587 E1.85173
G1 X128.18 Y162.338 E1.91306
G1 X128.318 Y162.32 E1.92424
G1 X128.914 Y162.252 F9000
G1 X128.317 Y161.711
;TYPE:Perimeter
G1 F1800
G1 X128.862 Y161.642 E1.96836
G1 X129.384 Y161.663 E2.01031
G1 X129.907 Y161.718 E2.05254
G1 X130.599 Y161.912 E2.11026
G1 X131.382 Y162.294 E2.18023
G1 X132.07 Y162.817 E2.24963
G1 X132.449 Y163.218 E2.29394
G1 X132.775 Y163.67 E2.3387
G1 X133.043 Y164.112 E2.38021
G1 X133.303 Y164.799 E2.4392
G1 X133.409 Y165.253 E2.47664
G1 X133.486 Y165.761 E2.5179
G1 X133.467 Y166.497 E2.57703
G1 X133.398 Y166.957 E2.61439
G1 X133.259 Y167.504 E2.65971
G1 X132.978 Y168.128 E2.71467
G1 X132.746 Y168.529 E2.75187
G1 X132.373 Y169.021 E2.80145
G1 X131.912 Y169.452 E2.85213
G1 X131.549 Y169.74 E2.88934
G1 X130.967 Y170.075 E2.94327
G1 X130.429 Y170.275 E2.98936
G1 X129.962 Y170.413 E3.02847
G1 X129.263 Y170.501 E3.08505
G1 X128.745 Y170.48 E3.12668
G1 X128.22 Y170.426 E3.16906
G1 X127.526 Y170.231 E3.22695
G1 X126.757 Y169.856 E3.29566
G1 X126.071 Y169.34 E3.3646
G1 X125.503 Y168.706 E3.43296
G1 X125.252 Y168.315 E3.47027
G1 X124.989 Y167.831 E3.51451
G1 X124.775 Y167.167 E3.57054
G1 X124.684 Y166.709 E3.60804
G1 X124.63 Y166.165 E3.65194
G1 X124.667 Y165.478 E3.70719
G1 X124.903 Y164.528 E3.7858
G1 X125.134 Y164.042 E3.82901
G1 X125.363 Y163.635 E3.86651
G1 X125.752 Y163.122 E3.91821
G1 X126.196 Y162.706 E3.96707
G1 X126.561 Y162.412 E4.00471
G1 X127.158 Y162.068 E4.06004
G1 X127.686 Y161.871 E4.1053
G1 X128.164 Y161.73 E4.14532
G1 X128.228 Y161.722 E4.1505
G1 X128.228 Y161.722 F9000
G1 X128.228 Y161.12
G1 F1800
G1 X128.788 Y161.047 E4.19585
G1 X129.428 Y161.065 E4.24727
G1 X129.931 Y161.11 E4.28783
G1 X130.761 Y161.335 E4.35689
G1 X131.305 Y161.58 E4.4048
G1 X131.753 Y161.814 E4.44539
G1 X132.444 Y162.348 E4.51552
G1 X132.899 Y162.821 E4.56823
G1 X133.162 Y163.153 E4.60224
G1 X133.53 Y163.755 E4.6589
G1 X133.732 Y164.224 E4.69991
G1 X133.926 Y164.764 E4.74599
G1 X134.061 Y165.554 E4.81035
G1 X134.094 Y165.97 E4.84386
G1 X134.059 Y166.674 E4.90047
G1 X133.882 Y167.488 E4.96737
G1 X133.738 Y167.932 E5.00486
G1 X133.432 Y168.567 E5.06147
G1 X132.985 Y169.206 E5.1241
G1 X132.648 Y169.602 E5.16586
G1 X132.12 Y170.068 E5.22242
G1 X131.507 Y170.456 E5.28068
G1 X130.995 Y170.718 E5.32687
G1 X130.327 Y170.942 E5.38345
G1 X129.668 Y171.055 E5.43715
G1 X129.151 Y171.108 E5.47889
G1 X128.336 Y171.051 E5.5445
G1 X127.739 Y170.914 E5.59369
G1 X127.239 Y170.767 E5.63554
G1 X126.483 Y170.39 E5.70338
G1 X126.006 Y170.054 E5.75024
G1 X125.586 Y169.716 E5.79354
G1 X125.043 Y169.091 E5.86003
G1 X124.823 Y168.782 E5.89049
G1 X124.486 Y168.163 E5.94709
G1 X124.202 Y167.344 E6.0167
G1 X124.103 Y166.923 E6.05143
G1 X124.033 Y166.225 E6.10777
G1 X124.047 Y165.721 E6.14826
G1 X124.111 Y165.175 E6.19241
G1 X124.346 Y164.306 E6.2647
G1 X124.594 Y163.782 E6.31126
G1 X124.848 Y163.321 E6.35353
G1 X125.274 Y162.76 E6.4101
G1 X125.8 Y162.256 E6.4686
G1 X126.248 Y161.901 E6.5145
G1 X126.858 Y161.548 E6.5711
G1 X127.495 Y161.303 E6.62591
G1 X127.983 Y161.152 E6.66693
G1 X128.139 Y161.132 E6.67956
G1 X128.139 Y161.132 F9000
G1 X128.139 Y160.534
G1 F1800
G1 X128.924 Y160.436 E6.74309
G1 X129.986 Y160.511 E6.82859
G1 X131.062 Y160.801 E6.91809
G1 X132.062 Y161.299 E7.00781
G1 X132.942 Y161.983 E7.09732
G1 X133.349 Y162.424 E7.14551
G1 X133.674 Y162.84 E7.1879
G1 X134.041 Y163.442 E7.24452
G1 X134.296 Y164.019 E7.29518
G1 X134.5 Y164.59 E7.34387
G1 X134.654 Y165.465 E7.41522
G1 X134.693 Y166 E7.4583
G1 X134.658 Y166.704 E7.51491
G1 X134.561 Y167.253 E7.55968
G1 X134.421 Y167.8 E7.60502
G1 X134.23 Y168.294 E7.64755
G1 X133.973 Y168.827 E7.69507
G1 X133.702 Y169.254 E7.73568
G1 X133.329 Y169.746 E7.78526
G1 X133.001 Y170.091 E7.82349
G1 X132.517 Y170.518 E7.87532
G1 X132.149 Y170.779 E7.91155
G1 X131.567 Y171.115 E7.96552
G1 X131.183 Y171.287 E7.99931
G1 X130.518 Y171.511 E8.05566
G1 X130.111 Y171.604 E8.08919
G1 X129.412 Y171.691 E8.14576
G1 X128.994 Y171.702 E8.17934
G1 X128.291 Y171.649 E8.23596
G1 X127.88 Y171.577 E8.26947
G1 X127.2 Y171.385 E8.32621
G1 X126.56 Y171.104 E8.38234
G1 X126.063 Y170.844 E8.42738
G1 X125.183 Y170.161 E8.51684
G1 X124.453 Y169.315 E8.60658
G1 X124.009 Y168.543 E8.6781
G1 X123.796 Y168.065 E8.72013
G1 X123.589 Y167.392 E8.77668
G1 X123.491 Y166.829 E8.82257
G1 X123.436 Y166.285 E8.86648
G1 X123.449 Y165.677 E8.91532
G1 X123.501 Y165.157 E8.95729
G1 X123.788 Y164.083 E9.04657
G1 X124.053 Y163.522 E9.0964
G1 X124.298 Y163.061 E9.13833
G1 X124.96 Y162.206 E9.22517
G1 X125.798 Y161.476 E9.31442
G1 X126.764 Y160.924 E9.40377
G1 X127.819 Y160.573 E9.49306
G1 X128.05 Y160.545 E9.51175
G1 X128.05 Y160.545 F9000
G1 X128.05 Y159.938
G1 F1800
G1 X128.304 Y159.899 E9.53239
G1 X128.841 Y159.839 E9.57578
G1 X129.518 Y159.869 E9.6302
G1 X130.074 Y159.918 E9.67502
G1 X130.719 Y160.077 E9.72837
G1 X131.263 Y160.237 E9.77391
G1 X131.852 Y160.512 E9.82611
G1 X132.37 Y160.785 E9.87313
G1 X132.884 Y161.164 E9.92442
G1 X133.345 Y161.538 E9.97209
G1 X133.799 Y162.027 E10.02568
G1 X134.135 Y162.448 E10.06894
G1 X134.516 Y163.069 E10.12745
G1 X134.748 Y163.513 E10.16768
G1 X134.994 Y164.183 E10.225
G1 X135.139 Y164.675 E10.26619
G1 X135.247 Y165.376 E10.32315
G1 X135.295 Y165.893 E10.36485
G1 X135.264 Y166.587 E10.42064
G1 X135.21 Y167.116 E10.46334
G1 X135.045 Y167.784 E10.5186
G1 X134.887 Y168.3 E10.56194
G1 X134.6 Y168.908 E10.61593
G1 X134.339 Y169.396 E10.66037
G1 X133.942 Y169.931 E10.71387
G1 X133.587 Y170.364 E10.75884
G1 X133.103 Y170.801 E10.81121
G1 X132.661 Y171.166 E10.85724
G1 X132.107 Y171.495 E10.90898
G1 X131.595 Y171.771 E10.95569
G1 X130.505 Y172.139 E11.04808
G1 X129.817 Y172.245 E11.10398
G1 X129.284 Y172.304 E11.14705
G1 X128.61 Y172.275 E11.20123
G1 X128.051 Y172.226 E11.24629
G1 X127.414 Y172.069 E11.29898
G1 X126.862 Y171.907 E11.34518
G1 X126.287 Y171.638 E11.39616
G1 X125.755 Y171.358 E11.44444
G1 X125.258 Y170.992 E11.49401
G1 X124.781 Y170.605 E11.54334
G1 X124.378 Y170.164 E11.59132
G1 X123.971 Y169.672 E11.6426
G1 X123.671 Y169.176 E11.68915
G1 X123.363 Y168.601 E11.74153
G1 X123.172 Y168.075 E11.78647
G1 X123.016 Y167.568 E11.82907
G1 X122.909 Y167.043 E11.8721
G1 X122.839 Y166.345 E11.92844
G1 X122.851 Y165.632 E11.98571
G1 X122.911 Y165.047 E12.03294
G1 X123.073 Y164.39 E12.08728
G1 X123.231 Y163.861 E12.13162
G1 X123.513 Y163.261 E12.18486
G1 X123.777 Y162.762 E12.2302
G1 X124.168 Y162.233 E12.28303
G1 X124.528 Y161.789 E12.32893
G1 X125.39 Y161.031 E12.42111
G1 X126.004 Y160.656 E12.47889
G1 X126.452 Y160.407 E12.52005
G1 X127.113 Y160.165 E12.57658
G1 X127.62 Y160.004 E12.6193
G1 X127.961 Y159.951 E12.64701
G1 X127.961 Y159.951 F9000
G1 X127.96 Y159.346
G1 F1800
G1 X128.23 Y159.303 E12.66897
G1 X128.811 Y159.24 E12.7159
G1 X129.563 Y159.271 E12.77634
G1 X130.162 Y159.324 E12.82463
G1 X130.882 Y159.499 E12.88414
G1 X131.465 Y159.672 E12.93298
G1 X132.126 Y159.979 E12.99151
G1 X132.679 Y160.27 E13.04169
G1 X133.258 Y160.695 E13.09937
G1 X133.748 Y161.094 E13.15012
G1 X134.248 Y161.63 E13.20899
G1 X134.636 Y162.118 E13.25906
G1 X135.028 Y162.756 E13.3192
G1 X135.303 Y163.285 E13.36708
G1 X135.558 Y163.978 E13.42638
G1 X135.728 Y164.559 E13.475
G1 X135.841 Y165.286 E13.53409
G1 X135.895 Y165.893 E13.58303
G1 X135.863 Y166.617 E13.64123
G1 X135.799 Y167.231 E13.69081
G1 X135.626 Y167.932 E13.7488
G1 X135.443 Y168.526 E13.79872
G1 X134.911 Y169.613 E13.89591
G1 X134.42 Y170.293 E13.96327
G1 X134.102 Y170.692 E14.00424
G1 X133.5 Y171.251 E14.07021
G1 X133.093 Y171.594 E14.11295
G1 X132.407 Y172.015 E14.17759
G1 X131.93 Y172.278 E14.22133
G1 X131.193 Y172.55 E14.28442
G1 X130.651 Y172.721 E14.33006
G1 X129.891 Y172.841 E14.39185
G1 X129.314 Y172.904 E14.43846
G1 X128.565 Y172.873 E14.49866
G1 X127.963 Y172.819 E14.5472
G1 X127.252 Y172.646 E14.60597
G1 X126.66 Y172.472 E14.65552
G1 X126.013 Y172.172 E14.71279
G1 X125.446 Y171.873 E14.76427
G1 X124.884 Y171.461 E14.82023
G1 X124.378 Y171.05 E14.87258
G1 X123.918 Y170.55 E14.92714
G1 X123.489 Y170.029 E14.98134
G1 X123.144 Y169.463 E15.03457
G1 X122.821 Y168.858 E15.08965
G1 X122.599 Y168.252 E15.14148
G1 X122.442 Y167.745 E15.1841
G1 X122.332 Y167.258 E15.2242
G1 X122.257 Y166.556 E15.2809
G1 X122.228 Y165.941 E15.33034
G1 X122.274 Y165.301 E15.38187
G1 X122.367 Y164.731 E15.42825
G1 X122.541 Y164.048 E15.48485
G1 X122.674 Y163.638 E15.51947
G1 X123.214 Y162.53 E15.61846
G1 X123.689 Y161.871 E15.6837
G1 X124.024 Y161.451 E15.72684
G1 X124.609 Y160.907 E15.79099
G1 X125.033 Y160.549 E15.83555
G1 X125.704 Y160.136 E15.89883
G1 X126.196 Y159.865 E15.94394
G1 X126.922 Y159.597 E16.00609
G1 X127.475 Y159.422 E16.05267
G1 X127.872 Y159.36 E16.08494
G1 X127.872 Y159.36 F9000
G1 X127.871 Y158.753
G1 F1800
G1 X128.155 Y158.708 E16.10803
G1 X128.781 Y158.641 E16.15859
G1 X129.608 Y158.672 E16.22505
G1 X130.25 Y158.731 E16.27683
G1 X131.044 Y158.922 E16.34241
G1 X131.667 Y159.107 E16.3946
G1 X132.134 Y159.309 E16.43546
G1 X132.761 Y159.63 E16.49203
G1 X133.333 Y159.99 E16.54631
G1 X133.94 Y160.472 E16.60856
G1 X134.44 Y160.941 E16.66361
G1 X134.806 Y161.355 E16.70799
G1 X135.137 Y161.787 E16.7517
G1 X135.54 Y162.443 E16.81353
G1 X135.858 Y163.058 E16.86913
G1 X136.121 Y163.773 E16.93031
G1 X136.273 Y164.252 E16.97067
G1 X136.452 Y165.314 E17.05716
G1 X136.495 Y165.892 E17.10371
G1 X136.462 Y166.647 E17.1644
G1 X136.418 Y167.172 E17.20671
G1 X136.165 Y168.244 E17.29517
G1 X135.998 Y168.752 E17.33811
G1 X135.681 Y169.429 E17.39814
G1 X135.425 Y169.922 E17.44275
G1 X134.764 Y170.832 E17.53308
G1 X134.413 Y171.235 E17.576
G1 X133.45 Y172.076 E17.67868
G1 X132.707 Y172.535 E17.74882
G1 X132.186 Y172.82 E17.79651
G1 X131.384 Y173.119 E17.86525
G1 X130.796 Y173.303 E17.91473
G1 X129.966 Y173.436 E17.98224
G1 X129.344 Y173.503 E18.03248
G1 X128.521 Y173.471 E18.09862
G1 X127.875 Y173.412 E18.15072
G1 X127.089 Y173.224 E18.21562
G1 X126.458 Y173.037 E18.26847
G1 X125.991 Y172.835 E18.30933
G1 X125.364 Y172.513 E18.36594
G1 X124.805 Y172.164 E18.41886
G1 X124.201 Y171.685 E18.48077
G1 X123.699 Y171.218 E18.53583
G1 X123.205 Y170.634 E18.59726
G1 X122.898 Y170.231 E18.63795
G1 X122.279 Y169.114 E18.74051
G1 X122.077 Y168.595 E18.78524
G1 X121.869 Y167.922 E18.84181
G1 X121.742 Y167.369 E18.88738
G1 X121.66 Y166.616 E18.94821
G1 X121.626 Y166.075 E18.99174
G1 X121.707 Y164.972 E19.08056
G1 X121.96 Y163.9 E19.16902
G1 X122.117 Y163.416 E19.20988
G1 X122.432 Y162.741 E19.2697
G1 X122.7 Y162.221 E19.31668
G1 X123.211 Y161.509 E19.38706
G1 X123.579 Y161.048 E19.43443
G1 X124.212 Y160.457 E19.50398
G1 X124.675 Y160.067 E19.5526
G1 X125.404 Y159.617 E19.6214
G1 X125.939 Y159.323 E19.67043
G1 X126.731 Y159.028 E19.7383
G1 X127.329 Y158.84 E19.78864
G1 X127.782 Y158.768 E19.82548
G1 E19.32548 F240
G92 E0
G1 X127.782 Y158.768 F9000
G1 X141.266 Y166.993
G1 E.5 F240
;TYPE:External perimeter
G1 F1800
G1 X141.26 Y167.092 E.50797
G1 X141.196 Y167.688 E.55611
G1 X141.1 Y168.298 E.6057
G1 X140.981 Y168.87 E.65262
G1 X140.83 Y169.451 E.70083
G1 X140.651 Y170.025 E.74912
G1 X140.433 Y170.614 E.79956
G1 X140.209 Y171.143 E.84569
G1 X139.948 Y171.683 E.89386
G1 X139.66 Y172.209 E.94202
G1 X139.324 Y172.756 E.99357
G1 X139.009 Y173.218 E1.03848
G1 X138.647 Y173.698 E1.08676
G1 X138.262 Y174.16 E1.13506
G1 X137.818 Y174.639 E1.18751
G1 X137.426 Y175.023 E1.23158
G1 X136.978 Y175.422 E1.27976
G1 X136.511 Y175.799 E1.32796
G1 X135.97 Y176.19 E1.38157
G1 X135.524 Y176.482 E1.42438
G1 X135.006 Y176.787 E1.47266
G1 X134.473 Y177.066 E1.52097
G1 X133.854 Y177.349 E1.57563
G1 X133.37 Y177.544 E1.61754
G1 X132.804 Y177.741 E1.66567
G1 X132.228 Y177.91 E1.71388
G1 X131.55 Y178.07 E1.76982
