; generated by PrusaSlicer 2.8.1+MacOS-arm64 on 2024-10-17 at 07:10:51 UTC


;
;

;
;
; 

; external perimeters extrusion width = 0.68mm
; perimeters extrusion width = 0.68mm
; infill extrusion width = 0.68mm
; solid infill extrusion width = 0.68mm
; top infill extrusion width = 0.60mm


EXCLUDE_OBJECT_DEFINE NAME='thrust_bearing_casing_l_(Instance_1)' CENTER=125.000,82.419 POLYGON=[[125.309,69.844],[126.540,69.935],[127.756,70.146],[128.945,70.475],[130.097,70.919],[131.200,71.475],[132.242,72.135],[133.215,72.894],[134.110,73.745],[134.916,74.680],[135.626,75.689],[136.235,76.763],[136.736,77.891],[137.122,79.064],[137.393,80.268],[137.544,81.493],[137.575,82.728],[137.484,83.959],[137.272,85.175],[136.944,86.364],[136.499,87.516],[135.944,88.618],[135.284,89.661],[134.525,90.634],[133.674,91.529],[132.739,92.335],[131.730,93.045],[130.656,93.654],[129.528,94.155],[128.355,94.541],[127.151,94.812],[125.926,94.963],[124.691,94.994],[123.460,94.902],[122.244,94.691],[121.055,94.362],[119.903,93.918],[118.800,93.363],[117.758,92.702],[116.785,91.944],[115.890,91.093],[115.084,90.158],[114.374,89.149],[113.765,88.075],[113.264,86.946],[112.877,85.774],[112.607,84.570],[112.456,83.344],[112.425,82.110],[112.516,80.879],[112.728,79.663],[113.056,78.474],[113.500,77.322],[114.056,76.219],[114.716,75.177],[115.475,74.203],[116.326,73.309],[117.261,72.503],[118.270,71.793],[119.344,71.184],[120.472,70.683],[121.645,70.296],[122.849,70.026],[124.074,69.874]]
EXCLUDE_OBJECT_DEFINE NAME='thrust_bearing_casing_l_(Instance_2)' CENTER=125.000,167.581 POLYGON=[[125.309,155.006],[126.540,155.097],[127.756,155.309],[128.945,155.637],[130.097,156.082],[131.200,156.637],[132.242,157.297],[133.215,158.056],[134.110,158.907],[134.916,159.842],[135.626,160.851],[136.235,161.925],[136.736,163.054],[137.122,164.226],[137.393,165.430],[137.544,166.655],[137.575,167.890],[137.484,169.121],[137.272,170.337],[136.944,171.526],[136.499,172.678],[135.944,173.781],[135.284,174.823],[134.525,175.797],[133.674,176.691],[132.739,177.497],[131.730,178.207],[130.656,178.816],[129.528,179.317],[128.355,179.704],[127.151,179.974],[125.926,180.126],[124.691,180.156],[123.460,180.065],[122.244,179.854],[121.055,179.525],[119.903,179.081],[118.800,178.525],[117.758,177.865],[116.785,177.106],[115.890,176.255],[115.084,175.320],[114.374,174.311],[113.765,173.237],[113.264,172.109],[112.877,170.936],[112.607,169.732],[112.456,168.507],[112.425,167.272],[112.516,166.041],[112.728,164.825],[113.056,163.636],[113.500,162.484],[114.056,161.382],[114.716,160.339],[115.475,159.366],[116.326,158.471],[117.261,157.665],[118.270,156.955],[119.344,156.346],[120.472,155.845],[121.645,155.459],[122.849,155.188],[124.074,155.037]]

;TYPE:Custom
START_PRINT BED_TEMP=80 HOTEND_TEMP=225 FILAMENT_TYPE=FLEX EXTRUSION_MULTIPLIER=0.92 PERIMETER_SPEED=20
G21 ; set units to millimeters
G90 ; use absolute coordinates
M82 ; use absolute distances for extrusion
G92 E0
; Filament gcode
; ########################### NOTE OFFSET CHANGES ####################################
; Prevents PETG buildup on nozzle.
; SET_GCODE_OFFSET Z=0
; ####################################################################################
M107
;LAYER_CHANGE
;Z:0.35
;HEIGHT:0.35
G1 E-.6 F240
G1 Z.35 F9000
EXCLUDE_OBJECT_START NAME='thrust_bearing_casing_l_(Instance_1)'
G92 E0
G1 X127.143 Y85.397
G1 E.8 F240
;TYPE:External perimeter
;WIDTH:0.675
G1 F900
G1 X126.543 Y85.75 E.85591
G1 X125.849 Y85.989 E.91486
G1 X125.122 Y86.087 E.97377
G1 X124.389 Y86.038 E1.03277
G1 X123.681 Y85.845 E1.0917
G1 X123.039 Y85.522 E1.14942
G1 X122.478 Y85.086 E1.20648
G1 X122.016 Y84.557 E1.26288
G1 X121.66 Y83.944 E1.31981
G1 X121.429 Y83.28 E1.37627
G1 X121.328 Y82.574 E1.43354
G1 X121.351 Y81.876 E1.48963
G1 X121.534 Y81.143 E1.5503
G1 X121.839 Y80.506 E1.60702
G1 X122.278 Y79.917 E1.66601
G1 X122.824 Y79.427 E1.72493
G1 X123.457 Y79.055 E1.78389
G1 X124.151 Y78.815 E1.84286
G1 X124.878 Y78.718 E1.90176
G1 X125.611 Y78.767 E1.96076
G1 X126.319 Y78.96 E2.01969
G1 X126.975 Y79.29 E2.07866
G1 X127.538 Y79.732 E2.13614
G1 X128 Y80.267 E2.19291
G1 X128.312 Y80.782 E2.24127
G1 X128.535 Y81.384 E2.29283
G1 X128.664 Y82.084 E2.34999
G1 X128.656 Y82.789 E2.40661
G1 X128.512 Y83.484 E2.46361
G1 X128.41 Y83.781 E2.48883
G1 X128.161 Y84.299 E2.53499
G1 X127.647 Y84.962 E2.60236
G1 X127.215 Y85.344 E2.64867
G1 X126.702 Y85.655 F9000
G1 X127.477 Y85.887
;TYPE:Perimeter
G1 F900
G1 X127.071 Y86.138 E2.687
G1 X126.68 Y86.343 E2.72245
G1 X126.04 Y86.558 E2.77667
G1 X125.512 Y86.642 E2.81961
G1 X125.017 Y86.686 E2.85952
G1 X124.344 Y86.636 E2.91372
G1 X123.519 Y86.422 E2.98217
G1 X122.765 Y86.056 E3.04948
G1 X122.104 Y85.555 E3.11609
G1 X121.556 Y84.942 E3.18212
G1 X121.133 Y84.23 E3.24863
G1 X120.971 Y83.83 E3.28329
G1 X120.82 Y83.339 E3.32454
G1 X120.731 Y82.634 E3.38161
G1 X120.732 Y82.107 E3.42393
G1 X120.802 Y81.582 E3.46647
G1 X120.969 Y80.941 E3.51967
G1 X121.205 Y80.439 E3.56422
G1 X121.421 Y80.054 E3.59967
G1 X121.799 Y79.555 E3.64994
G1 X122.232 Y79.149 E3.69761
G1 X122.576 Y78.871 E3.73313
G1 X123.157 Y78.535 E3.78703
G1 X123.671 Y78.344 E3.83107
G1 X124.134 Y78.207 E3.86985
G1 X124.804 Y78.123 E3.92408
G1 X125.31 Y78.143 E3.96475
G1 X125.816 Y78.196 E4.00561
G1 X126.481 Y78.383 E4.06109
G1 X127.248 Y78.756 E4.12958
G1 X127.912 Y79.263 E4.19667
G1 X128.46 Y79.882 E4.26306
G1 X128.745 Y80.333 E4.3059
G1 X128.966 Y80.812 E4.34826
G1 X129.144 Y81.306 E4.39043
G1 X129.257 Y81.995 E4.4465
G1 X129.275 Y82.43 E4.48146
G1 X129.248 Y82.952 E4.52344
G1 X129.094 Y83.632 E4.57943
G1 X128.951 Y84.042 E4.6143
G1 X128.701 Y84.559 E4.66042
G1 X128.326 Y85.084 E4.71223
G1 X128.043 Y85.412 E4.74702
G1 X127.573 Y85.828 E4.79743
G1 X127.553 Y85.84 E4.7993
G1 X127.553 Y85.84 F9000
G1 X127.811 Y86.378
G1 F900
G1 X127.371 Y86.658 E4.84118
G1 X126.874 Y86.911 E4.88597
G1 X126.231 Y87.127 E4.94044
G1 X125.587 Y87.237 E4.99291
G1 X125.084 Y87.289 E5.03352
G1 X124.3 Y87.234 E5.09664
G1 X123.717 Y87.101 E5.14466
G1 X123.23 Y86.958 E5.18542
G1 X122.491 Y86.59 E5.25172
G1 X122.035 Y86.268 E5.29655
G1 X121.628 Y85.939 E5.33858
G1 X121.097 Y85.328 E5.40359
G1 X120.793 Y84.86 E5.44841
G1 X120.523 Y84.36 E5.49404
G1 X120.283 Y83.633 E5.55552
G1 X120.187 Y83.224 E5.58926
G1 X120.12 Y82.556 E5.64318
G1 X120.154 Y81.787 E5.705
G1 X120.404 Y80.739 E5.79152
G1 X120.665 Y80.179 E5.84114
G1 X120.914 Y79.73 E5.88237
G1 X121.321 Y79.193 E5.93648
G1 X121.835 Y78.7 E5.99368
G1 X122.273 Y78.353 E6.03856
G1 X122.857 Y78.016 E6.09271
G1 X123.48 Y77.775 E6.14636
G1 X124.047 Y77.613 E6.19372
G1 X124.729 Y77.528 E6.24891
G1 X125.355 Y77.545 E6.2992
G1 X125.881 Y77.595 E6.34163
G1 X126.644 Y77.805 E6.40518
G1 X127.174 Y78.044 E6.45187
G1 X127.634 Y78.286 E6.49361
G1 X128.286 Y78.793 E6.55994
G1 X128.668 Y79.197 E6.60459
G1 X129.004 Y79.601 E6.64679
G1 X129.265 Y80.033 E6.68732
G1 X129.461 Y80.419 E6.72209
G1 X129.692 Y81.053 E6.77628
G1 X129.851 Y81.905 E6.84588
G1 X129.874 Y82.459 E6.89041
G1 X129.848 Y82.982 E6.93246
G1 X129.675 Y83.78 E6.99803
G1 X129.491 Y84.302 E7.04248
G1 X129.242 Y84.82 E7.08864
G1 X128.804 Y85.446 E7.15
G1 X128.476 Y85.831 E7.19062
G1 X127.97 Y86.277 E7.24479
G1 X127.887 Y86.33 E7.2527
G1 X127.887 Y86.33 F9000
G1 X128.153 Y86.879
G1 F900
G1 X128.009 Y86.982 E7.26692
G1 X127.443 Y87.309 E7.31942
G1 X127.062 Y87.48 E7.35296
G1 X126.423 Y87.695 E7.4071
G1 X126.015 Y87.788 E7.44071
G1 X125.345 Y87.872 E7.49494
G1 X124.928 Y87.883 E7.52844
G1 X124.255 Y87.832 E7.58264
G1 X123.843 Y87.76 E7.61623
G1 X123.187 Y87.575 E7.67097
G1 X122.565 Y87.302 E7.72552
G1 X122.082 Y87.049 E7.76931
G1 X121.225 Y86.384 E7.85642
G1 X120.514 Y85.561 E7.94376
G1 X120.079 Y84.804 E8.01388
G1 X119.872 Y84.337 E8.0549
G1 X119.673 Y83.692 E8.10911
G1 X119.576 Y83.143 E8.15388
G1 X119.523 Y82.616 E8.19642
G1 X119.536 Y82.018 E8.24446
G1 X119.586 Y81.512 E8.28529
G1 X119.84 Y80.537 E8.3662
G1 X120.125 Y79.918 E8.42093
G1 X120.364 Y79.47 E8.46171
G1 X121.032 Y78.614 E8.54891
G1 X121.822 Y77.929 E8.63288
G1 X122.763 Y77.392 E8.71989
G1 X123.789 Y77.05 E8.80674
G1 X124.865 Y76.917 E8.89381
G1 X125.944 Y76.997 E8.9807
G1 X126.944 Y77.272 E9.06399
G1 X127.918 Y77.756 E9.15134
G1 X128.775 Y78.421 E9.23845
G1 X129.486 Y79.244 E9.32579
G1 X129.784 Y79.733 E9.37178
G1 X130.025 Y80.214 E9.41499
G1 X130.256 Y80.848 E9.46918
G1 X130.385 Y81.429 E9.51698
G1 X130.473 Y82.027 E9.56552
G1 X130.453 Y82.878 E9.63388
G1 X130.384 Y83.425 E9.67816
G1 X130.218 Y84.079 E9.73235
G1 X130.032 Y84.562 E9.77392
G1 X129.782 Y85.08 E9.82011
G1 X129.519 Y85.497 E9.8597
G1 X129.157 Y85.974 E9.90779
G1 X128.837 Y86.312 E9.94517
G1 X128.367 Y86.727 E9.99552
G1 X128.227 Y86.827 E10.00934
G1 X128.227 Y86.827 F9000
G1 X128.49 Y87.373
G1 F900
G1 X128.327 Y87.491 E10.0255
G1 X127.743 Y87.828 E10.07965
G1 X127.258 Y88.047 E10.12239
G1 X126.614 Y88.264 E10.17697
G1 X126.11 Y88.381 E10.21852
G1 X125.42 Y88.468 E10.27437
G1 X124.883 Y88.481 E10.31751
G1 X124.21 Y88.43 E10.37171
G1 X123.681 Y88.337 E10.41484
G1 X123.022 Y88.152 E10.46981
G1 X122.531 Y87.958 E10.51221
G1 X121.931 Y87.65 E10.56637
G1 X121.479 Y87.359 E10.60954
G1 X120.951 Y86.938 E10.66377
G1 X120.567 Y86.563 E10.70687
G1 X120.133 Y86.046 E10.76108
G1 X119.83 Y85.602 E10.80425
G1 X119.508 Y85.009 E10.85844
G1 X119.299 Y84.514 E10.90159
G1 X119.1 Y83.869 E10.9558
G1 X118.994 Y83.344 E10.99881
G1 X118.926 Y82.676 E11.05273
G1 X118.938 Y81.974 E11.10911
G1 X118.996 Y81.402 E11.15528
G1 X119.275 Y80.335 E11.24385
G1 X119.584 Y79.658 E11.30361
G1 X119.841 Y79.172 E11.34776
G1 X120.223 Y78.655 E11.39938
G1 X120.575 Y78.223 E11.44413
G1 X121.041 Y77.8 E11.49467
G1 X121.479 Y77.437 E11.54036
G1 X122.015 Y77.116 E11.59053
G1 X122.521 Y76.843 E11.6367
G1 X123.591 Y76.481 E11.72741
G1 X124.26 Y76.377 E11.78178
G1 X124.782 Y76.32 E11.82395
G1 X125.444 Y76.348 E11.87716
G1 X125.985 Y76.396 E11.92078
G1 X126.617 Y76.551 E11.97304
G1 X127.146 Y76.707 E12.01733
G1 X127.722 Y76.976 E12.06838
G1 X128.226 Y77.242 E12.11415
G1 X128.729 Y77.612 E12.1643
G1 X129.177 Y77.976 E12.21066
G1 X129.587 Y78.425 E12.25949
G1 X129.968 Y78.887 E12.30758
G1 X130.304 Y79.433 E12.35907
G1 X130.548 Y79.905 E12.40174
G1 X130.79 Y80.563 E12.45804
G1 X130.952 Y81.164 E12.50803
G1 X131.053 Y81.831 E12.56221
G1 X131.08 Y82.368 E12.60539
G1 X131.046 Y83.042 E12.65959
G1 X130.966 Y83.573 E12.70271
G1 X130.799 Y84.227 E12.75692
G1 X130.615 Y84.732 E12.80008
G1 X130.323 Y85.34 E12.85425
G1 X130.042 Y85.799 E12.89747
G1 X129.635 Y86.337 E12.95165
G1 X129.269 Y86.731 E12.99484
G1 X128.764 Y87.177 E13.04895
G1 X128.563 Y87.321 E13.06881
G1 X128.563 Y87.321 F9000
G1 X128.83 Y87.872
G1 F900
G1 X128.271 Y88.216 E13.12152
G1 X127.805 Y88.472 E13.16422
G1 X127.083 Y88.739 E13.22604
G1 X126.555 Y88.906 E13.27051
G1 X125.81 Y89.023 E13.33107
G1 X125.248 Y89.084 E13.37647
G1 X124.514 Y89.055 E13.43546
G1 X123.926 Y89.002 E13.48287
G1 X123.229 Y88.833 E13.54047
G1 X122.652 Y88.663 E13.58878
G1 X122.018 Y88.369 E13.6449
G1 X121.465 Y88.078 E13.69508
G1 X120.913 Y87.675 E13.74997
G1 X120.42 Y87.273 E13.80106
G1 X119.969 Y86.784 E13.85448
G1 X119.551 Y86.276 E13.90731
G1 X119.212 Y85.721 E13.95954
G1 X118.896 Y85.13 E14.01336
G1 X118.678 Y84.537 E14.0641
G1 X118.527 Y84.046 E14.10535
G1 X118.416 Y83.559 E14.14546
G1 X118.343 Y82.874 E14.20078
G1 X118.316 Y82.275 E14.24893
G1 X118.36 Y81.654 E14.29893
G1 X118.453 Y81.084 E14.34531
G1 X118.71 Y80.133 E14.42442
G1 X119.044 Y79.398 E14.48926
G1 X119.28 Y78.939 E14.53071
G1 X119.745 Y78.293 E14.59463
G1 X120.071 Y77.884 E14.63663
G1 X120.644 Y77.35 E14.69953
G1 X121.058 Y77.001 E14.74302
G1 X121.715 Y76.597 E14.80496
G1 X122.195 Y76.333 E14.84895
G1 X122.907 Y76.069 E14.90993
G1 X123.445 Y75.899 E14.95524
G1 X124.185 Y75.782 E15.01541
G1 X124.752 Y75.721 E15.06121
G1 X125.489 Y75.75 E15.12044
G1 X126.073 Y75.803 E15.16753
G1 X126.779 Y75.974 E15.22587
G1 X127.348 Y76.142 E15.27352
G1 X127.995 Y76.442 E15.33079
G1 X128.535 Y76.727 E15.37983
G1 X129.103 Y77.143 E15.43637
G1 X129.58 Y77.532 E15.4858
G1 X130.047 Y78.04 E15.54122
G1 X130.45 Y78.53 E15.59217
G1 X130.823 Y79.133 E15.64911
G1 X131.103 Y79.677 E15.69825
G1 X131.354 Y80.358 E15.75654
G1 X131.519 Y80.922 E15.80373
G1 X131.63 Y81.637 E15.86184
G1 X131.683 Y82.227 E15.90941
G1 X131.652 Y82.938 E15.96656
G1 X131.589 Y83.536 E16.01485
G1 X131.419 Y84.224 E16.07176
G1 X131.24 Y84.802 E16.12035
G1 X130.944 Y85.433 E16.17632
G1 X130.652 Y85.975 E16.22576
G1 X130.239 Y86.533 E16.28151
G1 X129.845 Y87.011 E16.33126
G1 X128.942 Y87.803 E16.42772
G1 X128.907 Y87.825 E16.43104
G1 X128.907 Y87.825 F9000
G1 X129.167 Y88.367
G1 F900
G1 X128.57 Y88.736 E16.4874
G1 X128.062 Y89.014 E16.53391
G1 X127.274 Y89.308 E16.60145
G1 X126.7 Y89.488 E16.64976
G1 X125.885 Y89.618 E16.71604
G1 X125.277 Y89.683 E16.76515
G1 X124.469 Y89.653 E16.83008
G1 X123.838 Y89.595 E16.88097
G1 X123.067 Y89.411 E16.94463
G1 X122.45 Y89.228 E16.99631
G1 X121.984 Y89.026 E17.0371
G1 X121.383 Y88.718 E17.09133
G1 X120.829 Y88.373 E17.14374
G1 X120.234 Y87.9 E17.20478
G1 X119.745 Y87.446 E17.25837
G1 X119.259 Y86.87 E17.31889
G1 X118.861 Y86.323 E17.37322
G1 X118.499 Y85.665 E17.43353
G1 X118.276 Y85.211 E17.47415
G1 X117.953 Y84.223 E17.55763
G1 X117.827 Y83.675 E17.60279
G1 X117.747 Y82.934 E17.66264
G1 X117.713 Y82.406 E17.70513
G1 X117.793 Y81.325 E17.79218
G1 X117.992 Y80.463 E17.86323
G1 X118.145 Y79.931 E17.90769
G1 X118.503 Y79.138 E17.97756
G1 X118.765 Y78.63 E18.02346
G1 X119.267 Y77.931 E18.09257
G1 X119.626 Y77.481 E18.1388
G1 X120.247 Y76.9 E18.2071
G1 X120.7 Y76.519 E18.25464
G1 X121.415 Y76.077 E18.32215
G1 X121.938 Y75.79 E18.37006
G1 X122.716 Y75.5 E18.43674
G1 X123.3 Y75.317 E18.48589
G1 X124.111 Y75.187 E18.55185
G1 X124.722 Y75.121 E18.6012
G1 X125.534 Y75.152 E18.66646
G1 X126.162 Y75.209 E18.7171
G1 X126.942 Y75.396 E18.78152
G1 X127.55 Y75.577 E18.83247
G1 X128.017 Y75.779 E18.87333
G1 X128.617 Y76.087 E18.92749
G1 X129.184 Y76.442 E18.98121
G1 X129.782 Y76.917 E19.04254
G1 X130.268 Y77.374 E19.09612
G1 X130.758 Y77.954 E19.1571
G1 X131.151 Y78.502 E19.21126
G1 X131.429 Y78.983 E19.25588
G1 X131.658 Y79.448 E19.29751
G1 X131.918 Y80.152 E19.35778
G1 X132.107 Y80.805 E19.41237
G1 X132.223 Y81.548 E19.47276
G1 X132.283 Y82.226 E19.52742
G1 X132.251 Y82.968 E19.58706
G1 X132.207 Y83.481 E19.62841
G1 X131.962 Y84.523 E19.71437
G1 X131.796 Y85.028 E19.75706
G1 X131.484 Y85.694 E19.81612
G1 X131.235 Y86.174 E19.85955
G1 X130.717 Y86.895 E19.93085
G1 X130.374 Y87.324 E19.97496
G1 X129.736 Y87.919 E20.04502
G1 X129.3 Y88.285 E20.09074
G1 X129.244 Y88.32 E20.09604
G1 E19.49604 F240
G92 E0
G1 X129.244 Y88.32 F9000
G1 X137.144 Y83.921
G1 E.8 F240
;TYPE:External perimeter
G1 F900
G1 X137.133 Y84.021 E.80808
G1 X137.036 Y84.635 E.858
G1 X136.918 Y85.202 E.90451
G1 X136.767 Y85.784 E.9528
G1 X136.588 Y86.357 E1.00101
G1 X136.368 Y86.951 E1.05188
G1 X136.145 Y87.475 E1.09761
G1 X135.884 Y88.015 E1.14578
G1 X135.597 Y88.542 E1.19397
G1 X135.258 Y89.091 E1.24579
G1 X134.945 Y89.551 E1.29047
G1 X134.583 Y90.03 E1.33869
G1 X134.198 Y90.492 E1.38699
G1 X133.752 Y90.973 E1.43967
G1 X133.362 Y91.355 E1.48351
G1 X132.914 Y91.754 E1.53169
G1 X132.447 Y92.131 E1.57989
G1 X131.903 Y92.523 E1.63374
G1 X131.459 Y92.814 E1.67637
G1 X130.941 Y93.118 E1.7246
G1 X130.409 Y93.398 E1.77288
G1 X129.787 Y93.682 E1.82779
G1 X129.298 Y93.878 E1.8701
G1 X128.739 Y94.072 E1.91762
G1 X128.163 Y94.241 E1.96583
G1 X127.484 Y94.401 E2.02185
G1 X126.394 Y94.578 E2.11053
G1 X125.795 Y94.632 E2.15883
G1 X125.085 Y94.656 E2.21588
G1 X123.994 Y94.616 E2.30356
G1 X123.398 Y94.552 E2.3517
G1 X122.682 Y94.434 E2.40998
G1 X121.635 Y94.186 E2.49639
G1 X121.061 Y94.006 E2.5447
G1 X120.497 Y93.799 E2.59295
G1 X119.944 Y93.564 E2.6412
G1 X119.403 Y93.303 E2.68944
G1 X118.864 Y93.007 E2.73882
G1 X118.365 Y92.702 E2.78579
G1 X117.868 Y92.364 E2.83406
G1 X117.388 Y92.002 E2.88234
G1 X116.898 Y91.591 E2.9337
G1 X116.485 Y91.21 E2.97883
G1 X116.063 Y90.78 E3.02721
G1 X115.665 Y90.333 E3.07528
G1 X115.246 Y89.81 E3.1291
G1 X114.935 Y89.381 E3.17165
G1 X114.6 Y88.87 E3.22072
