; generated by PrusaSlicer 2.8.1+MacOS-arm64 on 2024-10-17 at 07:09:41 UTC


;
;

;
;
; 

; external perimeters extrusion width = 0.68mm
; perimeters extrusion width = 0.68mm
; infill extrusion width = 0.68mm
; solid infill extrusion width = 0.68mm
; top infill extrusion width = 0.60mm

; external perimeters extrusion width = 0.68mm
; perimeters extrusion width = 0.68mm
; infill extrusion width = 0.68mm
; solid infill extrusion width = 0.68mm
; top infill extrusion width = 0.60mm


EXCLUDE_OBJECT_DEFINE NAME='z_thrust_bearing_spacer_r' CENTER=125.001,165.008 POLYGON=[[125.476,155.020],[126.423,155.110],[127.817,155.414],[129.582,156.120],[131.182,157.148],[132.557,158.460],[133.660,160.009],[134.450,161.738],[134.898,163.585],[134.989,165.484],[134.819,166.901],[134.595,167.826],[133.888,169.591],[132.861,171.190],[131.549,172.566],[130.000,173.669],[128.271,174.459],[126.423,174.907],[124.524,174.997],[123.577,174.907],[122.183,174.603],[120.418,173.897],[118.818,172.869],[117.442,171.557],[116.340,170.009],[115.550,168.279],[115.102,166.432],[115.011,164.533],[115.282,162.651],[115.904,160.854],[116.854,159.208],[118.099,157.771],[119.594,156.596],[120.418,156.120],[121.729,155.558],[123.577,155.110]]
EXCLUDE_OBJECT_DEFINE NAME='z_thrust_bearing_spacer_l' CENTER=125.001,84.990 POLYGON=[[125.476,75.003],[127.358,75.273],[128.717,75.708],[129.582,76.103],[131.182,77.131],[132.557,78.443],[133.660,79.992],[134.450,81.721],[134.898,83.568],[134.989,85.467],[134.819,86.884],[134.595,87.809],[133.888,89.574],[132.861,91.173],[131.549,92.549],[130.000,93.652],[128.271,94.442],[126.423,94.890],[124.524,94.980],[122.642,94.710],[120.846,94.088],[119.199,93.137],[118.099,92.229],[117.442,91.540],[116.340,89.992],[115.550,88.262],[115.102,86.415],[115.011,84.516],[115.282,82.634],[115.904,80.837],[116.854,79.191],[118.099,77.754],[119.594,76.579],[121.283,75.708],[122.642,75.273],[123.577,75.093]]

;TYPE:Custom
START_PRINT BED_TEMP=80 HOTEND_TEMP=225 FILAMENT_TYPE=FLEX EXTRUSION_MULTIPLIER=0.92 PERIMETER_SPEED=20
G21 ; set units to millimeters
G90 ; use absolute coordinates
M82 ; use absolute distances for extrusion
G92 E0
; Filament gcode
; ########################### NOTE OFFSET CHANGES ####################################
; Prevents PETG buildup on nozzle.
; SET_GCODE_OFFSET Z=0
; ####################################################################################
M107
;LAYER_CHANGE
;Z:0.35
;HEIGHT:0.35
G1 E-.6 F240
G1 Z.35 F9000
EXCLUDE_OBJECT_START NAME='z_thrust_bearing_spacer_l'
G92 E0
G1 X122.068 Y85.5
G1 E.8 F240
;TYPE:External perimeter
;WIDTH:0.675
G1 F900
G1 X122.016 Y85.096 E.83271
G1 X122.054 Y84.502 E.88051
G1 X122.209 Y83.928 E.92826
G1 X122.475 Y83.397 E.97596
G1 X122.835 Y82.936 E1.02293
G1 X123.242 Y82.584 E1.06614
G1 X123.703 Y82.311 E1.10917
G1 X124.205 Y82.124 E1.15219
G1 X124.694 Y82.033 E1.19213
G1 X125.03 Y82.006 E1.2192
G1 X125.7 Y82.089 E1.27342
G1 X126.269 Y82.288 E1.32183
G1 X126.779 Y82.593 E1.36955
G1 X127.219 Y82.993 E1.4173
G1 X127.571 Y83.473 E1.4651
G1 X127.821 Y84.012 E1.51282
G1 X127.959 Y84.591 E1.56062
G1 X127.98 Y85.185 E1.60835
G1 X127.883 Y85.772 E1.65613
G1 X127.671 Y86.327 E1.70384
G1 X127.353 Y86.83 E1.75163
G1 X126.942 Y87.26 E1.7994
G1 X126.454 Y87.6 E1.84716
G1 X125.909 Y87.836 E1.89486
G1 X125.327 Y87.96 E1.94265
G1 X124.732 Y87.966 E1.99044
G1 X124.172 Y87.859 E2.03623
G1 X123.673 Y87.66 E2.07937
G1 X122.997 Y87.206 E2.14477
G1 X122.593 Y86.759 E2.19316
G1 X122.29 Y86.247 E2.24094
G1 X122.089 Y85.663 E2.29054
G1 X122.079 Y85.589 E2.29654
G1 X122.035 Y84.991 F9000
G1 X121.477 Y85.589
;TYPE:Perimeter
G1 F900
G1 X121.42 Y85.17 E2.3305
G1 X121.456 Y84.458 E2.38775
G1 X121.632 Y83.766 E2.44509
G1 X121.942 Y83.123 E2.50242
G1 X122.366 Y82.562 E2.55889
G1 X122.856 Y82.125 E2.61162
G1 X123.416 Y81.784 E2.66427
G1 X123.691 Y81.655 E2.68866
G1 X124.202 Y81.497 E2.73161
G1 X124.903 Y81.409 E2.78835
G1 X125.564 Y81.468 E2.84164
G1 X125.971 Y81.541 E2.87485
G1 X126.474 Y81.725 E2.91786
G1 X127.092 Y82.081 E2.97514
G1 X127.627 Y82.554 E3.03249
G1 X128.058 Y83.122 E3.08975
G1 X128.368 Y83.765 E3.14708
G1 X128.523 Y84.364 E3.19677
G1 X128.57 Y84.803 E3.23223
G1 X128.566 Y85.349 E3.27608
G1 X128.473 Y85.876 E3.31906
G1 X128.229 Y86.546 E3.37632
G1 X127.857 Y87.155 E3.43363
G1 X127.372 Y87.679 E3.49097
G1 X126.792 Y88.095 E3.54829
G1 X126.142 Y88.389 E3.60558
G1 X125.446 Y88.548 E3.66291
G1 X124.732 Y88.566 E3.72027
G1 X124.053 Y88.447 E3.77563
G1 X123.44 Y88.213 E3.82832
G1 X123.189 Y88.083 E3.85102
G1 X122.647 Y87.693 E3.90464
G1 X122.265 Y87.293 E3.94906
G1 X122.039 Y87.01 E3.97815
G1 X121.771 Y86.547 E4.02111
G1 X121.507 Y85.81 E4.08398
G1 X121.49 Y85.678 E4.09467
G1 X121.49 Y85.678 F9000
G1 X120.886 Y85.678
G1 F900
G1 X120.825 Y85.245 E4.12979
G1 X120.858 Y84.413 E4.19666
G1 X121.055 Y83.603 E4.26361
G1 X121.408 Y82.849 E4.33047
G1 X121.897 Y82.188 E4.3965
G1 X122.471 Y81.665 E4.45886
G1 X122.769 Y81.454 E4.48818
G1 X123.239 Y81.198 E4.53116
G1 X123.852 Y80.978 E4.58346
G1 X124.317 Y80.865 E4.62189
G1 X124.843 Y80.812 E4.66435
G1 X125.178 Y80.816 E4.69126
G1 X125.847 Y80.899 E4.7454
G1 X126.333 Y81.035 E4.78593
G1 X126.853 Y81.237 E4.83073
G1 X127.405 Y81.569 E4.88246
G1 X128.035 Y82.114 E4.94936
G1 X128.545 Y82.772 E5.01622
G1 X128.915 Y83.519 E5.08317
G1 X129.107 Y84.23 E5.14231
G1 X129.17 Y84.788 E5.18741
G1 X129.173 Y85.335 E5.23134
G1 X129.064 Y85.98 E5.28387
G1 X128.788 Y86.766 E5.35077
G1 X128.361 Y87.481 E5.41765
G1 X127.801 Y88.098 E5.48457
G1 X127.13 Y88.591 E5.55144
G1 X126.375 Y88.942 E5.6183
G1 X125.565 Y89.136 E5.68519
G1 X124.732 Y89.165 E5.75213
G1 X123.934 Y89.035 E5.81706
G1 X123.207 Y88.765 E5.87934
G1 X122.839 Y88.57 E5.91279
G1 X122.297 Y88.18 E5.96641
G1 X121.815 Y87.69 E6.02161
G1 X121.519 Y87.31 E6.06029
G1 X121.251 Y86.847 E6.10325
G1 X121.062 Y86.375 E6.14408
G1 X120.926 Y85.958 E6.1793
G1 X120.899 Y85.767 E6.19479
G1 X120.899 Y85.767 F9000
G1 X120.295 Y85.767
G1 F900
G1 X120.23 Y85.32 E6.23107
G1 X120.227 Y84.806 E6.27235
G1 X120.269 Y84.275 E6.31513
G1 X120.477 Y83.441 E6.38416
G1 X120.63 Y83.052 E6.41773
G1 X120.876 Y82.571 E6.46112
G1 X121.101 Y82.224 E6.49433
G1 X121.435 Y81.806 E6.5373
G1 X121.726 Y81.507 E6.57081
G1 X122.136 Y81.163 E6.61379
G1 X122.482 Y80.927 E6.64742
G1 X122.952 Y80.671 E6.6904
G1 X123.337 Y80.509 E6.72394
G1 X123.849 Y80.351 E6.76697
G1 X124.513 Y80.242 E6.82101
G1 X125.186 Y80.213 E6.87511
G1 X125.711 Y80.277 E6.91758
G1 X126.255 Y80.372 E6.96193
G1 X126.884 Y80.597 E7.01558
G1 X127.355 Y80.836 E7.058
G1 X127.803 Y81.113 E7.1003
G1 X128.443 Y81.674 E7.16865
G1 X128.72 Y81.988 E7.20228
G1 X129.038 Y82.43 E7.24601
G1 X129.241 Y82.784 E7.27878
G1 X129.463 Y83.274 E7.32198
G1 X129.595 Y83.668 E7.35535
G1 X129.714 Y84.19 E7.39835
G1 X129.77 Y84.773 E7.44539
G1 X129.77 Y85.392 E7.4951
G1 X129.655 Y86.084 E7.55144
G1 X129.538 Y86.496 E7.58584
G1 X129.346 Y86.985 E7.62803
G1 X129.155 Y87.357 E7.66161
G1 X128.859 Y87.815 E7.7054
G1 X128.604 Y88.133 E7.73813
G1 X128.231 Y88.516 E7.78106
G1 X127.793 Y88.865 E7.82604
G1 X127.368 Y89.15 E7.86713
G1 X126.608 Y89.494 E7.93413
G1 X126.185 Y89.622 E7.96962
G1 X125.684 Y89.724 E8.01068
G1 X125.268 Y89.765 E8.04425
G1 X124.732 Y89.765 E8.0873
G1 X124.316 Y89.724 E8.12087
G1 X123.792 Y89.618 E8.1638
G1 X123.392 Y89.494 E8.19743
G1 X122.899 Y89.287 E8.24037
G1 X122.489 Y89.057 E8.27812
G1 X121.947 Y88.667 E8.33174
G1 X121.598 Y88.351 E8.36955
G1 X121.244 Y87.95 E8.41251
G1 X120.866 Y87.378 E8.46757
G1 X120.601 Y86.877 E8.51309
G1 X120.344 Y86.105 E8.57843
G1 X120.308 Y85.856 E8.59863
G1 X120.308 Y85.856 F9000
G1 X119.704 Y85.856
G1 F900
G1 X119.635 Y85.394 E8.63614
G1 X119.621 Y84.857 E8.67928
G1 X119.661 Y84.323 E8.72228
G1 X119.755 Y83.794 E8.76543
G1 X119.9 Y83.278 E8.80847
G1 X120.09 Y82.791 E8.85045
G1 X120.34 Y82.302 E8.89456
G1 X120.62 Y81.865 E8.93624
G1 X120.959 Y81.44 E8.9799
G1 X121.308 Y81.075 E9.02046
G1 X121.699 Y80.746 E9.0615
G1 X122.136 Y80.433 E9.10467
G1 X122.665 Y80.144 E9.15308
G1 X123.16 Y79.935 E9.19623
G1 X123.672 Y79.778 E9.23924
G1 X124.196 Y79.671 E9.28219
G1 X124.722 Y79.618 E9.32465
G1 X125.241 Y79.616 E9.36633
G1 X125.785 Y79.682 E9.41034
G1 X126.424 Y79.797 E9.46248
G1 X127.089 Y80.033 E9.51915
G1 X127.574 Y80.267 E9.5624
G1 X128.03 Y80.546 E9.60533
G1 X128.459 Y80.87 E9.6485
G1 X128.851 Y81.234 E9.69146
G1 X129.205 Y81.635 E9.73442
G1 X129.526 Y82.082 E9.77862
G1 X129.783 Y82.526 E9.81982
G1 X130.01 Y83.028 E9.86406
G1 X130.18 Y83.535 E9.907
G1 X130.299 Y84.057 E9.95
G1 X130.365 Y84.59 E9.99313
G1 X130.379 Y85.125 E10.03611
G1 X130.339 Y85.661 E10.07927
G1 X130.246 Y86.188 E10.12225
G1 X130.1 Y86.706 E10.16547
G1 X129.904 Y87.204 E10.20845
G1 X129.678 Y87.653 E10.24882
G1 X129.369 Y88.132 E10.2946
G1 X129.034 Y88.552 E10.33774
G1 X128.66 Y88.935 E10.38073
G1 X128.248 Y89.281 E10.42394
G1 X127.806 Y89.582 E10.46689
G1 X127.334 Y89.839 E10.51005
G1 X126.841 Y90.047 E10.55302
G1 X126.327 Y90.206 E10.59623
G1 X125.802 Y90.312 E10.63924
G1 X125.292 Y90.365 E10.68042
G1 X124.732 Y90.365 E10.72539
G1 X124.222 Y90.316 E10.76654
G1 X123.697 Y90.21 E10.80955
G1 X123.205 Y90.066 E10.85072
G1 X122.741 Y89.871 E10.89114
G1 X122.255 Y89.623 E10.93496
G1 X121.597 Y89.154 E10.99985
G1 X121.148 Y88.748 E11.04846
G1 X120.794 Y88.347 E11.09142
G1 X120.48 Y87.91 E11.13463
G1 X120.212 Y87.447 E11.17759
G1 X119.991 Y86.957 E11.22076
G1 X119.763 Y86.252 E11.28026
G1 X119.717 Y85.945 E11.30519
G1 X119.717 Y85.945 F9000
G1 X119.084 Y85.95
;WIDTH:0.717165
G1 F900
G1 X119.066 Y85.851 E11.31384
G1 X119.002 Y85.272 E11.36391
;WIDTH:0.716516
G1 X119.01 Y84.715 E11.41174
G1 X119.051 Y84.209 E11.45533
;WIDTH:0.713991
G1 X119.158 Y83.626 E11.50603
G1 X119.304 Y83.111 E11.55181
;WIDTH:0.714462
G1 X119.537 Y82.511 E11.6069
G1 X119.789 Y82.019 E11.65421
;WIDTH:0.7138
G1 X120.105 Y81.519 E11.70478
;WIDTH:0.715055
G1 X120.475 Y81.053 E11.75576
G1 X120.851 Y80.653 E11.80279
;WIDTH:0.716088
G1 X121.301 Y80.271 E11.85344
G1 X121.749 Y79.944 E11.90103
;WIDTH:0.716861
G1 X122.259 Y79.658 E11.95126
G1 X122.764 Y79.419 E11.99926
;WIDTH:0.717385
G1 X123.315 Y79.238 E12.04913
G1 X123.861 Y79.096 E12.09764
;WIDTH:0.716625
G1 X124.39 Y79.028 E12.14344
G1 X124.912 Y78.993 E12.18837
;WIDTH:0.720973
G1 X125.861 Y79.064 E12.27065
G1 X126.418 Y79.157 E12.31948
;WIDTH:0.717284
G1 X126.956 Y79.324 E12.36791
G1 X127.499 Y79.532 E12.4179
;WIDTH:0.71669
G1 X127.991 Y79.794 E12.46578
G1 X128.416 Y80.058 E12.50875
;WIDTH:0.713693
G1 X128.88 Y80.416 E12.55885
G1 X129.272 Y80.781 E12.60464
;WIDTH:0.714746
G1 X129.708 Y81.272 E12.66087
G1 X130.031 Y81.723 E12.70837
;WIDTH:0.713646
G1 X130.329 Y82.232 E12.75879
;WIDTH:0.714738
G1 X130.573 Y82.77 E12.80937
G1 X130.757 Y83.292 E12.85676
;WIDTH:0.71557
G1 X130.882 Y83.825 E12.9037
G1 X130.982 Y84.574 E12.96849
;WIDTH:0.711743
G1 X130.997 Y85.109 E13.0141
;WIDTH:0.713421
G1 X130.948 Y85.769 E13.07065
G1 X130.855 Y86.296 E13.11638
;WIDTH:0.714615
G1 X130.677 Y86.932 E13.17292
G1 X130.481 Y87.43 E13.21874
;WIDTH:0.713905
G1 X130.203 Y87.982 E13.27159
;WIDTH:0.7144
G1 X129.889 Y88.468 E13.32111
G1 X129.567 Y88.886 E13.36627
;WIDTH:0.711441
G1 X129.101 Y89.365 E13.4232
;WIDTH:0.712059
G1 X128.597 Y89.792 E13.47953
G1 X128.154 Y90.093 E13.5252
;WIDTH:0.713165
G1 X127.574 Y90.41 E13.58166
G1 X127.081 Y90.617 E13.62733
;WIDTH:0.714295
G1 X126.45 Y90.813 E13.68387
G1 X125.925 Y90.918 E13.72968
;WIDTH:0.714178
G1 X125.298 Y90.985 E13.78363
G1 X124.732 Y90.985 E13.83205
G1 X124.156 Y90.934 E13.88152
;WIDTH:0.715335
G1 X123.574 Y90.818 E13.93238
G1 X123.044 Y90.667 E13.97961
;WIDTH:0.71631
G1 X122.5 Y90.443 E14.03011
G1 X122.003 Y90.194 E14.07783
;WIDTH:0.721378
G1 X121.121 Y89.57 E14.1713
;WIDTH:0.711865
G1 X120.687 Y89.155 E14.22249
;WIDTH:0.711155
G1 X120.331 Y88.756 E14.26802
G1 X120.028 Y88.353 E14.31095
;WIDTH:0.711302
G1 X119.677 Y87.756 E14.36993
;WIDTH:0.711585
G1 X119.405 Y87.154 E14.42622
G1 X119.235 Y86.646 E14.47186
;WIDTH:0.711288
G1 X119.164 Y86.404 E14.49334
;WIDTH:0.717165
G1 X119.099 Y86.038 E14.52529
G1 E13.92529 F240
G92 E0
G1 X119.099 Y86.038 F9000
G1 X125.447 Y75.341
G1 E.8 F240
;TYPE:External perimeter
;WIDTH:0.675
G1 F900
G1 X126.375 Y75.428 E.87485
G1 X127.278 Y75.602 E.9487
G1 X128.16 Y75.861 E1.02252
G1 X129.014 Y76.203 E1.0964
G1 X129.831 Y76.624 E1.17021
G1 X130.605 Y77.121 E1.24408
G1 X131.327 Y77.689 E1.31785
G1 X131.993 Y78.324 E1.39175
G1 X132.595 Y79.019 E1.46559
G1 X133.128 Y79.768 E1.53942
G1 X133.588 Y80.564 E1.61325
G1 X133.97 Y81.4 E1.68706
G1 X134.271 Y82.269 E1.76092
G1 X134.487 Y83.16 E1.83455
G1 X134.608 Y84.171 E1.91632
G1 X134.651 Y84.734 E1.96167
G1 X134.651 Y85.451 E2.01925
G1 X134.564 Y86.367 E2.09314
G1 X134.39 Y87.269 E2.16691
G1 X134.131 Y88.152 E2.24081
G1 X133.789 Y89.005 E2.31461
G1 X133.368 Y89.823 E2.38849
G1 X132.871 Y90.596 E2.46229
G1 X132.304 Y91.316 E2.53589
G1 X131.34 Y92.282 E2.64549
G1 X130.604 Y92.862 E2.72074
G1 X129.831 Y93.359 E2.79454
G1 X129.014 Y93.781 E2.86839
G1 X128.16 Y94.122 E2.94224
G1 X127.278 Y94.381 E3.01606
G1 X126.375 Y94.555 E3.08991
G1 X125.46 Y94.643 E3.16373
G1 X124.54 Y94.643 E3.23761
G1 X123.625 Y94.555 E3.31143
G1 X122.722 Y94.381 E3.38528
G1 X121.84 Y94.122 E3.4591
G1 X120.986 Y93.781 E3.53295
G1 X120.169 Y93.359 E3.6068
G1 X119.395 Y92.862 E3.68067
G1 X118.675 Y92.296 E3.75422
G1 X117.709 Y91.331 E3.86387
G1 X117.129 Y90.596 E3.93906
G1 X116.632 Y89.823 E4.01286
G1 X116.211 Y89.005 E4.08674
G1 X115.869 Y88.152 E4.16054
G1 X115.61 Y87.269 E4.23444
G1 X115.436 Y86.367 E4.30821
G1 X115.349 Y85.451 E4.3821
G1 X115.349 Y84.532 E4.4559
G1 X115.436 Y83.616 E4.52979
G1 X115.61 Y82.714 E4.60356
G1 X115.869 Y81.831 E4.67746
G1 X116.211 Y80.978 E4.75126
G1 X116.632 Y80.16 E4.82514
G1 X117.129 Y79.387 E4.89894
G1 X117.698 Y78.664 E4.97283
G1 X118.332 Y77.999 E5.04662
G1 X119.027 Y77.397 E5.12046
G1 X119.776 Y76.863 E5.19433
G1 X120.573 Y76.403 E5.26823
G1 X121.409 Y76.022 E5.34201
G1 X122.278 Y75.721 E5.41587
G1 X123.171 Y75.504 E5.48967
G1 X124.079 Y75.374 E5.56333
G1 X125.357 Y75.342 E5.666
G1 X125.955 Y75.39 F9000
G1 X125.433 Y75.942
;TYPE:Perimeter
G1 F900
G1 X126.29 Y76.022 E5.73512
G1 X127.136 Y76.185 E5.80431
G1 X127.964 Y76.428 E5.87361
G1 X128.764 Y76.749 E5.94284
G1 X129.531 Y77.144 E6.01212
G1 X130.256 Y77.61 E6.08133
G1 X130.934 Y78.143 E6.15059
G1 X131.558 Y78.738 E6.21983
G1 X132.123 Y79.39 E6.28912
G1 X132.623 Y80.092 E6.35833
G1 X133.054 Y80.839 E6.42759
G1 X133.412 Y81.624 E6.49688
G1 X133.694 Y82.439 E6.56614
G1 X133.895 Y83.267 E6.63457
G1 X134.051 Y84.734 E6.75305
G1 X134.051 Y85.423 E6.80838
G1 X133.969 Y86.281 E6.8776
G1 X133.806 Y87.128 E6.94687
G1 X133.563 Y87.955 E7.01609
G1 X133.243 Y88.756 E7.08536
G1 X132.848 Y89.522 E7.15457
G1 X132.381 Y90.248 E7.22389
G1 X131.854 Y90.918 E7.29235
G1 X130.94 Y91.833 E7.39621
G1 X130.256 Y92.373 E7.4662
G1 X129.531 Y92.839 E7.53541
G1 X128.764 Y93.234 E7.60469
G1 X127.964 Y93.555 E7.67392
G1 X127.136 Y93.798 E7.74322
G1 X126.29 Y93.961 E7.81241
G1 X125.431 Y94.043 E7.88171
G1 X124.569 Y94.043 E7.95094
G1 X123.71 Y93.961 E8.02024
G1 X122.864 Y93.798 E8.08943
G1 X122.036 Y93.555 E8.15873
G1 X121.236 Y93.234 E8.22796
G1 X120.469 Y92.839 E8.29724
G1 X119.744 Y92.373 E8.36645
G1 X119.074 Y91.846 E8.43491
G1 X118.158 Y90.932 E8.53883
G1 X117.618 Y90.247 E8.60888
G1 X117.152 Y89.522 E8.67809
G1 X116.757 Y88.756 E8.7473
G1 X116.437 Y87.955 E8.81657
G1 X116.194 Y87.128 E8.88579
G1 X116.031 Y86.281 E8.95506
G1 X115.949 Y85.423 E9.02428
G1 X115.949 Y84.56 E9.09359
G1 X116.031 Y83.702 E9.16281
G1 X116.194 Y82.855 E9.23208
G1 X116.437 Y82.028 E9.3013
G1 X116.757 Y81.227 E9.37057
G1 X117.152 Y80.461 E9.43978
G1 X117.619 Y79.735 E9.5091
G1 X118.152 Y79.057 E9.57836
G1 X118.747 Y78.433 E9.6476
G1 X119.399 Y77.869 E9.71683
G1 X120.101 Y77.368 E9.78609
G1 X120.848 Y76.937 E9.85535
G1 X121.632 Y76.579 E9.92457
G1 X122.447 Y76.297 E9.99383
G1 X123.285 Y76.094 E10.06307
G1 X124.129 Y75.972 E10.13155
G1 X125.343 Y75.943 E10.22907
G1 X125.343 Y75.943 F9000
G1 X125.418 Y76.543
G1 F900
G1 X126.205 Y76.617 E10.29255
G1 X126.995 Y76.769 E10.35716
