; generated by PrusaSlicer 2.8.0+MacOS-arm64 on 2024-10-04 at 12:10:01 UTC


;
;

;
;
; 

; external perimeters extrusion width = 0.68mm
; perimeters extrusion width = 0.68mm
; infill extrusion width = 0.68mm
; solid infill extrusion width = 0.68mm
; top infill extrusion width = 0.60mm

; external perimeters extrusion width = 0.68mm
; perimeters extrusion width = 0.68mm
; infill extrusion width = 0.68mm
; solid infill extrusion width = 0.68mm
; top infill extrusion width = 0.60mm

; external perimeters extrusion width = 0.68mm
; perimeters extrusion width = 0.68mm
; infill extrusion width = 0.68mm
; solid infill extrusion width = 0.68mm
; top infill extrusion width = 0.60mm

; external perimeters extrusion width = 0.68mm
; perimeters extrusion width = 0.68mm
; infill extrusion width = 0.68mm
; solid infill extrusion width = 0.68mm
; top infill extrusion width = 0.60mm


EXCLUDE_OBJECT_DEFINE NAME='z_thrust_bearing_spacer_r' CENTER=105.355,87.163 POLYGON=[[105.830,77.176],[107.711,77.446],[109.508,78.068],[111.154,79.019],[111.902,79.607],[112.911,80.616],[114.014,82.164],[114.804,83.894],[115.252,85.741],[115.343,87.640],[115.173,89.057],[114.949,89.982],[114.242,91.747],[113.214,93.346],[111.902,94.722],[110.354,95.825],[108.625,96.615],[106.777,97.063],[104.878,97.153],[102.996,96.883],[101.200,96.261],[99.553,95.310],[98.117,94.065],[96.941,92.571],[96.258,91.319],[95.904,90.435],[95.456,88.588],[95.365,86.689],[95.636,84.807],[96.258,83.010],[97.208,81.364],[98.453,79.927],[99.947,78.752],[101.637,77.881],[103.461,77.345],[104.403,77.210]]
EXCLUDE_OBJECT_DEFINE NAME='thrust_bearing_casing_l' CENTER=142.939,160.704 POLYGON=[[143.248,148.129],[144.479,148.221],[145.695,148.432],[146.884,148.761],[148.036,149.205],[149.138,149.760],[150.181,150.421],[151.154,151.179],[152.049,152.030],[152.855,152.965],[153.565,153.974],[154.174,155.048],[154.675,156.177],[155.061,157.349],[155.332,158.553],[155.483,159.779],[155.514,161.013],[155.422,162.244],[155.211,163.460],[154.883,164.650],[154.438,165.801],[153.883,166.904],[153.223,167.946],[152.464,168.920],[151.613,169.814],[150.678,170.620],[149.669,171.330],[148.595,171.939],[147.466,172.440],[146.294,172.827],[145.090,173.097],[143.865,173.249],[142.630,173.279],[141.399,173.188],[140.183,172.977],[138.994,172.648],[137.842,172.204],[136.739,171.648],[135.697,170.988],[134.723,170.229],[133.829,169.378],[133.023,168.443],[132.313,167.434],[131.704,166.361],[131.203,165.232],[130.816,164.059],[130.546,162.855],[130.395,161.630],[130.364,160.395],[130.455,159.164],[130.667,157.948],[130.995,156.759],[131.439,155.607],[131.995,154.505],[132.655,153.462],[133.414,152.489],[134.265,151.594],[135.200,150.788],[136.209,150.078],[137.283,149.469],[138.411,148.968],[139.584,148.582],[140.788,148.311],[142.013,148.160]]
EXCLUDE_OBJECT_DEFINE NAME='z_thrust_bearing_spacer_l' CENTER=60.668,153.514 POLYGON=[[61.144,143.526],[63.026,143.796],[63.939,144.064],[65.250,144.626],[66.850,145.654],[68.226,146.966],[69.328,148.514],[70.118,150.244],[70.566,152.091],[70.657,153.990],[70.386,155.872],[69.764,157.669],[68.814,159.315],[67.569,160.752],[66.075,161.927],[65.250,162.403],[63.939,162.964],[62.091,163.413],[60.192,163.503],[58.311,163.233],[56.514,162.611],[54.868,161.660],[53.767,160.752],[53.111,160.063],[52.008,158.514],[51.218,156.785],[50.770,154.938],[50.679,153.039],[50.950,151.157],[51.572,149.360],[52.522,147.714],[53.767,146.277],[55.262,145.102],[56.514,144.418],[57.397,144.064],[59.245,143.616]]
EXCLUDE_OBJECT_DEFINE NAME='thrust_bearing_casing_r' CENTER=187.336,88.719 POLYGON=[[187.737,76.727],[188.723,76.801],[190.185,77.064],[191.595,77.502],[192.501,77.889],[193.375,78.352],[194.411,79.029],[195.368,79.806],[196.191,80.623],[197.401,82.188],[198.128,83.476],[198.521,84.377],[198.840,85.312],[199.173,86.759],[199.295,87.739],[199.328,89.124],[199.254,90.109],[198.991,91.571],[198.553,92.981],[198.166,93.886],[197.703,94.761],[196.877,95.995],[195.432,97.576],[193.867,98.786],[193.017,99.289],[191.679,99.907],[190.743,100.226],[189.296,100.558],[188.316,100.680],[186.882,100.712],[184.918,100.474],[183.959,100.235],[182.572,99.734],[181.682,99.305],[180.418,98.525],[179.635,97.924],[178.565,96.911],[177.921,96.161],[177.074,94.942],[176.387,93.635],[176.021,92.721],[175.731,91.775],[175.442,90.319],[175.347,88.185],[175.598,86.223],[175.843,85.266],[176.353,83.882],[176.789,82.995],[177.577,81.737],[178.184,80.958],[179.172,79.924],[180.121,79.132],[181.136,78.446],[182.909,77.566],[184.318,77.106],[185.286,76.897],[186.265,76.768]]

;TYPE:Custom
START_PRINT BED_TEMP=80 HOTEND_TEMP=230 FILAMENT_TYPE=FLEX EXTRUSION_MULTIPLIER=0.92 PERIMETER_SPEED=80
G21 ; set units to millimeters
G90 ; use absolute coordinates
M82 ; use absolute distances for extrusion
G92 E0
; Filament gcode
; ########################### NOTE OFFSET CHANGES ####################################
; Prevents PETG buildup on nozzle.
SET_GCODE_OFFSET Z=0
; ####################################################################################
M107
;LAYER_CHANGE
;Z:0.35
;HEIGHT:0.35
G1 E-.5 F240
G1 Z.35 F9000
EXCLUDE_OBJECT_START NAME='thrust_bearing_casing_l'
G92 E0
G1 X142.283 Y156.924
G1 E.5 F240
G92 E0
;TYPE:External perimeter
;WIDTH:0.675
G1 F1800
G1 X142.813 Y156.854 E.04293
G1 X143.576 Y156.905 E.10434
G1 X144.313 Y157.106 E.16569
G1 X144.985 Y157.444 E.2261
G1 X145.572 Y157.902 E.28589
G1 X145.983 Y158.353 E.33489
G1 X146.345 Y158.936 E.39
G1 X146.615 Y159.62 E.44906
G1 X146.751 Y160.349 E.50861
G1 X146.744 Y161.083 E.56756
G1 X146.693 Y161.425 E.59533
G1 X146.554 Y161.972 E.64065
G1 X146.314 Y162.483 E.68599
G1 X146.144 Y162.783 E.71368
G1 X145.771 Y163.275 E.76326
G1 X145.126 Y163.836 E.83191
G1 X144.544 Y164.172 E.88588
G1 X143.822 Y164.421 E.94721
G1 X143.064 Y164.522 E1.00862
G1 X142.302 Y164.471 E1.06995
G1 X141.565 Y164.27 E1.1313
G1 X140.907 Y163.939 E1.19045
G1 X140.322 Y163.487 E1.24982
G1 X139.839 Y162.936 E1.30866
G1 X139.466 Y162.298 E1.36801
G1 X139.225 Y161.607 E1.42678
G1 X139.158 Y161.265 E1.45477
G1 X139.103 Y160.721 E1.49868
G1 X139.142 Y160.139 E1.54552
G1 X139.336 Y159.367 E1.60945
G1 X139.65 Y158.713 E1.66771
G1 X140.175 Y158.032 E1.73677
G1 X140.675 Y157.591 E1.79031
G1 X141.334 Y157.204 E1.85168
G1 X142.056 Y156.955 E1.91301
G1 X142.194 Y156.936 E1.9242
G1 X142.79 Y156.868 F9000
G1 X142.193 Y156.327
;TYPE:Perimeter
G1 F1800
G1 X142.739 Y156.258 E1.9684
G1 X143.26 Y156.28 E2.01028
G1 X143.783 Y156.334 E2.0525
G1 X144.475 Y156.529 E2.11024
G1 X145.258 Y156.91 E2.18017
G1 X145.946 Y157.433 E2.24957
G1 X146.326 Y157.834 E2.29394
G1 X146.651 Y158.286 E2.33865
G1 X146.92 Y158.728 E2.3802
G1 X147.179 Y159.415 E2.43916
G1 X147.285 Y159.869 E2.4766
G1 X147.362 Y160.377 E2.51786
G1 X147.343 Y161.113 E2.57699
G1 X147.274 Y161.573 E2.61435
G1 X147.135 Y162.12 E2.65967
G1 X146.854 Y162.744 E2.71463
G1 X146.622 Y163.146 E2.7519
G1 X146.249 Y163.637 E2.80142
G1 X145.789 Y164.068 E2.85204
G1 X145.426 Y164.356 E2.88925
G1 X144.844 Y164.692 E2.94322
G1 X144.305 Y164.891 E2.98936
G1 X143.838 Y165.03 E3.02849
G1 X143.139 Y165.117 E3.08506
G1 X142.621 Y165.096 E3.12669
G1 X142.096 Y165.042 E3.16907
G1 X141.403 Y164.847 E3.22688
G1 X140.633 Y164.473 E3.29563
G1 X139.948 Y163.956 E3.36455
G1 X139.379 Y163.322 E3.43296
G1 X139.128 Y162.931 E3.47027
G1 X138.866 Y162.447 E3.51447
G1 X138.651 Y161.784 E3.57044
G1 X138.561 Y161.325 E3.608
G1 X138.506 Y160.781 E3.65191
G1 X138.543 Y160.094 E3.70716
G1 X138.779 Y159.144 E3.78577
G1 X139.011 Y158.658 E3.82902
G1 X139.24 Y158.251 E3.86652
G1 X139.628 Y157.738 E3.91817
G1 X140.073 Y157.322 E3.96709
G1 X140.437 Y157.028 E4.00467
G1 X141.034 Y156.684 E4.06
G1 X141.563 Y156.488 E4.10531
G1 X142.04 Y156.346 E4.14528
G1 X142.104 Y156.338 E4.15046
G1 X142.104 Y155.736 F9000
G1 F1800
G1 X142.664 Y155.663 E4.19581
G1 X143.305 Y155.681 E4.24731
G1 X143.807 Y155.726 E4.28779
G1 X144.637 Y155.951 E4.35685
G1 X145.181 Y156.196 E4.40476
G1 X145.63 Y156.43 E4.44542
G1 X146.32 Y156.964 E4.51549
G1 X146.775 Y157.437 E4.5682
G1 X147.038 Y157.769 E4.60221
G1 X147.406 Y158.371 E4.65887
G1 X147.608 Y158.84 E4.69988
G1 X147.802 Y159.38 E4.74596
G1 X147.937 Y160.171 E4.8104
G1 X147.97 Y160.586 E4.84383
G1 X147.935 Y161.29 E4.90044
G1 X147.758 Y162.104 E4.96734
G1 X147.614 Y162.548 E5.00483
G1 X147.309 Y163.183 E5.0614
G1 X146.862 Y163.823 E5.12409
G1 X146.524 Y164.218 E5.16584
G1 X145.996 Y164.685 E5.22245
G1 X145.384 Y165.073 E5.28064
G1 X144.871 Y165.334 E5.32686
G1 X144.204 Y165.558 E5.38337
G1 X143.544 Y165.671 E5.43714
G1 X143.027 Y165.724 E5.47888
G1 X142.212 Y165.667 E5.54449
G1 X141.615 Y165.53 E5.59368
G1 X141.115 Y165.383 E5.63553
G1 X140.36 Y165.006 E5.7033
G1 X139.882 Y164.67 E5.75022
G1 X139.462 Y164.332 E5.79352
G1 X138.92 Y163.707 E5.85996
G1 X138.699 Y163.398 E5.89047
G1 X138.362 Y162.779 E5.94707
G1 X138.078 Y161.96 E6.01668
G1 X137.979 Y161.539 E6.05141
G1 X137.909 Y160.841 E6.10775
G1 X137.924 Y160.337 E6.14824
G1 X137.987 Y159.791 E6.19238
G1 X138.222 Y158.922 E6.26467
G1 X138.47 Y158.398 E6.31123
G1 X138.725 Y157.938 E6.35347
G1 X139.15 Y157.376 E6.41006
G1 X139.676 Y156.873 E6.46851
G1 X140.124 Y156.517 E6.51446
G1 X140.734 Y156.164 E6.57106
G1 X141.372 Y155.919 E6.62594
G1 X141.859 Y155.768 E6.66689
G1 X142.015 Y155.748 E6.67952
G1 X142.015 Y155.748 F9000
G1 X142.016 Y155.15
G1 F1800
G1 X142.8 Y155.052 E6.74297
G1 X143.862 Y155.127 E6.82847
G1 X144.938 Y155.418 E6.91799
G1 X145.938 Y155.916 E7.00771
G1 X146.819 Y156.599 E7.09723
G1 X147.225 Y157.04 E7.14537
G1 X147.55 Y157.457 E7.18783
G1 X147.918 Y158.058 E7.24442
G1 X148.172 Y158.635 E7.29505
G1 X148.377 Y159.206 E7.34377
G1 X148.531 Y160.081 E7.41512
G1 X148.569 Y160.616 E7.45819
G1 X148.534 Y161.32 E7.5148
G1 X148.437 Y161.869 E7.55957
G1 X148.298 Y162.416 E7.60489
G1 X148.106 Y162.91 E7.64745
G1 X147.849 Y163.443 E7.69497
G1 X147.578 Y163.87 E7.73558
G1 X147.206 Y164.362 E7.78511
G1 X146.877 Y164.707 E7.82339
G1 X146.393 Y165.134 E7.87522
G1 X146.026 Y165.395 E7.91139
G1 X145.444 Y165.731 E7.96536
G1 X145.06 Y165.904 E7.99918
G1 X144.395 Y166.127 E8.05551
G1 X143.987 Y166.22 E8.08912
G1 X143.288 Y166.308 E8.1457
G1 X142.87 Y166.318 E8.17928
G1 X142.168 Y166.265 E8.23582
G1 X141.756 Y166.193 E8.26941
G1 X141.076 Y166.001 E8.32615
G1 X140.437 Y165.72 E8.38221
G1 X139.94 Y165.46 E8.42725
G1 X139.06 Y164.777 E8.51671
G1 X138.329 Y163.931 E8.6065
G1 X137.886 Y163.159 E8.67798
G1 X137.673 Y162.681 E8.72001
G1 X137.465 Y162.008 E8.77658
G1 X137.367 Y161.445 E8.82247
G1 X137.312 Y160.901 E8.86638
G1 X137.326 Y160.293 E8.91522
G1 X137.377 Y159.773 E8.95718
G1 X137.665 Y158.699 E9.04648
G1 X137.93 Y158.138 E9.09631
G1 X138.174 Y157.677 E9.1382
G1 X138.836 Y156.822 E9.22504
G1 X139.674 Y156.092 E9.31429
G1 X140.64 Y155.541 E9.4036
G1 X141.695 Y155.189 E9.49292
G1 X141.926 Y155.161 E9.51161
G1 X141.926 Y155.161 F9000
G1 X141.926 Y154.554
G1 F1800
G1 X142.181 Y154.515 E9.53233
G1 X142.717 Y154.455 E9.57564
G1 X143.394 Y154.485 E9.63006
G1 X143.95 Y154.534 E9.67488
G1 X144.596 Y154.693 E9.72831
G1 X145.14 Y154.853 E9.77385
G1 X145.728 Y155.129 E9.82601
G1 X146.247 Y155.401 E9.87307
G1 X146.76 Y155.78 E9.92429
G1 X147.221 Y156.155 E9.97201
G1 X147.675 Y156.643 E10.02554
G1 X148.012 Y157.064 E10.06885
G1 X148.393 Y157.685 E10.12736
G1 X148.624 Y158.129 E10.16755
G1 X148.87 Y158.799 E10.22487
G1 X149.015 Y159.291 E10.26606
G1 X149.124 Y159.992 E10.32303
G1 X149.172 Y160.509 E10.36473
G1 X149.14 Y161.203 E10.42052
G1 X149.086 Y161.732 E10.46322
G1 X148.921 Y162.4 E10.51848
G1 X148.763 Y162.916 E10.56182
G1 X148.476 Y163.525 E10.61589
G1 X148.216 Y164.012 E10.66022
G1 X147.818 Y164.547 E10.71377
G1 X147.463 Y164.98 E10.75874
G1 X146.98 Y165.417 E10.81105
G1 X146.537 Y165.782 E10.85715
G1 X145.984 Y166.112 E10.90887
G1 X145.471 Y166.388 E10.95565
G1 X144.381 Y166.755 E11.04801
G1 X143.693 Y166.861 E11.10391
G1 X143.161 Y166.92 E11.1469
G1 X142.487 Y166.891 E11.20108
G1 X141.928 Y166.842 E11.24614
G1 X141.29 Y166.685 E11.29891
G1 X140.738 Y166.523 E11.34511
G1 X140.163 Y166.254 E11.39609
G1 X139.631 Y165.975 E11.44433
G1 X139.134 Y165.608 E11.49395
G1 X138.657 Y165.221 E11.54328
G1 X138.254 Y164.78 E11.59126
G1 X137.847 Y164.288 E11.64254
G1 X137.547 Y163.792 E11.68909
G1 X137.239 Y163.217 E11.74147
G1 X137.048 Y162.691 E11.78641
G1 X136.892 Y162.185 E11.82893
G1 X136.785 Y161.659 E11.87204
G1 X136.715 Y160.961 E11.92838
G1 X136.727 Y160.248 E11.98565
G1 X136.788 Y159.663 E12.03289
G1 X136.949 Y159.006 E12.08721
G1 X137.108 Y158.477 E12.13157
G1 X137.389 Y157.877 E12.18478
G1 X137.653 Y157.378 E12.23012
G1 X138.044 Y156.849 E12.28295
G1 X138.405 Y156.405 E12.32891
G1 X139.266 Y155.647 E12.42103
G1 X139.88 Y155.272 E12.47881
G1 X140.329 Y155.023 E12.52004
G1 X140.989 Y154.782 E12.57647
G1 X141.496 Y154.62 E12.61921
G1 X141.837 Y154.568 E12.64691
G1 X141.837 Y154.568 F9000
G1 X141.837 Y153.962
G1 F1800
G1 X142.106 Y153.919 E12.66879
G1 X142.687 Y153.856 E12.71572
G1 X143.439 Y153.887 E12.77616
G1 X144.038 Y153.94 E12.82445
G1 X144.758 Y154.115 E12.88396
G1 X145.342 Y154.288 E12.93287
G1 X146.002 Y154.595 E12.99133
G1 X146.555 Y154.887 E13.04155
G1 X147.134 Y155.311 E13.09918
G1 X147.624 Y155.71 E13.14993
G1 X148.125 Y156.246 E13.20885
G1 X148.512 Y156.734 E13.25887
G1 X148.905 Y157.372 E13.31905
G1 X149.179 Y157.902 E13.36696
G1 X149.434 Y158.594 E13.42619
G1 X149.604 Y159.175 E13.47481
G1 X149.717 Y159.902 E13.5339
G1 X149.771 Y160.509 E13.58284
G1 X149.74 Y161.233 E13.64104
G1 X149.675 Y161.847 E13.69062
G1 X149.502 Y162.548 E13.74861
G1 X149.319 Y163.142 E13.79853
G1 X148.787 Y164.229 E13.89572
G1 X148.296 Y164.909 E13.96308
G1 X147.978 Y165.309 E14.00412
G1 X147.377 Y165.867 E14.06998
G1 X146.969 Y166.211 E14.11284
G1 X146.284 Y166.631 E14.17737
G1 X145.806 Y166.894 E14.22118
G1 X145.069 Y167.166 E14.28427
G1 X144.527 Y167.337 E14.32991
G1 X143.768 Y167.457 E14.39162
G1 X143.19 Y167.52 E14.43831
G1 X142.442 Y167.489 E14.49843
G1 X141.839 Y167.435 E14.54705
G1 X141.128 Y167.262 E14.60582
G1 X140.536 Y167.088 E14.65537
G1 X139.889 Y166.788 E14.71264
G1 X139.323 Y166.489 E14.76405
G1 X138.76 Y166.077 E14.82008
G1 X138.254 Y165.666 E14.87243
G1 X137.794 Y165.166 E14.92699
G1 X137.366 Y164.646 E14.98108
G1 X137.021 Y164.079 E15.03438
G1 X136.697 Y163.474 E15.0895
G1 X136.475 Y162.868 E15.14133
G1 X136.319 Y162.361 E15.18393
G1 X136.208 Y161.874 E15.22404
G1 X136.134 Y161.172 E15.28073
G1 X136.105 Y160.557 E15.33017
G1 X136.15 Y159.917 E15.38169
G1 X136.243 Y159.347 E15.42807
G1 X136.417 Y158.664 E15.48467
G1 X136.55 Y158.254 E15.51929
G1 X137.091 Y157.146 E15.61831
G1 X137.566 Y156.487 E15.68355
G1 X137.9 Y156.067 E15.72664
G1 X138.485 Y155.523 E15.79079
G1 X138.909 Y155.165 E15.83535
G1 X139.58 Y154.753 E15.89858
G1 X140.072 Y154.481 E15.94373
G1 X140.798 Y154.213 E16.00588
G1 X141.351 Y154.038 E16.05246
G1 X141.748 Y153.976 E16.08473
G1 X141.748 Y153.976 F9000
G1 X141.748 Y153.37
G1 F1800
G1 X142.031 Y153.324 E16.10776
G1 X142.658 Y153.257 E16.1584
G1 X143.484 Y153.289 E16.22478
G1 X144.127 Y153.347 E16.27663
G1 X144.921 Y153.538 E16.34221
G1 X145.544 Y153.723 E16.3944
G1 X146.01 Y153.925 E16.43519
G1 X146.637 Y154.246 E16.49176
G1 X147.21 Y154.606 E16.54611
G1 X147.816 Y155.088 E16.60829
G1 X148.317 Y155.557 E16.6634
G1 X148.682 Y155.971 E16.70772
G1 X149.013 Y156.403 E16.75143
G1 X149.416 Y157.059 E16.81326
G1 X149.734 Y157.674 E16.86886
G1 X149.998 Y158.389 E16.93007
G1 X150.15 Y158.868 E16.97043
G1 X150.328 Y159.93 E17.05691
G1 X150.371 Y160.508 E17.10346
G1 X150.339 Y161.263 E17.16415
G1 X150.294 Y161.788 E17.20647
G1 X150.042 Y162.86 E17.29491
G1 X149.874 Y163.368 E17.33788
G1 X149.557 Y164.045 E17.39791
G1 X149.301 Y164.538 E17.44252
G1 X148.64 Y165.448 E17.53285
G1 X148.29 Y165.851 E17.57572
G1 X147.326 Y166.692 E17.67846
G1 X146.584 Y167.151 E17.74853
G1 X146.063 Y167.436 E17.79622
G1 X145.261 Y167.735 E17.86496
G1 X144.673 Y167.919 E17.91444
G1 X143.842 Y168.052 E17.98203
G1 X143.22 Y168.119 E18.03227
G1 X142.397 Y168.087 E18.09841
G1 X141.751 Y168.029 E18.1505
G1 X140.966 Y167.84 E18.21534
