; generated by PrusaSlicer 2.8.1+MacOS-arm64 on 2024-11-27 at 08:23:18 UTC


;
;

;
;
; 

; external perimeters extrusion width = 0.55mm
; perimeters extrusion width = 0.60mm
; infill extrusion width = 0.60mm
; solid infill extrusion width = 0.60mm
; top infill extrusion width = 0.55mm
; first layer extrusion width = 0.60mm

; external perimeters extrusion width = 0.55mm
; perimeters extrusion width = 0.60mm
; infill extrusion width = 0.60mm
; solid infill extrusion width = 0.60mm
; top infill extrusion width = 0.55mm
; first layer extrusion width = 0.60mm

M73 P0 R29

EXCLUDE_OBJECT_DEFINE NAME='z_thrust_bearing_casing_l' CENTER=103.090,160.704 POLYGON=[[103.398,148.129],[104.630,148.221],[105.845,148.432],[107.035,148.761],[108.187,149.205],[109.289,149.760],[110.332,150.421],[111.305,151.179],[112.200,152.030],[113.005,152.965],[113.716,153.974],[114.325,155.048],[114.825,156.177],[115.212,157.349],[115.483,158.553],[115.634,159.779],[115.665,161.013],[115.573,162.244],[115.362,163.460],[115.033,164.650],[114.589,165.801],[114.034,166.904],[113.373,167.946],[112.615,168.920],[111.763,169.814],[110.829,170.620],[109.820,171.330],[108.746,171.939],[107.617,172.440],[106.445,172.827],[105.240,173.097],[104.015,173.249],[102.781,173.279],[101.550,173.188],[100.334,172.977],[99.144,172.648],[97.992,172.204],[96.890,171.648],[95.848,170.988],[94.874,170.229],[93.980,169.378],[93.174,168.443],[92.463,167.434],[91.855,166.361],[91.354,165.232],[90.967,164.059],[90.697,162.855],[90.545,161.630],[90.515,160.395],[90.606,159.164],[90.817,157.948],[91.146,156.759],[91.590,155.607],[92.146,154.505],[92.806,153.462],[93.565,152.489],[94.416,151.594],[95.351,150.788],[96.360,150.078],[97.433,149.469],[98.562,148.968],[99.735,148.582],[100.939,148.311],[102.164,148.160]]
EXCLUDE_OBJECT_DEFINE NAME='z_thrust_bearing_casing_r' CENTER=147.486,88.719 POLYGON=[[147.888,76.727],[148.874,76.801],[150.335,77.064],[151.746,77.502],[152.651,77.889],[153.526,78.352],[154.562,79.029],[155.519,79.806],[156.342,80.623],[157.551,82.188],[158.279,83.476],[158.672,84.377],[158.991,85.312],[159.324,86.759],[159.445,87.739],[159.479,89.124],[159.405,90.109],[159.142,91.571],[158.704,92.981],[158.317,93.886],[157.854,94.761],[157.028,95.995],[155.583,97.576],[154.018,98.786],[153.168,99.289],[151.829,99.907],[150.894,100.226],[149.447,100.558],[148.467,100.680],[147.032,100.712],[145.069,100.474],[144.110,100.235],[142.723,99.734],[141.833,99.305],[140.569,98.525],[139.786,97.924],[138.716,96.911],[138.072,96.161],[137.225,94.942],[136.538,93.635],[136.172,92.721],[135.882,91.775],[135.593,90.319],[135.498,88.185],[135.749,86.223],[135.994,85.266],[136.504,83.882],[136.940,82.995],[137.728,81.737],[138.335,80.958],[139.323,79.924],[140.271,79.132],[141.287,78.446],[143.060,77.566],[144.469,77.106],[145.437,76.897],[146.416,76.768]]

M190 S80 ; set bed temperature and wait for it to be reached
M104 S235 ; set temperature
;TYPE:Custom
START_PRINT BED_TEMP=80 HOTEND_TEMP=235 FILAMENT_TYPE=FLEX EXTRUSION_MULTIPLIER=0.92
M109 S235 ; set temperature and wait for it to be reached
G21 ; set units to millimeters
G90 ; use absolute coordinates
M82 ; use absolute distances for extrusion
G92 E0
; Filament gcode
; ########################### NOTE OFFSET CHANGES ####################################
; Gives TPU a little but of space to expand, it is one of the materials that does not like
; touching the nozzle
SET_GCODE_OFFSET Z=0.04
; ####################################################################################
M107
;LAYER_CHANGE
;Z:0.3
;HEIGHT:0.3
G1 E-.6 F300
G1 Z.7 F9000
EXCLUDE_OBJECT_START NAME='z_thrust_bearing_casing_l'
G92 E0
G1 X107.439 Y166.918
G1 Z.3
G1 E.65 F300
;TYPE:Perimeter
;WIDTH:0.806436
G1 F1800
G1 X107.411 Y166.939 E.65298
;WIDTH:0.811906
G3 X106.285 Y167.584 I-8.548 J-13.623 E.76432
;WIDTH:0.812791
G3 X104.864 Y168.078 I-5.315 J-12.988 E.89358
;WIDTH:0.813053
G3 X103.38 Y168.283 I-2.661 J-13.814 E1.02234
;WIDTH:0.809018
G3 X101.681 Y168.157 I-.121 J-9.858 E1.16809
;WIDTH:0.812755
G3 X100.431 Y167.808 I3.731 J-15.788 E1.27957
;WIDTH:0.807762
G1 X99.938 Y167.597 E1.32531
;WIDTH:0.808701
G3 X98.731 Y166.911 I4.305 J-8.977 E1.44398
;WIDTH:0.80839
G3 X97.747 Y166.093 I7.698 J-10.263 E1.55327
;WIDTH:0.809928
G3 X96.905 Y165.102 I11.495 J-10.625 E1.66455
;WIDTH:0.804179
G1 X96.595 Y164.62 E1.7132
;WIDTH:0.806931
G3 X96.078 Y163.616 I11.248 J-6.431 E1.80945
;WIDTH:0.806661
G3 X95.741 Y162.592 I13.927 J-5.145 E1.90129
;WIDTH:0.80207
G1 X95.609 Y162.009 E1.95189
;WIDTH:0.804208
G3 X95.493 Y160.694 I14.261 J-1.92 E2.064
;WIDTH:0.800728
G3 X95.577 Y159.564 I13.637 J.448 E2.15977
;WIDTH:0.801123
G3 X95.829 Y158.481 I13.1 J2.475 E2.2538
;WIDTH:0.79755
G1 X95.996 Y157.972 E2.29887
;WIDTH:0.8008
G1 X96.311 Y157.287 E2.36258
G1 X96.592 Y156.757 E2.41327
;WIDTH:0.797392
G3 X97.257 Y155.835 I10.334 J6.762 E2.50892
;WIDTH:0.794758
G1 X97.629 Y155.412 E2.55613
;WIDTH:0.798607
G3 X98.608 Y154.558 I10.924 J11.542 E2.66561
;WIDTH:0.797671
G3 X99.898 Y153.798 I7.83 J11.818 E2.79165
;WIDTH:0.797229
G3 X101.317 Y153.305 I5.301 J12.968 E2.91803
;WIDTH:0.79676
G3 X102.799 Y153.101 I2.658 J13.812 E3.04381
;WIDTH:0.792574
G3 X104.743 Y153.281 I.145 J8.988 E3.20726
;WIDTH:0.793224
G3 X106.159 Y153.746 I-2.367 J9.595 E3.33202
;WIDTH:0.794088
G3 X107.458 Y154.481 I-4.32 J9.162 E3.45711
;WIDTH:0.795548
G3 X108.588 Y155.453 I-6.244 J8.395 E3.58227
;WIDTH:0.797146
G3 X109.386 Y156.441 I-9.804 J8.736 E3.6891
;WIDTH:0.796937
G3 X109.945 Y157.417 I-11.357 J7.149 E3.78367
;WIDTH:0.801639
G3 X110.402 Y158.636 I-14.007 J5.952 E3.89384
;WIDTH:0.798252
G1 X110.535 Y159.215 E3.94387
;WIDTH:0.802215
G3 X110.677 Y160.31 I-13.373 J2.297 E4.03738
;WIDTH:0.804279
G3 X110.646 Y161.412 I-14.199 J.144 E4.131
;WIDTH:0.800858
G1 X110.573 Y161.994 E4.18057
;WIDTH:0.806045
G3 X110.238 Y163.264 I-14.716 J-3.208 E4.29238
;WIDTH:0.806651
G3 X109.772 Y164.291 I-12.094 J-4.868 E4.38847
;WIDTH:0.803795
G1 X109.506 Y164.759 E4.43414
;WIDTH:0.809354
G3 X108.695 Y165.82 I-12.706 J-8.876 E4.54834
;WIDTH:0.808416
G3 X107.849 Y166.605 I-8.584 J-8.406 E4.64691
;WIDTH:0.806436
G1 X107.499 Y166.872 E4.68439
G1 X107.499 Y166.872 F9000
G1 X107.077 Y166.388
;WIDTH:0.6
G1 F1800
G3 X106.012 Y167.008 I-9.409 J-14.916 E4.76015
G3 X104.71 Y167.46 I-6.336 J-16.164 E4.84488
G3 X103.349 Y167.646 I-3.023 J-17.039 E4.92933
G3 X101.973 Y167.561 I.355 J-16.84 E5.01409
G3 X100.646 Y167.208 I3.604 J-16.218 E5.09851
G3 X99.41 Y166.599 I6.459 J-14.668 E5.18322
G3 X98.322 Y165.761 I9.003 J-12.828 E5.26765
G3 X97.416 Y164.723 I10.835 J-10.363 E5.35236
G3 X96.734 Y163.53 I12.284 J-7.811 E5.43685
G3 X96.236 Y161.911 I8.924 J-3.632 E5.54109
G3 X96.129 Y160.551 I13.388 J-1.738 E5.62497
G3 X96.884 Y157.563 I7.093 J.204 E5.81591
G1 X97.133 Y157.081 E5.84925
G3 X97.956 Y155.982 I14.427 J9.956 E5.93366
G3 X98.984 Y155.064 I12.127 J12.525 E6.01839
G3 X100.168 Y154.367 I9.479 J14.758 E6.10285
G3 X101.47 Y153.915 I6.31 J16.091 E6.18758
G3 X102.831 Y153.729 I3.018 J17.004 E6.27203
G3 X104.206 Y153.815 I-.357 J16.871 E6.35673
G3 X105.534 Y154.168 I-3.631 J16.324 E6.44121
G3 X106.77 Y154.777 I-6.545 J14.84 E6.52592
G3 X107.858 Y155.614 I-9.182 J13.06 E6.61031
G3 X108.764 Y156.653 I-11.114 J10.607 E6.69506
G3 X109.448 Y157.856 I-8.89 J5.854 E6.78017
G3 X109.88 Y159.152 I-11.223 J4.453 E6.86418
G3 X110.049 Y160.511 I-12.5 J2.251 E6.94839
G3 X109.95 Y161.873 I-13.515 J-.297 E7.03236
G3 X109.587 Y163.191 I-13.84 J-3.108 E7.11641
G3 X109.047 Y164.294 I-18.312 J-8.278 E7.1919
G3 X108.223 Y165.393 I-14.469 J-9.986 E7.27634
G3 X107.196 Y166.312 I-12.183 J-12.588 E7.36106
G3 X107.14 Y166.348 I-9.528 J-14.841 E7.36515
G1 X107.14 Y166.348 F9000
G1 X106.778 Y165.95
G1 F1800
G3 X105.783 Y166.524 I-11.184 J-18.25 E7.43576
G3 X104.58 Y166.941 I-6.314 J-16.303 E7.51403
G3 X103.322 Y167.111 I-2.969 J-17.151 E7.59207
G3 X102.052 Y167.031 I.429 J-16.88 E7.6703
G3 X100.826 Y166.703 I3.674 J-16.202 E7.74832
G3 X99.685 Y166.139 I6.496 J-14.575 E7.82657
G3 X98.681 Y165.364 I8.99 J-12.686 E7.90454
G3 X97.846 Y164.404 I10.742 J-10.181 E7.98276
G1 X97.53 Y163.882 E8.02026
G3 X97.016 Y162.746 I4.606 J-2.767 E8.09707
G3 X97.367 Y157.796 I5.991 J-2.062 E8.41045
G1 X97.644 Y157.273 E8.44682
G3 X98.353 Y156.342 I16.84 J12.09 E8.51875
G3 X99.303 Y155.494 I12.182 J12.68 E8.59703
G3 X100.397 Y154.851 I9.5 J14.922 E8.67504
G3 X101.6 Y154.435 I6.285 J16.222 E8.75329
G3 X102.857 Y154.264 I2.963 J17.111 E8.83128
G3 X104.128 Y154.345 I-.43 J16.912 E8.90957
G3 X105.353 Y154.672 I-3.705 J16.317 E8.98751
G3 X106.494 Y155.236 I-6.588 J14.762 E9.06576
G3 X107.498 Y156.011 I-9.184 J12.94 E9.14373
G3 X108.333 Y156.972 I-11.043 J10.443 E9.222
G3 X108.953 Y158.059 I-8.577 J5.605 E9.29896
G3 X109.354 Y159.256 I-10.802 J4.287 E9.37659
G3 X109.514 Y160.511 I-12.102 J2.176 E9.45438
G3 X109.425 Y161.77 I-13.18 J-.298 E9.53198
G3 X109.091 Y162.989 I-13.577 J-3.065 E9.60969
G3 X108.526 Y164.118 I-13.531 J-6.07 E9.68731
G3 X107.75 Y165.115 I-12.619 J-9.016 E9.76498
G3 X106.838 Y165.906 I-11.147 J-11.927 E9.83919
G1 X106.838 Y165.906 F9000
G1 X106.471 Y165.498
G1 F1800
G3 X105.727 Y165.949 I-3.587 J-5.073 E9.89271
G3 X103.476 Y166.561 I-2.705 J-5.512 E10.03696
G3 X101.161 Y166.249 I-.351 J-6.136 E10.18141
G3 X99.155 Y165.065 I2.064 J-5.79 E10.32545
G3 X98 Y163.626 I4.077 J-4.457 E10.4393
G3 X97.527 Y162.588 I4.102 J-2.493 E10.50957
G3 X97.263 Y161.468 I5.393 J-1.864 E10.58041
G3 X97.222 Y160.273 I6.1 J-.809 E10.65402
G3 X97.433 Y159.093 I5.191 J.32 E10.72786
G3 X97.849 Y158.028 I4.518 J1.153 E10.79831
G1 X98.094 Y157.564 E10.83056
G3 X98.804 Y156.644 I13.317 J9.547 E10.902
G3 X99.68 Y155.883 I11.634 J12.49 E10.97333
G3 X100.689 Y155.307 I9.136 J14.84 E11.04475
G3 X101.73 Y154.955 I7.426 J20.247 E11.1123
G3 X102.884 Y154.799 I2.951 J17.557 E11.18388
G3 X104.049 Y154.874 I-.528 J17.276 E11.25564
G1 X104.654 Y155.024 E11.29395
G3 X105.722 Y155.435 I-1.068 J4.374 E11.36447
G3 X106.697 Y156.05 I-1.92 J4.124 E11.43551
G3 X107.528 Y156.836 I-2.706 J3.689 E11.506
G3 X108.225 Y157.816 I-3.833 J3.465 E11.58008
G3 X108.697 Y158.915 I-5.023 J2.809 E11.65372
G3 X108.951 Y160.155 I-6.37 J1.952 E11.73163
G3 X108.94 Y161.327 I-9.567 J.499 E11.80371
G3 X108.698 Y162.474 I-9.094 J-1.326 E11.87581
G3 X107.564 Y164.512 I-5.983 J-1.995 E12.01998
G3 X106.532 Y165.455 I-4.68 J-4.087 E12.10608
G1 X106.532 Y165.455 F9000
G1 X106.17 Y165.057
G1 F1800
G3 X105.459 Y165.485 I-4.125 J-6.041 E12.15711
G1 X104.749 Y165.763 E12.20397
G3 X103.735 Y165.988 I-1.339 J-3.637 E12.268
G3 X102.703 Y166.013 I-.609 J-3.794 E12.33164
G3 X101.679 Y165.838 I.136 J-3.868 E12.39568
G1 X101.187 Y165.695 E12.42717
G3 X100.236 Y165.221 I7.061 J-15.348 E12.49249
G3 X99.4 Y164.57 I9.595 J-13.199 E12.55762
G1 X98.827 Y163.915 E12.61111
G3 X98.039 Y162.43 I4.197 J-3.179 E12.71488
G3 X97.796 Y161.415 I4.671 J-1.655 E12.77914
G3 X97.756 Y160.312 I5.347 J-.747 E12.84709
G3 X97.952 Y159.225 I4.686 J.284 E12.91513
G3 X98.332 Y158.261 I4.563 J1.24 E12.97894
G1 X98.624 Y157.74 E13.01565
G3 X99.817 Y156.455 I4.811 J3.268 E13.12383
G1 X100.47 Y156.034 E13.17158
G3 X101.42 Y155.616 I2.048 J3.359 E13.23556
G3 X102.441 Y155.388 I1.351 J3.648 E13.30005
G3 X103.479 Y155.362 I.612 J3.814 E13.36406
G3 X104.509 Y155.54 I-.14 J3.882 E13.4285
G1 X104.993 Y155.681 E13.45948
G3 X105.943 Y156.155 I-7.183 J15.593 E13.52474
G3 X106.779 Y156.805 I-9.848 J13.525 E13.58984
G3 X107.473 Y157.61 I-11.637 J10.733 E13.65518
G3 X108.226 Y159.187 I-5.115 J3.41 E13.76295
G3 X108.421 Y160.235 I-9.471 J2.31 E13.8285
G3 X108.405 Y161.3 I-9.273 J.394 E13.894
G3 X108.179 Y162.341 I-8.775 J-1.366 E13.95951
G3 X107.137 Y164.188 I-5.463 J-1.864 E14.09059
G3 X106.363 Y164.921 I-5.645 J-5.188 E14.15616
G3 X106.232 Y165.015 I-4.318 J-5.905 E14.16607
G1 X106.232 Y165.015 F9000
G1 X105.869 Y164.615
G1 F1800
G3 X105.792 Y164.675 I-5.23 J-6.704 E14.17207
G1 X105.191 Y165.022 E14.21472
G3 X104.039 Y165.41 I-3.356 J-8.047 E14.28949
G1 X103.343 Y165.498 E14.33261
G3 X102.224 Y165.43 I.087 J-10.812 E14.40154
G1 X101.455 Y165.218 E14.45057
G3 X100.512 Y164.761 I4.605 J-10.706 E14.515
G1 X99.861 Y164.258 E14.56556
G3 X99.137 Y163.447 I6.5 J-6.536 E14.63242
G1 X98.754 Y162.771 E14.68017
G3 X98.397 Y161.772 I6.76 J-2.98 E14.74543
G1 X98.29 Y160.972 E14.79504
G1 X98.29 Y160.352 E14.83315
G3 X98.52 Y159.166 I5.468 J.444 E14.90755
G1 X98.815 Y158.493 E14.95271
G3 X99.47 Y157.511 I4.916 J2.569 E15.0254
G3 X100.387 Y156.701 I6.089 J5.975 E15.10066
G1 X100.988 Y156.354 E15.14331
G3 X102.139 Y155.965 I3.368 J8.078 E15.21804
G1 X102.836 Y155.878 E15.26121
G3 X103.956 Y155.945 I-.088 J10.834 E15.3302
G1 X104.725 Y156.157 E15.37923
G3 X105.689 Y156.628 I-4.527 J10.512 E15.4452
G1 X106.335 Y157.131 E15.49552
G3 X107.043 Y157.929 I-7.245 J7.143 E15.56112
G1 X107.387 Y158.508 E15.60251
G1 X107.69 Y159.281 E15.65354
G3 X107.892 Y160.315 I-7.448 J1.99 E15.71834
G1 X107.878 Y161.13 E15.76844
G3 X107.66 Y162.209 I-6.587 J-.769 E15.83617
G1 X107.352 Y162.909 E15.88317
G3 X106.71 Y163.865 I-5.156 J-2.771 E15.95406
G3 X105.928 Y164.569 I-6.071 J-5.954 E16.01877
G1 X105.567 Y164.173 F9000
G1 F1800
G3 X104.777 Y164.624 I-5.172 J-8.154 E16.0747
G1 X104.121 Y164.844 E16.11723
G3 X103.116 Y164.97 I-1.714 J-9.605 E16.17951
G1 X102.419 Y164.918 E16.22247
G1 X101.6 Y164.703 E16.27451
G1 X100.856 Y164.339 E16.32542
G1 X100.195 Y163.839 E16.37636
G1 X99.648 Y163.226 E16.42685
G3 X99.155 Y162.384 I6.653 J-4.461 E16.48686
G1 X98.948 Y161.741 E16.52838
G3 X98.808 Y160.775 I6.131 J-1.378 E16.58843
G1 X98.845 Y160.11 E16.62936
G1 X98.99 Y159.489 E16.66855
G3 X99.297 Y158.725 I3.812 J1.088 E16.71925
G3 X99.897 Y157.834 I4.315 J2.255 E16.78541
G3 X100.667 Y157.158 I6.383 J6.494 E16.84842
G1 X101.256 Y156.818 E16.89022
G3 X102.215 Y156.496 I3.58 J9.068 E16.95242
G1 X102.903 Y156.409 E16.99504
G1 X103.754 Y156.457 E17.04743
G1 X104.58 Y156.673 E17.0999
G1 X105.337 Y157.043 E17.15169
G1 X106.001 Y157.55 E17.20304
G1 X106.548 Y158.169 E17.25381
G1 X106.833 Y158.619 E17.28655
G3 X107.233 Y159.596 I-6.77 J3.347 E17.35149
G1 X107.345 Y160.281 E17.39415
G3 X107.336 Y161.247 I-6.607 J.418 E17.45358
G1 X107.181 Y161.917 E17.49585
G3 X106.785 Y162.852 I-5.302 J-1.696 E17.55834
G1 X106.414 Y163.368 E17.5974
G3 X105.654 Y164.118 I-3.775 J-3.069 E17.66316
G3 X105.63 Y164.133 I-5.259 J-8.099 E17.6649
G1 X105.63 Y164.133 F9000
G1 X105.268 Y163.735
;TYPE:External perimeter
G1 F1800
G1 X104.656 Y164.094 E17.70851
G1 X103.95 Y164.337 E17.7544
G1 X103.21 Y164.435 E17.80028
G1 X102.465 Y164.384 E17.84618
G1 X101.745 Y164.187 E17.89206
G1 X101.1 Y163.863 E17.93642
G1 X100.529 Y163.42 E17.98084
G1 X100.058 Y162.882 E18.02479
G1 X99.695 Y162.259 E18.06911
G1 X99.46 Y161.583 E18.1131
G1 X99.356 Y160.865 E18.15769
G1 X99.379 Y160.149 E18.20172
G1 X99.509 Y159.621 E18.23514
G3 X99.78 Y158.958 I3.116 J.883 E18.27925
G1 X99.94 Y158.664 E18.29982
G1 X100.324 Y158.158 E18.33886
G1 X100.88 Y157.66 E18.38474
G1 X101.524 Y157.282 E18.43064
G1 X102.23 Y157.039 E18.47653
G1 X102.97 Y156.941 E18.52241
G1 X103.714 Y156.991 E18.56824
G1 X104.434 Y157.188 E18.61412
G1 X105.093 Y157.52 E18.65947
G1 X105.667 Y157.968 E18.70422
G1 X106.138 Y158.513 E18.74849
G1 X106.459 Y159.043 E18.78657
G1 X106.683 Y159.648 E18.82622
G1 X106.815 Y160.36 E18.87073
G1 X106.808 Y161.077 E18.9148
G3 X106.622 Y161.945 I-5.504 J-.727 E18.96942
G3 X105.856 Y163.218 I-4.322 J-1.732 E19.06112
G1 X105.328 Y163.69 E19.10465
G1 X104.9 Y163.949 F9000
G1 E18.50465 F300
G92 E0
G1 X111.346 Y161.773 Z.419 F9000
G1 Z.3
G1 E.65 F300
;TYPE:Perimeter
;WIDTH:0.804354
G1 F1800
G3 X111.327 Y161.92 I-10.4 J-1.219 E.66259
;WIDTH:0.805229
G3 X110.994 Y163.326 I-10.994 J-1.866 E.78551
;WIDTH:0.80358
G1 X110.747 Y163.968 E.84386
;WIDTH:0.807937
G3 X110.222 Y164.999 I-9.814 J-4.354 E.94262
;WIDTH:0.807308
G3 X109.508 Y166.002 I-8.769 J-5.481 E1.04764
;WIDTH:0.805176
G1 X109.077 Y166.49 E1.10298
;WIDTH:0.81093
G3 X108.014 Y167.416 I-7.848 J-7.934 E1.22383
;WIDTH:0.808631
G3 X106.84 Y168.136 I-6.235 J-8.844 E1.34152
;WIDTH:0.806397
G1 X106.381 Y168.35 E1.38464
;WIDTH:0.812791
