; generated by PrusaSlicer 2.8.0+MacOS-arm64 on 2024-10-04 at 12:12:44 UTC


;
;

;
;
; 

; external perimeters extrusion width = 0.68mm
; perimeters extrusion width = 0.68mm
; infill extrusion width = 0.68mm
; solid infill extrusion width = 0.68mm
; top infill extrusion width = 0.60mm

; external perimeters extrusion width = 0.68mm
; perimeters extrusion width = 0.68mm
; infill extrusion width = 0.68mm
; solid infill extrusion width = 0.68mm
; top infill extrusion width = 0.60mm


EXCLUDE_OBJECT_DEFINE NAME='z_thrust_bearing_spacer_r' CENTER=126.181,85.464 POLYGON=[[126.656,75.477],[128.538,75.747],[130.334,76.369],[131.981,77.320],[132.729,77.908],[133.738,78.917],[134.841,80.465],[135.630,82.195],[136.079,84.042],[136.169,85.941],[136.000,87.358],[135.775,88.283],[135.069,90.048],[134.041,91.647],[132.729,93.023],[131.180,94.126],[129.451,94.915],[127.603,95.363],[125.705,95.454],[123.823,95.183],[122.026,94.562],[120.380,93.611],[118.943,92.366],[117.768,90.872],[117.084,89.619],[116.730,88.736],[116.282,86.888],[116.192,84.989],[116.462,83.108],[117.084,81.311],[118.035,79.665],[119.280,78.228],[120.774,77.053],[122.464,76.182],[124.288,75.646],[125.230,75.511]]
EXCLUDE_OBJECT_DEFINE NAME='z_thrust_bearing_spacer_l' CENTER=126.222,166.578 POLYGON=[[126.697,156.591],[128.579,156.861],[129.938,157.296],[130.803,157.691],[132.403,158.719],[133.779,160.031],[134.881,161.579],[135.671,163.309],[136.119,165.156],[136.210,167.055],[136.040,168.472],[135.816,169.397],[135.109,171.162],[134.082,172.761],[132.770,174.137],[131.221,175.240],[129.492,176.029],[127.644,176.478],[125.745,176.568],[123.864,176.298],[122.067,175.676],[120.421,174.725],[119.320,173.817],[118.664,173.128],[117.561,171.579],[116.771,169.850],[116.323,168.003],[116.232,166.104],[116.503,164.222],[117.125,162.425],[118.075,160.779],[119.320,159.342],[120.815,158.167],[122.505,157.296],[123.404,156.985],[124.798,156.681]]

;TYPE:Custom
START_PRINT BED_TEMP=80 HOTEND_TEMP=230 FILAMENT_TYPE=FLEX EXTRUSION_MULTIPLIER=0.92 PERIMETER_SPEED=80
G21 ; set units to millimeters
G90 ; use absolute coordinates
M82 ; use absolute distances for extrusion
G92 E0
; Filament gcode
; ########################### NOTE OFFSET CHANGES ####################################
; Prevents PETG buildup on nozzle.
SET_GCODE_OFFSET Z=0
; ####################################################################################
M107
;LAYER_CHANGE
;Z:0.35
;HEIGHT:0.35
G1 E-.5 F240
G1 Z.35 F9000
EXCLUDE_OBJECT_START NAME='z_thrust_bearing_spacer_l'
G92 E0
G1 X124.209 Y168.966
G1 E.5 F240
G92 E0
;TYPE:External perimeter
;WIDTH:0.675
G1 F1606
G1 X124.116 Y168.903 E.00902
G1 X123.692 Y168.434 E.05979
G1 X123.375 Y167.897 E.10987
G1 X123.167 Y167.295 E.16102
G1 X123.087 Y166.688 E.21019
G1 X123.128 Y166.064 E.26041
G1 X123.291 Y165.462 E.3105
G1 X123.571 Y164.903 E.36071
G1 X123.942 Y164.428 E.40911
G1 X124.369 Y164.056 E.45459
G1 X124.855 Y163.767 E.5
G1 X125.384 Y163.569 E.54536
G1 X125.629 Y163.5 E.5658
G1 X126.185 Y163.444 E.61068
G1 X127.024 Y163.548 E.67857
G1 X127.555 Y163.741 E.72394
G1 X128.091 Y164.062 E.77411
G1 X128.553 Y164.482 E.82425
G1 X128.922 Y164.986 E.87441
G1 X129.181 Y165.546 E.92396
G1 X129.305 Y166.055 E.96603
G1 X129.351 Y166.784 E1.02469
G1 X129.248 Y167.4 E1.07485
G1 X129.025 Y167.984 E1.12505
G1 X128.692 Y168.511 E1.17511
G1 X128.26 Y168.963 E1.22532
G1 X127.747 Y169.319 E1.27547
G1 X127.174 Y169.567 E1.32561
G1 X126.563 Y169.697 E1.37578
G1 X125.939 Y169.703 E1.42589
G1 X125.361 Y169.592 E1.47316
G1 X124.834 Y169.385 E1.51863
G1 X124.284 Y169.016 E1.57182
G1 X123.851 Y168.6 F9000
G1 X123.808 Y169.42
;TYPE:Perimeter
G1 F1606
G1 X123.766 Y169.391 E1.57592
G1 X123.375 Y168.981 E1.62142
G1 X123.138 Y168.686 E1.65181
G1 X122.855 Y168.196 E1.69725
G1 X122.591 Y167.464 E1.75974
G1 X122.492 Y166.762 E1.81667
G1 X122.529 Y166.019 E1.87641
G1 X122.713 Y165.299 E1.93609
G1 X123.037 Y164.629 E1.99586
G1 X123.473 Y164.054 E2.05381
G1 X123.983 Y163.597 E2.10881
G1 X124.568 Y163.24 E2.16385
G1 X124.854 Y163.105 E2.18925
G1 X125.394 Y162.938 E2.23464
G1 X126.125 Y162.847 E2.2938
G1 X126.804 Y162.908 E2.34855
G1 X127.229 Y162.984 E2.38322
G1 X127.76 Y163.177 E2.42859
G1 X128.404 Y163.55 E2.48836
G1 X128.961 Y164.042 E2.54804
G1 X129.409 Y164.635 E2.60773
G1 X129.728 Y165.299 E2.66689
G1 X129.89 Y165.922 E2.71859
G1 X129.941 Y166.384 E2.75592
G1 X129.937 Y166.948 E2.80122
G1 X129.839 Y167.504 E2.84656
G1 X129.671 Y167.98 E2.8871
G1 X129.502 Y168.362 E2.92065
G1 X129.196 Y168.837 E2.96603
G1 X128.689 Y169.382 E3.02581
G1 X128.085 Y169.815 E3.08549
G1 X127.407 Y170.12 E3.14519
G1 X126.682 Y170.285 E3.2049
G1 X125.939 Y170.303 E3.26459
G1 X125.242 Y170.18 E3.32143
G1 X124.601 Y169.937 E3.37648
G1 X124.339 Y169.802 E3.40015
G1 X123.881 Y169.473 E3.44544
G1 X123.881 Y169.473 F9000
G1 X123.417 Y169.863
G1 F1606
G1 X123.232 Y169.721 E3.46417
G1 X122.793 Y169.228 E3.51718
G1 X122.477 Y168.741 E3.5638
G1 X122.213 Y168.224 E3.61042
G1 X122.016 Y167.633 E3.66045
G1 X121.896 Y166.837 E3.7251
G1 X121.931 Y165.975 E3.79438
G1 X122.136 Y165.137 E3.86366
G1 X122.503 Y164.356 E3.93296
G1 X123.004 Y163.68 E4.00053
G1 X123.598 Y163.137 E4.06516
G1 X123.905 Y162.918 E4.09544
G1 X124.402 Y162.648 E4.14086
G1 X125.03 Y162.423 E4.19443
G1 X125.508 Y162.306 E4.23395
G1 X126.064 Y162.25 E4.27883
G1 X126.4 Y162.254 E4.30582
G1 X127.106 Y162.341 E4.36295
G1 X127.604 Y162.482 E4.40452
G1 X128.14 Y162.69 E4.45069
G1 X128.716 Y163.038 E4.50473
G1 X129.369 Y163.602 E4.57402
G1 X129.896 Y164.285 E4.6433
G1 X130.275 Y165.052 E4.71201
G1 X130.475 Y165.788 E4.77326
G1 X130.54 Y166.369 E4.82021
G1 X130.544 Y166.933 E4.86551
G1 X130.43 Y167.608 E4.92049
G1 X130.23 Y168.199 E4.9706
G1 X130.006 Y168.688 E5.01379
G1 X129.7 Y169.162 E5.0591
G1 X129.367 Y169.546 E5.09992
G1 X128.972 Y169.932 E5.14427
G1 X128.423 Y170.311 E5.19784
G1 X127.64 Y170.673 E5.26712
G1 X126.801 Y170.873 E5.33639
G1 X125.939 Y170.903 E5.40566
G1 X125.123 Y170.768 E5.47208
G1 X124.802 Y170.673 E5.49896
G1 X124.282 Y170.453 E5.5443
G1 X123.725 Y170.1 E5.59726
G1 X123.488 Y169.918 E5.62126
G1 X123.488 Y169.918 F9000
G1 X123.015 Y170.318
G1 F1606
G1 X122.717 Y170.049 E5.6535
G1 X122.343 Y169.625 E5.6989
G1 X121.958 Y169.041 E5.75507
G1 X121.685 Y168.527 E5.80181
G1 X121.44 Y167.802 E5.86327
G1 X121.351 Y167.307 E5.90366
G1 X121.289 Y166.788 E5.94564
G1 X121.333 Y165.93 E6.01464
G1 X121.419 Y165.469 E6.0523
G1 X121.559 Y164.974 E6.09361
G1 X121.711 Y164.585 E6.12715
G1 X121.971 Y164.078 E6.17291
G1 X122.196 Y163.731 E6.20612
G1 X122.548 Y163.289 E6.2515
G1 X122.84 Y162.99 E6.28506
G1 X123.273 Y162.627 E6.33044
G1 X123.619 Y162.391 E6.36407
G1 X124.115 Y162.121 E6.40942
G1 X124.5 Y161.958 E6.443
G1 X125.04 Y161.792 E6.48837
G1 X125.72 Y161.682 E6.54369
G1 X126.412 Y161.652 E6.59932
G1 X126.952 Y161.718 E6.64301
G1 X127.513 Y161.815 E6.68873
G1 X128.17 Y162.05 E6.74477
G1 X128.652 Y162.296 E6.78823
G1 X129.112 Y162.579 E6.8316
G1 X129.777 Y163.163 E6.90268
G1 X130.058 Y163.482 E6.93682
G1 X130.389 Y163.943 E6.9824
G1 X130.592 Y164.297 E7.01517
G1 X130.825 Y164.812 E7.06056
G1 X130.958 Y165.209 E7.09418
G1 X131.084 Y165.759 E7.13949
G1 X131.14 Y166.354 E7.18748
G1 X131.141 Y166.99 E7.23856
G1 X131.02 Y167.713 E7.29743
G1 X130.907 Y168.115 E7.33097
G1 X130.701 Y168.641 E7.37634
G1 X130.365 Y169.238 E7.43136
G1 X130.026 Y169.724 E7.47895
G1 X129.548 Y170.219 E7.53421
G1 X129.102 Y170.574 E7.57999
G1 X128.664 Y170.869 E7.6224
G1 X127.873 Y171.226 E7.69209
G1 X127.438 Y171.356 E7.72855
G1 X126.92 Y171.461 E7.771
G1 X126.504 Y171.503 E7.80458
G1 X125.939 Y171.503 E7.84995
G1 X125.523 Y171.461 E7.88353
G1 X124.969 Y171.349 E7.92892
G1 X124.569 Y171.226 E7.96253
G1 X124.048 Y171.006 E8.00795
G1 X123.639 Y170.776 E8.04563
G1 X123.083 Y170.377 E8.10059
G1 X123.083 Y170.377 F9000
G1 X122.62 Y170.765
G1 F1606
G1 X122.267 Y170.446 E8.1388
G1 X121.893 Y170.022 E8.1842
G1 X121.579 Y169.586 E8.22735
G1 X121.297 Y169.096 E8.27275
G1 X121.076 Y168.606 E8.31592
G1 X120.865 Y167.971 E8.36966
G1 X120.755 Y167.381 E8.41786
G1 X120.691 Y166.827 E8.46265
G1 X120.735 Y165.885 E8.53838
G1 X120.828 Y165.356 E8.58151
G1 X120.981 Y164.812 E8.62689
G1 X121.175 Y164.316 E8.66966
G1 X121.438 Y163.803 E8.71596
G1 X121.716 Y163.371 E8.75722
G1 X122.066 Y162.932 E8.80231
G1 X122.422 Y162.558 E8.84378
G1 X122.826 Y162.218 E8.88619
G1 X123.273 Y161.897 E8.93039
G1 X123.828 Y161.594 E8.98117
G1 X124.323 Y161.385 E9.02432
G1 X124.863 Y161.219 E9.06969
G1 X125.388 Y161.112 E9.11272
G1 X125.944 Y161.056 E9.1576
G1 X126.468 Y161.054 E9.19968
G1 X127.534 Y161.201 E9.2861
G1 X128.015 Y161.355 E9.32666
G1 X128.534 Y161.549 E9.37116
G1 X129.342 Y162.014 E9.44603
G1 X129.771 Y162.339 E9.48925
G1 X130.185 Y162.723 E9.5346
G1 X130.541 Y163.126 E9.57778
G1 X130.878 Y163.595 E9.62416
G1 X131.134 Y164.039 E9.66532
G1 X131.372 Y164.565 E9.71169
G1 X131.534 Y165.039 E9.75192
G1 X131.669 Y165.626 E9.80029
G1 X131.735 Y166.159 E9.84342
G1 X131.749 Y166.724 E9.88881
G1 X131.709 Y167.26 E9.93197
G1 X131.611 Y167.817 E9.97739
G1 X131.466 Y168.334 E10.02051
G1 X131.259 Y168.86 E10.06591
G1 X131.014 Y169.339 E10.10912
G1 X130.707 Y169.813 E10.15447
G1 X130.372 Y170.234 E10.19768
G1 X129.978 Y170.638 E10.243
G1 X129.566 Y170.984 E10.28621
G1 X129.099 Y171.302 E10.33158
G1 X128.627 Y171.559 E10.37474
G1 X128.106 Y171.779 E10.42016
G1 X127.592 Y171.937 E10.46334
G1 X127.039 Y172.049 E10.50865
G1 X126.52 Y172.102 E10.55055
G1 X125.939 Y172.102 E10.59721
G1 X125.428 Y172.054 E10.63843
G1 X124.885 Y171.944 E10.68292
G1 X124.381 Y171.797 E10.72508
G1 X123.902 Y171.596 E10.7668
G1 X123.405 Y171.342 E10.81162
G1 X122.716 Y170.852 E10.87952
G1 X122.687 Y170.826 E10.88265
G1 X122.687 Y170.826 F9000
G1 X122.23 Y171.207
;WIDTH:0.637115
G1 F1606
G1 X121.834 Y170.828 E10.92389
;WIDTH:0.636145
G1 X121.458 Y170.406 E10.96634
;WIDTH:0.63637
G1 X121.077 Y169.876 E11.01538
G1 X120.794 Y169.387 E11.05783
;WIDTH:0.636598
G1 X120.525 Y168.791 E11.10698
G1 X120.345 Y168.256 E11.14941
;WIDTH:0.636401
G1 X120.308 Y168.135 E11.15892
;WIDTH:0.63709
G1 X120.2 Y167.619 E11.19858
G1 X120.13 Y167.058 E11.24111
;WIDTH:0.637851
G1 X120.113 Y166.405 E11.29032
G1 X120.155 Y165.841 E11.33293
;WIDTH:0.638868
G1 X120.268 Y165.198 E11.3822
G1 X120.421 Y164.654 E11.42485
;WIDTH:0.63981
G1 X120.656 Y164.052 E11.4737
G1 X120.921 Y163.536 E11.51755
;WIDTH:0.639148
G1 X121.235 Y163.041 E11.56181
;WIDTH:0.640434
G1 X121.61 Y162.569 E11.60743
G1 X121.995 Y162.159 E11.65
;WIDTH:0.641483
G1 X122.452 Y161.772 E11.69541
G1 X122.909 Y161.438 E11.73833
;WIDTH:0.642271
G1 X123.428 Y161.147 E11.78351
G1 X123.944 Y160.902 E11.82688
;WIDTH:0.642796
G1 X124.504 Y160.718 E11.87168
G1 X125.061 Y160.573 E11.91542
;WIDTH:0.642067
G1 X125.602 Y160.504 E11.95681
G1 X126.135 Y160.468 E11.99736
;WIDTH:0.646576
G1 X127.098 Y160.541 E12.07124
G1 X127.666 Y160.635 E12.11528
;WIDTH:0.642693
G1 X128.214 Y160.806 E12.1589
G1 X128.766 Y161.017 E12.2038
;WIDTH:0.642099
G1 X129.269 Y161.286 E12.2471
G1 X129.708 Y161.558 E12.2863
;WIDTH:0.638585
G1 X130.166 Y161.912 E12.32997
G1 X130.58 Y162.297 E12.37262
;WIDTH:0.639802
G1 X131.013 Y162.786 E12.422
G1 X131.343 Y163.245 E12.46474
;WIDTH:0.63894
G1 X131.65 Y163.769 E12.51058
;WIDTH:0.640131
G1 X131.9 Y164.319 E12.55628
G1 X132.086 Y164.848 E12.5987
;WIDTH:0.640959
G1 X132.213 Y165.392 E12.64102
G1 X132.314 Y166.145 E12.69857
;WIDTH:0.636943
G1 X132.33 Y166.71 E12.74108
;WIDTH:0.638525
G1 X132.282 Y167.361 E12.79032
G1 X132.179 Y167.917 E12.83297
;WIDTH:0.634892
G1 X132.052 Y168.421 E12.87192
;WIDTH:0.636522
G1 X131.8 Y169.072 E12.92439
G1 X131.502 Y169.654 E12.97353
;WIDTH:0.6364
G1 X131.195 Y170.128 E13.01596
;WIDTH:0.636689
G1 X130.788 Y170.639 E13.06507
G1 X130.393 Y171.044 E13.1076
;WIDTH:0.637252
G1 X129.893 Y171.464 E13.15674
G1 X129.426 Y171.782 E13.19926
;WIDTH:0.638071
G1 X128.853 Y172.095 E13.24847
G1 X128.332 Y172.314 E13.29106
;WIDTH:0.63916
G1 X127.708 Y172.507 E13.34038
G1 X127.154 Y172.619 E13.38306
;WIDTH:0.639507
G1 X126.524 Y172.685 E13.43092
G1 X125.939 Y172.685 E13.47512
G1 X125.361 Y172.633 E13.51897
;WIDTH:0.640721
G1 X124.77 Y172.515 E13.5646
G1 X124.228 Y172.361 E13.60726
;WIDTH:0.641705
G1 X123.676 Y172.133 E13.65256
G1 X123.168 Y171.879 E13.69564
;WIDTH:0.647
G1 X122.299 Y171.264 E13.77715
G1 E13.27715 F240
G92 E0
G1 X122.299 Y171.264 F9000
G1 X126.666 Y156.928
G1 E.5 F240
;TYPE:External perimeter
;WIDTH:0.675
G1 F1606
G1 X127.596 Y157.016 E.57502
G1 X128.499 Y157.19 E.64887
G1 X129.381 Y157.449 E.72269
G1 X130.235 Y157.79 E.79654
G1 X131.052 Y158.212 E.87039
G1 X131.826 Y158.709 E.94426
G1 X132.548 Y159.277 E1.01803
G1 X133.214 Y159.912 E1.09193
G1 X133.816 Y160.607 E1.16577
G1 X134.349 Y161.356 E1.2396
G1 X134.809 Y162.152 E1.31343
G1 X135.191 Y162.988 E1.38724
G1 X135.492 Y163.857 E1.4611
G1 X135.708 Y164.748 E1.53473
G1 X135.828 Y165.751 E1.61585
G1 X135.872 Y166.318 E1.66152
G1 X135.872 Y167.039 E1.71942
G1 X135.788 Y167.929 E1.79121
G1 X135.491 Y169.305 E1.90426
G1 X135.191 Y170.171 E1.97786
G1 X134.809 Y171.007 E2.05167
G1 X134.349 Y171.803 E2.1255
G1 X133.816 Y172.552 E2.19933
G1 X133.214 Y173.247 E2.27317
G1 X132.548 Y173.882 E2.34707
G1 X131.826 Y174.45 E2.42084
G1 X131.052 Y174.947 E2.49471
G1 X130.235 Y175.368 E2.56852
G1 X129.381 Y175.71 E2.6424
G1 X128.499 Y175.969 E2.71622
G1 X127.596 Y176.143 E2.79007
G1 X126.681 Y176.231 E2.86389
G1 X125.761 Y176.231 E2.93777
G1 X124.846 Y176.143 E3.01159
G1 X123.943 Y175.969 E3.08544
G1 X123.061 Y175.71 E3.15926
G1 X122.207 Y175.368 E3.23314
G1 X121.39 Y174.947 E3.30695
G1 X120.617 Y174.45 E3.38075
G1 X119.896 Y173.883 E3.45441
G1 X118.932 Y172.92 E3.56384
G1 X118.35 Y172.184 E3.63919
G1 X117.854 Y171.411 E3.71295
G1 X117.432 Y170.593 E3.78687
G1 X117.09 Y169.74 E3.86067
G1 X116.831 Y168.857 E3.93457
G1 X116.657 Y167.955 E4.00834
G1 X116.57 Y167.039 E4.08223
G1 X116.57 Y166.12 E4.15603
G1 X116.657 Y165.204 E4.22992
G1 X116.831 Y164.302 E4.30369
G1 X117.09 Y163.419 E4.37759
G1 X117.432 Y162.566 E4.45139
G1 X117.854 Y161.748 E4.52531
G1 X118.351 Y160.975 E4.59911
G1 X118.919 Y160.252 E4.67295
G1 X119.553 Y159.587 E4.74674
G1 X120.248 Y158.985 E4.82058
G1 X120.997 Y158.451 E4.89445
G1 X121.794 Y157.991 E4.96835
G1 X122.63 Y157.609 E5.04216
G1 X123.499 Y157.309 E5.11599
G1 X124.393 Y157.092 E5.18987
G1 X125.3 Y156.962 E5.26345
G1 X126.576 Y156.93 E5.36596
G1 X127.175 Y156.977 F9000
G1 X126.652 Y157.53
;TYPE:Perimeter
G1 F1606
G1 X127.511 Y157.61 E5.43524
G1 X128.357 Y157.773 E5.50443
G1 X129.185 Y158.016 E5.57373
G1 X129.985 Y158.337 E5.64296
G1 X130.752 Y158.732 E5.71224
G1 X131.477 Y159.198 E5.78145
G1 X132.155 Y159.731 E5.85071
G1 X132.779 Y160.326 E5.91995
G1 X133.344 Y160.978 E5.98924
G1 X133.844 Y161.68 E6.05845
G1 X134.275 Y162.427 E6.12771
G1 X134.634 Y163.212 E6.19703
G1 X134.916 Y164.027 E6.26629
G1 X135.117 Y164.855 E6.33472
G1 X135.272 Y166.318 E6.45287
G1 X135.272 Y167.011 E6.50852
G1 X135.194 Y167.837 E6.57515
G1 X134.912 Y169.143 E6.68245
G1 X134.634 Y169.947 E6.75077
G1 X134.275 Y170.732 E6.82009
G1 X133.844 Y171.479 E6.88935
G1 X133.344 Y172.181 E6.95856
G1 X132.779 Y172.833 E7.02785
G1 X132.155 Y173.428 E7.09709
G1 X131.477 Y173.961 E7.16635
G1 X130.752 Y174.427 E7.23556
G1 X129.985 Y174.822 E7.30484
G1 X129.185 Y175.143 E7.37407
G1 X128.357 Y175.386 E7.44337
G1 X127.511 Y175.549 E7.51256
G1 X126.652 Y175.631 E7.58186
G1 X125.79 Y175.631 E7.65109
G1 X124.932 Y175.549 E7.72031
G1 X124.085 Y175.386 E7.78958
G1 X123.257 Y175.143 E7.85888
G1 X122.457 Y174.822 E7.92811
G1 X121.69 Y174.427 E7.99739
G1 X120.965 Y173.961 E8.0666
G1 X120.295 Y173.434 E8.13506
G1 X119.381 Y172.521 E8.23881
G1 X118.839 Y171.835 E8.30902
G1 X118.374 Y171.11 E8.37819
G1 X117.978 Y170.344 E8.44744
G1 X117.658 Y169.543 E8.51671
G1 X117.415 Y168.716 E8.58593
G1 X117.252 Y167.869 E8.6552
G1 X117.17 Y167.011 E8.72442
G1 X117.17 Y166.148 E8.79373
G1 X117.252 Y165.29 E8.86295
G1 X117.415 Y164.443 E8.93222
G1 X117.658 Y163.616 E9.00144
G1 X117.978 Y162.815 E9.07071
G1 X118.374 Y162.049 E9.13996
G1 X118.84 Y161.323 E9.20924
G1 X119.373 Y160.645 E9.2785
