; generated by PrusaSlicer 2.8.1+MacOS-arm64 on 2024-10-09 at 10:05:08 UTC


;
;

;
;
; 

; external perimeters extrusion width = 0.68mm
; perimeters extrusion width = 0.68mm
; infill extrusion width = 0.68mm
; solid infill extrusion width = 0.68mm
; top infill extrusion width = 0.60mm

; external perimeters extrusion width = 0.68mm
; perimeters extrusion width = 0.68mm
; infill extrusion width = 0.68mm
; solid infill extrusion width = 0.68mm
; top infill extrusion width = 0.60mm


EXCLUDE_OBJECT_DEFINE NAME='z_thrust_bearing_spacer_r' CENTER=126.543,83.028 POLYGON=[[127.018,73.041],[127.965,73.131],[129.359,73.434],[131.124,74.141],[132.723,75.169],[134.099,76.481],[135.202,78.029],[135.992,79.759],[136.440,81.606],[136.531,83.505],[136.361,84.922],[136.137,85.847],[135.430,87.612],[134.402,89.211],[133.090,90.587],[131.542,91.690],[129.813,92.479],[127.965,92.928],[126.066,93.018],[125.119,92.928],[123.725,92.624],[121.960,91.918],[120.360,90.890],[118.984,89.578],[117.882,88.029],[117.092,86.300],[116.644,84.453],[116.553,82.554],[116.824,80.672],[117.446,78.875],[118.396,77.229],[119.641,75.792],[121.135,74.617],[121.960,74.141],[123.271,73.579],[125.119,73.131]]
EXCLUDE_OBJECT_DEFINE NAME='z_thrust_bearing_spacer_l' CENTER=127.160,166.977 POLYGON=[[127.635,156.990],[129.517,157.260],[130.430,157.528],[131.742,158.090],[133.341,159.118],[134.717,160.430],[135.820,161.978],[136.609,163.708],[137.058,165.555],[137.148,167.454],[137.058,168.401],[136.754,169.796],[136.048,171.561],[135.020,173.160],[133.708,174.536],[132.159,175.639],[130.430,176.428],[128.583,176.877],[126.684,176.967],[124.802,176.696],[123.005,176.075],[121.359,175.124],[120.259,174.216],[119.602,173.527],[118.499,171.978],[117.709,170.249],[117.261,168.401],[117.171,166.503],[117.441,164.621],[118.063,162.824],[119.014,161.178],[120.259,159.741],[121.753,158.566],[123.005,157.882],[123.889,157.528],[125.736,157.080]]

;TYPE:Custom
START_PRINT BED_TEMP=80 HOTEND_TEMP=225 FILAMENT_TYPE=FLEX EXTRUSION_MULTIPLIER=0.92 PERIMETER_SPEED=20
G21 ; set units to millimeters
G90 ; use absolute coordinates
M82 ; use absolute distances for extrusion
G92 E0
; Filament gcode
; ########################### NOTE OFFSET CHANGES ####################################
; Prevents PETG buildup on nozzle.
; SET_GCODE_OFFSET Z=0
; ####################################################################################
M107
;LAYER_CHANGE
;Z:0.35
;HEIGHT:0.35
G1 E-.5 F240
G1 Z.35 F9000
EXCLUDE_OBJECT_START NAME='z_thrust_bearing_spacer_r'
G92 E0
G1 X123.61 Y83.538
G1 E.5 F240
;TYPE:External perimeter
;WIDTH:0.675
G1 F900
G1 X123.557 Y83.134 E.53272
G1 X123.596 Y82.54 E.58053
G1 X123.751 Y81.966 E.62828
G1 X124.017 Y81.434 E.67605
G1 X124.377 Y80.974 E.72296
G1 X124.784 Y80.622 E.76617
G1 X125.245 Y80.349 E.8092
G1 X125.747 Y80.162 E.85222
G1 X126.236 Y80.071 E.89216
G1 X126.572 Y80.044 E.91923
G1 X127.242 Y80.127 E.97345
G1 X127.811 Y80.326 E1.02186
G1 X128.321 Y80.631 E1.06958
G1 X128.761 Y81.031 E1.11733
G1 X129.113 Y81.51 E1.16507
G1 X129.363 Y82.05 E1.21286
G1 X129.501 Y82.628 E1.26058
G1 X129.522 Y83.223 E1.30839
G1 X129.424 Y83.809 E1.3561
G1 X129.213 Y84.365 E1.40386
G1 X128.895 Y84.868 E1.45165
G1 X128.484 Y85.298 E1.49942
G1 X127.996 Y85.638 E1.54718
G1 X127.451 Y85.874 E1.59488
G1 X126.869 Y85.998 E1.64267
G1 X126.274 Y86.004 E1.69046
G1 X125.714 Y85.896 E1.73626
G1 X125.017 Y85.596 E1.7972
G1 X124.533 Y85.239 E1.8455
G1 X124.135 Y84.797 E1.89327
G1 X123.832 Y84.285 E1.94105
G1 X123.631 Y83.701 E1.99065
G1 X123.621 Y83.627 E1.99665
G1 X123.576 Y83.029 F9000
G1 X123.019 Y83.627
;TYPE:Perimeter
G1 F900
G1 X122.962 Y83.208 E2.03061
G1 X122.998 Y82.495 E2.08794
G1 X123.174 Y81.804 E2.1452
G1 X123.483 Y81.161 E2.20249
G1 X123.908 Y80.6 E2.25901
G1 X124.398 Y80.163 E2.31174
G1 X124.958 Y79.822 E2.36439
G1 X125.233 Y79.693 E2.38878
G1 X125.744 Y79.535 E2.43173
G1 X126.445 Y79.447 E2.48847
G1 X127.106 Y79.506 E2.54176
G1 X127.513 Y79.579 E2.57497
G1 X128.016 Y79.762 E2.61796
G1 X128.634 Y80.119 E2.67528
G1 X129.169 Y80.591 E2.73258
G1 X129.6 Y81.16 E2.7899
G1 X129.91 Y81.803 E2.84723
G1 X130.086 Y82.495 E2.90457
G1 X130.122 Y83.208 E2.9619
G1 X130.015 Y83.914 E3.01925
G1 X129.771 Y84.584 E3.07651
G1 X129.399 Y85.193 E3.13382
G1 X128.914 Y85.716 E3.1911
G1 X128.334 Y86.133 E3.24847
G1 X127.684 Y86.427 E3.30576
G1 X126.988 Y86.586 E3.36309
G1 X126.274 Y86.603 E3.42045
G1 X125.595 Y86.484 E3.47581
G1 X125.049 Y86.268 E3.52296
G1 X124.598 Y86.04 E3.56354
G1 X124.171 Y85.717 E3.60654
G1 X123.807 Y85.331 E3.64915
G1 X123.58 Y85.048 E3.67829
G1 X123.313 Y84.585 E3.72121
G1 X123.049 Y83.848 E3.78408
G1 X123.031 Y83.716 E3.79478
G1 X123.031 Y83.716 F9000
G1 X122.428 Y83.716
G1 F900
G1 X122.367 Y83.283 E3.8299
G1 X122.4 Y82.451 E3.89677
G1 X122.596 Y81.641 E3.9637
G1 X122.95 Y80.887 E4.03059
G1 X123.439 Y80.225 E4.09669
G1 X124.013 Y79.703 E4.159
G1 X124.311 Y79.492 E4.18832
G1 X124.781 Y79.236 E4.2313
G1 X125.394 Y79.016 E4.2836
G1 X125.859 Y78.903 E4.32203
G1 X126.385 Y78.85 E4.36449
G1 X126.72 Y78.854 E4.3914
G1 X127.389 Y78.937 E4.44554
G1 X127.875 Y79.073 E4.48607
G1 X128.395 Y79.275 E4.53087
G1 X128.947 Y79.607 E4.5826
G1 X129.577 Y80.152 E4.6495
G1 X130.087 Y80.81 E4.71636
G1 X130.457 Y81.557 E4.78331
G1 X130.671 Y82.362 E4.8502
G1 X130.721 Y83.193 E4.91706
G1 X130.606 Y84.018 E4.98395
G1 X130.33 Y84.803 E5.05078
G1 X129.903 Y85.519 E5.11773
G1 X129.343 Y86.135 E5.18459
G1 X128.672 Y86.629 E5.25151
G1 X127.917 Y86.98 E5.31837
G1 X127.107 Y87.174 E5.38526
G1 X126.274 Y87.203 E5.4522
G1 X125.476 Y87.072 E5.51714
G1 X125.133 Y86.965 E5.54599
G1 X124.524 Y86.69 E5.59965
G1 X124.17 Y86.469 E5.63316
G1 X123.654 Y86.061 E5.68599
G1 X123.235 Y85.591 E5.73656
G1 X122.927 Y85.116 E5.78202
G1 X122.67 Y84.612 E5.82745
G1 X122.468 Y83.996 E5.87951
G1 X122.441 Y83.805 E5.895
G1 X122.441 Y83.805 F9000
G1 X121.837 Y83.805
G1 F900
G1 X121.772 Y83.357 E5.93135
G1 X121.769 Y82.844 E5.97255
G1 X121.81 Y82.313 E6.01532
G1 X122.019 Y81.479 E6.08437
G1 X122.172 Y81.09 E6.11794
G1 X122.418 Y80.609 E6.16133
G1 X122.643 Y80.262 E6.19454
G1 X122.976 Y79.844 E6.23746
G1 X123.268 Y79.544 E6.27108
G1 X123.678 Y79.2 E6.31406
G1 X124.024 Y78.965 E6.34765
G1 X124.494 Y78.709 E6.39063
G1 X124.879 Y78.546 E6.42421
G1 X125.391 Y78.389 E6.46722
G1 X126.055 Y78.28 E6.52126
G1 X126.728 Y78.251 E6.57536
G1 X127.253 Y78.315 E6.61783
G1 X127.796 Y78.41 E6.6621
G1 X128.426 Y78.635 E6.71582
G1 X128.897 Y78.874 E6.75824
G1 X129.345 Y79.151 E6.80054
G1 X129.985 Y79.712 E6.86889
G1 X130.262 Y80.025 E6.90246
G1 X130.58 Y80.468 E6.94625
G1 X130.783 Y80.822 E6.97902
G1 X131.003 Y81.31 E7.02201
G1 X131.178 Y81.886 E7.07036
G1 X131.299 Y82.496 E7.1203
G1 X131.321 Y83.178 E7.1751
G1 X131.278 Y83.661 E7.21404
G1 X131.191 Y84.155 E7.25432
G1 X130.888 Y85.023 E7.32815
G1 X130.697 Y85.395 E7.36173
G1 X130.401 Y85.853 E7.40552
G1 X130.146 Y86.171 E7.43825
G1 X129.772 Y86.554 E7.48124
G1 X129.335 Y86.903 E7.52615
G1 X128.91 Y87.188 E7.56724
G1 X128.15 Y87.532 E7.63424
G1 X127.726 Y87.66 E7.66981
G1 X127.226 Y87.762 E7.71079
G1 X126.809 Y87.803 E7.74444
G1 X126.274 Y87.803 E7.7874
G1 X125.858 Y87.762 E7.82097
G1 X125.334 Y87.656 E7.8639
G1 X124.886 Y87.511 E7.90172
G1 X124.278 Y87.237 E7.95528
G1 X123.808 Y86.947 E7.99963
G1 X123.398 Y86.636 E8.04096
G1 X122.907 Y86.125 E8.09787
G1 X122.593 Y85.733 E8.13821
G1 X122.274 Y85.184 E8.1892
G1 X122.035 Y84.604 E8.23958
G1 X121.886 Y84.143 E8.27849
G1 X121.85 Y83.894 E8.29869
G1 X121.85 Y83.894 F9000
G1 X121.246 Y83.894
G1 F900
G1 X121.177 Y83.432 E8.3362
G1 X121.163 Y82.895 E8.37934
G1 X121.203 Y82.361 E8.42234
G1 X121.297 Y81.831 E8.46557
G1 X121.441 Y81.316 E8.50852
G1 X121.632 Y80.828 E8.55061
G1 X121.882 Y80.34 E8.59464
G1 X122.162 Y79.903 E8.63632
G1 X122.501 Y79.477 E8.68004
G1 X122.85 Y79.113 E8.72054
G1 X123.241 Y78.784 E8.76158
G1 X123.678 Y78.471 E8.80475
G1 X124.207 Y78.182 E8.85316
G1 X124.702 Y77.973 E8.89631
G1 X125.214 Y77.815 E8.93934
G1 X125.738 Y77.709 E8.98227
G1 X126.264 Y77.656 E9.02473
G1 X126.783 Y77.654 E9.06641
G1 X127.327 Y77.72 E9.11042
G1 X127.965 Y77.835 E9.16248
G1 X128.631 Y78.071 E9.21922
G1 X129.116 Y78.304 E9.26243
G1 X129.572 Y78.584 E9.3054
G1 X130.001 Y78.908 E9.34857
G1 X130.393 Y79.272 E9.39153
G1 X130.747 Y79.673 E9.43449
G1 X131.068 Y80.12 E9.47869
G1 X131.33 Y80.575 E9.52086
G1 X131.55 Y81.063 E9.56385
G1 X131.721 Y81.573 E9.60705
G1 X131.84 Y82.095 E9.65005
G1 X131.907 Y82.628 E9.69319
G1 X131.921 Y83.163 E9.73617
G1 X131.88 Y83.699 E9.77934
G1 X131.788 Y84.226 E9.8223
G1 X131.642 Y84.744 E9.86552
G1 X131.446 Y85.242 E9.9085
G1 X131.22 Y85.69 E9.9488
G1 X130.911 Y86.17 E9.99464
G1 X130.576 Y86.59 E10.03778
G1 X130.202 Y86.973 E10.08077
G1 X129.79 Y87.319 E10.12398
G1 X129.348 Y87.62 E10.16693
G1 X128.876 Y87.877 E10.21009
G1 X128.383 Y88.085 E10.25306
G1 X127.869 Y88.243 E10.29624
G1 X127.344 Y88.35 E10.33927
G1 X126.834 Y88.403 E10.38045
G1 X126.274 Y88.403 E10.42542
G1 X125.763 Y88.354 E10.46665
G1 X125.239 Y88.248 E10.50958
G1 X124.746 Y88.104 E10.55083
G1 X124.031 Y87.784 E10.61374
G1 X123.511 Y87.475 E10.66232
G1 X123.084 Y87.152 E10.70532
G1 X122.69 Y86.786 E10.74851
G1 X122.336 Y86.384 E10.79153
G1 X122.022 Y85.948 E10.83468
G1 X121.754 Y85.484 E10.87771
G1 X121.533 Y84.994 E10.92088
G1 X121.305 Y84.29 E10.98031
G1 X121.259 Y83.983 E11.00524
G1 X121.259 Y83.983 F9000
G1 X120.625 Y83.988
;WIDTH:0.717165
G1 F900
G1 X120.608 Y83.888 E11.01396
G1 X120.544 Y83.31 E11.06394
;WIDTH:0.716517
G1 X120.551 Y82.753 E11.11177
G1 X120.592 Y82.247 E11.15536
;WIDTH:0.71399
G1 X120.7 Y81.664 E11.20607
G1 X120.846 Y81.149 E11.25185
;WIDTH:0.714464
G1 X121.079 Y80.549 E11.30694
G1 X121.331 Y80.057 E11.35425
;WIDTH:0.7138
G1 X121.647 Y79.557 E11.40482
;WIDTH:0.715063
G1 X122.017 Y79.091 E11.4558
G1 X122.393 Y78.691 E11.50283
;WIDTH:0.716087
G1 X122.842 Y78.309 E11.55342
G1 X123.291 Y77.982 E11.60108
;WIDTH:0.716861
G1 X123.801 Y77.696 E11.65131
G1 X124.306 Y77.457 E11.69931
;WIDTH:0.717406
G1 X124.857 Y77.276 E11.74918
G1 X125.403 Y77.133 E11.79771
;WIDTH:0.716627
G1 X125.932 Y77.066 E11.8435
G1 X126.454 Y77.03 E11.88844
;WIDTH:0.720975
G1 X127.403 Y77.102 E11.97073
G1 X127.96 Y77.194 E12.01954
;WIDTH:0.717297
G1 X128.498 Y77.362 E12.06799
G1 X129.04 Y77.57 E12.1179
;WIDTH:0.716687
G1 X129.533 Y77.832 E12.16585
G1 X129.958 Y78.096 E12.20882
;WIDTH:0.713691
G1 X130.422 Y78.454 E12.25892
G1 X130.814 Y78.819 E12.30471
;WIDTH:0.714741
G1 X131.25 Y79.31 E12.36094
G1 X131.573 Y79.761 E12.40844
;WIDTH:0.713495
G1 X131.854 Y80.236 E12.45561
;WIDTH:0.712041
G1 X132.111 Y80.81 E12.50924
;WIDTH:0.711544
G1 X132.324 Y81.435 E12.5655
G1 X132.443 Y81.957 E12.61112
;WIDTH:0.712496
G1 X132.526 Y82.612 E12.66746
G1 X132.539 Y83.147 E12.71312
;WIDTH:0.713422
G1 X132.49 Y83.807 E12.76967
G1 X132.397 Y84.333 E12.81531
;WIDTH:0.714616
G1 X132.219 Y84.97 E12.87193
G1 X132.023 Y85.468 E12.91775
;WIDTH:0.713908
G1 X131.745 Y86.02 E12.9706
;WIDTH:0.714401
G1 X131.431 Y86.506 E13.02012
G1 X131.109 Y86.924 E13.06528
;WIDTH:0.711442
G1 X130.642 Y87.403 E13.12227
;WIDTH:0.712052
G1 X130.138 Y87.83 E13.1786
G1 X129.696 Y88.131 E13.2242
;WIDTH:0.713162
G1 X129.116 Y88.448 E13.28066
G1 X128.623 Y88.655 E13.32633
;WIDTH:0.714292
G1 X127.992 Y88.851 E13.38287
G1 X127.467 Y88.956 E13.42868
;WIDTH:0.714174
G1 X126.84 Y89.022 E13.48262
G1 X126.274 Y89.023 E13.53104
G1 X125.698 Y88.972 E13.58051
;WIDTH:0.715336
G1 X125.116 Y88.856 E13.63137
G1 X124.586 Y88.705 E13.6786
;WIDTH:0.721371
G1 X124.052 Y88.477 E13.72883
G1 X123.535 Y88.226 E13.77855
;WIDTH:0.716309
G1 X123.071 Y87.92 E13.82626
G1 X122.663 Y87.608 E13.87035
;WIDTH:0.71188
G1 X122.229 Y87.193 E13.92154
;WIDTH:0.711143
G1 X121.872 Y86.793 E13.96719
G1 X121.57 Y86.391 E14.01
;WIDTH:0.711302
G1 X121.219 Y85.793 E14.06906
;WIDTH:0.711586
G1 X120.947 Y85.191 E14.12535
G1 X120.777 Y84.684 E14.17091
;WIDTH:0.711289
G1 X120.706 Y84.442 E14.19239
;WIDTH:0.717165
G1 X120.641 Y84.076 E14.22434
G1 E13.72434 F240
G92 E0
G1 X120.641 Y84.076 F9000
G1 X126.989 Y73.378
G1 E.5 F240
;TYPE:External perimeter
;WIDTH:0.675
G1 F900
G1 X127.917 Y73.466 E.57486
G1 X128.82 Y73.64 E.64871
G1 X129.702 Y73.899 E.72253
G1 X130.556 Y74.24 E.79638
G1 X131.373 Y74.662 E.87023
G1 X132.146 Y75.159 E.94403
G1 X132.869 Y75.727 E1.01787
G1 X133.535 Y76.362 E1.09177
G1 X134.137 Y77.057 E1.16561
G1 X134.67 Y77.806 E1.23944
G1 X135.128 Y78.599 E1.31298
G1 X135.666 Y79.853 E1.42256
G1 X135.932 Y80.752 E1.49785
G1 X136.076 Y81.498 E1.55887
G1 X136.142 Y82.033 E1.60216
G1 X136.193 Y82.729 E1.6582
G1 X136.193 Y83.489 E1.71923
G1 X136.106 Y84.404 E1.79304
G1 X135.932 Y85.307 E1.86689
G1 X135.673 Y86.19 E1.94079
G1 X135.331 Y87.043 E2.01459
G1 X134.909 Y87.86 E2.08844
G1 X134.412 Y88.634 E2.16231
G1 X133.846 Y89.354 E2.23586
G1 X132.882 Y90.32 E2.34546
G1 X132.146 Y90.9 E2.42071
G1 X131.373 Y91.397 E2.49451
G1 X130.556 Y91.818 E2.56832
G1 X129.702 Y92.16 E2.6422
G1 X128.82 Y92.419 E2.71602
G1 X127.917 Y92.593 E2.78987
G1 X127.002 Y92.681 E2.86369
G1 X126.082 Y92.681 E2.93757
G1 X125.167 Y92.593 E3.01139
G1 X124.264 Y92.419 E3.08524
G1 X123.382 Y92.16 E3.15906
G1 X122.528 Y91.818 E3.23294
G1 X121.711 Y91.397 E3.30675
G1 X120.937 Y90.9 E3.38062
G1 X120.217 Y90.333 E3.45422
G1 X119.251 Y89.369 E3.56382
G1 X118.671 Y88.634 E3.63901
G1 X118.174 Y87.86 E3.71288
G1 X117.753 Y87.043 E3.78669
G1 X117.411 Y86.19 E3.86049
G1 X117.152 Y85.307 E3.93439
G1 X116.978 Y84.404 E4.00824
G1 X116.891 Y83.489 E4.08205
G1 X116.891 Y82.57 E4.15585
G1 X116.978 Y81.654 E4.22974
G1 X117.152 Y80.751 E4.30359
G1 X117.411 Y79.869 E4.37741
G1 X117.753 Y79.016 E4.45121
G1 X118.174 Y78.198 E4.52509
G1 X118.671 Y77.425 E4.59889
G1 X119.24 Y76.702 E4.67278
G1 X119.874 Y76.037 E4.74657
G1 X120.569 Y75.434 E4.82046
G1 X121.318 Y74.901 E4.89429
G1 X122.114 Y74.441 E4.96812
G1 X122.951 Y74.059 E5.04201
G1 X123.82 Y73.759 E5.11584
G1 X124.713 Y73.542 E5.18964
G1 X125.62 Y73.411 E5.26324
G1 X126.899 Y73.38 E5.36598
G1 X127.497 Y73.427 F9000
G1 X126.974 Y73.98
;TYPE:Perimeter
G1 F900
G1 X127.832 Y74.06 E5.43518
G1 X128.678 Y74.223 E5.50437
G1 X129.506 Y74.466 E5.57367
G1 X130.306 Y74.787 E5.6429
G1 X131.073 Y75.182 E5.71218
G1 X131.798 Y75.648 E5.78139
G1 X132.476 Y76.181 E5.85065
G1 X133.1 Y76.776 E5.91989
G1 X133.665 Y77.428 E5.98918
G1 X134.165 Y78.13 E6.05839
G1 X134.591 Y78.868 E6.12682
G1 X135.101 Y80.057 E6.23072
G1 X135.348 Y80.894 E6.3008
G1 X135.463 Y81.49 E6.34955
G1 X135.545 Y82.09 E6.39818
G1 X135.593 Y82.729 E6.44964
G1 X135.593 Y83.461 E6.50843
G1 X135.511 Y84.319 E6.57765
G1 X135.348 Y85.166 E6.64692
G1 X135.105 Y85.993 E6.71614
G1 X134.785 Y86.794 E6.78541
G1 X134.389 Y87.56 E6.85466
G1 X133.923 Y88.286 E6.92394
G1 X133.396 Y88.956 E6.9924
G1 X132.482 Y89.871 E7.09626
G1 X131.797 Y90.411 E7.16631
G1 X131.073 Y90.877 E7.23546
G1 X130.306 Y91.272 E7.30474
G1 X129.506 Y91.593 E7.37397
G1 X128.678 Y91.835 E7.44325
G1 X127.831 Y91.999 E7.51253
G1 X126.973 Y92.081 E7.58175
G1 X126.111 Y92.081 E7.65098
G1 X125.252 Y91.999 E7.72028
G1 X124.406 Y91.835 E7.78949
G1 X123.578 Y91.593 E7.85877
G1 X122.778 Y91.272 E7.928
G1 X122.011 Y90.877 E7.99728
G1 X121.286 Y90.411 E8.06649
G1 X120.616 Y89.884 E8.13495
G1 X119.7 Y88.97 E8.23887
G1 X119.16 Y88.285 E8.30892
G1 X118.694 Y87.56 E8.37813
G1 X118.299 Y86.794 E8.44734
G1 X117.979 Y85.993 E8.51661
G1 X117.736 Y85.166 E8.58583
G1 X117.573 Y84.319 E8.6551
G1 X117.491 Y83.461 E8.72432
G1 X117.491 Y82.598 E8.79363
G1 X117.573 Y81.74 E8.86285
G1 X117.736 Y80.893 E8.93212
G1 X117.979 Y80.066 E9.00134
G1 X118.299 Y79.265 E9.07061
G1 X118.694 Y78.499 E9.13982
G1 X119.161 Y77.773 E9.20914
G1 X119.694 Y77.095 E9.2784
G1 X120.289 Y76.471 E9.34764
G1 X120.94 Y75.907 E9.41681
G1 X121.643 Y75.406 E9.48614
G1 X122.39 Y74.975 E9.5554
G1 X123.174 Y74.617 E9.62462
G1 X123.989 Y74.335 E9.69388
G1 X124.827 Y74.132 E9.76312
G1 X125.671 Y74.01 E9.8316
G1 X126.885 Y73.981 E9.92912
G1 X126.885 Y73.981 F9000
G1 X126.96 Y74.581
G1 F900
G1 X127.747 Y74.655 E9.9926
G1 X128.537 Y74.807 E10.05721
G1 X129.309 Y75.034 E10.12183
G1 X130.057 Y75.333 E10.18652
G1 X130.772 Y75.702 E10.25114
