; generated by PrusaSlicer 2.8.0+MacOS-arm64 on 2024-10-07 at 15:22:16 UTC


;
;

;
;
; 

; external perimeters extrusion width = 0.68mm
; perimeters extrusion width = 0.68mm
; infill extrusion width = 0.68mm
; solid infill extrusion width = 0.68mm
; top infill extrusion width = 0.60mm

; external perimeters extrusion width = 0.68mm
; perimeters extrusion width = 0.68mm
; infill extrusion width = 0.68mm
; solid infill extrusion width = 0.68mm
; top infill extrusion width = 0.60mm


EXCLUDE_OBJECT_DEFINE NAME='z_thrust_bearing_spacer_r' CENTER=125.821,81.301 POLYGON=[[126.296,71.313],[127.243,71.403],[128.637,71.707],[130.402,72.413],[132.001,73.441],[133.377,74.753],[134.480,76.302],[135.270,78.031],[135.718,79.879],[135.809,81.778],[135.639,83.194],[135.415,84.119],[134.708,85.884],[133.680,87.483],[132.368,88.859],[130.820,89.962],[129.091,90.752],[127.243,91.200],[125.344,91.290],[124.397,91.200],[123.003,90.897],[121.238,90.190],[119.638,89.162],[118.262,87.850],[117.160,86.302],[116.370,84.572],[115.922,82.725],[115.831,80.826],[116.102,78.944],[116.724,77.148],[117.674,75.501],[118.919,74.064],[120.413,72.889],[121.238,72.413],[122.549,71.852],[124.397,71.403]]
EXCLUDE_OBJECT_DEFINE NAME='z_thrust_bearing_spacer_l' CENTER=124.589,168.803 POLYGON=[[125.064,158.816],[126.946,159.086],[128.305,159.521],[129.171,159.916],[130.770,160.944],[132.146,162.256],[133.248,163.804],[134.038,165.534],[134.486,167.381],[134.577,169.280],[134.408,170.697],[134.183,171.622],[133.477,173.387],[132.449,174.986],[131.137,176.362],[129.588,177.465],[127.859,178.254],[126.011,178.703],[124.112,178.793],[122.231,178.522],[120.434,177.901],[118.788,176.950],[117.687,176.042],[117.031,175.353],[115.928,173.804],[115.138,172.075],[114.690,170.227],[114.600,168.329],[114.870,166.447],[115.492,164.650],[116.442,163.004],[117.687,161.567],[119.182,160.392],[120.872,159.521],[121.771,159.209],[123.165,158.906]]

;TYPE:Custom
START_PRINT BED_TEMP=80 HOTEND_TEMP=225 FILAMENT_TYPE=FLEX EXTRUSION_MULTIPLIER=0.92 PERIMETER_SPEED=80
G21 ; set units to millimeters
G90 ; use absolute coordinates
M82 ; use absolute distances for extrusion
G92 E0
; Filament gcode
; ########################### NOTE OFFSET CHANGES ####################################
; Prevents PETG buildup on nozzle.
; SET_GCODE_OFFSET Z=0
; ####################################################################################
M107
;LAYER_CHANGE
;Z:0.35
;HEIGHT:0.35
G1 E-.5 F240
G1 Z.35 F9000
EXCLUDE_OBJECT_START NAME='z_thrust_bearing_spacer_r'
G92 E0
G1 X126.546 Y84.185
G1 E.5 F240
G92 E0
;TYPE:External perimeter
;WIDTH:0.675
G1 F1800
G1 X126.147 Y84.27 E.03276
G1 X125.552 Y84.276 E.08055
G1 X124.992 Y84.169 E.12634
G1 X124.295 Y83.869 E.18728
G1 X123.811 Y83.511 E.23563
G1 X123.413 Y83.069 E.2834
G1 X123.11 Y82.557 E.33118
G1 X122.909 Y81.973 E.38078
G1 X122.835 Y81.406 E.4267
G1 X122.874 Y80.813 E.47443
G1 X123.029 Y80.239 E.52218
G1 X123.295 Y79.707 E.56995
G1 X123.655 Y79.246 E.61692
G1 X124.062 Y78.894 E.66013
G1 X124.523 Y78.621 E.70316
G1 X125.025 Y78.434 E.74618
G1 X125.514 Y78.343 E.78612
G1 X125.85 Y78.317 E.81318
G1 X126.52 Y78.4 E.8674
G1 X127.089 Y78.598 E.91578
G1 X127.599 Y78.903 E.9635
G1 X128.039 Y79.303 E1.01125
G1 X128.391 Y79.783 E1.05905
G1 X128.641 Y80.322 E1.10677
G1 X128.779 Y80.901 E1.15457
G1 X128.8 Y81.495 E1.2023
G1 X128.702 Y82.082 E1.25009
G1 X128.491 Y82.637 E1.29777
G1 X128.173 Y83.14 E1.34556
G1 X127.762 Y83.57 E1.39333
G1 X127.274 Y83.91 E1.44109
G1 X126.729 Y84.146 E1.48879
G1 X126.634 Y84.166 E1.49659
G1 X126.041 Y84.258 F9000
G1 X127.225 Y84.58
;TYPE:Perimeter
G1 F1800
G1 X126.962 Y84.699 E1.51977
G1 X126.266 Y84.858 E1.5771
G1 X125.552 Y84.876 E1.63446
G1 X124.873 Y84.757 E1.68982
G1 X124.326 Y84.541 E1.73705
G1 X123.876 Y84.313 E1.77756
G1 X123.449 Y83.989 E1.82061
G1 X123.086 Y83.605 E1.86305
G1 X122.858 Y83.32 E1.89236
G1 X122.591 Y82.857 E1.93528
G1 X122.327 Y82.121 E1.99807
G1 X122.24 Y81.481 E2.04994
G1 X122.276 Y80.768 E2.10727
G1 X122.452 Y80.076 E2.16461
G1 X122.761 Y79.433 E2.2219
G1 X123.186 Y78.872 E2.27842
G1 X123.676 Y78.435 E2.33115
G1 X124.236 Y78.094 E2.3838
G1 X124.511 Y77.965 E2.40819
G1 X125.022 Y77.808 E2.45112
G1 X125.723 Y77.719 E2.50787
G1 X126.384 Y77.778 E2.56116
G1 X126.791 Y77.852 E2.59438
G1 X127.294 Y78.035 E2.63737
G1 X127.912 Y78.392 E2.69469
G1 X128.447 Y78.864 E2.75199
G1 X128.878 Y79.433 E2.80931
G1 X129.188 Y80.076 E2.86664
G1 X129.342 Y80.674 E2.91623
G1 X129.39 Y81.113 E2.9517
G1 X129.386 Y81.659 E2.99555
G1 X129.293 Y82.186 E3.03853
G1 X129.049 Y82.857 E3.09587
G1 X128.677 Y83.466 E3.15318
G1 X128.192 Y83.989 E3.21046
G1 X127.612 Y84.405 E3.26778
G1 X127.307 Y84.543 E3.29466
G1 X127.307 Y84.543 F9000
G1 X127.902 Y84.924
G1 F1800
G1 X127.195 Y85.252 E3.35725
G1 X126.385 Y85.446 E3.42414
G1 X125.552 Y85.476 E3.49108
G1 X124.754 Y85.345 E3.55602
G1 X124.411 Y85.237 E3.5849
G1 X123.802 Y84.962 E3.63856
G1 X123.448 Y84.741 E3.67207
G1 X122.932 Y84.333 E3.7249
G1 X122.513 Y83.863 E3.77547
G1 X122.205 Y83.389 E3.82087
G1 X121.948 Y82.885 E3.8663
G1 X121.746 Y82.268 E3.91844
G1 X121.645 Y81.555 E3.97627
G1 X121.678 Y80.723 E4.04314
G1 X121.874 Y79.914 E4.10999
G1 X122.228 Y79.159 E4.17696
G1 X122.717 Y78.498 E4.24299
G1 X123.29 Y77.975 E4.30529
G1 X123.589 Y77.764 E4.33468
G1 X124.059 Y77.508 E4.37766
G1 X124.671 Y77.288 E4.42989
G1 X125.137 Y77.175 E4.4684
G1 X125.662 Y77.122 E4.51078
G1 X125.998 Y77.126 E4.53777
G1 X126.667 Y77.209 E4.59191
G1 X127.153 Y77.345 E4.63244
G1 X127.673 Y77.547 E4.67724
G1 X128.225 Y77.88 E4.72901
G1 X128.855 Y78.424 E4.79586
G1 X129.365 Y79.082 E4.86272
G1 X129.735 Y79.829 E4.92967
G1 X129.927 Y80.54 E4.98881
G1 X129.99 Y81.098 E5.03391
G1 X129.993 Y81.645 E5.07784
G1 X129.884 Y82.29 E5.13037
G1 X129.69 Y82.867 E5.17926
G1 X129.471 Y83.341 E5.22119
G1 X129.181 Y83.791 E5.26418
G1 X128.621 Y84.408 E5.3311
G1 X127.98 Y84.879 E5.39498
G1 X127.98 Y84.879 F9000
G1 X128.554 Y85.213
G1 F1800
G1 X128.288 Y85.397 E5.42095
G1 X127.846 Y85.628 E5.461
G1 X127.348 Y85.836 E5.50434
G1 X126.504 Y86.034 E5.57396
G1 X126.087 Y86.076 E5.60762
G1 X125.552 Y86.076 E5.65058
G1 X125.136 Y86.034 E5.68416
G1 X124.612 Y85.928 E5.72709
G1 X124.164 Y85.784 E5.76488
G1 X123.556 Y85.509 E5.81847
G1 X123.086 Y85.219 E5.86282
G1 X122.676 Y84.908 E5.90415
G1 X122.186 Y84.399 E5.96089
G1 X121.871 Y84.006 E6.00134
G1 X121.552 Y83.457 E6.05233
G1 X121.313 Y82.876 E6.10278
G1 X121.164 Y82.415 E6.14169
G1 X121.05 Y81.63 E6.20539
G1 X121.046 Y81.116 E6.24667
G1 X121.088 Y80.585 E6.28945
G1 X121.297 Y79.751 E6.3585
G1 X121.45 Y79.362 E6.39207
G1 X121.696 Y78.881 E6.43546
G1 X121.921 Y78.534 E6.46867
G1 X122.254 Y78.116 E6.51159
G1 X122.546 Y77.817 E6.54515
G1 X122.956 Y77.473 E6.58813
G1 X123.302 Y77.237 E6.62176
G1 X123.772 Y76.981 E6.66474
G1 X124.157 Y76.819 E6.69828
G1 X124.669 Y76.661 E6.74131
G1 X125.333 Y76.552 E6.79535
G1 X126.005 Y76.523 E6.84937
G1 X126.531 Y76.588 E6.89193
G1 X127.074 Y76.683 E6.9362
G1 X127.704 Y76.907 E6.9899
G1 X128.175 Y77.146 E7.03232
G1 X128.623 Y77.423 E7.07462
G1 X129.263 Y77.984 E7.14297
G1 X129.54 Y78.298 E7.1766
G1 X129.858 Y78.74 E7.22033
G1 X130.061 Y79.094 E7.2531
G1 X130.282 Y79.585 E7.29634
G1 X130.414 Y79.979 E7.32971
G1 X130.534 Y80.5 E7.37265
G1 X130.59 Y81.083 E7.41969
G1 X130.59 Y81.702 E7.4694
G1 X130.475 Y82.394 E7.52574
G1 X130.248 Y83.086 E7.58423
G1 X130.03 Y83.578 E7.62745
G1 X129.685 Y84.116 E7.67878
G1 X129.287 Y84.584 E7.72812
G1 X128.845 Y85.011 E7.77747
G1 X128.628 Y85.161 E7.79866
G1 X128.628 Y85.161 F9000
G1 X129.204 Y85.477
G1 F1800
G1 X129.068 Y85.591 E7.81291
G1 X128.626 Y85.892 E7.85586
G1 X128.154 Y86.15 E7.89906
G1 X127.661 Y86.357 E7.942
G1 X127.147 Y86.516 E7.98521
G1 X126.622 Y86.622 E8.02822
G1 X126.112 Y86.675 E8.0694
G1 X125.552 Y86.675 E8.11437
G1 X125.041 Y86.627 E8.15559
G1 X124.517 Y86.521 E8.19852
G1 X124.024 Y86.376 E8.23979
G1 X123.309 Y86.056 E8.3027
G1 X122.789 Y85.747 E8.35128
G1 X122.362 Y85.424 E8.39428
G1 X121.968 Y85.058 E8.43747
G1 X121.614 Y84.657 E8.48043
G1 X121.3 Y84.22 E8.52364
G1 X121.032 Y83.757 E8.5666
G1 X120.811 Y83.267 E8.60977
G1 X120.583 Y82.563 E8.6692
G1 X120.455 Y81.704 E8.73895
G1 X120.441 Y81.167 E8.78209
G1 X120.481 Y80.633 E8.82509
G1 X120.574 Y80.104 E8.86822
G1 X120.719 Y79.589 E8.91119
G1 X120.909 Y79.101 E8.95325
G1 X121.16 Y78.612 E8.99739
G1 X121.44 Y78.175 E9.03907
G1 X121.779 Y77.75 E9.08273
G1 X122.128 Y77.385 E9.12329
G1 X122.519 Y77.056 E9.16433
G1 X122.956 Y76.743 E9.2075
G1 X123.485 Y76.454 E9.25591
G1 X123.98 Y76.246 E9.29903
G1 X124.492 Y76.088 E9.34206
G1 X125.016 Y75.982 E9.38499
G1 X125.542 Y75.928 E9.42745
G1 X126.06 Y75.926 E9.46905
G1 X126.605 Y75.992 E9.51314
G1 X127.243 Y76.107 E9.5652
G1 X127.909 Y76.343 E9.62194
G1 X128.394 Y76.577 E9.66519
G1 X128.85 Y76.856 E9.70812
G1 X129.279 Y77.18 E9.75129
G1 X129.671 Y77.544 E9.79425
G1 X130.025 Y77.945 E9.83721
G1 X130.346 Y78.392 E9.88141
G1 X130.603 Y78.836 E9.92261
G1 X130.829 Y79.338 E9.96682
G1 X130.999 Y79.845 E10.00976
G1 X131.118 Y80.367 E10.05276
G1 X131.185 Y80.9 E10.0959
G1 X131.199 Y81.435 E10.13888
G1 X131.158 Y81.971 E10.18205
G1 X131.065 Y82.498 E10.22503
G1 X130.92 Y83.016 E10.26823
G1 X130.724 Y83.514 E10.31121
G1 X130.479 Y83.992 E10.35435
G1 X130.189 Y84.442 E10.39734
G1 X129.854 Y84.862 E10.44048
G1 X129.48 Y85.245 E10.48347
G1 X129.273 Y85.419 E10.50519
G1 X129.273 Y85.419 F9000
G1 X129.836 Y85.749
;WIDTH:0.712293
G1 F1800
G1 X129.416 Y86.102 E10.55199
G1 X128.974 Y86.403 E10.59761
;WIDTH:0.713162
G1 X128.394 Y86.72 E10.65407
G1 X127.901 Y86.927 E10.69974
;WIDTH:0.714292
G1 X127.27 Y87.123 E10.75628
G1 X126.745 Y87.229 E10.80211
;WIDTH:0.714174
G1 X126.118 Y87.295 E10.85605
G1 X125.552 Y87.295 E10.90447
G1 X124.976 Y87.244 E10.95394
;WIDTH:0.715336
G1 X124.394 Y87.128 E11.0048
G1 X123.864 Y86.977 E11.05203
;WIDTH:0.72137
G1 X123.33 Y86.749 E11.10226
G1 X122.813 Y86.498 E11.15198
;WIDTH:0.716309
G1 X122.349 Y86.192 E11.19969
G1 X121.941 Y85.88 E11.24378
;WIDTH:0.711879
G1 X121.507 Y85.465 E11.29497
;WIDTH:0.711109
G1 X121.15 Y85.066 E11.34055
G1 X120.848 Y84.664 E11.38336
;WIDTH:0.711302
G1 X120.497 Y84.066 E11.44242
;WIDTH:0.711586
G1 X120.225 Y83.464 E11.49871
G1 X120.055 Y82.956 E11.54435
;WIDTH:0.711289
G1 X119.984 Y82.714 E11.56583
;WIDTH:0.717164
G1 X119.886 Y82.161 E11.6141
G1 X119.822 Y81.582 E11.66417
;WIDTH:0.716516
G1 X119.829 Y81.025 E11.712
G1 X119.87 Y80.52 E11.75551
;WIDTH:0.71399
G1 X119.978 Y79.936 E11.80631
G1 X120.124 Y79.421 E11.85209
;WIDTH:0.714464
G1 X120.357 Y78.821 E11.90718
G1 X120.609 Y78.33 E11.95442
;WIDTH:0.7138
G1 X120.925 Y77.829 E12.00507
;WIDTH:0.715063
G1 X121.295 Y77.363 E12.05605
G1 X121.671 Y76.963 E12.10308
;WIDTH:0.716087
G1 X122.12 Y76.581 E12.15367
G1 X122.569 Y76.254 E12.20133
;WIDTH:0.716861
G1 X123.079 Y75.969 E12.25152
G1 X123.584 Y75.729 E12.29956
;WIDTH:0.717406
G1 X124.135 Y75.548 E12.34943
G1 X124.681 Y75.406 E12.39794
;WIDTH:0.716629
G1 X125.21 Y75.338 E12.44375
G1 X125.732 Y75.303 E12.48868
;WIDTH:0.720968
G1 X126.682 Y75.374 E12.57105
G1 X127.238 Y75.467 E12.61979
;WIDTH:0.717297
G1 X127.776 Y75.634 E12.66822
G1 X128.318 Y75.842 E12.71813
;WIDTH:0.716687
G1 X128.811 Y76.105 E12.76612
G1 X129.236 Y76.368 E12.80905
;WIDTH:0.713691
G1 X129.7 Y76.726 E12.85915
G1 X130.092 Y77.091 E12.90494
;WIDTH:0.71474
G1 X130.528 Y77.582 E12.96117
G1 X130.851 Y78.033 E13.00867
;WIDTH:0.713646
G1 X131.149 Y78.542 E13.05909
;WIDTH:0.714736
G1 X131.393 Y79.081 E13.10975
G1 X131.577 Y79.602 E13.15706
;WIDTH:0.715572
G1 X131.702 Y80.135 E13.204
G1 X131.802 Y80.885 E13.26887
;WIDTH:0.711743
G1 X131.817 Y81.42 E13.31448
;WIDTH:0.713421
G1 X131.768 Y82.079 E13.37095
G1 X131.671 Y82.605 E13.41666
;WIDTH:0.709751
G1 X131.541 Y83.114 E13.46129
;WIDTH:0.711495
G1 X131.3 Y83.74 E13.51844
G1 X130.998 Y84.328 E13.57475
;WIDTH:0.711352
G1 X130.708 Y84.777 E13.62028
;WIDTH:0.711687
G1 X130.296 Y85.294 E13.67662
G1 X129.922 Y85.677 E13.72224
;WIDTH:0.712293
G1 X129.905 Y85.691 E13.72412
G1 E13.22412 F240
G92 E0
G1 X129.905 Y85.691 F9000
G1 X126.265 Y71.651
G1 E.5 F240
;TYPE:External perimeter
;WIDTH:0.675
G1 F1800
G1 X127.195 Y71.738 E.57501
G1 X128.098 Y71.912 E.64886
G1 X128.98 Y72.171 E.72268
G1 X129.834 Y72.513 E.79656
G1 X130.651 Y72.934 E.87037
G1 X131.424 Y73.431 E.94417
G1 X132.147 Y74 E1.01806
G1 X132.813 Y74.634 E1.0919
G1 X133.415 Y75.329 E1.16574
G1 X133.948 Y76.078 E1.23957
G1 X134.408 Y76.874 E1.3134
G1 X134.79 Y77.711 E1.38729
G1 X135.091 Y78.58 E1.46115
G1 X135.307 Y79.47 E1.5347
G1 X135.427 Y80.481 E1.61646
G1 X135.471 Y81.044 E1.66181
G1 X135.471 Y81.761 E1.71939
G1 X135.384 Y82.674 E1.79304
G1 X135.089 Y84.027 E1.90425
G1 X134.79 Y84.893 E1.97783
G1 X134.408 Y85.729 E2.05164
G1 X133.948 Y86.525 E2.12547
G1 X133.415 Y87.274 E2.1993
G1 X132.813 Y87.969 E2.27314
G1 X132.147 Y88.604 E2.34704
G1 X131.424 Y89.172 E2.42088
G1 X130.651 Y89.669 E2.49468
G1 X129.834 Y90.091 E2.56853
G1 X128.98 Y90.432 E2.64238
G1 X128.098 Y90.691 E2.7162
G1 X127.195 Y90.865 E2.79005
G1 X126.28 Y90.953 E2.86387
G1 X125.36 Y90.953 E2.93775
G1 X124.445 Y90.865 E3.01157
G1 X123.542 Y90.691 E3.08542
G1 X122.66 Y90.432 E3.15924
G1 X121.806 Y90.091 E3.23309
G1 X120.989 Y89.669 E3.30694
G1 X120.215 Y89.172 E3.38081
G1 X119.495 Y88.606 E3.45436
G1 X118.53 Y87.643 E3.56384
G1 X117.949 Y86.906 E3.63921
G1 X117.452 Y86.133 E3.71301
G1 X117.031 Y85.315 E3.78689
G1 X116.689 Y84.462 E3.86069
G1 X116.43 Y83.58 E3.93451
G1 X116.256 Y82.677 E4.00836
G1 X116.169 Y81.761 E4.08225
G1 X116.169 Y80.842 E4.15605
G1 X116.256 Y79.927 E4.22986
G1 X116.43 Y79.024 E4.30371
G1 X116.689 Y78.142 E4.37753
G1 X117.031 Y77.288 E4.45141
G1 X117.452 Y76.471 E4.52522
G1 X117.949 Y75.697 E4.59909
G1 X118.518 Y74.974 E4.67298
G1 X119.152 Y74.309 E4.74677
G1 X119.847 Y73.707 E4.82061
G1 X120.596 Y73.173 E4.89448
G1 X121.392 Y72.714 E4.96827
G1 X122.229 Y72.332 E5.04216
G1 X123.098 Y72.031 E5.11602
G1 X123.991 Y71.814 E5.18982
G1 X124.898 Y71.684 E5.2634
G1 X126.175 Y71.652 E5.36599
G1 X126.773 Y71.7 F9000
G1 X126.85 Y72.308
;TYPE:Perimeter
G1 F1800
G1 X127.11 Y72.333 E5.38697
G1 X127.956 Y72.496 E5.45616
G1 X128.784 Y72.738 E5.52544
G1 X129.584 Y73.059 E5.59467
G1 X130.351 Y73.454 E5.66395
G1 X131.076 Y73.92 E5.73316
G1 X131.754 Y74.453 E5.80242
G1 X132.378 Y75.048 E5.87166
G1 X132.943 Y75.7 E5.94095
G1 X133.443 Y76.403 E6.01023
G1 X133.874 Y77.149 E6.07942
G1 X134.232 Y77.934 E6.14871
G1 X134.514 Y78.749 E6.21797
G1 X134.715 Y79.577 E6.2864
G1 X134.871 Y81.044 E6.40488
G1 X134.871 Y81.733 E6.46021
G1 X134.79 Y82.581 E6.52862
G1 X134.511 Y83.865 E6.63414
G1 X134.232 Y84.67 E6.70256
G1 X133.874 Y85.454 E6.77178
G1 X133.443 Y86.201 E6.84104
G1 X132.943 Y86.903 E6.91025
G1 X132.378 Y87.555 E6.97954
G1 X131.754 Y88.15 E7.04878
G1 X131.076 Y88.683 E7.11804
G1 X130.351 Y89.149 E7.18725
G1 X129.584 Y89.544 E7.25653
G1 X128.784 Y89.865 E7.32576
G1 X127.956 Y90.108 E7.39506
G1 X127.109 Y90.271 E7.46433
G1 X126.251 Y90.353 E7.53355
G1 X125.389 Y90.353 E7.60278
G1 X124.53 Y90.271 E7.67208
G1 X123.684 Y90.108 E7.74127
G1 X122.856 Y89.865 E7.81057
G1 X122.056 Y89.544 E7.8798
G1 X121.289 Y89.149 E7.94908
G1 X120.564 Y88.683 E8.01829
G1 X119.894 Y88.156 E8.08675
G1 X118.979 Y87.243 E8.19056
G1 X118.438 Y86.557 E8.26072
G1 X117.972 Y85.832 E8.32993
G1 X117.577 Y85.066 E8.39914
G1 X117.257 Y84.265 E8.46841
G1 X117.014 Y83.438 E8.53763
G1 X116.85 Y82.591 E8.60691
G1 X116.769 Y81.733 E8.67612
G1 X116.769 Y80.87 E8.74543
G1 X116.85 Y80.012 E8.81464
G1 X117.014 Y79.165 E8.88392
G1 X117.257 Y78.338 E8.95314
G1 X117.577 Y77.537 E9.02241
G1 X117.972 Y76.771 E9.09162
G1 X118.439 Y76.045 E9.16094
G1 X118.972 Y75.368 E9.23014
G1 X119.567 Y74.744 E9.29938
G1 X120.218 Y74.179 E9.3686
G1 X120.921 Y73.679 E9.43788
G1 X121.668 Y73.247 E9.50718
G1 X122.452 Y72.889 E9.5764
G1 X123.267 Y72.607 E9.64566
G1 X124.105 Y72.404 E9.7149
G1 X124.949 Y72.283 E9.78337
G1 X126.24 Y72.251 E9.88708
G1 X126.761 Y72.3 E9.92911
G1 X126.761 Y72.3 F9000
G1 X127.429 Y73.005
G1 F1800
G1 X127.815 Y73.079 E9.96067
G1 X128.587 Y73.306 E10.02529
G1 X129.335 Y73.605 E10.08998
