; generated by PrusaSlicer 2.8.0+MacOS-arm64 on 2024-10-07 at 14:24:38 UTC


;
;

;
;
; 

; external perimeters extrusion width = 0.68mm
; perimeters extrusion width = 0.68mm
; infill extrusion width = 0.68mm
; solid infill extrusion width = 0.68mm
; top infill extrusion width = 0.60mm

; external perimeters extrusion width = 0.68mm
; perimeters extrusion width = 0.68mm
; infill extrusion width = 0.68mm
; solid infill extrusion width = 0.68mm
; top infill extrusion width = 0.60mm

; external perimeters extrusion width = 0.68mm
; perimeters extrusion width = 0.68mm
; infill extrusion width = 0.68mm
; solid infill extrusion width = 0.68mm
; top infill extrusion width = 0.60mm

; external perimeters extrusion width = 0.68mm
; perimeters extrusion width = 0.68mm
; infill extrusion width = 0.68mm
; solid infill extrusion width = 0.68mm
; top infill extrusion width = 0.60mm


EXCLUDE_OBJECT_DEFINE NAME='thrust_bearing_casing_r' CENTER=187.337,88.720 POLYGON=[[187.739,76.728],[188.725,76.802],[190.186,77.065],[191.596,77.503],[192.502,77.890],[193.377,78.353],[194.412,79.030],[195.369,79.807],[196.192,80.624],[197.402,82.189],[198.130,83.476],[198.523,84.377],[198.842,85.313],[199.174,86.760],[199.296,87.740],[199.330,89.124],[199.255,90.110],[198.992,91.571],[198.554,92.982],[198.167,93.887],[197.704,94.762],[196.879,95.996],[195.434,97.577],[193.869,98.786],[193.019,99.290],[191.680,99.907],[190.745,100.226],[189.297,100.559],[188.318,100.681],[186.883,100.713],[184.920,100.475],[183.960,100.236],[182.573,99.735],[181.684,99.306],[180.419,98.526],[179.636,97.924],[178.566,96.912],[177.922,96.162],[177.075,94.942],[176.389,93.636],[176.023,92.722],[175.732,91.776],[175.444,90.319],[175.348,88.186],[175.600,86.224],[175.845,85.267],[176.355,83.883],[177.036,82.566],[177.579,81.737],[178.185,80.959],[179.173,79.925],[180.122,79.132],[181.137,78.447],[182.910,77.567],[184.319,77.107],[185.287,76.898],[186.266,76.769]]
EXCLUDE_OBJECT_DEFINE NAME='z_thrust_bearing_spacer_r' CENTER=105.356,87.161 POLYGON=[[105.831,77.173],[106.778,77.264],[108.173,77.567],[109.937,78.274],[111.537,79.301],[112.913,80.613],[114.015,82.162],[114.805,83.891],[115.253,85.739],[115.344,87.638],[115.174,89.055],[114.950,89.979],[114.244,91.744],[113.216,93.344],[111.904,94.719],[110.355,95.822],[108.626,96.612],[106.778,97.060],[104.879,97.151],[103.932,97.060],[102.538,96.757],[100.773,96.050],[99.174,95.023],[97.798,93.711],[96.695,92.162],[95.905,90.433],[95.457,88.585],[95.367,86.686],[95.637,84.804],[96.259,83.008],[97.209,81.361],[98.454,79.925],[99.949,78.749],[100.773,78.274],[102.085,77.712],[103.932,77.264]]
EXCLUDE_OBJECT_DEFINE NAME='z_thrust_bearing_spacer_l' CENTER=60.666,153.510 POLYGON=[[61.143,143.521],[63.024,143.792],[63.938,144.060],[65.249,144.622],[66.848,145.650],[68.224,146.962],[69.327,148.510],[70.117,150.239],[70.565,152.087],[70.656,153.986],[70.385,155.868],[69.763,157.664],[68.813,159.311],[67.568,160.747],[66.073,161.923],[65.249,162.398],[63.938,162.960],[62.090,163.408],[60.191,163.499],[58.309,163.228],[56.513,162.606],[54.866,161.656],[53.766,160.747],[53.109,160.059],[52.007,158.510],[51.217,156.781],[50.769,154.933],[50.678,153.034],[50.949,151.153],[51.571,149.356],[52.521,147.710],[53.766,146.273],[55.260,145.098],[56.513,144.414],[57.396,144.060],[59.244,143.612]]
EXCLUDE_OBJECT_DEFINE NAME='thrust_bearing_casing_l' CENTER=142.937,160.703 POLYGON=[[143.246,148.128],[144.477,148.220],[145.693,148.431],[146.883,148.760],[148.035,149.204],[149.137,149.759],[150.179,150.420],[151.153,151.179],[152.047,152.030],[152.853,152.964],[153.564,153.973],[154.172,155.047],[154.673,156.176],[155.060,157.348],[155.330,158.553],[155.482,159.778],[155.512,161.012],[155.421,162.243],[155.210,163.459],[154.881,164.649],[154.437,165.801],[153.881,166.903],[153.221,167.945],[152.462,168.919],[151.611,169.813],[150.676,170.619],[149.667,171.330],[148.594,171.938],[147.465,172.439],[146.292,172.826],[145.088,173.096],[143.863,173.248],[142.628,173.278],[141.397,173.187],[140.182,172.976],[138.992,172.647],[137.840,172.203],[136.738,171.647],[135.695,170.987],[134.722,170.228],[133.827,169.377],[133.021,168.442],[132.311,167.433],[131.702,166.360],[131.201,165.231],[130.815,164.058],[130.545,162.854],[130.393,161.629],[130.363,160.395],[130.454,159.163],[130.665,157.948],[130.994,156.758],[131.438,155.606],[131.993,154.504],[132.654,153.461],[133.412,152.488],[134.264,151.594],[135.198,150.788],[136.207,150.077],[137.281,149.468],[138.410,148.968],[139.582,148.581],[140.787,148.311],[142.012,148.159]]

;TYPE:Custom
START_PRINT BED_TEMP=80 HOTEND_TEMP=225 FILAMENT_TYPE=FLEX EXTRUSION_MULTIPLIER=0.92 PERIMETER_SPEED=80
G21 ; set units to millimeters
G90 ; use absolute coordinates
M82 ; use absolute distances for extrusion
G92 E0
; Filament gcode
; ########################### NOTE OFFSET CHANGES ####################################
; Prevents PETG buildup on nozzle.
; SET_GCODE_OFFSET Z=0
; ####################################################################################
M107
;LAYER_CHANGE
;Z:0.35
;HEIGHT:0.35
G1 E-.5 F240
G1 Z.35 F9000
EXCLUDE_OBJECT_START NAME='thrust_bearing_casing_l'
G92 E0
G1 X145.08 Y163.682
G1 E.5 F240
G92 E0
;TYPE:External perimeter
;WIDTH:0.675
G1 F1800
G1 X144.481 Y164.034 E.0558
G1 X143.787 Y164.274 E.11477
G1 X143.059 Y164.371 E.17375
G1 X142.327 Y164.322 E.23267
G1 X141.618 Y164.129 E.29168
G1 X140.976 Y163.806 E.3494
G1 X140.415 Y163.371 E.40641
G1 X139.953 Y162.841 E.46287
G1 X139.597 Y162.228 E.5198
G1 X139.366 Y161.564 E.57626
G1 X139.265 Y160.859 E.63346
G1 X139.288 Y160.16 E.68963
G1 X139.471 Y159.427 E.7503
G1 X139.776 Y158.79 E.80702
G1 X140.215 Y158.202 E.86595
G1 X140.761 Y157.711 E.92492
G1 X141.394 Y157.339 E.98388
G1 X142.088 Y157.1 E1.04283
G1 X142.816 Y157.003 E1.10181
G1 X143.548 Y157.052 E1.16073
G1 X144.256 Y157.245 E1.21966
G1 X144.912 Y157.574 E1.2786
G1 X145.475 Y158.016 E1.33608
G1 X145.937 Y158.552 E1.39291
G1 X146.249 Y159.067 E1.44127
G1 X146.473 Y159.668 E1.49278
G1 X146.602 Y160.369 E1.55002
G1 X146.593 Y161.073 E1.60656
G1 X146.45 Y161.769 E1.66362
G1 X146.347 Y162.066 E1.68887
G1 X146.098 Y162.583 E1.73495
G1 X145.584 Y163.247 E1.80238
G1 X145.152 Y163.628 E1.84864
G1 X144.639 Y163.94 F9000
G1 X145.866 Y163.798
;TYPE:Perimeter
G1 F1800
G1 X145.51 Y164.112 E1.88676
G1 X145.008 Y164.423 E1.93418
G1 X144.617 Y164.628 E1.96963
G1 X143.978 Y164.843 E2.02377
G1 X143.449 Y164.927 E2.06679
G1 X142.954 Y164.971 E2.1067
G1 X142.282 Y164.92 E2.16082
G1 X141.456 Y164.707 E2.22932
G1 X140.702 Y164.34 E2.29666
G1 X140.041 Y163.84 E2.36322
G1 X139.494 Y163.227 E2.4292
G1 X139.07 Y162.515 E2.49575
G1 X138.908 Y162.114 E2.53048
G1 X138.757 Y161.623 E2.57173
G1 X138.668 Y160.919 E2.62872
G1 X138.67 Y160.392 E2.67104
G1 X138.739 Y159.867 E2.71356
G1 X138.907 Y159.225 E2.76685
G1 X139.143 Y158.723 E2.8114
G1 X139.359 Y158.338 E2.84685
G1 X139.737 Y157.839 E2.89712
G1 X140.169 Y157.434 E2.94468
G1 X140.513 Y157.155 E2.98025
G1 X141.094 Y156.82 E3.03411
G1 X141.608 Y156.628 E3.07817
G1 X142.072 Y156.491 E3.11702
G1 X142.741 Y156.408 E3.17116
G1 X143.247 Y156.428 E3.21183
G1 X143.753 Y156.48 E3.25268
G1 X144.419 Y156.667 E3.30823
G1 X145.186 Y157.04 E3.37672
G1 X145.85 Y157.547 E3.44381
G1 X146.397 Y158.166 E3.51015
G1 X146.682 Y158.618 E3.55306
G1 X146.903 Y159.097 E3.59542
G1 X147.081 Y159.59 E3.63751
G1 X147.195 Y160.279 E3.69359
G1 X147.212 Y160.714 E3.72855
G1 X147.186 Y161.237 E3.7706
G1 X147.031 Y161.917 E3.82661
G1 X146.888 Y162.326 E3.86141
G1 X146.639 Y162.844 E3.90757
G1 X146.264 Y163.368 E3.95932
G1 X145.981 Y163.697 E3.99417
G1 X145.934 Y163.738 E3.99918
G1 X145.934 Y163.738 F9000
G1 X146.621 Y163.872
G1 F1800
G1 X146.413 Y164.116 E4.02493
G1 X145.907 Y164.562 E4.0791
G1 X145.308 Y164.942 E4.13607
G1 X144.811 Y165.195 E4.18086
G1 X144.169 Y165.411 E4.23526
G1 X143.524 Y165.522 E4.28782
G1 X143.022 Y165.573 E4.32834
G1 X142.237 Y165.519 E4.39153
G1 X141.654 Y165.385 E4.43957
G1 X141.168 Y165.243 E4.48023
G1 X140.429 Y164.874 E4.54656
G1 X139.973 Y164.552 E4.59139
G1 X139.565 Y164.224 E4.63343
G1 X139.034 Y163.613 E4.69844
G1 X138.73 Y163.145 E4.74326
G1 X138.46 Y162.645 E4.78889
G1 X138.22 Y161.918 E4.85037
G1 X138.125 Y161.508 E4.88417
G1 X138.058 Y160.84 E4.93809
G1 X138.092 Y160.072 E4.99983
G1 X138.342 Y159.024 E5.08635
G1 X138.602 Y158.463 E5.13601
G1 X138.851 Y158.015 E5.17717
G1 X139.259 Y157.477 E5.23139
G1 X139.772 Y156.984 E5.28853
G1 X140.21 Y156.638 E5.33336
G1 X140.794 Y156.3 E5.38755
G1 X141.417 Y156.06 E5.44117
G1 X141.984 Y155.898 E5.48853
G1 X142.666 Y155.812 E5.54373
G1 X143.292 Y155.829 E5.59402
G1 X143.818 Y155.88 E5.63646
G1 X144.581 Y156.09 E5.70001
G1 X145.112 Y156.328 E5.74674
G1 X145.571 Y156.57 E5.78841
G1 X146.224 Y157.078 E5.85485
G1 X146.605 Y157.481 E5.89939
G1 X146.941 Y157.886 E5.94165
G1 X147.202 Y158.318 E5.98218
G1 X147.398 Y158.704 E6.01695
G1 X147.629 Y159.338 E6.07114
G1 X147.788 Y160.19 E6.14074
G1 X147.811 Y160.744 E6.18527
G1 X147.785 Y161.267 E6.22732
G1 X147.612 Y162.065 E6.29289
G1 X147.428 Y162.586 E6.33726
G1 X147.179 Y163.104 E6.38342
G1 X146.742 Y163.731 E6.4448
G1 X146.679 Y163.804 E6.45254
G1 X146.679 Y163.804 F9000
G1 X147.356 Y163.913
G1 F1800
G1 X147.094 Y164.259 E6.48739
G1 X146.775 Y164.596 E6.52466
G1 X146.304 Y165.012 E6.57513
G1 X145.947 Y165.266 E6.61032
G1 X145.38 Y165.593 E6.66288
G1 X144.999 Y165.765 E6.69645
G1 X144.36 Y165.98 E6.75059
G1 X143.952 Y166.073 E6.7842
G1 X143.283 Y166.157 E6.83835
G1 X142.865 Y166.167 E6.87193
G1 X142.192 Y166.117 E6.92613
G1 X141.78 Y166.044 E6.95973
G1 X141.124 Y165.859 E7.01447
G1 X140.502 Y165.586 E7.06902
G1 X140.019 Y165.333 E7.11281
G1 X139.163 Y164.668 E7.19986
G1 X138.452 Y163.846 E7.28714
G1 X138.016 Y163.089 E7.3573
G1 X137.809 Y162.622 E7.39832
G1 X137.611 Y161.977 E7.4525
G1 X137.514 Y161.428 E7.49727
G1 X137.461 Y160.9 E7.53989
G1 X137.473 Y160.303 E7.58784
G1 X137.523 Y159.797 E7.62867
G1 X137.777 Y158.822 E7.70958
G1 X138.062 Y158.203 E7.76431
G1 X138.301 Y157.754 E7.80516
G1 X138.969 Y156.898 E7.89236
G1 X139.759 Y156.214 E7.97628
G1 X140.7 Y155.677 E8.06329
G1 X141.727 Y155.335 E8.15022
G1 X142.802 Y155.201 E8.23722
G1 X143.881 Y155.281 E8.32411
G1 X144.881 Y155.556 E8.4074
G1 X145.855 Y156.041 E8.49478
G1 X146.712 Y156.705 E8.58184
G1 X147.423 Y157.529 E8.66924
G1 X147.721 Y158.018 E8.71523
G1 X147.962 Y158.498 E8.75836
G1 X148.193 Y159.133 E8.81263
G1 X148.323 Y159.713 E8.86036
G1 X148.41 Y160.311 E8.90889
G1 X148.391 Y161.163 E8.97733
G1 X148.322 Y161.71 E9.02161
G1 X148.155 Y162.364 E9.07582
G1 X147.969 Y162.847 E9.11739
G1 X147.72 Y163.364 E9.16347
G1 X147.456 Y163.781 E9.20311
G1 X147.411 Y163.841 E9.20913
G1 X147.411 Y163.841 F9000
G1 X148.065 Y163.944
G1 F1800
G1 X147.98 Y164.083 E9.22221
G1 X147.572 Y164.621 E9.27643
G1 X147.207 Y165.015 E9.31956
G1 X146.701 Y165.461 E9.37373
G1 X146.265 Y165.775 E9.41688
G1 X145.68 Y166.113 E9.47114
G1 X145.195 Y166.332 E9.51388
G1 X144.551 Y166.548 E9.56843
G1 X144.047 Y166.665 E9.60998
G1 X143.357 Y166.752 E9.66583
G1 X142.82 Y166.765 E9.70897
G1 X142.147 Y166.715 E9.76317
G1 X141.618 Y166.622 E9.8063
G1 X140.96 Y166.436 E9.86121
G1 X140.468 Y166.243 E9.90365
G1 X139.868 Y165.935 E9.95781
G1 X139.416 Y165.643 E10.00103
G1 X138.889 Y165.223 E10.05515
G1 X138.504 Y164.847 E10.09837
G1 X138.07 Y164.33 E10.15258
G1 X137.768 Y163.886 E10.1957
G1 X137.445 Y163.294 E10.24986
G1 X137.236 Y162.798 E10.29308
G1 X137.037 Y162.154 E10.34721
G1 X136.931 Y161.628 E10.3903
G1 X136.864 Y160.96 E10.44422
G1 X136.875 Y160.258 E10.5006
G1 X136.934 Y159.687 E10.5467
G1 X137.212 Y158.62 E10.63525
G1 X137.521 Y157.943 E10.69501
G1 X137.779 Y157.457 E10.7392
G1 X138.161 Y156.939 E10.79089
G1 X138.512 Y156.508 E10.83553
G1 X138.979 Y156.084 E10.88619
G1 X139.416 Y155.722 E10.93176
G1 X139.953 Y155.401 E10.982
G1 X140.459 Y155.127 E11.02821
G1 X141.528 Y154.765 E11.11885
G1 X142.197 Y154.662 E11.17321
G1 X142.719 Y154.604 E11.21539
G1 X143.382 Y154.633 E11.26869
G1 X143.922 Y154.681 E11.31223
G1 X144.554 Y154.836 E11.36449
G1 X145.083 Y154.991 E11.40876
G1 X145.659 Y155.261 E11.45985
G1 X146.164 Y155.526 E11.50565
G1 X146.666 Y155.896 E11.55573
G1 X147.115 Y156.261 E11.6022
G1 X147.524 Y156.71 E11.65098
G1 X147.905 Y157.171 E11.69901
G1 X148.241 Y157.718 E11.75056
G1 X148.486 Y158.189 E11.7932
G1 X148.728 Y158.847 E11.8495
G1 X148.889 Y159.449 E11.89954
G1 X148.99 Y160.116 E11.95372
G1 X149.017 Y160.653 E11.9969
G1 X148.983 Y161.326 E12.05102
G1 X148.903 Y161.858 E12.09422
G1 X148.737 Y162.512 E12.14841
G1 X148.553 Y163.017 E12.19157
G1 X148.26 Y163.625 E12.24577
G1 X148.112 Y163.867 E12.26855
G1 X148.112 Y163.867 F9000
G1 X148.752 Y163.956
G1 F1800
G1 X148.589 Y164.259 E12.29618
G1 X148.176 Y164.817 E12.35193
G1 X147.782 Y165.295 E12.40168
G1 X146.88 Y166.088 E12.49813
G1 X146.208 Y166.501 E12.56147
G1 X145.743 Y166.757 E12.6041
G1 X145.021 Y167.023 E12.66589
G1 X144.492 Y167.19 E12.71044
G1 X143.748 Y167.308 E12.77094
G1 X143.185 Y167.369 E12.81642
G1 X142.451 Y167.339 E12.87542
G1 X141.864 Y167.287 E12.92275
G1 X141.167 Y167.118 E12.98035
G1 X140.589 Y166.947 E13.02876
G1 X139.955 Y166.654 E13.08485
G1 X139.402 Y166.362 E13.13507
G1 X138.851 Y165.959 E13.18989
G1 X138.357 Y165.558 E13.24099
G1 X137.907 Y165.068 E13.29442
G1 X137.488 Y164.56 E13.3473
G1 X137.149 Y164.005 E13.39953
G1 X136.834 Y163.415 E13.45324
G1 X136.615 Y162.822 E13.50401
G1 X136.464 Y162.331 E13.54526
G1 X136.353 Y161.843 E13.58545
G1 X136.281 Y161.159 E13.64068
G1 X136.253 Y160.559 E13.68892
G1 X136.297 Y159.939 E13.73884
G1 X136.39 Y159.368 E13.7853
G1 X136.647 Y158.418 E13.86434
G1 X136.981 Y157.682 E13.92925
G1 X137.217 Y157.223 E13.9707
G1 X137.683 Y156.577 E14.03467
G1 X138.008 Y156.168 E14.07662
G1 X138.582 Y155.635 E14.13953
G1 X138.995 Y155.286 E14.18295
G1 X139.653 Y154.881 E14.245
G1 X140.132 Y154.617 E14.28892
G1 X140.844 Y154.354 E14.34988
G1 X141.383 Y154.184 E14.39527
G1 X142.123 Y154.067 E14.45544
G1 X142.689 Y154.005 E14.50117
G1 X143.426 Y154.035 E14.56041
G1 X144.011 Y154.087 E14.60758
G1 X144.716 Y154.258 E14.66584
G1 X145.285 Y154.427 E14.71351
G1 X145.933 Y154.727 E14.77086
G1 X146.472 Y155.012 E14.81982
G1 X147.04 Y155.427 E14.87631
G1 X147.517 Y155.816 E14.92574
G1 X147.984 Y156.324 E14.98116
G1 X148.387 Y156.814 E15.03211
G1 X148.761 Y157.418 E15.08916
G1 X149.04 Y157.961 E15.13819
G1 X149.291 Y158.642 E15.19648
G1 X149.456 Y159.207 E15.24375
G1 X149.567 Y159.922 E15.30186
G1 X149.62 Y160.511 E15.34935
G1 X149.589 Y161.223 E15.40658
G1 X149.526 Y161.82 E15.45479
G1 X149.356 Y162.509 E15.51178
G1 X149.178 Y163.087 E15.56035
G1 X148.881 Y163.718 E15.61636
G1 X148.795 Y163.877 E15.63088
G1 X148.795 Y163.877 F9000
G1 X149.427 Y163.966
G1 F1800
G1 X149.421 Y163.978 E15.63196
G1 X149.172 Y164.459 E15.67546
G1 X148.654 Y165.18 E15.74676
G1 X148.311 Y165.608 E15.79081
G1 X147.674 Y166.203 E15.86081
G1 X147.237 Y166.57 E15.90664
G1 X146.508 Y167.02 E15.97544
G1 X145.999 Y167.299 E16.02205
G1 X145.212 Y167.592 E16.08949
G1 X144.638 Y167.772 E16.1378
G1 X143.822 Y167.903 E16.20417
G1 X143.215 Y167.968 E16.2532
G1 X142.406 Y167.938 E16.31821
G1 X141.776 Y167.88 E16.36902
G1 X141.004 Y167.695 E16.43277
G1 X140.387 Y167.512 E16.48445
G1 X139.921 Y167.31 E16.52524
G1 X139.321 Y167.002 E16.5794
G1 X138.767 Y166.657 E16.63181
G1 X138.171 Y166.185 E16.69287
G1 X137.683 Y165.73 E16.74645
G1 X137.196 Y165.155 E16.80696
G1 X136.799 Y164.608 E16.86124
G1 X136.436 Y163.95 E16.92159
G1 X136.213 Y163.495 E16.96228
G1 X135.891 Y162.507 E17.04573
G1 X135.764 Y161.96 E17.09083
G1 X135.684 Y161.219 E17.15068
G1 X135.65 Y160.69 E17.19325
G1 X135.73 Y159.609 E17.2803
G1 X135.929 Y158.748 E17.35127
G1 X136.082 Y158.216 E17.39573
G1 X136.44 Y157.422 E17.46568
G1 X136.703 Y156.915 E17.51155
G1 X137.204 Y156.215 E17.58068
G1 X137.564 Y155.765 E17.62696
G1 X138.185 Y155.185 E17.6952
G1 X138.638 Y154.804 E17.74274
G1 X139.353 Y154.362 E17.81025
G1 X139.875 Y154.075 E17.85809
G1 X140.653 Y153.785 E17.92477
G1 X141.237 Y153.602 E17.97392
G1 X142.048 Y153.471 E18.03989
