; generated by PrusaSlicer 2.8.0+MacOS-arm64 on 2024-09-05 at 12:45:17 UTC


;
;

;
;
; 

; external perimeters extrusion width = 0.68mm
; perimeters extrusion width = 0.68mm
; infill extrusion width = 0.68mm
; solid infill extrusion width = 0.68mm
; top infill extrusion width = 0.60mm
; first layer extrusion width = 0.70mm

; external perimeters extrusion width = 0.68mm
; perimeters extrusion width = 0.68mm
; infill extrusion width = 0.68mm
; solid infill extrusion width = 0.68mm
; top infill extrusion width = 0.60mm
; first layer extrusion width = 0.70mm


EXCLUDE_OBJECT_DEFINE NAME='z_thrust_bearing_spacer_l' CENTER=102.134,143.778 POLYGON=[[102.541,135.253],[104.146,135.484],[105.680,136.014],[107.084,136.825],[108.310,137.888],[109.313,139.163],[110.057,140.605],[110.514,142.161],[110.658,143.370],[110.658,144.182],[110.427,145.788],[109.897,147.321],[109.086,148.726],[108.023,149.952],[106.748,150.955],[105.306,151.698],[104.539,151.964],[103.349,152.223],[101.729,152.300],[100.123,152.069],[98.590,151.538],[97.868,151.166],[96.860,150.484],[95.686,149.364],[94.745,148.043],[94.071,146.567],[93.688,144.991],[93.611,143.370],[93.756,142.161],[93.947,141.372],[94.550,139.866],[95.427,138.501],[96.547,137.327],[97.868,136.386],[99.344,135.712],[100.920,135.330]]
EXCLUDE_OBJECT_DEFINE NAME='z_thrust_bearing_spacer_r' CENTER=164.070,93.532 POLYGON=[[164.477,85.008],[166.083,85.239],[167.616,85.769],[169.021,86.580],[170.247,87.643],[170.779,88.256],[171.461,89.265],[172.135,90.740],[172.518,92.317],[172.595,93.937],[172.364,95.543],[171.833,97.076],[171.022,98.481],[169.960,99.707],[168.685,100.710],[167.243,101.453],[166.475,101.719],[165.286,101.978],[163.665,102.055],[162.060,101.824],[160.527,101.293],[159.122,100.482],[157.896,99.420],[156.893,98.145],[156.149,96.703],[155.692,95.146],[155.548,93.937],[155.548,93.125],[155.625,92.317],[155.884,91.127],[156.487,89.621],[157.364,88.256],[158.483,87.082],[159.805,86.141],[161.280,85.467],[162.857,85.085]]

;TYPE:Custom
START_PRINT BED_TEMP=80 HOTEND_TEMP=230 FILAMENT_TYPE=FLEX EXTRUSION_MULTIPLIER=0.9 PERIMETER_SPEED=20
G21 ; set units to millimeters
G90 ; use absolute coordinates
M82 ; use absolute distances for extrusion
G92 E0
; Filament gcode
; ########################### NOTE OFFSET CHANGES ####################################
; Prevents PETG buildup on nozzle.
SET_GCODE_OFFSET Z=0
; ####################################################################################
M107
;LAYER_CHANGE
;Z:0.35
;HEIGHT:0.35
G1 E-.5 F240
G1 Z.35 F7800
EXCLUDE_OBJECT_START NAME='z_thrust_bearing_spacer_l'
G92 E0
G1 X97.046 Y150.216
G1 E.5 F240
G92 E0
;TYPE:External perimeter
;WIDTH:0.632491
G1 F600
G1 X96.754 Y149.986 E.02713
G1 X96.188 Y149.447 E.08418
;WIDTH:0.632333
G1 X95.676 Y148.856 E.14124
;WIDTH:0.632057
G1 X95.222 Y148.219 E.19829
;WIDTH:0.631665
G1 X94.832 Y147.544 E.25511
;WIDTH:0.630967
G1 X94.593 Y147.023 E.29684
;WIDTH:0.614849
G1 X94.303 Y146.264 E.35427
;WIDTH:0.615187
G1 X94.096 Y145.478 E.41176
G1 X93.967 Y144.676 E.46921
;WIDTH:0.614705
G1 X93.918 Y143.891 E.52479
;WIDTH:0.632115
G1 X93.927 Y143.385 E.56171
;WIDTH:0.632353
G1 X94.002 Y142.607 E.61875
;WIDTH:0.632465
G1 X94.15 Y141.839 E.67584
G1 X94.37 Y141.089 E.73289
G1 X94.661 Y140.363 E.78998
G1 X95.019 Y139.668 E.84704
;WIDTH:0.632265
G1 X95.441 Y139.01 E.90408
;WIDTH:0.631961
G1 X95.925 Y138.395 E.96115
;WIDTH:0.631529
G1 X96.464 Y137.829 E1.0181
;WIDTH:0.630975
G1 X97.055 Y137.317 E1.07502
;WIDTH:0.630319
G1 X97.692 Y136.863 E1.1319
;WIDTH:0.629549
G1 X98.369 Y136.471 E1.1887
;WIDTH:0.628655
G1 X99.08 Y136.146 E1.24537
;WIDTH:0.627659
G1 X99.819 Y135.89 E1.30196
;WIDTH:0.626543
G1 X100.579 Y135.705 E1.35845
;WIDTH:0.625305
G1 X101.351 Y135.593 E1.41466
;WIDTH:0.623631
G1 X102 Y135.567 E1.46132
;WIDTH:0.620517
G1 X102.555 Y135.567 E1.50096
G1 X103.364 Y135.649 E1.55904
G1 X104.16 Y135.81 E1.61705
;WIDTH:0.619333
G1 X104.937 Y136.05 E1.67501
;WIDTH:0.618265
G1 X105.686 Y136.365 E1.73281
;WIDTH:0.617295
G1 X106.401 Y136.753 E1.79057
;WIDTH:0.616463
G1 X107.074 Y137.209 E1.8482
;WIDTH:0.615741
G1 X107.698 Y137.729 E1.90571
;WIDTH:0.615139
G1 X108.268 Y138.308 E1.96317
;WIDTH:0.614631
G1 X108.778 Y138.941 E2.02061
;WIDTH:0.614255
G1 X109.223 Y139.621 E2.07799
;WIDTH:0.613999
G1 X109.595 Y140.343 E2.13531
;WIDTH:0.621415
G1 X109.905 Y141.095 E2.1935
G1 X110.132 Y141.875 E2.25162
G1 X110.28 Y142.672 E2.30962
;WIDTH:0.626289
G1 X110.345 Y143.385 E2.3613
G1 X110.349 Y143.485 E2.36852
;WIDTH:0.618989
G1 X110.337 Y144.298 E2.42643
;WIDTH:0.617949
G1 X110.245 Y145.105 E2.48417
;WIDTH:0.617025
G1 X110.073 Y145.9 E2.5419
;WIDTH:0.616243
G1 X109.825 Y146.674 E2.5995
;WIDTH:0.615537
G1 X109.5 Y147.419 E2.65703
;WIDTH:0.614971
G1 X109.104 Y148.129 E2.71451
;WIDTH:0.614507
G1 X108.64 Y148.796 E2.77191
;WIDTH:0.614139
G1 X108.112 Y149.414 E2.82929
;WIDTH:0.613955
G1 X107.526 Y149.977 E2.88664
;WIDTH:0.613837
G1 X106.887 Y150.479 E2.94397
G1 X106.2 Y150.911 E3.00123
;WIDTH:0.619783
G1 X105.478 Y151.285 E3.05923
G1 X104.72 Y151.578 E3.1172
;WIDTH:0.618673
G1 X103.936 Y151.795 E3.17511
;WIDTH:0.617673
G1 X103.135 Y151.933 E3.23286
;WIDTH:0.616789
G1 X102.325 Y151.992 E3.29047
;WIDTH:0.616019
G1 X101.512 Y151.97 E3.34808
;WIDTH:0.615365
G1 X100.706 Y151.868 E3.40556
;WIDTH:0.614827
G1 X99.939 Y151.695 E3.46114
;WIDTH:0.631979
G1 X99.447 Y151.541 E3.49874
;WIDTH:0.632285
G1 X98.721 Y151.251 E3.55579
;WIDTH:0.632491
G1 X98.026 Y150.892 E3.61289
G1 X97.369 Y150.469 E3.66993
G1 X97.117 Y150.271 E3.69332
G1 X96.657 Y149.886 F7800
;LAYER_CHANGE
;Z:0.65
;HEIGHT:0.3
G1 Z.65 F7800
G1 X97.055 Y150.227
G92 E0
;WIDTH:0.622653
G1 F600
G1 X96.72 Y149.962 E.02677
;WIDTH:0.621291
G1 X96.137 Y149.395 E.07761
;WIDTH:0.631769
G1 X95.44 Y148.54 E.14787
G1 X95.018 Y147.885 E.1975
;WIDTH:0.631433
G1 X94.66 Y147.19 E.24726
;WIDTH:0.630855
G1 X94.369 Y146.464 E.297
;WIDTH:0.630186
G1 X94.148 Y145.714 E.34666
;WIDTH:0.62936
G1 X94 Y144.946 E.39626
;WIDTH:0.628479
G1 X93.925 Y144.167 E.44582
;WIDTH:0.627485
G1 X93.924 Y143.385 E.49525
;WIDTH:0.626315
G1 X93.998 Y142.606 E.54461
;WIDTH:0.625019
G1 X94.145 Y141.838 E.59382
;WIDTH:0.623669
G1 X94.373 Y141.069 E.64418
;WIDTH:0.622225
G1 X94.679 Y140.315 E.69514
;WIDTH:0.620901
G1 X95.057 Y139.596 E.74589
;WIDTH:0.619678
G1 X95.505 Y138.918 E.79655
;WIDTH:0.618587
G1 X96.018 Y138.287 E.84714
;WIDTH:0.617589
G1 X96.591 Y137.71 E.89764
;WIDTH:0.616707
G1 X97.217 Y137.192 E.94802
;WIDTH:0.615957
G1 X97.892 Y136.739 E.99835
;WIDTH:0.615309
G1 X98.608 Y136.355 E1.0486
;WIDTH:0.614793
G1 X99.358 Y136.043 E1.09879
;WIDTH:0.614381
G1 X100.136 Y135.806 E1.149
;WIDTH:0.614087
G1 X100.933 Y135.648 E1.19914
;WIDTH:0.613897
G1 X101.742 Y135.573 E1.24926
;WIDTH:0.618339
G1 X102.555 Y135.568 E1.29982
;WIDTH:0.620517
G1 X103.364 Y135.649 E1.35058
G1 X104.161 Y135.811 E1.40135
;WIDTH:0.619333
G1 X104.937 Y136.05 E1.45193
;WIDTH:0.618267
G1 X105.687 Y136.365 E1.50251
;WIDTH:0.617299
G1 X106.401 Y136.753 E1.55295
;WIDTH:0.616467
G1 X107.074 Y137.209 E1.60333
;WIDTH:0.615745
G1 X107.698 Y137.729 E1.6536
;WIDTH:0.615145
G1 X108.268 Y138.308 E1.70383
;WIDTH:0.614641
G1 X108.778 Y138.941 E1.75404
;WIDTH:0.614267
G1 X109.223 Y139.621 E1.8042
;WIDTH:0.614009
G1 X109.595 Y140.343 E1.85431
;WIDTH:0.619219
G1 X109.904 Y141.095 E1.90495
;WIDTH:0.621415
G1 X110.132 Y141.876 E1.95582
G1 X110.28 Y142.673 E2.00651
;WIDTH:0.626289
G1 X110.345 Y143.385 E2.05161
G1 X110.349 Y143.485 E2.05792
;WIDTH:0.618993
G1 X110.337 Y144.298 E2.10854
;WIDTH:0.617953
G1 X110.245 Y145.106 E2.15907
;WIDTH:0.617029
G1 X110.073 Y145.9 E2.20947
;WIDTH:0.616247
G1 X109.824 Y146.674 E2.25984
;WIDTH:0.615543
G1 X109.5 Y147.419 E2.3101
;WIDTH:0.614981
G1 X109.104 Y148.129 E2.36035
;WIDTH:0.614513
G1 X108.64 Y148.796 E2.41053
;WIDTH:0.614148
G1 X108.112 Y149.414 E2.46069
;WIDTH:0.613967
G1 X107.526 Y149.977 E2.51082
;WIDTH:0.613851
G1 X106.887 Y150.479 E2.56094
G1 X106.199 Y150.911 E2.61105
;WIDTH:0.619934
G1 X105.471 Y151.288 E2.66218
;WIDTH:0.643991
G1 X104.82 Y151.536 E2.70751
G1 X104.072 Y151.762 E2.75835
;WIDTH:0.631564
G1 X103.304 Y151.91 E2.80815
;WIDTH:0.631037
G1 X102.526 Y151.985 E2.85787
;WIDTH:0.630388
G1 X101.744 Y151.985 E2.90756
;WIDTH:0.629629
G1 X100.965 Y151.911 E2.95721
;WIDTH:0.628745
G1 X100.197 Y151.764 E3.00675
;WIDTH:0.627755
G1 X99.446 Y151.544 E3.05624
;WIDTH:0.626639
G1 X98.72 Y151.254 E3.10558
;WIDTH:0.625433
G1 X98.024 Y150.896 E3.15487
;WIDTH:0.624083
G1 X97.357 Y150.467 E3.2047
;WIDTH:0.622653
G1 X97.126 Y150.283 E3.22321
G1 X96.665 Y149.899 F7800
;LAYER_CHANGE
;Z:0.95
;HEIGHT:0.3
G1 Z.95 F7800
G1 E2.72321 F240
G92 E0
G1 Z.95 F7800
G1 X97.065 Y149.459
G1 X103.322 Y147.624
G1 X103.512 Y147.56
G1 X103.699 Y147.487
G1 X103.882 Y147.404
G1 X104.061 Y147.313
G1 X104.234 Y147.212
G1 X104.403 Y147.104
G1 X104.566 Y146.986
G1 X104.723 Y146.861
G1 X104.874 Y146.728
G1 X105.017 Y146.588
G1 X105.154 Y146.441
G1 X105.283 Y146.287
G1 X105.404 Y146.127
G1 X105.517 Y145.961
G1 X107.452 Y142.896
G1 E.5 F240
G92 E0
;TYPE:Overhang perimeter
;WIDTH:0.917622
G1 F1200
G1 X107.478 Y143.017 E.01185
;WIDTH:0.911606
G1 X107.523 Y143.955 E.10116
;WIDTH:0.916423
G1 X107.47 Y144.53 E.15639
G1 X107.375 Y145.054 E.20732
;WIDTH:0.915467
G1 X107.234 Y145.523 E.25411
G1 X107.031 Y146.037 E.30691
;WIDTH:0.914276
G1 X106.815 Y146.454 E.35171
;WIDTH:0.914901
G1 X106.515 Y146.919 E.40454
G1 X106.207 Y147.311 E.45214
;WIDTH:0.915983
G1 X105.842 Y147.687 E.50223
G1 X105.463 Y148.021 E.55052
;WIDTH:0.911736
G1 X104.907 Y148.398 E.61442
;WIDTH:0.916335
G1 X104.355 Y148.684 E.67388
G1 X103.883 Y148.88 E.72276
;WIDTH:0.9133
G1 X102.895 Y149.115 E.81954
;WIDTH:0.914598
G1 X102.411 Y149.161 E.86594
G1 X101.858 Y149.161 E.91872
G1 X101.375 Y149.115 E.96503
;WIDTH:0.915733
G1 X100.848 Y149.01 E1.01638
G1 X100.281 Y148.836 E1.07306
;WIDTH:0.913251
G1 X99.569 Y148.515 E1.14748
;WIDTH:0.912721
G1 X99.135 Y148.256 E1.19561
;WIDTH:0.912235
G1 X98.635 Y147.878 E1.25527
;WIDTH:0.914369
G1 X98.267 Y147.531 E1.30353
G1 X97.894 Y147.101 E1.35784
;WIDTH:0.910446
G1 X97.63 Y146.738 E1.40047
G1 X97.317 Y146.196 E1.45991
;WIDTH:0.917776
G1 X97.046 Y145.542 E1.52773
G1 X96.888 Y145.042 E1.57796
;WIDTH:0.91127
G1 X96.755 Y144.135 E1.66511
;WIDTH:0.916837
G1 X96.753 Y143.532 E1.72281
G1 X96.794 Y143.016 E1.77234
;WIDTH:0.915982
G1 X96.894 Y142.521 E1.82062
G1 X97.037 Y142.017 E1.8707
;WIDTH:0.914907
G1 X97.223 Y141.554 E1.91834
G1 X97.476 Y141.062 E1.97116
;WIDTH:0.914282
G1 X97.73 Y140.664 E2.0162
;WIDTH:0.915473
G1 X98.073 Y140.234 E2.06875
G1 X98.435 Y139.854 E2.11889
;WIDTH:0.912477
G1 X98.915 Y139.452 E2.1785
;WIDTH:0.911599
G1 X99.286 Y139.199 E2.22121
G1 X99.835 Y138.9 E2.28066
;WIDTH:0.91096
G1 X100.249 Y138.725 E2.32337
G1 X100.847 Y138.541 E2.38283
;WIDTH:0.91701
G1 X101.599 Y138.417 E2.45578
G1 X102.331 Y138.388 E2.52589
;WIDTH:0.921845
G1 X103.413 Y138.533 E2.63097
;WIDTH:0.917525
G1 X103.89 Y138.684 E2.67889
G1 X104.386 Y138.872 E2.72969
;WIDTH:0.911797
G1 X105.208 Y139.346 E2.81995
;WIDTH:0.91621
G1 X105.653 Y139.694 E2.87397
G1 X106.026 Y140.043 E2.92281
;WIDTH:0.913766
G1 X106.341 Y140.405 E2.96856
G1 X106.685 Y140.89 E3.02525
;WIDTH:0.91785
G1 X107.033 Y141.537 E3.09563
G1 X107.237 Y142.015 E3.14542
;WIDTH:0.917622
G1 X107.368 Y142.501 E3.19363
G1 X107.433 Y142.808 E3.22369
G1 X107.433 Y142.808 F7800
G1 X106.732 Y143.005
;WIDTH:0.675
G1 F1200
G1 X106.741 Y143.046 E3.22657
G1 X106.795 Y143.973 E3.29022
G1 X106.663 Y144.893 E3.35393
G1 X106.352 Y145.768 E3.41758
G1 X105.901 Y146.523 E3.47786
G1 X105.685 Y146.802 E3.50205
G1 X105.248 Y147.25 E3.54495
G1 X104.652 Y147.693 E3.59585
G1 X104.231 Y147.943 E3.62941
G1 X103.654 Y148.186 E3.67232
G1 X102.75 Y148.4 E3.736
G1 X101.858 Y148.43 E3.79718
G1 X101.519 Y148.4 E3.82051
G1 X100.906 Y148.276 E3.86338
G1 X100.581 Y148.171 E3.88679
G1 X99.869 Y147.85 E3.94032
G1 X99.461 Y147.589 E3.97352
G1 X99.053 Y147.28 E4.0086
G1 X98.438 Y146.621 E4.07038
G1 X98.104 Y146.103 E4.11263
G1 X97.853 Y145.636 E4.14897
G1 X97.624 Y144.962 E4.19776
G1 X97.53 Y144.46 E4.23277
G1 X97.466 Y143.855 E4.27447
G1 X97.517 Y143.117 E4.32518
G1 X97.74 Y142.215 E4.38887
G1 X98.126 Y141.395 E4.45099
G1 X98.301 Y141.119 E4.47339
G1 X98.691 Y140.63 E4.51626
G1 X99.285 Y140.093 E4.57115
G1 X99.634 Y139.839 E4.60074
G1 X100.184 Y139.54 E4.64365
G1 X100.838 Y139.306 E4.69126
G1 X101.357 Y139.177 E4.72792
G1 X101.966 Y139.115 E4.76988
G1 X102.306 Y139.119 E4.79319
G1 X103.096 Y139.215 E4.84774
G1 X103.64 Y139.372 E4.88655
G1 X104.198 Y139.588 E4.92756
G1 X104.828 Y139.968 E4.97799
G1 X105.529 Y140.578 E5.04168
G1 X106.096 Y141.314 E5.10536
G1 X106.366 Y141.838 E5.14576
G1 X106.579 Y142.345 E5.18345
G1 X106.711 Y142.917 E5.22369
G1 X106.711 Y142.917 F7800
G1 X106.125 Y143.096
G1 F1200
G1 X106.146 Y143.182 E5.22976
G1 X106.184 Y143.988 E5.28507
G1 X106.062 Y144.787 E5.34047
G1 X105.784 Y145.545 E5.39581
G1 X105.388 Y146.191 E5.44775
G1 X104.882 Y146.75 E5.49943
G1 X104.671 Y146.941 E5.51894
G1 X104.154 Y147.293 E5.56181
G1 X103.417 Y147.624 E5.61719
G1 X102.629 Y147.801 E5.67255
G1 X101.858 Y147.819 E5.72541
G1 X101.114 Y147.695 E5.77711
G1 X100.832 Y147.614 E5.79722
G1 X100.12 Y147.293 E5.85075
G1 X99.444 Y146.81 E5.9077
G1 X98.896 Y146.217 E5.96304
G1 X98.477 Y145.527 E6.01837
G1 X98.202 Y144.767 E6.07377
G1 X98.084 Y143.969 E6.12906
G1 X98.126 Y143.162 E6.18445
G1 X98.327 Y142.38 E6.23979
G1 X98.669 Y141.674 E6.29356
G1 X99.122 Y141.07 E6.34531
G1 X99.677 Y140.561 E6.39693
G1 X99.926 Y140.375 E6.41823
G1 X100.476 Y140.076 E6.46114
G1 X101.018 Y139.89 E6.50042
G1 X101.419 Y139.785 E6.52883
G1 X102.028 Y139.723 E6.57079
G1 X102.755 Y139.789 E6.62083
G1 X103.223 Y139.87 E6.65339
G1 X103.812 Y140.084 E6.69634
G1 X104.51 Y140.49 E6.75169
G1 X105.114 Y141.025 E6.807
G1 X105.6 Y141.67 E6.86236
G1 X105.949 Y142.399 E6.91776
G1 X106.103 Y143.009 E6.96088
G1 X106.103 Y143.009 F7800
G1 X105.52 Y143.188
G1 F1200
G1 X105.551 Y143.318 E6.97004
G1 X105.574 Y144.004 E7.01709
G1 X105.461 Y144.681 E7.06414
G1 X105.216 Y145.322 E7.11118
G1 X104.875 Y145.86 E7.15484
G1 X104.445 Y146.324 E7.1982
G1 X103.964 Y146.684 E7.23938
G1 X103.596 Y146.885 E7.26812
G1 X103.122 Y147.079 E7.30323
G1 X102.506 Y147.203 E7.3463
G1 X101.858 Y147.209 E7.39072
G1 X101.235 Y147.096 E7.43412
G1 X100.702 Y146.886 E7.47339
G1 X100.312 Y146.702 E7.50295
G1 X99.813 Y146.324 E7.54586
G1 X99.354 Y145.813 E7.59294
G1 X99.006 Y145.222 E7.63995
G1 X98.781 Y144.573 E7.68703
G1 X98.69 Y143.893 E7.73406
G1 X98.735 Y143.208 E7.78111
G1 X98.915 Y142.545 E7.8282
G1 X99.212 Y141.952 E7.87366
G1 X99.599 Y141.451 E7.91705
G1 X100.07 Y141.028 E7.96044
G1 X100.609 Y140.699 E8.00372
G1 X100.824 Y140.589 E8.02027
G1 X101.422 Y140.404 E8.06318
G1 X102.09 Y140.33 E8.10925
G1 X103.015 Y140.444 E8.17313
G1 X103.603 Y140.658 E8.21602
G1 X104.192 Y141.011 E8.26309
G1 X104.699 Y141.473 E8.31011
G1 X105.104 Y142.027 E8.35715
G1 X105.392 Y142.65 E8.40419
G1 X105.499 Y143.1 E8.43589
G1 X105.558 Y143.697 F7800
G1 E7.93589 F240
G92 E0
G1 X106.16 Y143.697 F7800
G1 X106.16 Y143.877
G1 X106.15 Y144.077
G1 X106.13 Y144.277
G1 X106.1 Y144.476
G1 X106.061 Y144.672
G1 X106.011 Y144.867
G1 X105.952 Y145.059
G1 X105.883 Y145.248
G1 X105.805 Y145.433
G1 X105.718 Y145.613
G1 X105.622 Y145.79
G1 X105.517 Y145.961
G1 X105.404 Y146.127
G1 X105.283 Y146.287
G1 X105.154 Y146.441
G1 X105.017 Y146.588
G1 X104.874 Y146.728
G1 X104.723 Y146.861
G1 X104.566 Y146.986
G1 X104.403 Y147.104
G1 X104.234 Y147.212
G1 X104.061 Y147.313
G1 X103.882 Y147.404
G1 X103.699 Y147.487
G1 X103.512 Y147.56
G1 X103.322 Y147.624
G1 X103.128 Y147.679
G1 X102.933 Y147.723
G1 X98.303 Y148.694
G1 E.5 F240
;WIDTH:0.91663
G1 F1200
G1 X98.032 Y148.48 E.53303
;WIDTH:0.914369
G1 X97.621 Y148.082 E.58762
G1 X97.02 Y147.354 E.67769
;WIDTH:0.917893
G1 X96.722 Y146.878 E.7315
G1 X96.448 Y146.351 E.78841
;WIDTH:0.917776
G1 X96.232 Y145.798 E.84528
G1 X96.063 Y145.229 E.90214
;WIDTH:0.917422
G1 X95.956 Y144.644 E.95909
G1 X95.898 Y144.053 E1.01595
;WIDTH:0.916837
G1 X95.903 Y143.459 E1.07279
G1 X95.959 Y142.868 E1.1296
;WIDTH:0.915982
G1 X96.076 Y142.286 E1.18635
