; generated by PrusaSlicer 2.8.1+MacOS-arm64 on 2024-11-27 at 08:15:35 UTC


;
;

;
;
; 

; external perimeters extrusion width = 0.55mm
; perimeters extrusion width = 0.60mm
; infill extrusion width = 0.60mm
; solid infill extrusion width = 0.60mm
; top infill extrusion width = 0.55mm
; first layer extrusion width = 0.60mm

; external perimeters extrusion width = 0.55mm
; perimeters extrusion width = 0.60mm
; infill extrusion width = 0.60mm
; solid infill extrusion width = 0.60mm
; top infill extrusion width = 0.55mm
; first layer extrusion width = 0.60mm

M73 P0 R8

EXCLUDE_OBJECT_DEFINE NAME='z_thrust_bearing_spacer_l' CENTER=125.000,165.007 POLYGON=[[125.476,155.020],[127.358,155.290],[128.717,155.725],[129.582,156.120],[131.182,157.148],[132.557,158.460],[133.660,160.008],[134.450,161.738],[134.898,163.585],[134.989,165.484],[134.819,166.901],[134.595,167.826],[133.888,169.591],[132.861,171.190],[131.549,172.566],[130.000,173.669],[128.271,174.458],[126.423,174.907],[124.524,174.997],[122.642,174.727],[120.846,174.105],[119.199,173.154],[118.099,172.246],[117.442,171.557],[116.340,170.008],[115.550,168.279],[115.102,166.432],[115.011,164.533],[115.282,162.651],[115.904,160.854],[116.854,159.208],[118.099,157.771],[119.594,156.596],[121.283,155.725],[122.183,155.414],[123.577,155.110]]
EXCLUDE_OBJECT_DEFINE NAME='z_thrust_bearing_spacer_r' CENTER=125.001,84.991 POLYGON=[[125.476,75.003],[126.423,75.093],[127.817,75.397],[129.582,76.103],[131.182,77.131],[132.557,78.443],[133.660,79.992],[134.450,81.721],[134.898,83.568],[134.989,85.467],[134.819,86.884],[134.595,87.809],[133.888,89.574],[132.861,91.173],[131.549,92.549],[130.000,93.652],[128.271,94.442],[126.423,94.890],[124.524,94.980],[123.577,94.890],[122.183,94.586],[120.418,93.880],[118.818,92.852],[117.442,91.540],[116.340,89.992],[115.550,88.262],[115.102,86.415],[115.011,84.516],[115.282,82.634],[115.904,80.837],[116.854,79.191],[118.099,77.754],[119.594,76.579],[120.418,76.103],[121.729,75.541],[123.577,75.093]]

M190 S80 ; set bed temperature and wait for it to be reached
M104 S235 ; set temperature
;TYPE:Custom
START_PRINT BED_TEMP=80 HOTEND_TEMP=235 FILAMENT_TYPE=FLEX EXTRUSION_MULTIPLIER=0.92
M109 S235 ; set temperature and wait for it to be reached
G21 ; set units to millimeters
G90 ; use absolute coordinates
M82 ; use absolute distances for extrusion
G92 E0
; Filament gcode
; ########################### NOTE OFFSET CHANGES ####################################
; Gives TPU a little but of space to expand, it is one of the materials that does not like
; touching the nozzle
SET_GCODE_OFFSET Z=0.04
; ####################################################################################
M107
;LAYER_CHANGE
;Z:0.3
;HEIGHT:0.3
G1 E-.6 F300
G1 Z.7 F9000
EXCLUDE_OBJECT_START NAME='z_thrust_bearing_spacer_l'
G92 E0
G1 X119.36 Y165.925
G1 Z.3
G1 E.65 F300
;TYPE:Perimeter
;WIDTH:0.6
G1 F1800
G1 X119.296 Y165.444 E.67982
G3 X121.48 Y160.502 I5.716 J-.427 E1.02561
G3 X122.393 Y159.922 I3.171 J3.974 E1.09222
G3 X123.398 Y159.523 I2.245 J4.191 E1.15882
G3 X124.46 Y159.319 I1.39 J4.386 E1.22544
G3 X125.526 Y159.324 I.514 J4.172 E1.29113
G3 X127.143 Y159.707 I-.419 J5.37 E1.39367
G3 X128.102 Y160.207 I-1.857 J4.732 E1.46027
G3 X128.95 Y160.878 I-2.508 J4.041 E1.52688
G3 X129.656 Y161.696 I-3.087 J3.381 E1.59345
G3 X130.197 Y162.632 I-3.618 J2.713 E1.66005
G3 X130.552 Y163.653 I-4.116 J2.004 E1.72664
G3 X130.709 Y164.723 I-4.598 J1.221 E1.79325
G3 X130.662 Y165.803 I-5.072 J.322 E1.85982
G3 X128.931 Y169.162 I-5.662 J-.793 E2.09652
G3 X128.077 Y169.827 I-3.678 J-3.846 E2.16316
G3 X127.114 Y170.319 I-2.696 J-4.09 E2.22976
G3 X126.076 Y170.621 I-1.81 J-4.284 E2.29635
G3 X125 Y170.723 I-.963 J-4.433 E2.36294
G3 X123.924 Y170.621 I-.113 J-4.535 E2.42953
G3 X122.901 Y170.322 I.73 J-4.399 E2.49519
G3 X121.329 Y169.396 I2.126 J-5.409 E2.60779
G3 X119.395 Y166.185 I3.799 J-4.476 E2.84228
G1 X119.37 Y165.999 E2.85381
G1 X119.37 Y165.999 F9000
G1 X119.883 Y165.846
G1 F1800
G3 X119.866 Y164.242 I6.127 J-.864 E2.95268
G1 X120.09 Y163.339 E3.00986
G3 X124.749 Y159.828 I4.924 J1.688 E3.39046
G3 X125.982 Y159.92 I.114 J6.792 E3.46656
G3 X129.834 Y163.131 I-.99 J5.104 E3.78818
G3 X130.141 Y164.286 I-8.489 J2.875 E3.86169
G1 X130.184 Y165.156 E3.91523
G1 X130.135 Y165.71 E3.94941
G3 X123.702 Y170.03 I-5.14 J-.705 E4.48717
G3 X122.559 Y169.58 I1.881 J-6.463 E4.56277
G3 X121.652 Y168.969 I2.839 J-5.193 E4.63008
G3 X119.921 Y166.084 I3.467 J-4.042 E4.84047
G3 X119.893 Y165.921 I6.089 J-1.102 E4.85064
G1 X119.893 Y165.921 F9000
G1 X120.412 Y165.767
G1 F1800
G3 X120.398 Y164.305 I5.477 J-.781 E4.94076
G1 X120.605 Y163.484 E4.9928
G3 X122.228 Y161.274 I4.464 J1.575 E5.16377
G1 X122.905 Y160.862 E5.21248
G3 X123.896 Y160.49 I2.285 J4.576 E5.27765
G3 X125.081 Y160.354 I1.48 J7.653 E5.35103
G1 X125.916 Y160.452 E5.4027
G3 X126.848 Y160.74 I-1.097 J5.195 E5.46274
G1 X127.543 Y161.121 E5.51145
G3 X128.361 Y161.793 I-2.82 J4.267 E5.57663
G3 X129.076 Y162.758 I-5.958 J5.159 E5.65052
G1 X129.346 Y163.351 E5.69057
G3 X129.627 Y164.484 I-7.341 J2.42 E5.76238
G3 X129.519 Y166.117 I-5.392 J.464 E5.86335
G1 X129.221 Y166.963 E5.91848
G3 X127.387 Y169.001 I-4.285 J-2.012 E6.08944
G1 X126.698 Y169.331 E6.13639
G3 X125.648 Y169.614 I-1.841 J-4.742 E6.20335
G3 X124.456 Y169.632 I-.715 J-7.856 E6.27669
M73 P1 R8
G1 X123.808 Y169.505 E6.31727
G3 X122.779 Y169.092 I2.134 J-6.809 E6.38549
G3 X121.976 Y168.542 I2.599 J-4.662 E6.44539
G3 X121.164 Y167.646 I5.391 J-5.698 E6.51978
G1 X120.84 Y167.09 E6.55933
G3 X120.447 Y165.982 I7.145 J-3.163 E6.63165
G3 X120.423 Y165.841 I5.442 J-.996 E6.64044
G1 X120.423 Y165.841 F9000
G1 X120.947 Y165.686
G1 F1800
G1 X120.89 Y165.244 E6.66783
G1 X120.925 Y164.425 E6.71821
G1 X121.121 Y163.629 E6.76859
G1 X121.471 Y162.888 E6.81896
G1 X121.949 Y162.246 E6.86815
G1 X122.513 Y161.733 E6.91501
G1 X122.792 Y161.534 E6.93607
G3 X124.857 Y160.894 I2.296 J3.758 E7.07031
G3 X125.851 Y160.983 I-.269 J8.577 E7.13168
G1 X126.593 Y161.217 E7.1795
G3 X127.378 Y161.648 I-1.829 J4.264 E7.23463
G3 X128.173 Y162.386 I-4.132 J5.251 E7.30137
G3 X129.066 Y164.365 I-3.45 J2.747 E7.4362
G1 X129.113 Y165.183 E7.48656
G1 X128.997 Y165.995 E7.53697
G1 X128.722 Y166.767 E7.58734
G1 X128.3 Y167.47 E7.63773
G1 X127.78 Y168.04 E7.68515
G3 X127.085 Y168.558 I-3.228 J-3.61 E7.7385
G3 X126.085 Y168.98 I-3.07 J-5.886 E7.80528
G3 X123.915 Y168.98 I-1.085 J-4.277 E7.94003
G3 X122.999 Y168.603 I2.189 J-6.631 E8.00096
G3 X122.104 Y167.934 I3.358 J-5.426 E8.06972
G3 X120.973 Y165.881 I3.169 J-3.084 E8.21552
G1 X120.957 Y165.76 E8.22302
G1 X120.957 Y165.76 F9000
G1 X121.476 Y165.606
G1 F1800
G1 X121.421 Y165.178 E8.24954
G1 X121.459 Y164.465 E8.29342
G1 X121.637 Y163.774 E8.33728
G1 X121.948 Y163.132 E8.38112
G1 X122.368 Y162.58 E8.42375
G1 X122.858 Y162.143 E8.4641
G1 X123.417 Y161.803 E8.50431
G3 X124.212 Y161.514 I1.689 J3.4 E8.55641
G1 X124.911 Y161.427 E8.5997
G1 X125.785 Y161.515 E8.65369
G1 X126.41 Y161.721 E8.69414
G1 X126.985 Y162.035 E8.73441
G3 X127.633 Y162.579 I-2.101 J3.163 E8.78652
G1 X128.062 Y163.148 E8.83032
G1 X128.37 Y163.792 E8.87419
G1 X128.544 Y164.484 E8.91804
G1 X128.578 Y165.196 E8.96185
G1 X128.469 Y165.902 E9.00576
G1 X128.224 Y166.571 E9.04955
G1 X127.85 Y167.179 E9.09342
G1 X127.397 Y167.666 E9.1343
G1 X126.87 Y168.056 E9.17459
G3 X126.132 Y168.407 I-2.044 J-3.346 E9.22491
G1 X125.436 Y168.564 E9.26876
G1 X124.723 Y168.58 E9.31259
G1 X124.021 Y168.455 E9.35641
G1 X123.234 Y168.122 E9.40893
G1 X122.752 Y167.786 E9.44504
G3 X122.139 Y167.164 I2.328 J-2.908 E9.49884
G1 X121.768 Y166.554 E9.54272
G3 X121.499 Y165.78 I10.688 J-4.152 E9.59309
G1 X121.486 Y165.681 E9.59923
G1 X121.486 Y165.681 F9000
G1 X122.005 Y165.527
;TYPE:External perimeter
G1 F1800
G1 X121.953 Y165.111 E9.625
G1 X121.993 Y164.505 E9.66233
G1 X122.152 Y163.919 E9.69965
G1 X122.424 Y163.377 E9.73692
G1 X122.787 Y162.914 E9.77308
G1 X123.202 Y162.554 E9.80685
G1 X123.674 Y162.273 E9.84061
G3 X124.422 Y162.015 I2.582 J6.26 E9.88927
G1 X124.965 Y161.96 E9.92281
G1 X125.719 Y162.046 E9.96945
G1 X126.227 Y162.224 E10.00253
G1 X126.705 Y162.492 E10.03621
G3 X127.304 Y163.011 I-4.118 J5.353 E10.08495
G1 X127.627 Y163.461 E10.11899
G1 X127.882 Y164.012 E10.15631
G1 X128.022 Y164.603 E10.19364
G1 X128.042 Y165.21 E10.23097
G1 X127.942 Y165.809 E10.26829
G1 X127.725 Y166.376 E10.3056
G1 X127.4 Y166.888 E10.34287
G1 X127.014 Y167.292 E10.37721
G1 X126.568 Y167.614 E10.41102
G1 X126.074 Y167.851 E10.4447
G3 X125.277 Y168.045 I-1.852 J-5.873 E10.49515
G1 X124.723 Y168.045 E10.5292
G1 X124.127 Y167.93 E10.56651
G1 X123.454 Y167.633 E10.61172
G1 X122.946 Y167.261 E10.65042
G1 X122.54 Y166.81 E10.68772
G1 X122.232 Y166.287 E10.72502
G1 X122.025 Y165.678 E10.76455
G1 X122.015 Y165.601 E10.76932
G1 X121.965 Y165.103 F9000
G1 E10.16932 F300
G92 E0
G1 X118.768 Y166.014 Z.358 F9000
G1 Z.3
G1 E.65 F300
;TYPE:Perimeter
;WIDTH:0.731239
G1 F1800
G3 X118.685 Y165.309 I9.569 J-1.482 E.70433
;WIDTH:0.729941
G3 X118.743 Y164.109 I9.213 J-.158 E.79615
;WIDTH:0.728113
G3 X119.027 Y162.941 I8.504 J1.451 E.88777
;WIDTH:0.725767
G3 X119.527 Y161.849 I7.593 J2.815 E.979
;WIDTH:0.724603
G1 X119.893 Y161.29 E1.02962
;WIDTH:0.725307
G3 X120.731 Y160.352 I5.924 J4.456 E1.12513
;WIDTH:0.723009
G3 X121.662 Y159.643 I5.157 J5.802 E1.21366
;WIDTH:0.730633
G3 X122.65 Y159.139 I4.626 J7.843 E1.29851
;WIDTH:0.731681
G3 X123.803 Y158.8 I3.353 J9.275 E1.39059
;WIDTH:0.731853
G3 X125 Y158.686 I1.545 J9.848 E1.48274
;WIDTH:0.738195
G3 X126.196 Y158.804 I-.432 J10.465 E1.57571
;WIDTH:0.727065
G1 X126.898 Y158.984 E1.63082
;WIDTH:0.723017
G3 X127.978 Y159.435 I-2.445 J7.364 E1.71936
;WIDTH:0.730635
G3 X128.908 Y160.039 I-4.48 J7.928 E1.80419
;WIDTH:0.731667
G3 X129.779 Y160.868 I-6.356 J7.54 E1.89632
;WIDTH:0.732181
G3 X130.476 Y161.847 I-7.841 J6.322 E1.98846
G3 X130.975 Y162.94 I-8.897 J4.723 E2.08059
;WIDTH:0.731669
G3 X131.258 Y164.109 I-9.426 J2.903 E2.17274
;WIDTH:0.730651
G1 X131.31 Y164.708 E2.21871
G1 X131.315 Y165.309 E2.26466
;WIDTH:0.729073
G3 X131.143 Y166.499 I-8.904 J-.678 E2.35644
;WIDTH:0.727003
G3 X130.749 Y167.634 I-8.02 J-2.147 E2.44787
;WIDTH:0.724493
G1 X130.457 Y168.194 E2.49571
;WIDTH:0.725769
G3 X129.711 Y169.217 I-6.332 J-3.832 E2.59192
;WIDTH:0.724079
G3 X128.843 Y170.025 I-5.642 J-5.196 E2.68178
;WIDTH:0.729933
G3 X127.897 Y170.628 I-5.227 J-7.15 E2.76751
;WIDTH:0.731233
G3 X126.781 Y171.075 I-4.153 J-8.748 E2.85956
;WIDTH:0.732007
G3 X125.601 Y171.303 I-2.479 J-9.679 E2.95169
;WIDTH:0.732267
G3 X124.399 Y171.303 I-.601 J-10.081 E3.04386
;WIDTH:0.732011
G3 X123.219 Y171.075 I1.299 J-9.907 E3.13599
;WIDTH:0.734167
G3 X122.091 Y170.616 I2.858 J-8.623 E3.22966
;WIDTH:0.729773
G1 X121.582 Y170.327 E3.27435
;WIDTH:0.73123
G3 X120.637 Y169.584 I5.502 J-7.975 E3.36639
;WIDTH:0.732005
G3 X119.849 Y168.676 I7.143 J-6.987 E3.45855
;WIDTH:0.732257
G3 X119.248 Y167.635 I8.43 J-5.561 E3.55072
;WIDTH:0.732007
G3 X118.855 Y166.499 I9.228 J-3.828 E3.64286
;WIDTH:0.731239
G3 X118.779 Y166.088 I9.482 J-1.967 E3.67485
G1 E3.07485 F300
G92 E0
G1 X118.779 Y166.088 F9000
G1 X125.385 Y158.106 Z.481
G1 Z.3
G1 E.65 F300
;WIDTH:0.6
G1 F1800
G3 X126.337 Y158.222 I-.367 J6.978 E.70899
G3 X127.667 Y158.629 I-2.016 J8.953 E.79456
G1 X128.352 Y158.964 E.84143
G3 X129.478 Y159.745 I-4.43 J7.592 E.92574
M73 P2 R8
G3 X131.911 Y164.708 I-4.494 J5.28 E1.27516
G3 X130.618 Y169.044 I-7.003 J.273 E1.55832
G3 X129.129 Y170.552 I-5.987 J-4.422 E1.68901
G3 X127.954 Y171.257 I-4.724 J-6.546 E1.77333
G3 X126.662 Y171.716 I-3.52 J-7.847 E1.85769
G3 X121.791 Y171.136 I-1.667 J-6.731 E2.16585
G1 X121.066 Y170.691 E2.21813
G3 X120.022 Y169.802 I5.035 J-6.972 E2.3025
G3 X119.024 Y161.525 I4.983 J-4.8 E2.85242
G3 X120.809 Y159.509 I6.238 J3.725 E3.01888
G1 X121.441 Y159.083 E3.06572
G3 X122.681 Y158.498 I4.361 J7.634 E3.15007
G3 X125.31 Y158.102 I2.337 J6.586 E3.31448
G1 X125.31 Y158.102 F9000
G1 X125.397 Y157.569
G1 F1800
G3 X130.634 Y160.127 I-.395 J7.451 E3.68249
G3 X132.446 Y164.708 I-5.806 J4.945 E3.9908
G3 X125 Y172.463 I-7.456 J.293 E4.72858
G3 X118.219 Y161.912 I.01 J-7.461 E5.64408
G3 X125.322 Y157.566 I6.783 J3.108 E6.18704
G1 X125.322 Y157.566 F9000
G1 X125.41 Y157.031
G1 F1800
G3 X126.512 Y157.162 I-.395 J8.039 E6.2553
G3 X131.92 Y161.013 I-1.549 J7.898 E6.6759
G3 X132.982 Y164.708 I-7.146 J4.053 E6.9144
G3 X131.509 Y169.644 I-8.049 J.286 E7.23665
G3 X125.76 Y172.963 I-6.541 J-4.69 E7.65719
G3 X119.486 Y170.792 I-.739 J-8.015 E8.07778
G3 X117.018 Y164.628 I5.573 J-5.807 E8.49842
G3 X120.06 Y158.727 I8.039 J.41 E8.91901
G3 X125.335 Y157.028 I4.955 J6.343 E9.26673
G1 X125.335 Y157.028 F9000
G1 X125.423 Y156.496
G1 F1800
G3 X126.614 Y156.635 I-.408 J8.666 E9.34049
G3 X130.884 Y158.837 I-1.684 J8.51 E9.63968
G3 X133.287 Y162.998 I-6.017 J6.248 E9.93891
G3 X133.518 Y164.708 I-10.671 J2.31 E10.04507
M73 P3 R8
G3 X133.058 Y167.797 I-8.731 J.281 E10.23805
G3 X130.271 Y171.711 I-8.184 J-2.878 E10.53727
G3 X125.811 Y173.497 I-5.328 J-6.846 E10.83646
G3 X121.093 Y172.588 I-.782 J-8.639 E11.13568
G3 X117.615 Y169.272 I4.013 J-7.691 E11.43494
G3 X116.482 Y164.603 I7.534 J-4.3 E11.73414
G3 X118.054 Y160.062 I8.663 J.456 E12.0334
G3 X121.831 Y157.092 I7.041 J5.067 E12.33262
G3 X125.348 Y156.493 I3.184 J8.07 E12.55347
G1 X125.436 Y155.958 F9000
G1 F1800
G3 X125.862 Y155.986 I-.4 J9.43 E12.57971
G3 X129.153 Y156.953 I-.97 J9.389 E12.79171
G3 X131.85 Y159.073 I-4.389 J8.355 E13.00373
G3 X133.565 Y162.044 I-7.181 J6.126 E13.21575
G3 X134.004 Y164.066 I-9.012 J3.017 E13.34317
G1 X134.053 Y164.708 E13.38274
G3 X133.808 Y167.145 I-9.449 J.28 E13.5337
G3 X132.383 Y170.266 I-9.155 J-2.295 E13.74575
G3 X129.9 Y172.633 I-7.646 J-5.533 E13.95777
G3 X126.715 Y173.908 I-5.042 J-7.979 E14.1698
G3 X123.285 Y173.908 I-1.715 J-9.281 E14.38179
G3 X120.1 Y172.633 I1.857 J-9.254 E14.59382
G3 X117.617 Y170.266 I5.163 J-7.9 E14.80584
G3 X116.192 Y167.145 I7.73 J-5.416 E15.01789
G3 X116.029 Y163.719 I9.189 J-2.155 E15.22987
G3 X117.151 Y160.477 I9.332 J1.414 E15.4419
G3 X119.397 Y157.884 I8.137 J4.781 E15.65392
G3 X122.447 Y156.312 I5.778 J7.464 E15.86599
G3 X125.361 Y155.956 I2.589 J9.076 E16.04715
G1 X125.361 Y155.956 F9000
G1 X125.449 Y155.422
;TYPE:External perimeter
G1 F1800
G3 X128.568 Y156.096 I-.526 J9.984 E16.24411
G3 X131.625 Y158.061 I-3.786 J9.252 E16.46871
G3 X133.732 Y161.021 I-6.954 J7.182 E16.69327
G3 X134.329 Y162.745 I-10.674 J4.66 E16.80552
G3 X134.589 Y164.708 I-11.26 J2.489 E16.92737
G3 X134.502 Y166.375 I-10.713 J.277 E17.03007
G3 X133.314 Y169.808 I-9.884 J-1.499 E17.25459
G3 X130.934 Y172.554 I-8.62 J-5.065 E17.47918
G3 X127.705 Y174.219 I-6.119 J-7.905 E17.70371
G3 X124.088 Y174.565 I-2.743 J-9.613 E17.92828
G3 X120.601 Y173.541 I1.026 J-9.944 E18.15289
G3 X117.745 Y171.295 I4.648 J-8.85 E18.37745
G3 X115.928 Y168.148 I7.606 J-6.489 E18.60204
G3 X115.411 Y164.552 I9.472 J-3.197 E18.82657
G3 X116.268 Y161.021 I9.982 J.552 E19.05114
G3 X118.375 Y158.061 I9.062 J4.222 E19.2757
M73 P4 R8
G3 X121.432 Y156.096 I6.844 J7.288 E19.5003
G3 X125 Y155.409 I3.644 J9.309 E19.72487
G3 X125.374 Y155.419 I-.077 J9.997 E19.74787
G1 X125.872 Y155.456 F9000
;LAYER_CHANGE
;Z:0.6
;HEIGHT:0.3
G1 E19.14787 F300
G92 E0
G1 X125.872 Y155.456 Z.3 F9000
G1 X119.026 Y166.148 Z.6
M104 S225 ; set temperature
G1 E.65 F300
;TYPE:Perimeter
;WIDTH:0.546676
G1 F900
G3 X118.917 Y165.013 I9.467 J-1.484 E.71314
;WIDTH:0.547389
G3 X119.025 Y163.86 I10.501 J.409 E.77736
;WIDTH:0.547843
G3 X119.351 Y162.748 I10.899 J2.589 E.84167
;WIDTH:0.548032
G3 X119.882 Y161.719 I10.496 J4.758 E.90596
G3 X120.598 Y160.808 I9.315 J6.595 E.97029
;WIDTH:0.547656
G3 X121.474 Y160.051 I7.554 J7.849 E1.03452
;WIDTH:0.547065
G3 X122.399 Y159.513 I5.41 J8.237 E1.09382
;WIDTH:0.544085
G1 X122.955 Y159.284 E1.12692
G1 X123.465 Y159.128 E1.15628
;WIDTH:0.544928
G1 X124.121 Y158.993 E1.19321
G1 X124.635 Y158.941 E1.2217
;WIDTH:0.543297
G1 X125.392 Y158.95 E1.2633
;WIDTH:0.54585
G1 X126.072 Y159.03 E1.30113
G1 X126.707 Y159.171 E1.33707
;WIDTH:0.546456
G3 X127.783 Y159.599 I-2.906 J8.862 E1.40117
;WIDTH:0.547234
