; generated by PrusaSlicer 2.8.1+MacOS-arm64 on 2024-11-27 at 06:00:31 UTC


;
;

;
;
; 

; external perimeters extrusion width = 0.50mm
; perimeters extrusion width = 0.55mm
; infill extrusion width = 0.60mm
; solid infill extrusion width = 0.60mm
; top infill extrusion width = 0.55mm
; first layer extrusion width = 0.60mm

M73 P0 R57

EXCLUDE_OBJECT_DEFINE NAME='heater_bed_cable_guide_(Instance_1)' CENTER=164.554,165.011 POLYGON=[[165.481,155.021],[167.449,155.315],[168.866,155.788],[170.615,156.737],[172.141,158.013],[173.363,158.076],[174.379,158.295],[175.297,158.654],[175.876,159.172],[176.188,159.777],[176.279,160.453],[176.201,160.934],[175.834,162.009],[175.042,162.009],[174.372,161.531],[174.243,161.209],[173.480,161.039],[171.900,161.040],[170.752,161.363],[169.750,162.010],[168.983,162.923],[168.520,164.022],[168.401,165.209],[168.574,166.188],[168.983,167.095],[169.603,167.873],[170.397,168.474],[170.935,168.733],[171.702,168.949],[173.285,168.999],[174.243,168.810],[174.372,168.487],[175.042,168.009],[175.834,168.009],[176.226,169.179],[176.277,169.761],[176.188,170.241],[175.933,170.767],[175.537,171.197],[175.096,171.467],[173.705,171.887],[172.141,172.005],[171.410,172.682],[170.196,173.551],[169.320,174.026],[167.929,174.569],[165.978,174.961],[164.485,174.996],[162.518,174.697],[160.649,174.015],[158.952,172.976],[157.494,171.622],[156.593,170.431],[155.686,168.660],[155.148,166.744],[154.999,164.760],[155.246,162.786],[155.880,160.900],[156.874,159.176],[158.189,157.683],[159.775,156.481],[161.566,155.616],[163.494,155.123]]
EXCLUDE_OBJECT_DEFINE NAME='heater_bed_cable_guide_(Instance_2)' CENTER=83.274,165.011 POLYGON=[[84.202,155.021],[86.170,155.315],[87.586,155.788],[89.335,156.737],[90.862,158.013],[92.084,158.076],[93.100,158.295],[94.017,158.654],[94.597,159.172],[94.909,159.777],[94.999,160.453],[94.922,160.934],[94.554,162.009],[93.762,162.009],[93.092,161.531],[92.964,161.209],[92.201,161.039],[90.620,161.040],[89.472,161.363],[88.470,162.010],[87.703,162.923],[87.240,164.022],[87.121,165.209],[87.294,166.188],[87.703,167.095],[88.324,167.873],[89.117,168.474],[89.656,168.733],[90.423,168.949],[92.005,168.999],[92.964,168.810],[93.092,168.487],[93.762,168.009],[94.554,168.009],[94.946,169.179],[94.997,169.761],[94.909,170.241],[94.654,170.767],[94.258,171.197],[93.817,171.467],[92.426,171.887],[90.862,172.005],[90.130,172.682],[88.916,173.551],[88.040,174.026],[86.649,174.569],[84.699,174.961],[83.206,174.996],[81.238,174.697],[79.369,174.015],[77.672,172.976],[76.215,171.622],[75.054,170.006],[74.236,168.192],[73.868,166.744],[73.719,164.760],[73.967,162.786],[74.600,160.900],[75.594,159.176],[76.910,157.683],[78.495,156.481],[80.287,155.616],[82.214,155.123]]
EXCLUDE_OBJECT_DEFINE NAME='heater_bed_cable_guide_(Instance_3)' CENTER=164.553,84.993 POLYGON=[[165.481,75.003],[166.963,75.186],[168.866,75.770],[170.615,76.718],[172.141,77.995],[173.363,78.057],[174.379,78.277],[175.297,78.636],[175.876,79.153],[176.188,79.759],[176.279,80.434],[176.201,80.915],[175.834,81.991],[175.042,81.991],[174.372,81.513],[174.243,81.190],[173.480,81.020],[171.900,81.022],[170.752,81.344],[169.750,81.991],[168.983,82.905],[168.520,84.004],[168.401,85.190],[168.574,86.170],[168.983,87.077],[169.603,87.855],[170.397,88.455],[170.935,88.715],[171.702,88.930],[173.285,88.980],[174.243,88.791],[174.372,88.469],[175.042,87.991],[175.834,87.991],[176.226,89.161],[176.277,89.743],[176.188,90.223],[175.933,90.749],[175.537,91.179],[175.096,91.449],[173.705,91.868],[172.141,91.987],[171.410,92.663],[170.196,93.533],[169.320,94.008],[167.929,94.551],[165.978,94.942],[164.485,94.978],[162.518,94.679],[160.649,93.996],[158.952,92.958],[157.494,91.603],[156.593,90.412],[155.686,88.641],[155.148,86.726],[154.999,84.742],[155.246,82.767],[155.880,80.881],[156.874,79.157],[158.189,77.665],[159.775,76.462],[161.566,75.597],[163.494,75.104]]
EXCLUDE_OBJECT_DEFINE NAME='heater_bed_cable_guide_(Instance_4)' CENTER=83.274,84.993 POLYGON=[[84.202,75.003],[85.684,75.186],[87.586,75.770],[89.335,76.718],[90.862,77.995],[92.084,78.057],[93.100,78.277],[94.017,78.636],[94.597,79.153],[94.909,79.759],[94.999,80.434],[94.922,80.915],[94.554,81.991],[93.762,81.991],[93.092,81.513],[92.964,81.190],[92.201,81.020],[90.620,81.022],[89.472,81.344],[88.470,81.991],[87.703,82.905],[87.240,84.004],[87.121,85.190],[87.294,86.170],[87.703,87.077],[88.324,87.855],[89.117,88.455],[89.656,88.715],[90.423,88.930],[92.005,88.980],[92.964,88.791],[93.092,88.469],[93.762,87.991],[94.554,87.991],[94.946,89.161],[94.997,89.743],[94.909,90.223],[94.654,90.749],[94.258,91.179],[93.817,91.449],[92.426,91.868],[90.862,91.987],[90.130,92.663],[88.916,93.533],[88.040,94.008],[86.649,94.551],[84.699,94.942],[83.206,94.978],[81.238,94.679],[79.369,93.996],[77.672,92.958],[76.215,91.603],[75.054,89.987],[74.236,88.173],[73.868,86.726],[73.719,84.742],[73.967,82.767],[74.600,80.881],[75.594,79.157],[76.910,77.665],[78.495,76.462],[80.287,75.597],[82.214,75.104]]

M190 S55 ; set bed temperature and wait for it to be reached
M104 S230 ; set temperature
;TYPE:Custom
START_PRINT BED_TEMP=55 HOTEND_TEMP=230 FILAMENT_TYPE=PLA EXTRUSION_MULTIPLIER=0.98
M109 S230 ; set temperature and wait for it to be reached
G21 ; set units to millimeters
G90 ; use absolute coordinates
M82 ; use absolute distances for extrusion
G92 E0
; Filament gcode
SET_GCODE_OFFSET Z=0.01
M107
;LAYER_CHANGE
;Z:0.25
;HEIGHT:0.25
G1 E-.53 F600
G1 Z.55 F9000
EXCLUDE_OBJECT_START NAME='heater_bed_cable_guide_(Instance_1)'
G92 E0
G1 X157.614 Y165.226
G1 Z.25
G1 E.53 F1200
;TYPE:External perimeter
;WIDTH:0.599999
G1 F1800
G1 X157.599 Y165.111 E.53645
G1 X157.638 Y164.515 E.56969
G1 X157.795 Y163.939 E.60291
G1 X158.062 Y163.405 E.63614
G1 X158.43 Y162.935 E.66936
G1 X158.884 Y162.547 E.7026
G1 X159.406 Y162.257 E.73583
G1 X159.971 Y162.077 E.76883
G1 X160.566 Y162.011 E.80215
G1 X161.362 Y162.11 E.84679
G1 X161.873 Y162.296 E.87705
G1 X162.385 Y162.602 E.91024
G1 X162.826 Y163.005 E.94349
G1 X163.179 Y163.486 E.97669
G1 X163.43 Y164.028 E1.00993
G1 X163.568 Y164.609 E1.04316
G1 X163.588 Y165.203 E1.07624
G1 X163.503 Y165.723 E1.10556
G3 X163.252 Y166.401 I-7.501 J-2.386 E1.14581
G1 X162.924 Y166.9 E1.17904
G1 X162.543 Y167.29 E1.20938
G1 X162.054 Y167.63 E1.24252
G1 X161.518 Y167.862 E1.27502
G1 X160.922 Y167.99 E1.30894
G1 X160.325 Y167.996 E1.34217
G1 X159.746 Y167.884 E1.37499
G1 X159.186 Y167.656 E1.40864
G1 X158.725 Y167.348 E1.43949
G1 X158.182 Y166.787 E1.48294
G1 X157.874 Y166.267 E1.51657
G1 X157.679 Y165.703 E1.54978
G1 X157.624 Y165.3 E1.57242
G1 X157.624 Y164.8 F9000
G1 X157.147 Y165.784
;TYPE:Perimeter
G1 F1800
G1 X157.057 Y165.179 E1.60646
G1 X157.093 Y164.474 E1.64574
G1 X157.269 Y163.791 E1.68499
G1 X157.576 Y163.156 E1.72424
G1 X158.003 Y162.594 E1.76352
G1 X158.533 Y162.128 E1.80279
G1 X159.145 Y161.777 E1.84205
G1 X159.81 Y161.555 E1.88107
G1 X160.511 Y161.467 E1.92039
G1 X161.152 Y161.526 E1.95621
G3 X162.06 Y161.782 I-.448 J3.322 E2.00889
G1 X162.67 Y162.136 E2.04814
G3 X163.964 Y163.899 I-2.402 J3.12 E2.17146
G1 X164.101 Y164.488 E2.20511
G1 X164.134 Y165.189 E2.24416
G1 X164.041 Y165.818 E2.27954
G1 X163.841 Y166.41 E2.31431
G3 X163.315 Y167.282 I-3.306 J-1.403 E2.37117
G1 X162.931 Y167.675 E2.40175
G1 X162.362 Y168.081 E2.44065
G1 X161.73 Y168.365 E2.47921
G1 X161.03 Y168.526 E2.51918
G1 X160.325 Y168.542 E2.55842
G1 X159.638 Y168.42 E2.59725
G1 X158.974 Y168.159 E2.63695
G1 X158.417 Y167.799 E2.67386
G3 X157.672 Y167.011 I4.808 J-5.287 E2.73427
G1 X157.401 Y166.541 E2.76446
G1 X157.161 Y165.877 E2.80375
G1 X157.158 Y165.858 E2.80482
G1 E2.27482 F600
G92 E0
G1 X157.158 Y165.858 F9000
G1 X173.703 Y161.205 Z.55
G1 X174.449 Y160.995
G1 Z.25
G1 E.53 F1200
;TYPE:External perimeter
G1 F1800
G2 X174.431 Y160.969 I-1.087 J.75 E.53176
G2 X173.49 Y160.739 I-2.703 J9.004 E.58569
G2 X171.842 Y160.746 I-.741 J20.076 E.67743
G1 X171.212 Y160.876 E.71323
G1 X170.609 Y161.099 E.74901
G2 X169.536 Y161.799 I2.577 J5.121 E.82046
G1 X169.09 Y162.261 E.8562
G1 X168.717 Y162.784 E.89195
G1 X168.427 Y163.357 E.92769
G1 X168.225 Y163.967 E.96345
G1 X168.115 Y164.664 E1.00272
G2 X168.186 Y165.88 I6.09 J.253 E1.07062
G1 X168.349 Y166.461 E1.1042
G2 X168.79 Y167.34 I14.559 J-6.744 E1.15894
G1 X169.145 Y167.817 E1.19203
G1 X169.733 Y168.385 E1.23753
G1 X170.265 Y168.743 E1.27322
G1 X170.855 Y169.022 E1.30954
G1 X171.67 Y169.247 E1.35659
G2 X173.326 Y169.296 I1.223 J-13.312 E1.44885
G2 X174.339 Y169.095 I-.541 J-5.368 E1.50641
G1 X174.472 Y169.01 E1.51519
G1 X174.618 Y168.68 E1.53527
G1 X175.139 Y168.309 E1.57086
G1 X175.62 Y168.309 E1.59763
G1 X175.882 Y169.072 E1.64253
G1 X175.968 Y169.599 E1.67225
G1 X175.957 Y169.905 E1.68929
G1 X175.808 Y170.381 E1.71705
G1 X175.526 Y170.794 E1.74488
G1 X175.217 Y171.057 E1.76746
G1 X174.605 Y171.335 E1.80487
G3 X172.152 Y171.705 I-2.255 J-6.623 E1.94366
G1 X171.985 Y171.747 E1.95324
G3 X170.839 Y172.752 I-10.635 J-10.98 E2.0381
G1 X170.039 Y173.295 E2.09191
G1 X169.19 Y173.755 E2.14565
G1 X168.299 Y174.129 E2.19943
G1 X167.376 Y174.413 E2.25317
G1 X166.428 Y174.603 E2.30698
G1 X165.467 Y174.697 E2.36072
G1 X164.501 Y174.696 E2.41448
G1 X163.539 Y174.599 E2.46829
G1 X162.592 Y174.406 E2.52207
G1 X161.67 Y174.121 E2.57578
G1 X160.78 Y173.744 E2.62957
G1 X159.931 Y173.282 E2.68336
G1 X159.134 Y172.737 E2.73709
G1 X158.394 Y172.115 E2.79089
G3 X156.846 Y170.268 I7.34 J-7.724 E2.92529
G1 X156.363 Y169.431 E2.97907
G1 X155.966 Y168.55 E3.03285
G1 X155.658 Y167.634 E3.08663
G1 X155.444 Y166.692 E3.14039
G1 X155.323 Y165.734 E3.19413
G1 X155.299 Y164.768 E3.24791
G1 X155.372 Y163.804 E3.30171
G1 X155.539 Y162.853 E3.35544
G1 X155.801 Y161.922 E3.40926
G1 X156.153 Y161.023 E3.46299
G1 X156.594 Y160.163 E3.51678
G1 X157.118 Y159.351 E3.57056
G1 X157.72 Y158.595 E3.62434
G1 X158.394 Y157.903 E3.6781
G1 X159.134 Y157.282 E3.73186
G1 X159.931 Y156.737 E3.78559
G1 X160.78 Y156.274 E3.83941
G1 X161.67 Y155.898 E3.89318
G1 X162.592 Y155.612 E3.9469
G1 X163.539 Y155.42 E4.00067
G1 X164.497 Y155.323 E4.05426
G1 X165.952 Y155.357 E4.13525
G1 X166.904 Y155.499 E4.18882
G1 X167.841 Y155.736 E4.24261
G1 X168.749 Y156.065 E4.29636
G1 X169.621 Y156.483 E4.35017
G1 X170.446 Y156.985 E4.40391
G1 X171.217 Y157.567 E4.45767
G1 X171.945 Y158.24 E4.51284
G1 X172.13 Y158.313 E4.52391
G3 X174.115 Y158.539 I.163 J7.391 E4.63543
G1 X174.67 Y158.711 E4.66777
G1 X175.246 Y158.989 E4.70336
G1 X175.555 Y159.266 E4.72645
G3 X175.91 Y159.925 I-1.764 J1.375 E4.7683
G1 X175.968 Y160.335 E4.79134
G1 X175.909 Y160.86 E4.82074
G1 X175.619 Y161.709 E4.87067
G1 X175.138 Y161.709 E4.89744
G1 X174.618 Y161.338 E4.93299
G2 X174.49 Y161.058 I-1.256 J.407 E4.95016
G1 X174.028 Y160.866 F9000
G1 X174.103 Y160.311
;TYPE:Perimeter
G1 F1800
G1 X173.663 Y160.212 E4.97526
G2 X171.734 Y160.21 I-.98 J14.269 E5.08269
G1 X171.025 Y160.363 E5.12305
G1 X170.348 Y160.619 E5.16333
G1 X169.665 Y161.012 E5.20718
G1 X169.027 Y161.539 E5.25323
G2 X168.231 Y162.535 I4.662 J4.54 E5.3243
G1 X167.909 Y163.183 E5.36457
G1 X167.687 Y163.872 E5.40485
G1 X167.568 Y164.65 E5.44865
G1 X167.577 Y165.442 E5.49273
G2 X167.823 Y166.609 I5.383 J-.525 E5.55924
G2 X168.346 Y167.659 I10.549 J-4.596 E5.62455
G1 X168.764 Y168.208 E5.66295
G1 X169.426 Y168.836 E5.71373
G2 X170.706 Y169.548 I3.463 J-4.724 E5.79546
G1 X171.476 Y169.764 E5.83997
G2 X172.599 Y169.852 I1.141 J-7.386 E5.90272
G1 X173.406 Y169.836 E5.94764
G1 X174.091 Y169.729 E5.98622
G1 X174.671 Y169.544 E6.0201
G1 X174.885 Y169.368 E6.03552
G1 X175.054 Y169.068 E6.05468
G1 X175.247 Y168.903 E6.06881
G3 X175.422 Y169.58 I-4.777 J1.601 E6.10776
G3 X175.331 Y170.076 I-1.438 J-.008 E6.13597
G1 X175.116 Y170.426 E6.15883
G1 X174.847 Y170.625 E6.17745
G3 X173.816 Y170.995 I-2.198 J-4.5 E6.23853
G3 X172.07 Y171.161 I-1.551 J-7.036 E6.33638
G1 X171.695 Y171.284 E6.35834
G3 X170.509 Y172.315 I-14.242 J-15.185 E6.44581
G1 X169.755 Y172.827 E6.49653
G1 X168.954 Y173.262 E6.54726
G1 X168.113 Y173.615 E6.59802
G1 X167.241 Y173.882 E6.64877
G1 X166.347 Y174.062 E6.69952
G1 X165.44 Y174.151 E6.75024
G1 X164.528 Y174.15 E6.80099
G1 X163.621 Y174.058 E6.85172
G1 X162.728 Y173.876 E6.90244
G1 X161.857 Y173.607 E6.95317
G1 X161.017 Y173.252 E7.00392
G1 X160.217 Y172.815 E7.05465
G1 X159.464 Y172.301 E7.10539
G3 X157.843 Y170.72 I6.323 J-8.105 E7.23166
G1 X157.305 Y169.971 E7.28298
G1 X156.85 Y169.182 E7.33367
G1 X156.475 Y168.35 E7.38446
G1 X156.185 Y167.486 E7.43518
G1 X155.982 Y166.597 E7.48593
G1 X155.869 Y165.693 E7.53663
G1 X155.846 Y164.781 E7.5874
G1 X155.914 Y163.872 E7.63813
G1 X156.073 Y162.974 E7.68888
G1 X156.319 Y162.097 E7.73957
G1 X156.652 Y161.248 E7.79032
G1 X157.068 Y160.436 E7.84109
G1 X157.562 Y159.67 E7.89181
G1 X158.13 Y158.957 E7.94254
G1 X158.766 Y158.304 E7.99327
G1 X159.464 Y157.718 E8.04399
G1 X160.217 Y157.203 E8.09476
G1 X161.017 Y156.767 E8.14546
G1 X161.857 Y156.412 E8.19621
G1 X162.728 Y156.142 E8.24696
G3 X164.518 Y155.87 I2.551 J10.746 E8.34783
G1 X165.905 Y155.902 E8.42504
G3 X168.538 Y156.57 I-1.079 J9.786 E8.57669
G1 X169.36 Y156.964 E8.62742
G1 X170.139 Y157.438 E8.67817
G1 X170.866 Y157.987 E8.72887
G1 X171.574 Y158.642 E8.78255
G1 X171.844 Y158.808 E8.80019
G2 X172.634 Y158.86 I.583 J-2.805 E8.84439
G3 X174.818 Y159.37 I-.226 J5.905 E8.96996
G1 X175.081 Y159.557 E8.98792
G1 X175.341 Y159.937 E9.01354
G1 X175.424 Y160.381 E9.03868
G3 X175.245 Y161.114 I-2.43 J-.202 E9.08084
G1 X175.1 Y161.011 E9.09074
G2 X174.76 Y160.533 I-1.419 J.651 E9.12358
G1 X174.445 Y160.388 E9.14288
G1 X174.177 Y160.327 E9.15818
G1 X174.177 Y160.327 F9000
G1 X175.302 Y160.36
;TYPE:Solid infill
;WIDTH:0.605346
G1 F1800
G1 X174.762 Y159.819 E9.20113
G1 X174.67 Y159.752 E9.20753
G2 X173.553 Y159.39 I-1.958 J4.14 E9.2737
G1 X174.041 Y159.879 E9.31252
G2 X173.161 Y159.779 I-.769 J2.856 E9.36248
G1 X172.656 Y159.273 E9.40265
G3 X171.908 Y159.249 I-.143 J-7.199 E9.44472
G1 X171.83 Y159.228 E9.44926
G1 X172.375 Y159.773 E9.49257
G2 X171.659 Y159.807 I-.082 J5.73 E9.53288
G1 X171.634 Y159.812 E9.53431
G1 X169.13 Y157.308 E9.73331
G2 X167.768 Y156.727 I-4.251 J8.072 E9.81661
G1 X170.988 Y159.947 E10.07251
G1 X170.412 Y160.15 E10.10683
G1 X166.696 Y156.435 E10.40211
G1 X165.87 Y156.311 E10.44905
G1 X165.791 Y156.31 E10.45349
G1 X169.888 Y160.407 E10.77909
G2 X169.4 Y160.699 I1.157 J2.487 E10.81111
G1 X164.992 Y156.291 E11.16142
G2 X164.231 Y156.311 I-.281 J3.806 E11.20427
G1 X168.956 Y161.036 E11.57978
G1 X168.567 Y161.426 E11.61073
G1 X163.536 Y156.396 E12.01051
G1 X162.888 Y156.528 E12.04767
G1 X168.209 Y161.849 E12.47054
G1 X167.89 Y162.31 E12.50204
G1 X162.287 Y156.707 E12.94732
G2 X161.716 Y156.916 I.984 J3.579 E12.98153
G1 X167.624 Y162.824 E13.45105
G2 X167.411 Y163.391 I2.983 J1.447 E13.48513
G1 X161.17 Y157.15 E13.98112
G1 X160.665 Y157.426 E14.01346
G1 X167.249 Y164.009 E14.53666
G2 X167.157 Y164.698 I3.286 J.786 E14.57579
G1 X160.182 Y157.723 E15.13011
G1 X159.719 Y158.04 E15.16164
G1 X167.171 Y165.492 E15.75387
G2 X167.359 Y166.46 I4.339 J-.341 E15.8094
G1 X159.294 Y158.396 E16.4503
G2 X158.886 Y158.768 I2.108 J2.718 E16.48136
G1 X161.243 Y161.125 E16.66868
G2 X160.478 Y161.059 I-.769 J4.44 E16.71188
G1 X160.404 Y161.066 E16.71606
G1 X158.501 Y159.163 E16.8673
G1 X158.149 Y159.591 E16.89844
G1 X159.715 Y161.157 E17.02289
G1 X159.121 Y161.344 E17.05789
G1 X157.814 Y160.036 E17.1618
G1 X157.508 Y160.51 E17.1935
G1 X158.604 Y161.606 E17.2806
G2 X158.141 Y161.923 I.914 J1.835 E17.31223
G1 X157.232 Y161.014 E17.38447
G2 X156.978 Y161.54 I4.1 J2.309 E17.41732
G1 X157.728 Y162.291 E17.47696
G1 X157.378 Y162.721 E17.50812
G1 X156.758 Y162.101 E17.55739
G2 X156.576 Y162.699 I4.874 J1.811 E17.59254
G1 X157.088 Y163.211 E17.63323
G2 X156.853 Y163.756 I2.184 J1.263 E17.66666
G1 X156.426 Y163.329 E17.70059
G1 X156.316 Y163.999 E17.73874
G1 X156.696 Y164.379 E17.76894
G1 X156.641 Y165.105 E17.80985
G1 X156.032 Y164.496 E17.85825
G1 E17.32825 F600
G92 E0
G1 X156.032 Y164.496 F9000
G1 X172.484 Y169.469 Z.55
G1 X175.043 Y170.243
G1 Z.25
G1 E.53 F1200
G1 F1800
G1 X174.755 Y169.956 E.55285
