; generated by PrusaSlicer 2.8.0+MacOS-arm64 on 2024-09-05 at 15:19:11 UTC


;
;

;
;
; 

; external perimeters extrusion width = 0.68mm
; perimeters extrusion width = 0.68mm
; infill extrusion width = 0.68mm
; solid infill extrusion width = 0.68mm
; top infill extrusion width = 0.60mm


EXCLUDE_OBJECT_DEFINE NAME='heater_bed_cable_guide_(Instance_1)' CENTER=123.914,125.002 POLYGON=[[124.842,115.012],[126.324,115.195],[128.226,115.779],[129.975,116.728],[131.502,118.004],[132.724,118.066],[133.740,118.286],[134.657,118.645],[135.237,119.163],[135.549,119.768],[135.639,120.443],[135.562,120.925],[135.194,122.000],[134.402,122.000],[133.732,121.522],[133.604,121.200],[132.841,121.029],[131.260,121.031],[130.112,121.354],[129.110,122.001],[128.343,122.914],[127.880,124.013],[127.761,125.199],[127.934,126.179],[128.343,127.086],[128.964,127.864],[129.757,128.464],[130.296,128.724],[131.063,128.939],[132.645,128.990],[133.604,128.800],[133.732,128.478],[134.402,128.000],[135.194,128.000],[135.586,129.170],[135.637,129.752],[135.549,130.232],[135.294,130.758],[134.898,131.188],[134.457,131.458],[133.066,131.877],[131.502,131.996],[130.770,132.672],[129.556,133.542],[128.680,134.017],[127.289,134.560],[125.339,134.952],[123.846,134.987],[121.878,134.688],[120.009,134.006],[118.312,132.967],[116.855,131.612],[115.694,129.996],[114.876,128.182],[114.508,126.735],[114.359,124.751],[114.607,122.777],[115.240,120.890],[116.234,119.167],[117.550,117.674],[119.135,116.471],[120.927,115.607],[122.854,115.113]]
EXCLUDE_OBJECT_DEFINE NAME='heater_bed_cable_guide_(Instance_2)' CENTER=123.080,147.040 POLYGON=[[124.007,137.049],[125.975,137.343],[127.392,137.817],[129.141,138.765],[130.667,140.041],[131.889,140.104],[132.906,140.324],[133.823,140.683],[134.403,141.200],[134.714,141.806],[134.805,142.481],[134.727,142.962],[134.360,144.038],[133.568,144.038],[132.898,143.560],[132.770,143.237],[132.007,143.067],[130.426,143.068],[129.278,143.391],[128.276,144.038],[127.509,144.951],[127.046,146.050],[126.927,147.237],[127.100,148.217],[127.509,149.124],[128.130,149.901],[128.923,150.502],[129.462,150.761],[130.229,150.977],[131.811,151.027],[132.770,150.838],[132.898,150.516],[133.568,150.038],[134.360,150.038],[134.752,151.207],[134.803,151.790],[134.714,152.269],[134.460,152.795],[134.064,153.225],[133.623,153.496],[132.232,153.915],[130.667,154.034],[129.936,154.710],[128.722,155.579],[127.846,156.054],[126.455,156.598],[124.504,156.989],[123.011,157.024],[121.044,156.726],[119.175,156.043],[117.478,155.004],[116.020,153.650],[115.119,152.459],[114.212,150.688],[113.674,148.773],[113.525,146.788],[113.772,144.814],[114.406,142.928],[115.400,141.204],[116.716,139.712],[118.301,138.509],[120.093,137.644],[122.020,137.151]]
EXCLUDE_OBJECT_DEFINE NAME='heater_bed_cable_guide_(Instance_3)' CENTER=149.374,124.914 POLYGON=[[150.302,114.924],[151.784,115.107],[153.686,115.691],[155.435,116.640],[156.962,117.916],[158.184,117.978],[159.200,118.198],[160.117,118.557],[160.697,119.075],[161.009,119.680],[161.099,120.355],[161.022,120.837],[160.655,121.912],[159.862,121.912],[159.192,121.434],[159.064,121.112],[158.301,120.941],[156.720,120.943],[155.572,121.266],[154.570,121.913],[153.804,122.826],[153.340,123.925],[153.222,125.111],[153.394,126.091],[153.804,126.998],[154.424,127.776],[155.217,128.376],[155.756,128.636],[156.523,128.851],[158.105,128.902],[159.064,128.713],[159.192,128.390],[159.862,127.912],[160.655,127.912],[161.047,129.082],[161.097,129.664],[161.009,130.144],[160.754,130.670],[160.358,131.100],[159.917,131.370],[158.526,131.789],[156.962,131.908],[156.230,132.584],[155.016,133.454],[154.141,133.929],[152.750,134.472],[150.799,134.864],[149.306,134.899],[147.339,134.600],[145.470,133.918],[143.773,132.879],[142.315,131.524],[141.414,130.334],[140.507,128.563],[139.968,126.647],[139.820,124.663],[140.067,122.689],[140.700,120.802],[141.694,119.079],[143.010,117.586],[144.595,116.383],[146.387,115.519],[148.315,115.025]]
EXCLUDE_OBJECT_DEFINE NAME='heater_bed_cable_guide_(Instance_4)' CENTER=148.452,147.414 POLYGON=[[149.379,137.424],[151.347,137.718],[152.764,138.191],[154.513,139.140],[156.039,140.416],[157.261,140.478],[158.278,140.698],[159.195,141.057],[159.775,141.575],[160.087,142.180],[160.177,142.855],[160.099,143.337],[159.732,144.412],[158.940,144.412],[158.270,143.934],[158.142,143.612],[157.379,143.442],[155.798,143.443],[154.650,143.766],[153.648,144.413],[152.881,145.326],[152.418,146.425],[152.299,147.612],[152.472,148.591],[152.881,149.498],[153.502,150.276],[154.295,150.877],[154.834,151.136],[155.601,151.352],[157.183,151.402],[158.142,151.213],[158.270,150.890],[158.940,150.412],[159.732,150.412],[160.124,151.582],[160.175,152.164],[160.087,152.644],[159.832,153.170],[159.436,153.600],[158.995,153.870],[157.604,154.289],[156.039,154.408],[155.308,155.085],[154.094,155.954],[153.218,156.429],[151.827,156.972],[149.876,157.364],[148.383,157.399],[146.416,157.100],[144.547,156.418],[142.850,155.379],[141.393,154.025],[140.491,152.834],[139.584,151.063],[139.046,149.147],[138.897,147.163],[139.145,145.189],[139.778,143.302],[140.772,141.579],[142.088,140.086],[143.673,138.884],[145.465,138.019],[147.392,137.526]]

;TYPE:Custom
START_PRINT BED_TEMP=65 HOTEND_TEMP=220 FILAMENT_TYPE=PLA EXTRUSION_MULTIPLIER=0.95 PERIMETER_SPEED=70
G21 ; set units to millimeters
G90 ; use absolute coordinates
M82 ; use absolute distances for extrusion
G92 E0
; Filament gcode
M107
;LAYER_CHANGE
;Z:0.35
;HEIGHT:0.35
G1 E-.5 F240
G1 Z.35 F9000
EXCLUDE_OBJECT_START NAME='heater_bed_cable_guide_(Instance_3)'
G92 E0
G1 X142.398 Y125.13
G1 E.5 F240
G92 E0
;TYPE:External perimeter
;WIDTH:0.675
G1 F1800
G1 X142.382 Y125.018 E.00938
G1 X142.422 Y124.414 E.05958
G1 X142.58 Y123.831 E.10967
G1 X142.85 Y123.29 E.15981
G1 X143.222 Y122.814 E.20991
G1 X143.682 Y122.42 E.26014
G1 X144.21 Y122.126 E.31026
G1 X144.78 Y121.944 E.35988
G1 X145.382 Y121.876 E.41012
G1 X145.91 Y121.934 E.45417
G1 X146.195 Y121.977 E.47807
G1 X146.707 Y122.164 E.52327
G1 X147.226 Y122.474 E.5734
G1 X147.673 Y122.881 E.62353
G1 X148.031 Y123.368 E.67365
G1 X148.285 Y123.917 E.72381
G1 X148.425 Y124.505 E.77393
G1 X148.446 Y125.106 E.8238
G1 X148.36 Y125.632 E.868
G1 X148.105 Y126.324 E.92916
G1 X147.809 Y126.782 E.97438
G1 X147.414 Y127.195 E1.02177
G1 X146.895 Y127.564 E1.07458
G1 X146.353 Y127.799 E1.12357
G1 X145.749 Y127.93 E1.17482
G1 X145.144 Y127.936 E1.22499
G1 X144.564 Y127.825 E1.27396
G1 X143.991 Y127.593 E1.32522
G1 X143.524 Y127.282 E1.37175
G1 X142.974 Y126.715 E1.43726
G1 X142.662 Y126.188 E1.48805
G1 X142.463 Y125.617 E1.53819
G1 X142.41 Y125.219 E1.57149
G1 X142.413 Y124.619 F9000
G1 X141.797 Y125.161
;TYPE:Perimeter
G1 F1800
G1 X141.787 Y125.092 E1.57727
G1 X141.823 Y124.369 E1.6373
G1 X142.002 Y123.668 E1.6973
G1 X142.316 Y123.016 E1.75731
G1 X142.753 Y122.44 E1.81727
G1 X143.296 Y121.961 E1.87732
G1 X143.923 Y121.599 E1.93736
G1 X144.603 Y121.371 E1.99684
G1 X145.322 Y121.279 E2.05695
G1 X145.984 Y121.339 E2.11207
G1 X146.4 Y121.414 E2.14712
G1 X146.912 Y121.6 E2.19229
G1 X147.539 Y121.962 E2.25233
G1 X147.921 Y122.292 E2.29419
G1 X148.2 Y122.575 E2.32715
G1 X148.518 Y123.018 E2.37237
G1 X148.832 Y123.67 E2.43238
G1 X149.01 Y124.371 E2.49236
G1 X149.046 Y125.091 E2.55214
G1 X148.951 Y125.736 E2.60621
G1 X148.713 Y126.432 E2.66721
G1 X148.609 Y126.649 E2.68717
G1 X148.313 Y127.107 E2.73239
G1 X147.843 Y127.614 E2.78972
G1 X147.233 Y128.06 E2.85238
G1 X146.586 Y128.352 E2.91124
G1 X145.868 Y128.518 E2.97235
G1 X145.144 Y128.536 E3.03241
G1 X144.445 Y128.413 E3.09127
G1 X143.758 Y128.145 E3.15242
G1 X143.186 Y127.777 E3.20882
G1 X142.753 Y127.358 E3.25879
G1 X142.415 Y126.96 E3.30209
G1 X142.142 Y126.488 E3.34731
G1 X141.895 Y125.808 E3.40731
G1 X141.811 Y125.25 E3.4541
G1 E2.9541 F240
G92 E0
G1 X141.811 Y125.25 F9000
G1 X159.298 Y120.867
G1 E.5 F240
;TYPE:External perimeter
G1 F1800
G1 X159.29 Y120.853 E.50134
G1 X159.091 Y120.773 E.51913
G1 X158.313 Y120.604 E.58515
G1 X157.397 Y120.582 E.66113
G1 X156.656 Y120.612 E.72263
G1 X156.021 Y120.743 E.7764
G1 X155.413 Y120.968 E.83016
G1 X154.793 Y121.321 E.88932
G1 X154.331 Y121.675 E.93759
G1 X153.88 Y122.141 E.99137
G1 X153.505 Y122.669 E1.04508
G1 X153.212 Y123.248 E1.09889
G1 X153.009 Y123.863 E1.1526
G1 X152.898 Y124.564 E1.21146
G1 X152.886 Y125.151 E1.26015
G1 X152.961 Y125.747 E1.30996
G1 X153.079 Y126.213 E1.34982
G1 X153.299 Y126.771 E1.39956
G1 X153.528 Y127.193 E1.43938
G1 X153.878 Y127.68 E1.48911
G1 X154.533 Y128.319 E1.56499
G1 X155.068 Y128.679 E1.61847
G1 X155.662 Y128.96 E1.67296
G1 X156.487 Y129.187 E1.74392
G1 X157.119 Y129.248 E1.79657
G1 X158.152 Y129.236 E1.88224
G1 X159.048 Y129.067 E1.95785
G1 X159.297 Y128.965 E1.98016
G1 X159.47 Y128.607 E2.01313
G1 X159.972 Y128.25 E2.06421
G1 X160.412 Y128.25 E2.1007
G1 X160.686 Y129.068 E2.17224
G1 X160.747 Y129.531 E2.21097
G1 X160.685 Y130.038 E2.25333
G1 X160.472 Y130.478 E2.29387
G1 X160.141 Y130.837 E2.33436
G1 X159.796 Y131.052 E2.36807
G1 X159.103 Y131.302 E2.42916
G1 X158.463 Y131.457 E2.48377
G1 X157.811 Y131.548 E2.53836
G1 X156.939 Y131.571 E2.6107
G1 X156.743 Y131.65 E2.62822
G1 X156.014 Y132.325 E2.71061
G1 X155.248 Y132.903 E2.79019
G1 X153.994 Y133.624 E2.91014
G1 X152.647 Y134.15 E3.03006
G1 X151.717 Y134.385 E3.10961
G1 X150.936 Y134.502 E3.1751
G1 X150.289 Y134.563 E3.22899
G1 X149.323 Y134.562 E3.3091
G1 X148.365 Y134.465 E3.38895
G1 X147.422 Y134.273 E3.46875
G1 X146.503 Y133.988 E3.54854
G1 X145.616 Y133.613 E3.6284
G1 X144.772 Y133.152 E3.70815
G1 X143.977 Y132.61 E3.78794
G1 X143.24 Y131.99 E3.86781
G1 X142.634 Y131.369 E3.93976
G1 X142.261 Y130.935 E3.98722
G1 X141.698 Y130.15 E4.06733
G1 X141.217 Y129.317 E4.1471
G1 X140.821 Y128.439 E4.22697
G1 X140.515 Y127.527 E4.30674
G1 X140.301 Y126.589 E4.38652
G1 X140.182 Y125.634 E4.46633
G1 X140.158 Y124.671 E4.54621
G1 X140.229 Y123.712 E4.62595
G1 X140.396 Y122.764 E4.70578
G1 X140.657 Y121.837 E4.78564
G1 X141.008 Y120.941 E4.86544
G1 X141.447 Y120.085 E4.94522
G1 X141.969 Y119.276 E5.02506
G1 X142.568 Y118.523 E5.10485
G1 X143.24 Y117.834 E5.18466
G1 X143.977 Y117.214 E5.26453
G1 X144.772 Y116.672 E5.34432
G1 X145.616 Y116.211 E5.42407
G1 X146.503 Y115.836 E5.50393
G1 X147.422 Y115.551 E5.58372
G1 X148.366 Y115.36 E5.66359
G1 X149.323 Y115.263 E5.74336
G1 X150.115 Y115.261 E5.80904
G1 X150.762 Y115.296 E5.86277
G1 X151.717 Y115.439 E5.94285
G1 X152.65 Y115.675 E6.02266
G1 X153.555 Y116.003 E6.10249
G1 X154.423 Y116.419 E6.18231
G1 X155.245 Y116.919 E6.2621
G1 X156.127 Y117.604 E6.35471
G1 X156.843 Y118.234 E6.4338
G1 X157.009 Y118.253 E6.44766
G1 X157.529 Y118.259 E6.49078
G1 X158.193 Y118.324 E6.54611
G1 X158.771 Y118.433 E6.59489
G1 X159.727 Y118.741 E6.67818
G1 X160.125 Y118.981 E6.71672
G1 X160.429 Y119.282 E6.7522
G1 X160.685 Y119.782 E6.79878
G1 X160.75 Y120.194 E6.83337
G1 X160.747 Y120.434 E6.85327
G1 X160.696 Y120.747 E6.87957
G1 X160.413 Y121.575 E6.95213
G1 X159.971 Y121.575 E6.98878
G1 X159.47 Y121.216 E7.03989
G1 X159.4 Y121.039 E7.05567
G1 X159.344 Y120.945 E7.06474
G1 X158.789 Y120.719 F9000
G1 X159.76 Y120.364
;TYPE:Perimeter
;WIDTH:0.842037
G1 F1800
G1 X159.735 Y120.335 E7.0688
G1 X159.547 Y120.208 E7.09285
G1 X159.241 Y120.106 E7.12705
;WIDTH:0.882275
G1 X158.329 Y119.901 E7.23135
G1 X158.215 Y119.919 E7.24423
;WIDTH:0.84082
G1 X158.1 Y119.937 E7.25655
;WIDTH:0.799365
G1 X157.985 Y119.955 E7.2682
;WIDTH:0.75791
G1 X157.87 Y119.973 E7.27919
;WIDTH:0.716455
G1 X157.755 Y119.991 E7.28951
;WIDTH:0.675
G1 X157.05 Y119.978 E7.34798
G1 X156.537 Y120.024 E7.39069
G1 X155.816 Y120.18 E7.45186
G1 X155.126 Y120.441 E7.51304
G1 X154.43 Y120.843 E7.57969
G1 X153.782 Y121.378 E7.64937
G1 X153.301 Y121.919 E7.7094
G1 X152.971 Y122.396 E7.7575
G1 X152.643 Y123.056 E7.81862
G1 X152.418 Y123.759 E7.87983
G1 X152.298 Y124.549 E7.94609
G1 X152.307 Y125.355 E8.01293
G1 X152.387 Y125.932 E8.06124
G1 X152.544 Y126.49 E8.10931
G1 X152.787 Y127.092 E8.16315
G1 X153.041 Y127.543 E8.20607
G1 X153.391 Y128.03 E8.2558
G1 X153.693 Y128.344 E8.29193
G1 X154.195 Y128.815 E8.34901
G1 X154.808 Y129.22 E8.40994
G1 X155.5 Y129.538 E8.47309
G1 X156.427 Y129.784 E8.55262
G1 X157.125 Y129.848 E8.61075
;WIDTH:0.683858
G1 X157.711 Y129.847 E8.66006
;WIDTH:0.725811
G1 X157.82 Y129.865 E8.67
;WIDTH:0.767764
G1 X157.928 Y129.883 E8.68048
;WIDTH:0.809717
G1 X158.037 Y129.901 E8.6917
;WIDTH:0.85167
G1 X158.146 Y129.919 E8.70356
;WIDTH:0.893623
G1 X158.255 Y129.938 E8.71608
G1 X158.958 Y129.804 E8.79706
;WIDTH:0.848483
G1 X159.511 Y129.631 E8.85901
;WIDTH:0.837572
G1 X159.756 Y129.468 E8.89003
G1 X159.99 Y129.136 E8.93284
G1 X160.04 Y129.285 E8.94941
G1 X160.069 Y129.59 E8.9817
G1 X160.038 Y129.792 E9.00324
G1 X159.923 Y130.049 E9.03292
G1 X159.736 Y130.272 E9.06359
G1 X159.459 Y130.45 E9.09829
;WIDTH:0.871561
G1 X158.881 Y130.638 E9.16521
;WIDTH:0.882211
G1 X158.19 Y130.805 E9.24453
;WIDTH:0.840768
G1 X158.07 Y130.841 E9.25779
;WIDTH:0.799326
G1 X157.95 Y130.878 E9.27036
;WIDTH:0.757884
G1 X157.829 Y130.914 E9.28228
;WIDTH:0.716442
G1 X157.709 Y130.951 E9.29341
;WIDTH:0.675
G1 X156.985 Y130.97 E9.35347
G1 X156.608 Y131.037 E9.38522
G1 X156.336 Y131.21 E9.41195
G1 X155.628 Y131.864 E9.49188
G1 X154.916 Y132.401 E9.56583
G1 X153.734 Y133.082 E9.67895
G1 X152.463 Y133.578 E9.79209
G1 X151.599 Y133.796 E9.86598
G1 X150.847 Y133.909 E9.92904
G1 X150.267 Y133.963 E9.97735
G1 X149.354 Y133.962 E10.05306
G1 X148.456 Y133.871 E10.12791
G1 X147.571 Y133.691 E10.2028
G1 X146.709 Y133.424 E10.27763
G1 X145.878 Y133.073 E10.35244
G1 X145.085 Y132.64 E10.42737
G1 X144.34 Y132.131 E10.50219
G1 X143.649 Y131.55 E10.57706
G1 X143.063 Y130.95 E10.64661
G1 X142.735 Y130.567 E10.68843
G1 X142.202 Y129.825 E10.76419
G1 X141.752 Y129.043 E10.83901
G1 X141.381 Y128.22 E10.91387
G1 X141.093 Y127.364 E10.98877
G1 X140.893 Y126.484 E11.06361
G1 X140.78 Y125.589 E11.13842
G1 X140.758 Y124.686 E11.21333
G1 X140.825 Y123.786 E11.28817
G1 X140.982 Y122.897 E11.36303
G1 X141.226 Y122.028 E11.43788
G1 X141.556 Y121.188 E11.51272
G1 X141.967 Y120.385 E11.58753
G1 X142.457 Y119.626 E11.66245
G1 X143.019 Y118.92 E11.73728
G1 X143.649 Y118.274 E11.81211
G1 X144.34 Y117.693 E11.88698
G1 X145.085 Y117.184 E11.9618
G1 X145.878 Y116.752 E12.03669
G1 X146.709 Y116.4 E12.11153
G1 X147.571 Y116.133 E12.18636
G1 X148.456 Y115.953 E12.26125
G1 X149.354 Y115.862 E12.3361
G1 X150.116 Y115.861 E12.39929
G1 X150.696 Y115.893 E12.44746
G1 X151.599 Y116.028 E12.52318
G1 X152.474 Y116.249 E12.59802
G1 X153.323 Y116.557 E12.67291
G1 X154.137 Y116.947 E12.74776
G1 X154.908 Y117.416 E12.8226
G1 X155.628 Y117.96 E12.89743
G1 X156.336 Y118.614 E12.97736
G1 X156.633 Y118.797 E13.00629
G1 X156.946 Y118.853 E13.03266
G1 X157.475 Y118.856 E13.07653
;WIDTH:0.718367
G1 X157.774 Y118.906 E13.10349
;WIDTH:0.761734
G1 X158.073 Y118.956 E13.13226
;WIDTH:0.799615
G1 X158.293 Y119.023 E13.15529
;WIDTH:0.837496
G1 X158.514 Y119.09 E13.17963
;WIDTH:0.875377
G1 X159.442 Y119.367 E13.28677
;WIDTH:0.842037
G1 X159.722 Y119.533 E13.32128
G1 X159.951 Y119.801 E13.35865
G1 X160.067 Y120.185 E13.40118
G1 X160.063 Y120.425 E13.42663
G1 X159.994 Y120.688 E13.45546
G1 X159.94 Y120.578 E13.46845
G1 X159.818 Y120.433 E13.48854
G1 E12.98854 F240
G92 E0
G1 X159.818 Y120.433 F9000
G1 X141.539 Y126.619
G1 E.5 F240
;WIDTH:0.675055
G1 F1800
G1 X141.485 Y126.406 E.51822
;WIDTH:0.638161
G1 X141.432 Y126.194 E.53523
;WIDTH:0.601267
G1 X141.378 Y125.981 E.55121
;WIDTH:0.564373
G1 X141.329 Y125.568 E.57934
;WIDTH:0.530364
G1 X141.28 Y125.156 E.60545
;WIDTH:0.513897
G1 X141.305 Y124.331 E.65551
;WIDTH:0.548067
G1 X141.355 Y124.058 E.67366
;WIDTH:0.582238
G1 X141.404 Y123.786 E.69304
;WIDTH:0.616409
G1 X141.453 Y123.514 E.71372
G1 E.21372 F240
G92 E0
G1 X141.453 Y123.514 F9000
G1 X156.945 Y119.419
G1 E.5 F240
;WIDTH:0.606629
G1 F1800
G1 X157.768 Y119.438 E.56049
G1 X157.768 Y119.438 F9000
G1 X156.945 Y119.419
;WIDTH:0.637124
G1 F1800
G1 X156.682 Y119.429 E.58094
;WIDTH:0.66762
G1 X156.419 Y119.439 E.6025
;WIDTH:0.675
G1 X155.611 Y119.616 E.67109
