; generated by PrusaSlicer 2.8.0+MacOS-arm64 on 2024-08-26 at 14:12:11 UTC


;
;

;
;
; 

; external perimeters extrusion width = 0.68mm
; perimeters extrusion width = 0.68mm
; infill extrusion width = 0.68mm
; solid infill extrusion width = 0.68mm
; top infill extrusion width = 0.60mm


EXCLUDE_OBJECT_DEFINE NAME='heater_bed_cable_guide_(Instance_1)' CENTER=110.273,138.003 POLYGON=[[111.201,128.013],[112.683,128.196],[114.585,128.780],[116.334,129.729],[117.861,131.005],[119.083,131.067],[120.099,131.287],[121.016,131.646],[121.596,132.164],[121.908,132.769],[121.999,133.444],[121.921,133.926],[121.554,135.001],[120.762,135.001],[120.092,134.523],[119.963,134.200],[119.200,134.030],[117.619,134.032],[116.471,134.355],[115.470,135.001],[114.703,135.915],[114.240,137.014],[114.121,138.200],[114.294,139.180],[114.703,140.087],[115.323,140.865],[116.116,141.465],[116.655,141.725],[117.422,141.940],[119.005,141.990],[119.963,141.801],[120.092,141.479],[120.762,141.001],[121.554,141.001],[121.946,142.171],[121.997,142.753],[121.908,143.233],[121.653,143.759],[121.257,144.189],[120.816,144.459],[119.425,144.878],[117.861,144.997],[117.130,145.673],[115.915,146.543],[115.040,147.018],[113.649,147.561],[111.698,147.953],[110.205,147.988],[108.238,147.689],[106.369,147.007],[104.672,145.968],[103.214,144.613],[102.053,142.997],[101.236,141.183],[100.868,139.736],[100.719,137.752],[100.966,135.777],[101.599,133.891],[102.594,132.168],[103.909,130.675],[105.494,129.472],[107.286,128.607],[109.214,128.114]]
EXCLUDE_OBJECT_DEFINE NAME='heater_bed_cable_guide_(Instance_2)' CENTER=137.554,138.003 POLYGON=[[138.482,128.013],[139.964,128.196],[141.866,128.780],[143.615,129.729],[145.142,131.005],[146.364,131.067],[147.380,131.287],[148.297,131.646],[148.877,132.164],[149.189,132.769],[149.280,133.444],[149.202,133.926],[148.835,135.001],[148.043,135.001],[147.373,134.523],[147.244,134.200],[146.481,134.030],[144.900,134.032],[143.752,134.355],[142.751,135.001],[141.984,135.915],[141.521,137.014],[141.402,138.200],[141.575,139.180],[141.984,140.087],[142.604,140.865],[143.397,141.465],[143.936,141.725],[144.703,141.940],[146.286,141.990],[147.244,141.801],[147.373,141.479],[148.043,141.001],[148.835,141.001],[149.227,142.171],[149.278,142.753],[149.189,143.233],[148.934,143.759],[148.538,144.189],[148.097,144.459],[146.706,144.878],[145.142,144.997],[144.411,145.673],[143.196,146.543],[142.321,147.018],[140.930,147.561],[138.979,147.953],[137.486,147.988],[135.519,147.689],[133.650,147.007],[131.953,145.968],[130.495,144.613],[129.335,142.997],[128.517,141.183],[128.149,139.736],[128.000,137.752],[128.247,135.777],[128.880,133.891],[129.875,132.168],[131.190,130.675],[132.775,129.472],[134.567,128.607],[136.495,128.114]]
EXCLUDE_OBJECT_DEFINE NAME='heater_bed_cable_guide_(Instance_3)' CENTER=137.554,112.001 POLYGON=[[138.482,102.011],[139.964,102.195],[141.866,102.778],[143.615,103.727],[145.142,105.003],[146.364,105.065],[147.380,105.285],[148.297,105.644],[148.877,106.162],[149.189,106.767],[149.280,107.442],[149.202,107.924],[148.835,108.999],[148.043,108.999],[147.373,108.521],[147.244,108.199],[146.481,108.029],[144.900,108.030],[143.752,108.353],[142.751,109.000],[141.984,109.913],[141.521,111.012],[141.402,112.199],[141.575,113.178],[141.984,114.085],[142.604,114.863],[143.397,115.464],[143.936,115.723],[144.703,115.938],[146.286,115.989],[147.244,115.800],[147.373,115.477],[148.043,114.999],[148.835,114.999],[149.227,116.169],[149.278,116.751],[149.189,117.231],[148.934,117.757],[148.538,118.187],[148.097,118.457],[146.706,118.876],[145.142,118.995],[144.411,119.671],[143.196,120.541],[142.321,121.016],[140.930,121.559],[138.979,121.951],[137.486,121.986],[135.519,121.687],[133.650,121.005],[131.953,119.966],[130.495,118.612],[129.335,116.995],[128.517,115.181],[128.149,113.734],[128.000,111.750],[128.247,109.776],[128.880,107.889],[129.875,106.166],[131.190,104.673],[132.775,103.471],[134.567,102.606],[136.495,102.113]]
EXCLUDE_OBJECT_DEFINE NAME='heater_bed_cable_guide_(Instance_4)' CENTER=110.273,112.001 POLYGON=[[111.201,102.011],[112.683,102.195],[114.585,102.778],[116.334,103.727],[117.861,105.003],[119.083,105.065],[120.099,105.285],[121.016,105.644],[121.596,106.162],[121.908,106.767],[121.999,107.442],[121.921,107.924],[121.554,108.999],[120.762,108.999],[120.092,108.521],[119.963,108.199],[119.200,108.029],[117.619,108.030],[116.471,108.353],[115.470,109.000],[114.703,109.913],[114.240,111.012],[114.121,112.199],[114.294,113.178],[114.703,114.085],[115.323,114.863],[116.116,115.464],[116.655,115.723],[117.422,115.938],[119.005,115.989],[119.963,115.800],[120.092,115.477],[120.762,114.999],[121.554,114.999],[121.946,116.169],[121.997,116.751],[121.908,117.231],[121.653,117.757],[121.257,118.187],[120.816,118.457],[119.425,118.876],[117.861,118.995],[117.130,119.671],[115.915,120.541],[115.040,121.016],[113.649,121.559],[111.698,121.951],[110.205,121.986],[108.238,121.687],[106.369,121.005],[104.672,119.966],[103.214,118.612],[102.053,116.995],[101.236,115.181],[100.868,113.734],[100.719,111.750],[100.966,109.776],[101.599,107.889],[102.594,106.166],[103.909,104.673],[105.494,103.471],[107.286,102.606],[109.214,102.113]]

;TYPE:Custom
START_PRINT BED_TEMP=65 HOTEND_TEMP=220 FILAMENT_TYPE=PLA EXTRUSION_MULTIPLIER=0.95 PERIMETER_SPEED=80
G21 ; set units to millimeters
G90 ; use absolute coordinates
M82 ; use absolute distances for extrusion
G92 E0
; Filament gcode
M107
;LAYER_CHANGE
;Z:0.35
;HEIGHT:0.35
G1 E-.5 F240
G1 Z.35 F9000
EXCLUDE_OBJECT_START NAME='heater_bed_cable_guide_(Instance_2)'
G92 E0
G1 X130.578 Y138.219
G1 E.5 F240
G92 E0
;TYPE:External perimeter
;WIDTH:0.675
G1 F1800
G1 X130.563 Y138.106 E.00945
G1 X130.602 Y137.503 E.05956
G1 X130.76 Y136.92 E.10965
G1 X131.03 Y136.379 E.15979
G1 X131.403 Y135.902 E.21
G1 X131.862 Y135.509 E.26011
G1 X132.39 Y135.215 E.31023
G1 X132.96 Y135.033 E.35985
G1 X133.563 Y134.965 E.41017
G1 X134.09 Y135.023 E.45414
G1 X134.375 Y135.066 E.47804
G1 X134.887 Y135.253 E.52324
G1 X135.406 Y135.563 E.57337
G1 X135.854 Y135.97 E.62356
G1 X136.211 Y136.457 E.67363
G1 X136.465 Y137.006 E.72379
G1 X136.606 Y137.594 E.77393
G1 X136.627 Y138.195 E.8238
G1 X136.541 Y138.721 E.868
G1 X136.285 Y139.413 E.92919
G1 X135.989 Y139.871 E.97441
G1 X135.594 Y140.284 E1.0218
G1 X135.075 Y140.653 E1.07461
G1 X134.533 Y140.888 E1.1236
G1 X133.929 Y141.019 E1.17485
G1 X133.324 Y141.025 E1.22502
G1 X132.744 Y140.914 E1.27399
G1 X132.171 Y140.682 E1.32525
G1 X131.705 Y140.371 E1.37171
G1 X131.155 Y139.803 E1.43728
G1 X130.842 Y139.277 E1.48804
G1 X130.644 Y138.706 E1.53816
G1 X130.59 Y138.308 E1.57147
G1 X130.594 Y137.708 F9000
G1 X129.978 Y138.249
;TYPE:Perimeter
G1 F1800
G1 X129.967 Y138.181 E1.57718
G1 X130.004 Y137.458 E1.63721
G1 X130.182 Y136.757 E1.69719
G1 X130.497 Y136.105 E1.75724
G1 X130.934 Y135.528 E1.81726
G1 X131.476 Y135.05 E1.87719
G1 X132.103 Y134.688 E1.93723
G1 X132.784 Y134.46 E1.99678
G1 X133.502 Y134.368 E2.05681
G1 X134.164 Y134.428 E2.11193
G1 X134.58 Y134.502 E2.14697
G1 X135.092 Y134.689 E2.19217
G1 X135.719 Y135.051 E2.25221
G1 X136.101 Y135.381 E2.29407
G1 X136.38 Y135.664 E2.32703
G1 X136.698 Y136.107 E2.37225
G1 X137.012 Y136.759 E2.43226
G1 X137.191 Y137.46 E2.49226
G1 X137.226 Y138.18 E2.55204
G1 X137.131 Y138.825 E2.60611
G1 X136.893 Y139.52 E2.66703
G1 X136.789 Y139.738 E2.68706
G1 X136.493 Y140.196 E2.73228
G1 X136.023 Y140.703 E2.78961
G1 X135.413 Y141.149 E2.85227
G1 X134.766 Y141.441 E2.91113
G1 X134.048 Y141.607 E2.97224
G1 X133.324 Y141.625 E3.0323
G1 X132.626 Y141.502 E3.09107
G1 X131.938 Y141.234 E3.1523
G1 X131.367 Y140.866 E3.20863
G1 X130.933 Y140.447 E3.25866
G1 X130.595 Y140.049 E3.30196
G1 X130.322 Y139.577 E3.34718
G1 X130.075 Y138.897 E3.40718
G1 X129.991 Y138.338 E3.45406
G1 E2.95406 F240
G92 E0
G1 X129.991 Y138.338 F9000
G1 X147.479 Y133.956
G1 E.5 F240
;TYPE:External perimeter
G1 F1800
G1 X147.47 Y133.942 E.50138
G1 X147.272 Y133.862 E.51909
G1 X146.493 Y133.693 E.58519
G1 X145.577 Y133.671 E.66117
G1 X144.836 Y133.701 E.72267
G1 X144.201 Y133.832 E.77644
G1 X143.593 Y134.057 E.8302
G1 X142.973 Y134.41 E.88936
G1 X142.511 Y134.764 E.93763
G1 X142.061 Y135.23 E.99135
G1 X141.685 Y135.758 E1.0451
G1 X141.392 Y136.336 E1.09884
G1 X141.189 Y136.952 E1.15263
G1 X141.078 Y137.653 E1.21149
G1 X141.067 Y138.239 E1.26009
G1 X141.141 Y138.836 E1.30998
G1 X141.26 Y139.302 E1.34986
G1 X141.479 Y139.86 E1.39957
G1 X141.709 Y140.282 E1.43943
G1 X142.059 Y140.769 E1.48916
G1 X142.713 Y141.408 E1.56498
G1 X143.248 Y141.768 E1.61846
G1 X143.843 Y142.049 E1.67303
G1 X144.667 Y142.276 E1.74391
G1 X145.299 Y142.337 E1.79656
G1 X146.332 Y142.325 E1.88223
G1 X147.228 Y142.156 E1.95784
G1 X147.477 Y142.053 E1.98019
G1 X147.65 Y141.696 E2.01309
G1 X148.152 Y141.338 E2.06422
G1 X148.592 Y141.338 E2.10071
G1 X148.866 Y142.157 E2.17233
G1 X148.927 Y142.62 E2.21106
G1 X148.866 Y143.127 E2.25341
G1 X148.653 Y143.567 E2.29395
G1 X148.321 Y143.926 E2.3345
G1 X147.977 Y144.141 E2.36814
G1 X147.283 Y144.391 E2.42931
G1 X146.643 Y144.546 E2.48392
G1 X145.991 Y144.637 E2.53851
G1 X145.12 Y144.66 E2.61076
G1 X144.924 Y144.739 E2.62828
G1 X144.194 Y145.414 E2.71073
G1 X143.428 Y145.992 E2.79031
G1 X142.174 Y146.713 E2.91026
G1 X140.827 Y147.239 E3.03018
G1 X139.898 Y147.474 E3.10965
G1 X139.117 Y147.591 E3.17514
G1 X138.47 Y147.652 E3.22903
G1 X137.503 Y147.65 E3.30922
G1 X136.546 Y147.553 E3.38899
G1 X135.603 Y147.362 E3.46878
G1 X134.683 Y147.077 E3.54865
G1 X133.797 Y146.702 E3.62843
G1 X132.952 Y146.241 E3.70825
G1 X132.157 Y145.698 E3.78809
G1 X131.42 Y145.079 E3.8679
G1 X130.814 Y144.458 E3.93985
G1 X130.442 Y144.024 E3.98725
G1 X129.878 Y143.239 E4.06741
G1 X129.397 Y142.406 E4.14718
G1 X129.002 Y141.528 E4.22702
G1 X128.695 Y140.616 E4.30682
G1 X128.481 Y139.677 E4.38669
G1 X128.362 Y138.722 E4.4665
G1 X128.338 Y137.76 E4.5463
G1 X128.41 Y136.8 E4.62613
G1 X128.577 Y135.853 E4.70587
G1 X128.837 Y134.926 E4.78571
G1 X129.188 Y134.03 E4.86551
G1 X129.627 Y133.173 E4.94536
G1 X130.149 Y132.365 E5.02513
G1 X130.749 Y131.612 E5.10497
G1 X131.42 Y130.923 E5.18473
G1 X132.157 Y130.303 E5.2646
G1 X132.952 Y129.761 E5.34439
G1 X133.797 Y129.3 E5.42421
G1 X134.683 Y128.925 E5.50399
G1 X135.603 Y128.64 E5.58386
G1 X136.546 Y128.448 E5.66366
G1 X137.503 Y128.351 E5.74343
G1 X138.295 Y128.35 E5.80911
G1 X138.942 Y128.385 E5.86284
G1 X139.898 Y128.528 E5.943
G1 X140.831 Y128.764 E6.02281
G1 X141.736 Y129.092 E6.10264
G1 X142.604 Y129.508 E6.18246
G1 X143.426 Y130.008 E6.26225
G1 X144.307 Y130.693 E6.35479
G1 X145.023 Y131.323 E6.43388
G1 X145.19 Y131.342 E6.44782
G1 X145.709 Y131.348 E6.49086
G1 X146.373 Y131.412 E6.54618
G1 X146.951 Y131.522 E6.59497
G1 X147.907 Y131.829 E6.67824
G1 X148.305 Y132.07 E6.71682
G1 X148.61 Y132.371 E6.75236
G1 X148.866 Y132.871 E6.79894
G1 X148.93 Y133.283 E6.83352
G1 X148.927 Y133.523 E6.85342
G1 X148.876 Y133.836 E6.87972
G1 X148.594 Y134.663 E6.95218
G1 X148.152 Y134.663 E6.98883
G1 X147.65 Y134.305 E7.03996
G1 X147.58 Y134.128 E7.05574
G1 X147.525 Y134.034 E7.06477
G1 X146.969 Y133.807 F9000
G1 X147.94 Y133.453
;TYPE:Perimeter
;WIDTH:0.842037
G1 F1800
G1 X147.915 Y133.424 E7.06883
G1 X147.728 Y133.297 E7.0928
G1 X147.421 Y133.195 E7.1271
;WIDTH:0.882275
G1 X146.51 Y132.99 E7.23129
G1 X146.395 Y133.008 E7.24428
;WIDTH:0.84082
G1 X146.28 Y133.026 E7.2566
;WIDTH:0.799365
G1 X146.165 Y133.044 E7.26825
;WIDTH:0.75791
G1 X146.05 Y133.062 E7.27924
;WIDTH:0.716455
G1 X145.935 Y133.08 E7.28956
;WIDTH:0.675
G1 X145.23 Y133.067 E7.34803
G1 X144.717 Y133.113 E7.39074
G1 X143.996 Y133.268 E7.4519
G1 X143.306 Y133.53 E7.51311
G1 X142.611 Y133.932 E7.57969
G1 X141.962 Y134.467 E7.64944
G1 X141.482 Y135.008 E7.70942
G1 X141.151 Y135.484 E7.7575
G1 X140.824 Y136.145 E7.81866
G1 X140.598 Y136.848 E7.8799
G1 X140.478 Y137.638 E7.94616
G1 X140.488 Y138.444 E8.013
G1 X140.567 Y139.021 E8.0613
G1 X140.724 Y139.579 E8.10937
G1 X140.968 Y140.181 E8.16324
G1 X141.221 Y140.632 E8.20612
G1 X141.572 Y141.119 E8.2559
G1 X141.873 Y141.433 E8.29197
G1 X142.376 Y141.903 E8.34906
G1 X142.988 Y142.309 E8.40996
G1 X143.681 Y142.627 E8.47319
G1 X144.608 Y142.873 E8.55272
G1 X145.305 Y142.937 E8.61076
;WIDTH:0.683858
G1 X145.891 Y142.936 E8.66007
;WIDTH:0.725811
G1 X146 Y142.954 E8.67001
;WIDTH:0.767764
G1 X146.109 Y142.972 E8.68059
;WIDTH:0.809717
G1 X146.218 Y142.99 E8.69181
;WIDTH:0.85167
G1 X146.327 Y143.008 E8.70367
;WIDTH:0.893623
G1 X146.435 Y143.026 E8.71606
G1 X147.138 Y142.893 E8.79701
;WIDTH:0.848483
G1 X147.691 Y142.72 E8.85896
;WIDTH:0.837572
G1 X147.936 Y142.557 E8.88998
G1 X148.171 Y142.225 E8.93285
G1 X148.221 Y142.373 E8.94932
G1 X148.249 Y142.679 E8.98171
G1 X148.218 Y142.881 E9.00325
G1 X148.103 Y143.138 E9.03293
G1 X147.916 Y143.361 E9.0636
G1 X147.64 Y143.539 E9.09822
;WIDTH:0.871561
G1 X147.061 Y143.727 E9.16524
;WIDTH:0.882211
G1 X146.37 Y143.894 E9.24456
;WIDTH:0.840768
G1 X146.25 Y143.93 E9.25782
;WIDTH:0.799326
G1 X146.13 Y143.967 E9.27039
;WIDTH:0.757884
G1 X146.01 Y144.003 E9.28221
;WIDTH:0.716442
G1 X145.889 Y144.04 E9.29343
;WIDTH:0.675
G1 X145.166 Y144.058 E9.3534
G1 X144.788 Y144.126 E9.38525
G1 X144.517 Y144.299 E9.41191
G1 X143.809 Y144.953 E9.49184
G1 X143.097 Y145.49 E9.56579
G1 X141.914 Y146.17 E9.67894
G1 X140.644 Y146.667 E9.79203
G1 X139.779 Y146.885 E9.866
G1 X139.028 Y146.998 E9.92898
G1 X138.447 Y147.052 E9.97737
G1 X137.534 Y147.051 E10.05308
G1 X136.636 Y146.96 E10.12793
G1 X135.751 Y146.78 E10.20282
G1 X134.889 Y146.513 E10.27765
G1 X134.058 Y146.161 E10.35249
G1 X133.265 Y145.729 E10.42738
G1 X132.52 Y145.22 E10.5022
G1 X131.829 Y144.639 E10.57707
G1 X131.244 Y144.039 E10.64656
G1 X130.916 Y143.655 E10.68844
G1 X130.383 Y142.914 E10.76413
G1 X129.932 Y142.132 E10.83899
G1 X129.561 Y141.309 E10.91385
G1 X129.274 Y140.453 E10.98872
G1 X129.073 Y139.573 E11.06358
G1 X128.961 Y138.678 E11.13838
G1 X128.938 Y137.775 E11.21329
G1 X129.006 Y136.875 E11.28814
G1 X129.162 Y135.986 E11.36299
G1 X129.407 Y135.117 E11.43786
G1 X129.736 Y134.277 E11.51267
G1 X130.148 Y133.474 E11.58751
G1 X130.637 Y132.715 E11.66238
G1 X131.199 Y132.009 E11.73721
G1 X131.829 Y131.363 E11.81204
G1 X132.52 Y130.782 E11.88691
G1 X133.265 Y130.273 E11.96173
G1 X134.058 Y129.84 E12.03666
G1 X134.889 Y129.489 E12.11147
G1 X135.751 Y129.222 E12.1863
G1 X136.636 Y129.042 E12.26119
G1 X137.534 Y128.951 E12.33604
G1 X138.297 Y128.95 E12.39931
G1 X138.876 Y128.982 E12.4474
G1 X139.78 Y129.117 E12.5232
G1 X140.655 Y129.338 E12.59804
G1 X141.503 Y129.645 E12.67283
G1 X142.317 Y130.036 E12.74772
G1 X143.088 Y130.505 E12.82256
G1 X143.809 Y131.049 E12.89746
G1 X144.517 Y131.703 E12.97739
G1 X144.814 Y131.886 E13.00632
G1 X145.126 Y131.942 E13.03261
G1 X145.655 Y131.945 E13.07648
;WIDTH:0.718367
G1 X145.954 Y131.995 E13.10344
;WIDTH:0.761734
G1 X146.253 Y132.044 E13.1322
;WIDTH:0.799615
G1 X146.474 Y132.112 E13.15536
;WIDTH:0.837496
G1 X146.694 Y132.179 E13.1796
;WIDTH:0.875377
G1 X147.622 Y132.456 E13.28674
;WIDTH:0.842037
G1 X147.902 Y132.622 E13.32125
G1 X148.131 Y132.89 E13.35862
G1 X148.247 Y133.274 E13.40115
G1 X148.244 Y133.514 E13.4266
G1 X148.174 Y133.777 E13.45545
G1 X148.12 Y133.667 E13.46844
G1 X147.998 Y133.522 E13.48853
G1 E12.98853 F240
G92 E0
G1 X147.998 Y133.522 F9000
G1 X129.719 Y139.708
G1 E.5 F240
;WIDTH:0.675055
G1 F1800
G1 X129.666 Y139.495 E.5182
;WIDTH:0.638161
G1 X129.612 Y139.283 E.53523
;WIDTH:0.601267
G1 X129.559 Y139.07 E.55119
;WIDTH:0.564373
G1 X129.51 Y138.657 E.57932
;WIDTH:0.530364
G1 X129.461 Y138.245 E.60543
;WIDTH:0.513897
G1 X129.486 Y137.419 E.65556
;WIDTH:0.548067
G1 X129.535 Y137.147 E.67363
;WIDTH:0.582238
G1 X129.584 Y136.875 E.69301
;WIDTH:0.616409
G1 X129.633 Y136.603 E.71369
G1 E.21369 F240
G92 E0
G1 X129.633 Y136.603 F9000
G1 X145.125 Y132.508
G1 E.5 F240
;WIDTH:0.606629
G1 F1800
G1 X145.948 Y132.527 E.56049
G1 X145.948 Y132.527 F9000
G1 X145.125 Y132.508
;WIDTH:0.637124
G1 F1800
G1 X144.862 Y132.518 E.58094
;WIDTH:0.66762
G1 X144.599 Y132.528 E.6025
;WIDTH:0.675
G1 X143.791 Y132.705 E.67109
G1 X143.02 Y133.003 E.73964
