; generated by PrusaSlicer 2.8.1+MacOS-arm64 on 2024-10-31 at 15:17:15 UTC


;
;

;
;
; 

; external perimeters extrusion width = 0.50mm
; perimeters extrusion width = 0.55mm
; infill extrusion width = 0.60mm
; solid infill extrusion width = 0.60mm
; top infill extrusion width = 0.55mm
; first layer extrusion width = 0.60mm

M73 P0 R52

EXCLUDE_OBJECT_DEFINE NAME='bigtreetech_sfs_bracket' CENTER=107.892,109.622 POLYGON=[[131.437,97.241],[131.437,101.227],[130.437,102.227],[130.437,112.734],[131.437,113.734],[131.437,118.014],[124.852,124.600],[91.808,124.600],[84.563,117.355],[84.563,97.900],[87.063,95.400],[129.596,95.400]]

M190 S55 ; set bed temperature and wait for it to be reached
M104 S215 ; set temperature
;TYPE:Custom
START_PRINT BED_TEMP=55 HOTEND_TEMP=215 FILAMENT_TYPE=PLA EXTRUSION_MULTIPLIER=0.98
M109 S215 ; set temperature and wait for it to be reached
G21 ; set units to millimeters
G90 ; use absolute coordinates
M82 ; use absolute distances for extrusion
G92 E0
; Filament gcode
SET_GCODE_OFFSET Z=0.05
M107
;LAYER_CHANGE
;Z:0.25
;HEIGHT:0.25
G1 E-.53 F600
G1 Z.55 F9000
EXCLUDE_OBJECT_START NAME='bigtreetech_sfs_bracket'
G92 E0
G1 X115.998 Y111.9
G1 Z.25
G1 E.53 F1200
;TYPE:External perimeter
;WIDTH:0.599999
G1 F1800
G1 X116.249 Y111.658 E.5494
G1 X116.78 Y111.388 E.58255
G1 X117.364 Y111.288 E.61552
G3 X118.129 Y111.422 I-.015 J2.333 E.65894
G1 X118.581 Y111.668 E.68758
G1 X118.975 Y112.055 E.71831
G1 X119.288 Y112.61 E.75377
G1 X119.403 Y113.194 E.78689
G1 X119.341 Y113.786 E.82002
G1 X119.124 Y114.298 E.85097
G1 X118.723 Y114.788 E.88621
G1 X118.221 Y115.109 E.91937
G1 X117.647 Y115.268 E.95252
G1 X117.052 Y115.25 E.98565
G1 X116.572 Y115.1 E1.01364
G1 X116.08 Y114.776 E1.04642
G1 X115.699 Y114.318 E1.07957
G1 X115.47 Y113.769 E1.11267
G1 X115.452 Y113.689 E1.11723
G1 X115.414 Y113.176 E1.14586
G1 X115.534 Y112.593 E1.17898
G1 X115.821 Y112.072 E1.21208
G1 X115.945 Y111.952 E1.22168
G1 X116.33 Y111.634 F9000
G1 X115.282 Y111.914
;TYPE:Perimeter
G1 F1800
G1 X115.348 Y111.798 E1.22911
G3 X115.878 Y111.257 I2.673 J2.087 E1.27135
G3 X116.543 Y110.896 I1.939 J2.782 E1.31355
G3 X117.282 Y110.748 I1.032 J3.217 E1.35558
G1 X117.79 Y110.767 E1.38387
G1 X118.309 Y110.903 E1.41373
G3 X119.037 Y111.336 I-1.778 J3.825 E1.46095
G1 X119.397 Y111.704 E1.4896
G3 X119.851 Y112.589 I-3.457 J2.337 E1.54509
G1 X119.941 Y113.099 E1.57391
G3 X119.821 Y114.08 I-4.219 J-.018 E1.62904
G1 X119.606 Y114.559 E1.65826
G3 X118.963 Y115.296 I-3.515 J-2.416 E1.71281
G1 X118.506 Y115.575 E1.74261
G3 X117.782 Y115.797 I-1.35 J-3.111 E1.78484
G3 X117.025 Y115.796 I-.372 J-3.371 E1.82706
G1 X116.398 Y115.617 E1.86335
G1 X115.772 Y115.228 E1.90437
G3 X115.272 Y114.659 I2.28 J-2.51 E1.94661
G3 X114.907 Y113.73 I2.484 J-1.511 E2.00243
G1 X114.869 Y113.217 E2.03106
G3 X115.091 Y112.244 I4.144 J.434 E2.08673
G1 X115.244 Y111.979 E2.10376
G1 E1.57376 F600
G92 E0
G1 X115.244 Y111.979 F9000
G1 X124.803 Y110.754 Z.418
G1 Z.25
G1 E.53 F1200
;TYPE:External perimeter
G1 F1800
G1 X125.204 Y110.628 E.55339
G1 X125.716 Y110.576 E.58203
G1 X126.406 Y110.654 E.62067
G1 X126.939 Y110.841 E.6521
G1 X127.417 Y111.127 E.6831
G1 X127.829 Y111.502 E.7141
G1 X128.159 Y111.951 E.74511
G1 X128.393 Y112.457 E.77613
G1 X128.522 Y112.999 E.80714
G1 X128.542 Y113.556 E.83816
G1 X128.45 Y114.106 E.86919
G1 X128.252 Y114.627 E.90021
G1 X127.954 Y115.098 E.93123
G1 X127.569 Y115.501 E.96225
G1 X127.111 Y115.819 E.99328
G1 X126.6 Y116.041 E1.02429
G1 X126.055 Y116.156 E1.05529
G1 X125.497 Y116.162 E1.08634
G1 X124.95 Y116.057 E1.11734
G1 X124.434 Y115.845 E1.14838
G1 X123.971 Y115.536 E1.17936
G1 X123.497 Y115.035 E1.21774
G1 X123.209 Y114.55 E1.24913
G1 X123.035 Y114.05 E1.27859
G1 X122.952 Y113.471 E1.31114
G1 X122.988 Y112.915 E1.34215
G1 X123.134 Y112.377 E1.37317
G1 X123.383 Y111.879 E1.40416
G1 X123.706 Y111.465 E1.43338
G1 X124.104 Y111.116 E1.46284
G1 X124.637 Y110.806 E1.49715
G1 X124.731 Y110.776 E1.50264
G1 X125.212 Y110.64 F9000
G1 X124.153 Y110.459
;TYPE:Perimeter
G1 F1800
G1 X124.375 Y110.326 E1.51704
G3 X125.115 Y110.089 I3.323 J9.087 E1.56029
G1 X125.661 Y110.032 E1.59084
G1 X126.473 Y110.112 E1.63625
G1 X127.126 Y110.328 E1.67453
G1 X127.702 Y110.661 E1.71156
G1 X128.201 Y111.102 E1.74862
G1 X128.603 Y111.632 E1.78564
G1 X128.891 Y112.232 E1.82268
G1 X129.039 Y112.807 E1.85572
G1 X129.088 Y113.543 E1.89677
G1 X128.988 Y114.201 E1.93381
G1 X128.76 Y114.826 E1.97083
G1 X128.413 Y115.394 E2.00787
G1 X127.96 Y115.882 E2.04492
G1 X127.419 Y116.271 E2.082
G1 X126.812 Y116.544 E2.11904
G1 X126.163 Y116.692 E2.15608
G1 X125.497 Y116.708 E2.19315
G1 X124.842 Y116.592 E2.23017
G1 X124.222 Y116.349 E2.26723
G1 X123.663 Y115.987 E2.30429
G1 X123.097 Y115.407 E2.34939
G1 X122.736 Y114.823 E2.3876
G1 X122.518 Y114.224 E2.42307
G1 X122.41 Y113.539 E2.46166
G1 X122.436 Y112.975 E2.49308
G3 X122.608 Y112.229 I3.601 J.438 E2.53576
G1 X122.897 Y111.629 E2.57282
G1 X123.279 Y111.124 E2.60806
G1 X123.753 Y110.697 E2.64356
G1 X124.089 Y110.497 E2.66532
G1 E2.13532 F600
G92 E0
G1 X124.089 Y110.497 F9000
G1 X116.557 Y99.102 Z.488
G1 Z.25
G1 E.53 F1200
;TYPE:External perimeter
G1 F1800
G1 X116.78 Y98.988 E.54394
G1 X117.364 Y98.888 E.57691
G3 X118.129 Y99.022 I-.015 J2.333 E.62033
G1 X118.581 Y99.268 E.64897
G1 X119.006 Y99.686 E.68214
G1 X119.288 Y100.21 E.71526
G1 X119.403 Y100.794 E.74838
G1 X119.341 Y101.386 E.78151
G1 X119.108 Y101.934 E.81465
G1 X118.723 Y102.388 E.84778
G1 X118.233 Y102.702 E.88017
G3 X117.573 Y102.876 I-1.775 J-5.384 E.91818
G1 X117.07 Y102.853 E.9462
G1 X116.578 Y102.702 E.97484
G1 X116.08 Y102.376 E1.00796
G1 X115.699 Y101.918 E1.04111
G1 X115.47 Y101.369 E1.07421
G1 X115.414 Y100.776 E1.10736
G1 X115.534 Y100.193 E1.14048
G1 X115.821 Y99.672 E1.17358
G1 X116.249 Y99.258 E1.20672
G1 X116.49 Y99.136 E1.22175
G1 X116.961 Y98.969 F9000
G1 X115.881 Y98.855
;TYPE:Perimeter
G1 F1800
G1 X116.543 Y98.496 E1.26366
G3 X117.725 Y98.36 I.919 J2.774 E1.33034
G1 X118.201 Y98.468 E1.3575
G1 X118.843 Y98.789 E1.39744
G1 X119.397 Y99.305 E1.43957
G1 X119.774 Y99.961 E1.48168
G1 X119.941 Y100.699 E1.52379
G3 X119.883 Y101.454 I-3.388 J.12 E1.56602
G3 X119.606 Y102.159 I-3.273 J-.884 E1.60826
G3 X119.101 Y102.784 I-3.347 J-2.187 E1.65305
G1 X118.518 Y103.168 E1.6919
G3 X117.655 Y103.419 I-1.583 J-3.831 E1.74202
G1 X117.56 Y103.422 E1.74731
G1 X116.983 Y103.395 E1.77946
G1 X116.417 Y103.224 E1.81236
G3 X115.772 Y102.828 I1.439 J-3.069 E1.85457
G3 X115.272 Y102.259 I2.28 J-2.509 E1.89681
G3 X114.962 Y101.568 I2.918 J-1.726 E1.93905
G3 X114.869 Y100.817 I3.297 J-.788 E1.98125
G3 X115.002 Y100.072 I3.383 J.218 E2.02345
G1 X115.348 Y99.398 E2.06561
G1 X115.828 Y98.908 E2.10378
G1 E1.57378 F600
G92 E0
G1 X115.828 Y98.908 F9000
G1 X98.691 Y100.216 Z.55
G1 X90.669 Y100.828
G1 Z.25
G1 E.53 F1200
;TYPE:External perimeter
G1 F1800
G1 X90.664 Y100.776 E.53291
G1 X90.785 Y100.193 E.56605
G1 X91.072 Y99.672 E.59915
G1 X91.5 Y99.258 E.63229
G1 X92.031 Y98.988 E.66544
G1 X92.614 Y98.888 E.69836
G3 X93.38 Y99.022 I-.014 J2.333 E.74184
G1 X93.832 Y99.268 E.77048
G1 X94.256 Y99.686 E.80361
G1 X94.539 Y100.21 E.83675
G1 X94.654 Y100.794 E.86987
G1 X94.592 Y101.386 E.903
G1 X94.358 Y101.934 E.93616
G1 X93.973 Y102.388 E.96929
G1 X93.472 Y102.709 E1.0024
G1 X92.898 Y102.868 E1.03555
G1 X92.395 Y102.865 E1.06354
G1 X91.829 Y102.702 E1.09632
G1 X91.33 Y102.376 E1.12949
G1 X90.949 Y101.918 E1.16264
G1 X90.721 Y101.369 E1.19572
G1 X90.676 Y100.903 E1.22177
G1 X90.745 Y100.408 F9000
G1 X90.165 Y101.337
;TYPE:Perimeter
G1 F1800
G3 X90.119 Y100.817 I3.344 J-.557 E1.25085
G3 X90.252 Y100.071 I3.384 J.218 E1.29311
G1 X90.399 Y99.744 E1.31306
G1 X90.751 Y99.207 E1.34879
G1 X91.128 Y98.857 E1.37742
G1 X91.794 Y98.496 E1.41958
G3 X92.976 Y98.36 I.919 J2.774 E1.48626
G1 X93.451 Y98.468 E1.51337
G1 X94.093 Y98.789 E1.55331
G1 X94.647 Y99.304 E1.5954
G1 X95.025 Y99.961 E1.63758
G1 X95.192 Y100.699 E1.67969
G3 X95.134 Y101.454 I-3.388 J.12 E1.72192
G3 X94.856 Y102.159 I-3.273 J-.884 E1.76418
G3 X94.196 Y102.907 I-3.432 J-2.364 E1.81983
G1 X93.757 Y103.175 E1.84845
G3 X93.033 Y103.397 I-1.35 J-3.11 E1.89068
G1 X92.381 Y103.412 E1.92697
G1 X91.668 Y103.224 E1.96801
G3 X91.022 Y102.828 I1.438 J-3.07 E2.01027
G3 X90.522 Y102.259 I2.28 J-2.509 E2.05251
G1 X90.212 Y101.568 E2.09466
G3 X90.178 Y101.411 I3.297 J-.788 E2.1036
G1 E1.5736 F600
G92 E0
G1 X90.178 Y101.411 F9000
G1 X106.704 Y106.134 Z.55
G1 X130.177 Y112.841
G1 Z.25
G1 E.53 F1200
;TYPE:External perimeter
G1 F1800
G1 X130.217 Y112.938 E.53584
G1 X131.137 Y113.858 E.60825
G1 X131.137 Y114.422 E.63964
G1 X131.137 Y117.89 E.83264
G1 X125.642 Y123.386 E1.26515
G1 X91.018 Y123.386 E3.192
G1 X84.863 Y117.231 E3.67641
G1 X84.863 Y98.024 E4.74529
G1 X87.188 Y95.7 E4.92823
G1 X129.472 Y95.7 E7.28136
G1 X131.137 Y97.365 E7.4124
G1 X131.137 Y101.103 E7.62042
G1 X130.203 Y102.037 E7.69393
G1 X130.137 Y102.216 E7.70455
G1 X130.137 Y112.745 E8.2905
G1 X130.148 Y112.772 E8.29212
G1 X130.456 Y113.166 F9000
G1 X130.122 Y113.616
;TYPE:Perimeter
G1 F1800
G1 X130.59 Y114.084 E8.32895
G1 X130.59 Y114.422 E8.34776
G1 X130.59 Y117.664 E8.52818
G1 X125.415 Y122.839 E8.93546
G1 X91.245 Y122.839 E10.83704
G1 X85.41 Y117.005 E11.29623
G1 X85.41 Y98.251 E12.3399
G1 X87.414 Y96.246 E12.49766
M73 P0 R51
G1 X129.245 Y96.246 E14.82558
G1 X130.59 Y97.591 E14.93143
G1 X130.59 Y100.876 E15.11424
G1 X129.83 Y101.636 E15.17405
G1 X129.639 Y101.936 E15.19384
G1 X129.59 Y102.216 E15.20966
G1 X129.59 Y112.314 E15.77162
G1 X129.612 Y112.934 E15.80615
G1 X129.83 Y113.324 E15.83101
G1 X130.069 Y113.563 E15.84982
G1 E15.31982 F600
G92 E0
G1 X130.069 Y113.563 F9000
G1 X130.426 Y98.007 Z.522
G1 Z.25
G1 E.53 F1200
;TYPE:Solid infill
;WIDTH:0.600657
G1 F1800
G1 X129.075 Y96.656 E.63645
G1 X128.302 Y96.656 E.67952
G1 X130.18 Y98.535 E.82754
G1 X130.18 Y99.309 E.87067
G1 X127.528 Y96.656 E1.07968
G1 X126.754 Y96.656 E1.12281
G1 X130.18 Y100.082 E1.39277
G1 X130.18 Y100.707 E1.42759
G1 X130.106 Y100.781 E1.43342
G1 X125.981 Y96.656 E1.75846
G1 X125.207 Y96.656 E1.80159
G1 X129.719 Y101.168 E2.15712
G2 X129.359 Y101.582 I1.714 J1.854 E2.18775
G1 X124.434 Y96.656 E2.57586
G1 X123.66 Y96.656 E2.61899
G1 X129.181 Y102.177 E3.05403
G1 X129.181 Y102.951 E3.09716
G1 X122.887 Y96.656 E3.59315
G1 X122.113 Y96.656 E3.63628
G1 X129.181 Y103.724 E4.19322
G1 X129.181 Y104.498 E4.23635
G1 X121.339 Y96.656 E4.85427
G1 X120.566 Y96.656 E4.89734
G1 X129.182 Y105.272 E5.57625
G1 X129.182 Y106.046 E5.61938
G1 X119.792 Y96.656 E6.35928
G1 X119.019 Y96.656 E6.40235
G1 X129.182 Y106.82 E7.2032
G1 X129.182 Y107.593 E7.24627
G1 X118.245 Y96.656 E8.10807
G1 X117.471 Y96.656 E8.1512
G1 X129.183 Y108.367 E9.07403
G1 X129.183 Y109.141 E9.11716
G1 X120.275 Y100.234 E9.81904
G2 X120.143 Y99.783 I-2.269 J.419 E9.84527
G2 X119.697 Y99.026 I-3.38 J1.482 E9.89434
G2 X119.048 Y98.434 I-2.793 J2.412 E9.9434
G2 X118.31 Y98.073 I-2.236 J3.635 E9.98925
G1 X118.048 Y98.006 E10.00432
G1 X116.698 Y96.656 E10.1107
G1 X115.924 Y96.656 E10.15383
G1 X117.212 Y97.944 E10.25532
G1 X116.679 Y98.025 E10.28536
G1 X116.558 Y98.064 E10.29244
G1 X115.151 Y96.656 E10.40335
G1 X114.377 Y96.656 E10.44648
G1 X116.016 Y98.295 E10.57563
G2 X115.55 Y98.602 I.82 J1.753 E10.60683
G1 X113.603 Y96.656 E10.76021
G1 X112.83 Y96.656 E10.80328
G1 X115.158 Y98.984 E10.98672
G2 X114.847 Y99.447 I1.72 J1.493 E11.01787
G1 X112.056 Y96.656 E11.23779
G1 X111.283 Y96.656 E11.28086
G1 X114.603 Y99.976 E11.54247
G2 X114.468 Y100.615 I7.006 J1.817 E11.57887
G1 X110.263 Y96.41 E11.91021
G1 E11.38021 F600
G92 E0
G1 X110.263 Y96.41 F9000
G1 X122.922 Y108.036 Z.55
G1 X129.217 Y113.817
G1 Z.25
G1 E.53 F1200
G1 F1800
G1 X130.18 Y114.78 E.60588
G1 X130.18 Y115.554 E.64901
G1 X129.272 Y114.645 E.7206
G3 X129.036 Y115.183 I-3.513 J-1.215 E.75337
G1 X130.18 Y116.327 E.84351
G1 X130.18 Y117.101 E.88664
G1 X128.731 Y115.651 E1.00086
G3 X128.362 Y116.056 I-2.779 J-2.157 E1.03142
G1 X129.99 Y117.684 E1.1597
G1 X129.604 Y118.071 E1.19015
G1 X127.942 Y116.41 E1.32107
G3 X127.468 Y116.709 I-2.163 J-2.904 E1.35233
G1 X129.217 Y118.458 E1.49015
G1 X128.83 Y118.845 E1.52064
G1 X126.923 Y116.937 E1.67094
G3 X126.295 Y117.083 I-1.337 J-4.325 E1.70689
G1 X128.443 Y119.232 E1.87618
G1 X128.056 Y119.619 E1.90667
G1 X125.287 Y116.849 E2.1249
G1 E1.5949 F600
G92 E0
G1 X125.287 Y116.849 F9000
G1 X129.429 Y110.161 Z.387
G1 Z.25
G1 E.53 F1200
G1 F1800
G1 X120.343 Y101.075 E1.24595
G3 X120.248 Y101.707 I-4.832 J-.405 E1.28158
G1 X120.234 Y101.739 E1.28353
G1 X129.183 Y110.689 E1.98872
G1 X129.183 Y111.462 E2.03179
G1 X120 Y102.279 E2.75538
G3 X119.686 Y102.739 I-1.364 J-.593 E2.7866
G1 X126.693 Y109.745 E3.33869
M73 P1 R51
G2 X125.887 Y109.627 I-1.312 J6.11 E3.38411
G1 X125.799 Y109.626 E3.38901
G1 X119.315 Y103.141 E3.89997
G3 X118.847 Y103.447 I-2.313 J-3.034 E3.93115
G1 X125.083 Y109.682 E4.42249
G2 X124.476 Y109.849 I.838 J4.232 E4.4576
G1 X118.312 Y103.685 E4.9433
G3 X117.692 Y103.828 I-1.566 J-5.388 E4.97877
G1 X117.681 Y103.828 E4.97938
G1 X123.947 Y110.094 E5.47312
G2 X123.475 Y110.396 I.941 J1.986 E5.50443
G1 X116.865 Y103.786 E6.02528
G1 X116.294 Y103.615 E6.05849
G3 X116.019 Y103.491 I.482 J-1.438 E6.07533
G3 X115.367 Y103.023 I3.164 J-5.1 E6.12008
G3 X114.833 Y102.338 I4.238 J-3.852 E6.16852
G3 X114.517 Y101.501 I5.797 J-2.67 E6.21841
G1 X114.507 Y101.428 E6.22252
G1 X109.736 Y96.656 E6.5985
G1 X108.962 Y96.656 E6.64163
G1 X123.059 Y110.753 E7.75243
G1 X122.715 Y111.183 E7.78311
G1 X108.188 Y96.656 E8.92779
G1 X107.415 Y96.656 E8.97086
G1 X122.422 Y111.663 E10.15336
G2 X122.191 Y112.206 I1.737 J1.061 E10.18635
G1 X106.641 Y96.656 E11.41164
G1 X105.868 Y96.656 E11.45471
G1 X122.037 Y112.826 E12.72881
G1 X121.993 Y113.473 E12.76494
G1 X122.005 Y113.567 E12.77022
G1 X105.094 Y96.656 E14.10275
G1 X104.32 Y96.656 E14.14588
G1 X118.082 Y110.418 E15.23028
G3 X118.466 Y110.525 I-.575 J2.805 E15.25251
G3 X119.221 Y110.949 I-2.851 J5.946 E15.30079
G3 X119.834 Y111.596 I-3.634 J4.065 E15.35051
G1 X120.14 Y112.175 E15.387
G3 X120.27 Y112.606 I-1.496 J.69 E15.41216
G1 X122.194 Y114.53 E15.56376
G1 X122.33 Y114.932 E15.58741
G1 X122.704 Y115.575 E15.62886
G1 X123.287 Y116.21 E15.67689
G2 X124.615 Y116.951 I2.582 J-3.068 E15.76214
G1 X127.67 Y120.005 E16.00282
G1 X127.283 Y120.392 E16.03331
G1 X120.343 Y113.452 E16.58016
G3 X120.242 Y114.125 I-4.359 J-.31 E16.61812
G1 X126.896 Y120.779 E17.14243
G1 X126.509 Y121.166 E17.17292
G1 X120.008 Y114.664 E17.68522
G3 X119.695 Y115.125 I-1.354 J-.582 E17.71645
G1 X126.123 Y121.553 E18.22296
G1 X125.736 Y121.939 E18.25341
G1 X119.328 Y115.532 E18.7583
G3 X118.861 Y115.838 I-2.254 J-2.922 E18.78944
G1 X125.349 Y122.326 E19.30067
G1 X125.246 Y122.43 E19.30883
G1 X124.679 Y122.43 E19.34042
G1 X118.33 Y116.081 E19.8407
G3 X117.702 Y116.227 I-1.702 J-5.895 E19.87664
G1 X124.151 Y122.676 E20.3848
G1 E19.8548 F600
G92 E0
G1 X124.151 Y122.676 F9000
G1 X117.468 Y110.578 Z.491
G1 Z.25
G1 E.53 F1200
G1 F1800
G1 X103.547 Y96.656 E1.62697
G1 X102.773 Y96.656 E1.6701
G1 X116.571 Y110.453 E2.7573
G2 X116.032 Y110.689 I.85 J2.679 E2.79014
G1 X102 Y96.656 E3.89585
G1 X101.226 Y96.656 E3.93898
G1 X115.565 Y110.995 E5.06885
G1 X115.162 Y111.366 E5.09937
G1 X100.453 Y96.656 E6.25843
G1 X99.679 Y96.656 E6.30156
G1 X114.855 Y111.833 E7.49742
G2 X114.608 Y112.359 I1.546 J1.047 E7.52993
G1 X98.905 Y96.656 E8.76727
G1 X98.132 Y96.656 E8.81034
G1 X114.706 Y113.23 E10.11632
G1 E9.58632 F600
G92 E0
G1 X114.706 Y113.23 F9000
G1 X123.378 Y122.676 Z.474
G1 Z.25
G1 E.53 F1200
G1 F1800
G1 X116.894 Y116.192 E1.04092
G1 X116.832 Y116.185 E1.0444
G3 X116.109 Y115.941 I1.942 J-6.939 E1.08694
G3 X115.393 Y115.449 I2.998 J-5.13 E1.13539
G3 X114.844 Y114.756 I4.186 J-3.888 E1.1847
G3 X114.538 Y113.993 I7.793 J-3.565 E1.23052
G1 X114.505 Y113.803 E1.24126
G1 X97.358 Y96.656 E2.59239
G1 X96.585 Y96.656 E2.63546
G1 X122.358 Y122.43 E4.66633
G1 X121.585 Y122.43 E4.7094
G1 X95.811 Y96.656 E6.74031
G1 X95.037 Y96.656 E6.78344
G1 X120.811 Y122.43 E8.81435
G1 X120.037 Y122.43 E8.85748
G1 X94.264 Y96.656 E10.88835
G1 X93.49 Y96.656 E10.93148
G1 X119.264 Y122.43 E12.96239
G1 X118.49 Y122.43 E13.00552
