; generated by PrusaSlicer 2.8.1+MacOS-arm64 on 2024-11-27 at 07:17:05 UTC


;
;

;
;
; 

; external perimeters extrusion width = 0.50mm
; perimeters extrusion width = 0.55mm
; infill extrusion width = 0.60mm
; solid infill extrusion width = 0.60mm
; top infill extrusion width = 0.55mm
; first layer extrusion width = 0.60mm

; external perimeters extrusion width = 0.50mm
; perimeters extrusion width = 0.55mm
; infill extrusion width = 0.60mm
; solid infill extrusion width = 0.60mm
; top infill extrusion width = 0.55mm
; first layer extrusion width = 0.60mm

; external perimeters extrusion width = 0.50mm
; perimeters extrusion width = 0.55mm
; infill extrusion width = 0.60mm
; solid infill extrusion width = 0.60mm
; top infill extrusion width = 0.55mm
; first layer extrusion width = 0.60mm

; external perimeters extrusion width = 0.50mm
; perimeters extrusion width = 0.55mm
; infill extrusion width = 0.60mm
; solid infill extrusion width = 0.60mm
; top infill extrusion width = 0.55mm
; first layer extrusion width = 0.60mm

M73 P0 R35

EXCLUDE_OBJECT_DEFINE NAME='bed_wheel_turn_handle_3' CENTER=160.026,89.974 POLYGON=[[160.205,84.954],[161.092,85.065],[162.108,85.403],[163.030,85.948],[163.719,86.569],[164.264,87.277],[164.739,88.237],[164.972,89.100],[165.046,90.152],[164.935,91.039],[164.597,92.056],[164.052,92.978],[163.431,93.666],[162.571,94.304],[161.763,94.686],[160.900,94.919],[159.848,94.993],[158.961,94.882],[157.945,94.544],[157.023,93.999],[156.334,93.378],[155.789,92.670],[155.314,91.710],[155.081,90.847],[155.007,89.795],[155.118,88.908],[155.456,87.892],[156.001,86.970],[156.622,86.281],[157.330,85.736],[158.290,85.261],[159.153,85.028]]
EXCLUDE_OBJECT_DEFINE NAME='bed_wheel_turn_handle_1' CENTER=89.974,160.026 POLYGON=[[90.152,155.007],[91.039,155.118],[92.056,155.456],[92.978,156.001],[93.666,156.622],[94.211,157.330],[94.686,158.290],[94.920,159.153],[94.993,160.205],[94.882,161.092],[94.544,162.108],[93.999,163.030],[93.378,163.719],[92.670,164.264],[91.710,164.739],[90.847,164.972],[89.795,165.046],[88.908,164.935],[87.892,164.597],[86.970,164.052],[86.281,163.431],[85.736,162.723],[85.261,161.763],[85.028,160.900],[84.954,159.848],[85.065,158.961],[85.403,157.944],[85.949,157.023],[86.569,156.334],[87.277,155.789],[88.237,155.314],[89.100,155.080]]
EXCLUDE_OBJECT_DEFINE NAME='bed_wheel_turn_handle_2' CENTER=89.974,89.974 POLYGON=[[90.152,84.954],[91.213,85.106],[92.056,85.403],[92.978,85.948],[93.666,86.569],[94.211,87.277],[94.686,88.237],[94.920,89.100],[94.993,90.152],[94.841,91.213],[94.544,92.056],[93.999,92.978],[93.378,93.666],[92.670,94.211],[91.710,94.686],[90.847,94.919],[89.795,94.993],[88.908,94.882],[87.892,94.544],[86.970,93.999],[86.281,93.378],[85.736,92.670],[85.261,91.710],[85.028,90.847],[84.954,89.795],[85.065,88.908],[85.403,87.892],[85.949,86.970],[86.569,86.281],[87.277,85.736],[88.237,85.261],[89.100,85.028]]
EXCLUDE_OBJECT_DEFINE NAME='bed_wheel_turn_handle_4' CENTER=160.026,160.026 POLYGON=[[160.205,155.007],[161.092,155.118],[162.108,155.456],[163.030,156.001],[163.719,156.622],[164.264,157.330],[164.739,158.290],[164.972,159.153],[165.046,160.205],[164.935,161.092],[164.597,162.108],[164.052,163.030],[163.431,163.719],[162.723,164.264],[161.763,164.739],[160.900,164.972],[159.848,165.046],[158.961,164.935],[157.945,164.597],[157.023,164.052],[156.334,163.431],[155.789,162.723],[155.314,161.763],[155.081,160.900],[155.007,159.848],[155.118,158.961],[155.456,157.944],[156.001,157.023],[156.622,156.334],[157.330,155.789],[158.290,155.314],[159.153,155.080]]

M190 S55 ; set bed temperature and wait for it to be reached
M104 S230 ; set temperature
;TYPE:Custom
START_PRINT BED_TEMP=55 HOTEND_TEMP=230 FILAMENT_TYPE=PLA EXTRUSION_MULTIPLIER=0.98
M109 S230 ; set temperature and wait for it to be reached
G21 ; set units to millimeters
G90 ; use absolute coordinates
M82 ; use absolute distances for extrusion
G92 E0
; Filament gcode
SET_GCODE_OFFSET Z=0.01
M107
;LAYER_CHANGE
;Z:0.25
;HEIGHT:0.25
G1 E-.53 F600
G1 Z.55 F9000
EXCLUDE_OBJECT_START NAME='bed_wheel_turn_handle_2'
G92 E0
G1 X91.953 Y89.477
G1 Z.25
G1 E.53 F1200
;TYPE:External perimeter
;WIDTH:0.599999
G1 F1092
G1 X92.02 Y90.035 E.56128
G1 X91.911 Y90.635 E.59522
G1 X91.63 Y91.177 E.6292
G1 X91.202 Y91.612 E.66316
G1 X90.664 Y91.901 E.69715
G1 X90.065 Y92.019 E.73113
G1 X89.458 Y91.955 E.7651
G1 X88.897 Y91.715 E.79906
G1 X88.432 Y91.321 E.83298
G1 X88.143 Y90.893 E.86172
G1 X87.98 Y90.439 E.88856
G1 X87.927 Y89.909 E.9182
G1 X88.036 Y89.312 E.95197
G1 X88.317 Y88.77 E.98595
G1 X88.746 Y88.335 E1.01995
G1 X89.283 Y88.046 E1.05389
G1 X89.882 Y87.928 E1.08787
G1 X90.369 Y87.964 E1.11505
G1 X90.853 Y88.124 E1.14342
G1 X91.298 Y88.412 E1.17292
G1 X91.699 Y88.871 E1.20684
G1 X91.937 Y89.405 E1.23938
G1 X92.003 Y89.9 F9000
G1 X92.295 Y88.858
;TYPE:Perimeter
;WIDTH:0.599386
G1 F1092
G1 X92.45 Y89.217 E1.26112
;WIDTH:0.605488
G3 X92.566 Y89.98 I-3.101 J.862 E1.30461
;WIDTH:0.612598
G3 X92.365 Y90.975 I-3.904 J-.272 E1.36257
;WIDTH:0.605497
G1 X92.112 Y91.44 E1.39233
;WIDTH:0.612607
G3 X91.386 Y92.148 I-3.073 J-2.425 E1.45023
;WIDTH:0.6055
G1 X90.915 Y92.39 E1.48
;WIDTH:0.612594
G3 X89.916 Y92.566 I-1.174 J-3.735 E1.53792
;WIDTH:0.605495
G1 X89.39 Y92.5 E1.56772
;WIDTH:0.612612
G3 X88.466 Y92.083 I1.134 J-3.746 E1.6256
;WIDTH:0.605499
G1 X88.068 Y91.732 E1.65543
;WIDTH:0.609127
G3 X87.685 Y91.189 I4.468 J-3.566 E1.69305
;WIDTH:0.599818
G1 X87.482 Y90.692 E1.72292
;WIDTH:0.606503
G1 X87.38 Y89.967 E1.76415
;WIDTH:0.6126
G3 X87.582 Y88.973 I3.929 J.279 E1.82206
;WIDTH:0.605493
G1 X87.835 Y88.507 E1.85187
;WIDTH:0.612597
G3 X88.561 Y87.799 I3.073 J2.425 E1.90977
;WIDTH:0.6055
G1 X89.033 Y87.558 E1.93956
;WIDTH:0.612604
G3 X90.025 Y87.38 I1.194 J3.813 E1.99709
;WIDTH:0.60533
G1 X90.525 Y87.438 E2.02538
;WIDTH:0.605023
G1 X91.042 Y87.606 E2.05591
;WIDTH:0.610824
G1 X91.494 Y87.882 E2.08597
;WIDTH:0.611862
G1 X91.869 Y88.215 E2.11449
G1 X92.208 Y88.656 E2.14612
;WIDTH:0.599386
G1 X92.266 Y88.789 E2.15419
G1 E1.62419 F600
G92 E0
G1 X92.266 Y88.789 F9000
G1 X92.262 Y92.856 Z.321
G1 Z.25
G1 E.53 F1200
;TYPE:External perimeter
;WIDTH:0.599999
G1 F1092
G1 X91.98 Y93.08 E.55004
G1 X91.325 Y93.416 E.59101
G1 X90.616 Y93.616 E.63201
G1 X89.881 Y93.671 E.67303
G1 X89.151 Y93.579 E.71398
G1 X88.452 Y93.345 E.755
G1 X87.815 Y92.977 E.79594
G1 X87.262 Y92.489 E.83698
G1 X86.818 Y91.902 E.87794
G1 X86.498 Y91.238 E.91896
G1 X86.325 Y90.581 E.95677
G1 X86.275 Y89.976 E.99055
G1 X86.348 Y89.241 E1.03165
G1 X86.565 Y88.537 E1.07265
G1 X86.918 Y87.89 E1.11367
G1 X87.391 Y87.326 E1.15463
G1 X87.967 Y86.867 E1.19562
G1 X88.622 Y86.531 E1.23659
G1 X89.331 Y86.331 E1.27759
G1 X90.066 Y86.276 E1.31861
G1 X90.797 Y86.368 E1.35961
G1 X91.495 Y86.602 E1.40058
G1 X92.133 Y86.971 E1.4416
G1 X92.633 Y87.412 E1.4787
G3 X93.163 Y88.136 I-2.54 J2.417 E1.52877
G1 X93.406 Y88.616 E1.55871
G1 X93.609 Y89.344 E1.60077
G1 X93.664 Y90.056 E1.64051
G1 X93.599 Y90.706 E1.67686
G1 X93.382 Y91.41 E1.71786
G1 X93.03 Y92.057 E1.75885
G1 X92.556 Y92.621 E1.79985
G1 X92.321 Y92.809 E1.8166
G1 X91.915 Y93.102 F9000
G1 X91.432 Y92.742
;TYPE:Perimeter
;WIDTH:0.605586
G1 F1092
G1 X91.097 Y92.91 E1.83767
;WIDTH:0.612594
G1 X90.492 Y93.071 E1.87331
G1 X89.847 Y93.113 E1.91011
;WIDTH:0.60549
G1 X89.24 Y93.031 E1.94454
;WIDTH:0.612612
G1 X88.657 Y92.825 E1.97974
G1 X88.1 Y92.496 E2.01657
;WIDTH:0.605499
G1 X87.645 Y92.086 E2.051
;WIDTH:0.609127
G1 X87.278 Y91.588 E2.086
G1 X87.009 Y91.021 E2.12151
;WIDTH:0.610226
G1 X86.869 Y90.463 E2.15412
G1 X86.83 Y89.939 E2.18391
;WIDTH:0.6126
G1 X86.901 Y89.324 E2.21916
G1 X87.097 Y88.709 E2.25591
;WIDTH:0.605492
G1 X87.396 Y88.174 E2.29036
;WIDTH:0.612597
G1 X87.801 Y87.706 E2.3256
G1 X88.31 Y87.308 E2.36239
;WIDTH:0.605496
G1 X88.858 Y87.035 E2.3968
;WIDTH:0.612604
G1 X89.456 Y86.876 E2.43203
G1 X90.079 Y86.831 E2.46759
;WIDTH:0.605547
G1 X90.7 Y86.915 E2.50282
G1 X91.292 Y87.118 E2.538
;WIDTH:0.610824
G1 X91.785 Y87.407 E2.57043
G1 X92.169 Y87.732 E2.59898
;WIDTH:0.606882
G1 X92.58 Y88.213 E2.63463
;WIDTH:0.612605
G1 X92.878 Y88.779 E2.67105
G1 X93.063 Y89.398 E2.70783
;WIDTH:0.605586
G1 X93.118 Y90.001 E2.74187
;WIDTH:0.612598
G1 X93.046 Y90.623 E2.77752
G1 X92.85 Y91.238 E2.81427
;WIDTH:0.605592
G1 X92.556 Y91.767 E2.8483
;WIDTH:0.612607
G1 X92.146 Y92.241 E2.88398
G1 X91.638 Y92.639 E2.92072
;WIDTH:0.605586
G1 X91.499 Y92.709 E2.92947
;LAYER_CHANGE
;Z:0.45
;HEIGHT:0.2
G1 E2.39947 F600
G92 E0
G1 X91.499 Y92.709 Z.25 F9000
G1 X91.904 Y89.476 Z.45
M104 S215 ; set temperature
G1 E.53 F1200
;TYPE:External perimeter
;WIDTH:0.499999
G1 F900
G1 X91.97 Y90.039 E.55111
G1 X91.862 Y90.625 E.5733
G1 X91.586 Y91.153 E.59549
G1 X91.167 Y91.575 E.61764
G1 X90.647 Y91.854 E.63962
G1 X90.057 Y91.97 E.66202
G1 X89.465 Y91.906 E.6842
G1 X88.919 Y91.67 E.70635
G3 X88.355 Y91.129 I1.689 J-2.322 E.73555
G1 X88.138 Y90.753 E.75172
G1 X88.03 Y90.433 E.7643
G1 X87.977 Y89.908 E.78395
G1 X88.085 Y89.322 E.80614
G1 X88.361 Y88.795 E.8283
G1 X88.78 Y88.372 E.85048
G1 X89.342 Y88.076 E.87414
G1 X89.89 Y87.978 E.89487
G1 X90.482 Y88.042 E.91705
G1 X90.948 Y88.229 E.93575
G1 X91.33 Y88.509 E.95339
G1 X91.661 Y88.904 E.97258
G1 X91.882 Y89.405 E.99298
G1 X91.952 Y89.9 F9000
G1 X92.295 Y88.913
;TYPE:Perimeter
;WIDTH:0.742956
G1 F900
G3 X92.489 Y89.457 I-3.526 J1.563 E1.02596
;WIDTH:0.735337
G1 X92.542 Y89.982 E1.05573
;WIDTH:0.742644
G3 X92.359 Y90.934 I-4.011 J-.28 E1.11114
;WIDTH:0.734723
G1 X92.091 Y91.427 E1.14277
;WIDTH:0.743308
G3 X91.389 Y92.117 I-3.014 J-2.365 E1.1991
;WIDTH:0.737385
G1 X90.91 Y92.366 E1.22965
;WIDTH:0.742027
G3 X89.98 Y92.546 I-1.241 J-3.906 E1.28373
;WIDTH:0.734153
G1 X89.394 Y92.474 E1.31699
;WIDTH:0.741796
G3 X88.518 Y92.094 I1.136 J-3.82 E1.3715
;WIDTH:0.734651
G1 X88.086 Y91.714 E1.40393
;WIDTH:0.734003
G1 X87.706 Y91.176 E1.44102
;WIDTH:0.729714
G1 X87.505 Y90.685 E1.47071
;WIDTH:0.735334
G1 X87.405 Y89.965 E1.51172
;WIDTH:0.742654
G3 X87.589 Y89.013 I4.012 J.28 E1.56714
;WIDTH:0.734732
G1 X87.857 Y88.52 E1.59877
;WIDTH:0.74331
G3 X88.559 Y87.83 I3.013 J2.365 E1.6551
;WIDTH:0.73738
G3 X89.173 Y87.53 I2.389 J4.119 E1.69381
;WIDTH:0.728905
G1 X89.79 Y87.415 E1.72889
;WIDTH:0.732131
G1 X90.029 Y87.407 E1.74232
;WIDTH:0.736893
G1 X90.557 Y87.471 E1.7724
G1 X91.17 Y87.701 E1.80942
;WIDTH:0.730621
G1 X91.612 Y87.997 E1.83923
;WIDTH:0.736721
G1 X92.101 Y88.533 E1.88025
;WIDTH:0.742956
G3 X92.264 Y88.845 I-3.332 J1.943 E1.90034
G1 E1.37034 F600
G92 E0
G1 X92.264 Y88.845 F9000
G1 X92.362 Y92.963 Z.522
G1 Z.45
G1 E.53 F1200
;TYPE:External perimeter
;WIDTH:0.499999
G1 F900
G1 X92.152 Y93.139 E.54021
G1 X91.427 Y93.53 E.57089
G1 X90.778 Y93.73 E.59618
G1 X89.972 Y93.816 E.62637
G1 X89.295 Y93.755 E.65169
G1 X88.506 Y93.524 E.68231
G1 X87.785 Y93.131 E.71289
G1 X87.262 Y92.695 E.73825
G1 X86.809 Y92.152 E.76459
G1 X86.417 Y91.427 E.79529
G1 X86.217 Y90.778 E.82058
G1 X86.132 Y89.972 E.85077
G1 X86.192 Y89.295 E.87608
G1 X86.423 Y88.506 E.9067
G1 X86.816 Y87.785 E.93728
G1 X87.252 Y87.262 E.96264
G1 X87.796 Y86.809 E.98901
G1 X88.52 Y86.417 E1.01968
G1 X89.169 Y86.217 E1.04497
G1 X89.974 Y86.132 E1.07512
G1 X90.79 Y86.219 E1.10569
G1 X91.441 Y86.423 E1.1311
G1 X92.045 Y86.738 E1.15647
G1 X92.687 Y87.254 E1.18715
G1 X93.139 Y87.795 E1.21341
G1 X93.487 Y88.44 E1.24071
G1 X93.623 Y88.821 E1.25578
G1 X93.747 Y89.326 E1.27515
G1 X93.808 Y90.065 E1.30277
G1 X93.755 Y90.652 E1.32472
G1 X93.524 Y91.441 E1.35534
G1 X93.132 Y92.162 E1.38591
G1 X92.695 Y92.686 E1.41132
G1 X92.419 Y92.915 E1.42468
G1 X92.011 Y93.204 F9000
G1 X91.623 Y92.771
;TYPE:Perimeter
;WIDTH:0.736883
G1 F900
G1 X91.165 Y93.009 E1.45387
;WIDTH:0.742027
G1 X90.628 Y93.165 E1.48573
G1 X89.844 Y93.228 E1.53054
;WIDTH:0.734004
G1 X89.254 Y93.146 E1.56408
;WIDTH:0.741796
G1 X88.695 Y92.969 E1.59747
G1 X88.031 Y92.589 E1.64104
;WIDTH:0.734611
G1 X87.591 Y92.194 E1.67437
;WIDTH:0.739248
G1 X87.272 Y91.796 E1.70331
G1 X86.94 Y91.171 E1.74347
;WIDTH:0.736693
G1 X86.771 Y90.561 E1.77925
;WIDTH:0.735712
G1 X86.712 Y89.933 E1.81486
;WIDTH:0.742654
G1 X86.773 Y89.37 E1.84715
G1 X86.997 Y88.653 E1.88998
;WIDTH:0.734256
G3 X87.497 Y87.863 I3.472 J1.644 E1.94278
;WIDTH:0.731886
G1 X87.919 Y87.451 E1.97589
;WIDTH:0.731715
G1 X88.253 Y87.213 E1.99891
;WIDTH:0.73738
G3 X89.108 Y86.835 I1.787 J2.894 E2.05198
;WIDTH:0.73264
G1 X89.695 Y86.736 E2.08544
;WIDTH:0.732131
G1 X90.109 Y86.723 E2.1087
;WIDTH:0.736893
G1 X90.705 Y86.796 E2.14266
;WIDTH:0.74049
G1 X91.247 Y86.973 E2.17507
G1 X91.756 Y87.242 E2.2078
;WIDTH:0.737612
G1 X92.304 Y87.693 E2.24798
G1 X92.676 Y88.15 E2.28134
;WIDTH:0.742956
G1 X93.004 Y88.778 E2.32176
G1 X93.176 Y89.386 E2.3578
;WIDTH:0.735713
G1 X93.235 Y90.014 E2.39341
;WIDTH:0.742644
G1 X93.175 Y90.577 E2.42569
G1 X92.95 Y91.294 E2.46854
;WIDTH:0.734248
G3 X92.451 Y92.084 I-3.472 J-1.644 E2.52131
;WIDTH:0.731882
G1 X92.028 Y92.496 E2.55446
;WIDTH:0.731725
G1 X91.694 Y92.735 E2.57751
;WIDTH:0.736883
G1 X91.69 Y92.737 E2.57776
;LAYER_CHANGE
;Z:0.65
;HEIGHT:0.2
G1 E2.04776 F600
G92 E0
G1 X91.69 Y92.737 Z.45 F9000
G1 X91.904 Y89.476 Z.75
G1 Z.65
G1 E.53 F1200
;TYPE:External perimeter
;WIDTH:0.499999
G1 F900
G1 X91.97 Y90.039 E.55111
G1 X91.862 Y90.625 E.5733
G1 X91.586 Y91.152 E.59546
G1 X91.167 Y91.575 E.61764
G1 X90.642 Y91.856 E.63982
G1 X90.057 Y91.97 E.66202
G1 X89.465 Y91.906 E.6842
G1 X88.919 Y91.67 E.70635
G1 X88.465 Y91.284 E.72855
G1 X88.186 Y90.866 E.74727
G1 X88.026 Y90.403 E.76552
G1 X87.976 Y89.901 E.78431
G1 X88.085 Y89.322 E.80625
G1 X88.361 Y88.795 E.82841
G1 X88.78 Y88.372 E.85059
G1 X89.305 Y88.091 E.87277
G1 X89.89 Y87.978 E.89496
G1 X90.476 Y88.041 E.91691
G1 X90.948 Y88.229 E.93583
G1 X91.321 Y88.498 E.95296
G1 X91.66 Y88.903 E.97263
G1 X91.882 Y89.405 E.99307
G1 X91.952 Y89.9 F9000
G1 X92.198 Y88.941
;TYPE:Perimeter
;WIDTH:0.549999
G1 F900
G1 X92.297 Y89.147 E1.00251
G1 X92.401 Y89.497 E1.0176
G1 X92.452 Y90.012 E1.03898
G1 X92.356 Y90.617 E1.06429
G1 X92.243 Y90.956 E1.07906
G1 X91.997 Y91.405 E1.10022
G3 X91.332 Y92.044 I-3.428 J-2.903 E1.1384
G1 X90.862 Y92.285 E1.16022
G3 X89.929 Y92.45 I-1.213 J-4.15 E1.19945
G1 X89.405 Y92.384 E1.22127
G3 X88.542 Y91.994 I1.338 J-4.115 E1.26048
G1 X88.146 Y91.645 E1.28229
G1 X87.781 Y91.128 E1.30844
G1 X87.589 Y90.654 E1.32957
G1 X87.497 Y89.956 E1.35866
G3 X87.612 Y89.227 I7.926 J.878 E1.38917
G1 X87.937 Y88.564 E1.41968
G3 X88.615 Y87.903 I3.309 J2.714 E1.45889
G1 X89.085 Y87.662 E1.48071
G3 X90.018 Y87.498 I1.213 J4.151 E1.51993
G1 X90.542 Y87.563 E1.54175
G1 X91.135 Y87.784 E1.5679
G1 X91.561 Y88.068 E1.58906
G1 X92.03 Y88.593 E1.61815
G1 X92.165 Y88.873 E1.63099
G1 E1.10099 F600
G92 E0
G1 X92.165 Y88.873 F9000
G1 X92.437 Y93.061 Z.723
G1 Z.65
G1 E.53 F1200
;TYPE:External perimeter
;WIDTH:0.499999
G1 F900
G1 X92.104 Y93.317 E.54564
G1 X91.342 Y93.694 E.57731
G1 X90.665 Y93.877 E.60343
G1 X89.833 Y93.935 E.63449
G1 X88.994 Y93.815 E.66606
G1 X88.332 Y93.582 E.6922
G1 X87.601 Y93.149 E.72384
G1 X87.059 Y92.661 E.751
G1 X86.63 Y92.104 E.77719
G1 X86.253 Y91.342 E.80886
G1 X86.07 Y90.665 E.83498
G1 X86.012 Y89.831 E.86612
G1 X86.099 Y89.135 E.89225
G1 X86.366 Y88.33 E.92384
G1 X86.798 Y87.601 E.9554
G1 X87.287 Y87.059 E.98259
G1 X87.844 Y86.63 E1.00878
G1 X88.605 Y86.253 E1.04041
G1 X89.283 Y86.07 E1.06657
G1 X90.059 Y86.011 E1.09556
G1 X90.813 Y86.1 E1.12384
G1 X91.617 Y86.366 E1.15538
M73 P0 R34
G1 X92.346 Y86.798 E1.18694
G1 X92.887 Y87.286 E1.21408
G1 X93.363 Y87.918 E1.24355
G1 X93.654 Y88.521 E1.26849
G1 X93.75 Y88.811 E1.27987
G1 X93.884 Y89.378 E1.30157
G1 X93.935 Y90.114 E1.32905
G1 X93.815 Y90.954 E1.36065
G1 X93.582 Y91.615 E1.38675
G1 X93.15 Y92.346 E1.41838
G1 X92.661 Y92.888 E1.44557
G1 X92.496 Y93.015 E1.45333
G1 X92.092 Y93.309 F9000
G1 X91.757 Y92.95
;TYPE:Perimeter
;WIDTH:0.549999
G1 F900
G1 X91.171 Y93.241 E1.48037
G1 X90.585 Y93.399 E1.50545
G1 X89.851 Y93.45 E1.53585
G1 X89.109 Y93.344 E1.56682
G1 X88.537 Y93.143 E1.59187
G1 X87.888 Y92.759 E1.62303
G1 X87.414 Y92.332 E1.64939
G1 X87.041 Y91.847 E1.67467
G1 X86.706 Y91.171 E1.70584
G1 X86.548 Y90.585 E1.73092
G1 X86.496 Y89.844 E1.76161
