; generated by PrusaSlicer 2.8.0+MacOS-arm64 on 2024-09-06 at 06:14:45 UTC


;
;

;
;
; 

; external perimeters extrusion width = 0.68mm
; perimeters extrusion width = 0.68mm
; infill extrusion width = 0.68mm
; solid infill extrusion width = 0.68mm
; top infill extrusion width = 0.60mm
; support material extrusion width = 0.60mm

; external perimeters extrusion width = 0.68mm
; perimeters extrusion width = 0.68mm
; infill extrusion width = 0.68mm
; solid infill extrusion width = 0.68mm
; top infill extrusion width = 0.60mm
; support material extrusion width = 0.60mm


EXCLUDE_OBJECT_DEFINE NAME='24v_panel_label' CENTER=167.999,125.001 POLYGON=[[184.914,86.135],[185.645,86.243],[186.341,86.492],[186.975,86.873],[187.395,87.235],[187.864,87.806],[188.138,88.289],[188.387,88.985],[188.495,89.716],[188.500,160.098],[188.387,161.015],[188.138,161.711],[187.523,162.631],[186.824,163.234],[185.824,163.707],[184.914,163.865],[151.271,163.870],[150.355,163.757],[149.659,163.508],[148.879,163.014],[148.136,162.194],[147.662,161.193],[147.500,160.098],[147.500,89.902],[147.572,89.166],[147.862,88.289],[148.356,87.509],[149.176,86.766],[150.176,86.293],[151.086,86.135]]
EXCLUDE_OBJECT_DEFINE NAME='led_panel_label' CENTER=101.499,125.001 POLYGON=[[137.908,93.255],[138.641,93.363],[139.168,93.538],[139.821,93.887],[140.394,94.356],[140.757,94.777],[141.137,95.412],[141.387,96.109],[141.495,96.842],[141.500,152.973],[141.427,153.710],[141.137,154.588],[140.643,155.369],[140.119,155.893],[139.503,156.304],[138.995,156.529],[138.277,156.709],[137.723,156.750],[65.277,156.750],[64.360,156.637],[63.662,156.387],[63.027,156.007],[62.357,155.369],[61.946,154.753],[61.721,154.245],[61.573,153.710],[61.500,152.973],[61.500,97.027],[61.573,96.290],[61.863,95.412],[62.243,94.777],[62.881,94.107],[63.335,93.787],[64.005,93.471],[64.540,93.323],[65.277,93.250]]

;TYPE:Custom
START_PRINT BED_TEMP=65 HOTEND_TEMP=220 FILAMENT_TYPE=PLA EXTRUSION_MULTIPLIER=0.95 PERIMETER_SPEED=80
G21 ; set units to millimeters
G90 ; use absolute coordinates
M82 ; use absolute distances for extrusion
G92 E0
; Filament gcode
M107
;LAYER_CHANGE
;Z:0.35
;HEIGHT:0.35
G1 E-.5 F240
G1 Z.35 F9000
EXCLUDE_OBJECT_START NAME='led_panel_label'
G92 E0
G1 X103.227 Y107.476
G1 E.5 F240
G92 E0
;TYPE:External perimeter
;WIDTH:0.675
G1 F1800
G1 X103.031 Y107.542 E.01715
G1 X102.079 Y107.667 E.09677
G1 X101.118 Y107.601 E.17665
G1 X100.189 Y107.346 E.25654
G1 X99.438 Y106.967 E.3263
G1 X98.712 Y106.445 E.40045
G1 X98.091 Y105.777 E.47609
G1 X97.611 Y105.003 E.55162
G1 X97.291 Y104.169 E.6257
G1 X97.123 Y103.254 E.70285
G1 X97.105 Y102.888 E.73324
G1 X97.142 Y102.142 E.79518
G1 X97.394 Y101.151 E.87998
G1 X97.786 Y100.337 E.9549
G1 X98.363 Y99.565 E1.03483
G1 X99.081 Y98.924 E1.11465
G1 X99.912 Y98.437 E1.19452
G1 X100.823 Y98.125 E1.27437
G1 X101.778 Y97.999 E1.35425
G1 X102.739 Y98.065 E1.43413
G1 X103.667 Y98.32 E1.51394
G1 X104.527 Y98.754 E1.59382
G1 X105.284 Y99.35 E1.67372
G1 X105.907 Y100.084 E1.75356
G1 X106.356 Y100.89 E1.83007
G1 X106.55 Y101.441 E1.87851
G1 X106.643 Y101.808 E1.90991
G1 X106.757 Y102.562 E1.97315
G1 X106.726 Y103.295 E2.03399
G1 X106.671 Y103.72 E2.06953
G1 X106.483 Y104.459 E2.13277
G1 X106.093 Y105.282 E2.20829
G1 X105.494 Y106.1 E2.29237
G1 X104.776 Y106.742 E2.37224
G1 X103.89 Y107.253 E2.45706
G1 X103.312 Y107.448 E2.50765
G1 X102.725 Y107.575 F9000
G1 X103.375 Y108.059
;TYPE:Perimeter
G1 F1800
G1 X103.225 Y108.11 E2.52079
G1 X102.153 Y108.262 E2.61058
G1 X101.073 Y108.199 E2.70029
G1 X100.027 Y107.923 E2.79
G1 X99.164 Y107.501 E2.86966
G1 X98.923 Y107.362 E2.89273
G1 X98.283 Y106.865 E2.95993
G1 X97.652 Y106.185 E3.03686
G1 X97.1 Y105.315 E3.1223
G1 X96.727 Y104.374 E3.20624
G1 X96.62 Y103.947 E3.24274
G1 X96.507 Y103.193 E3.30597
G1 X96.535 Y102.264 E3.38304
G1 X96.604 Y101.798 E3.42211
G1 X96.792 Y101.059 E3.48535
G1 X97.291 Y99.994 E3.58288
G1 X97.885 Y99.203 E3.66491
G1 X98.684 Y98.474 E3.7546
G1 X99.612 Y97.918 E3.84431
G1 X100.632 Y97.556 E3.93406
G1 X101.703 Y97.404 E4.02376
G1 X102.784 Y97.467 E4.11356
G1 X103.83 Y97.743 E4.20327
G1 X104.801 Y98.22 E4.29298
G1 X105.658 Y98.881 E4.38273
G1 X106.367 Y99.698 E4.47244
G1 X106.931 Y100.705 E4.56815
G1 X107.117 Y101.247 E4.61567
G1 X107.236 Y101.718 E4.65596
G1 X107.35 Y102.473 E4.71928
G1 X107.326 Y103.325 E4.78996
G1 X107.253 Y103.868 E4.83539
G1 X107.064 Y104.607 E4.89865
G1 X106.634 Y105.542 E4.98399
G1 X105.972 Y106.463 E5.07805
G1 X105.173 Y107.192 E5.16774
G1 X104.351 Y107.687 E5.24731
G1 X104.081 Y107.822 E5.27234
G1 X103.46 Y108.031 E5.32668
G1 E4.82668 F240
G92 E0
G1 X103.46 Y108.031 F9000
G1 X119.742 Y106.761
G1 E.5 F240
;TYPE:External perimeter
G1 F1800
G1 X118.89 Y107.253 E.58159
G1 X118.034 Y107.541 E.65649
G1 X117.079 Y107.667 E.73637
G1 X116.118 Y107.601 E.81625
G1 X115.189 Y107.346 E.89614
G1 X114.438 Y106.967 E.9659
G1 X113.745 Y106.475 E1.03638
G1 X113.091 Y105.777 E1.1157
G1 X112.611 Y105.003 E1.19123
G1 X112.291 Y104.169 E1.26531
G1 X112.123 Y103.254 E1.34246
G1 X112.105 Y102.888 E1.37285
G1 X112.142 Y102.142 E1.43479
G1 X112.186 Y101.946 E1.45145
G1 X112.374 Y101.207 E1.51469
G1 X112.817 Y100.286 E1.59944
G1 X113.363 Y99.565 E1.67444
G1 X114.081 Y98.924 E1.75426
G1 X114.912 Y98.437 E1.83413
G1 X115.823 Y98.125 E1.91398
G1 X116.778 Y97.999 E1.99386
G1 X117.739 Y98.065 E2.07374
G1 X118.667 Y98.32 E2.15355
G1 X119.527 Y98.754 E2.23343
G1 X120.284 Y99.35 E2.31333
G1 X120.907 Y100.084 E2.39317
G1 X121.356 Y100.89 E2.46968
G1 X121.55 Y101.441 E2.51812
G1 X121.643 Y101.808 E2.54952
G1 X121.757 Y102.562 E2.61276
G1 X121.726 Y103.295 E2.6736
G1 X121.671 Y103.72 E2.70914
G1 X121.483 Y104.459 E2.77238
G1 X121.093 Y105.282 E2.8479
G1 X120.494 Y106.1 E2.93198
G1 X119.814 Y106.708 E3.00762
G1 X119.299 Y107.016 F9000
G1 X120.076 Y107.25
;TYPE:Perimeter
G1 F1800
G1 X119.351 Y107.687 E3.07782
G1 X119.081 Y107.822 E3.10285
G1 X118.225 Y108.11 E3.17775
G1 X117.153 Y108.262 E3.26754
G1 X116.073 Y108.199 E3.35725
G1 X115.027 Y107.923 E3.44696
G1 X114.164 Y107.501 E3.52662
G1 X113.923 Y107.362 E3.54969
G1 X113.383 Y106.953 E3.60587
G1 X112.652 Y106.185 E3.6938
G1 X112.1 Y105.315 E3.77924
G1 X111.727 Y104.374 E3.86318
G1 X111.62 Y103.947 E3.89968
G1 X111.507 Y103.193 E3.96291
G1 X111.535 Y102.264 E4.03998
G1 X111.604 Y101.798 E4.07905
G1 X111.792 Y101.059 E4.14229
G1 X112.291 Y99.994 E4.23982
G1 X112.885 Y99.203 E4.32185
G1 X113.684 Y98.474 E4.41154
G1 X114.612 Y97.918 E4.50125
G1 X115.632 Y97.556 E4.591
G1 X116.703 Y97.404 E4.6807
G1 X117.784 Y97.467 E4.7705
G1 X118.83 Y97.743 E4.86021
G1 X119.801 Y98.22 E4.94992
G1 X120.658 Y98.881 E5.03967
G1 X121.367 Y99.698 E5.12938
G1 X121.931 Y100.705 E5.22509
G1 X122.117 Y101.247 E5.27261
G1 X122.236 Y101.718 E5.3129
G1 X122.35 Y102.473 E5.37622
G1 X122.326 Y103.325 E5.4469
G1 X122.253 Y103.868 E5.49233
G1 X122.064 Y104.607 E5.55559
G1 X121.634 Y105.542 E5.64093
G1 X120.972 Y106.463 E5.73499
G1 X120.173 Y107.192 E5.82468
G1 X120.153 Y107.204 E5.82661
G1 E5.32661 F240
G92 E0
G1 X120.153 Y107.204 F9000
G1 X136.726 Y102.361
G1 E.5 F240
;TYPE:External perimeter
G1 F1800
G1 X136.757 Y102.562 E.51687
G1 X136.715 Y103.524 E.59672
G1 X136.483 Y104.459 E.67661
G1 X136.071 Y105.329 E.75644
G1 X135.494 Y106.1 E.8363
G1 X134.776 Y106.742 E.91617
G1 X133.945 Y107.229 E.99604
G1 X133.034 Y107.541 E1.07589
G1 X132.079 Y107.667 E1.15577
G1 X131.118 Y107.601 E1.23565
G1 X130.189 Y107.346 E1.31554
G1 X129.438 Y106.967 E1.3853
G1 X128.745 Y106.475 E1.45578
G1 X128.091 Y105.777 E1.5351
G1 X127.611 Y105.003 E1.61063
G1 X127.527 Y104.818 E1.62748
G1 X127.249 Y104.055 E1.69482
G1 X127.123 Y103.254 E1.76206
G1 X127.105 Y102.888 E1.79245
G1 X127.142 Y102.142 E1.85439
G1 X127.394 Y101.151 E1.93919
G1 X127.786 Y100.337 E2.01411
G1 X128.363 Y99.565 E2.09404
G1 X129.081 Y98.924 E2.17386
G1 X129.912 Y98.437 E2.25373
G1 X130.823 Y98.125 E2.33358
G1 X131.778 Y97.999 E2.41346
G1 X132.739 Y98.065 E2.49334
G1 X133.667 Y98.32 E2.57315
G1 X134.527 Y98.754 E2.65303
G1 X135.284 Y99.35 E2.73293
G1 X135.907 Y100.084 E2.81277
G1 X136.373 Y100.927 E2.89265
G1 X136.61 Y101.617 E2.95315
G1 X136.712 Y102.272 E3.00812
G1 X136.736 Y102.871 F9000
G1 X137.324 Y102.316
;TYPE:Perimeter
G1 F1800
G1 X137.35 Y102.473 E3.02132
G1 X137.314 Y103.554 E3.11101
G1 X137.064 Y104.607 E3.20076
G1 X136.611 Y105.589 E3.29044
G1 X135.972 Y106.463 E3.38022
G1 X135.173 Y107.192 E3.46991
G1 X134.245 Y107.748 E3.55962
G1 X133.225 Y108.11 E3.64937
G1 X132.153 Y108.262 E3.73916
G1 X131.073 Y108.199 E3.82887
G1 X130.027 Y107.923 E3.91858
G1 X129.164 Y107.501 E3.99824
G1 X128.923 Y107.362 E4.02131
G1 X128.383 Y106.953 E4.07749
G1 X127.652 Y106.185 E4.16542
G1 X127.1 Y105.315 E4.25086
G1 X126.963 Y105.023 E4.27761
G1 X126.686 Y104.26 E4.34492
G1 X126.529 Y103.344 E4.42199
G1 X126.505 Y102.859 E4.46226
G1 X126.543 Y102.112 E4.52429
G1 X126.747 Y101.238 E4.59872
G1 X126.854 Y100.891 E4.62883
G1 X127.246 Y100.076 E4.70383
G1 X127.885 Y99.203 E4.79355
G1 X128.684 Y98.474 E4.88324
G1 X129.612 Y97.918 E4.97295
G1 X130.632 Y97.556 E5.0627
G1 X131.703 Y97.404 E5.1524
G1 X132.784 Y97.467 E5.2422
G1 X133.83 Y97.743 E5.33191
G1 X134.801 Y98.22 E5.42162
G1 X135.658 Y98.881 E5.51137
G1 X136.367 Y99.698 E5.60108
G1 X136.9 Y100.64 E5.69084
G1 X137.179 Y101.426 E5.76001
G1 X137.31 Y102.227 E5.82732
G1 E5.32732 F240
G92 E0
G1 X137.31 Y102.227 F9000
G1 X85.403 Y98.269
G1 E.5 F240
;TYPE:External perimeter
G1 F1800
G1 X85.823 Y98.125 E.53682
G1 X86.778 Y97.999 E.6167
G1 X87.739 Y98.065 E.69658
G1 X88.667 Y98.32 E.77639
G1 X89.527 Y98.754 E.85627
G1 X90.284 Y99.35 E.93617
G1 X90.907 Y100.084 E1.01601
G1 X91.356 Y100.89 E1.09252
G1 X91.55 Y101.441 E1.14096
G1 X91.643 Y101.808 E1.17236
G1 X91.757 Y102.562 E1.2356
G1 X91.726 Y103.295 E1.29644
G1 X91.671 Y103.72 E1.33198
G1 X91.483 Y104.459 E1.39522
G1 X91.093 Y105.282 E1.47074
G1 X90.494 Y106.1 E1.55482
G1 X89.776 Y106.742 E1.63469
G1 X88.89 Y107.253 E1.71951
G1 X88.031 Y107.542 E1.79467
G1 X87.079 Y107.667 E1.87429
G1 X86.118 Y107.601 E1.95417
G1 X85.189 Y107.346 E2.03406
G1 X84.438 Y106.967 E2.10382
G1 X83.745 Y106.475 E2.1743
G1 X83.091 Y105.777 E2.25362
G1 X82.611 Y105.003 E2.32915
G1 X82.291 Y104.169 E2.40323
G1 X82.123 Y103.254 E2.48038
G1 X82.105 Y102.888 E2.51077
G1 X82.142 Y102.142 E2.57271
G1 X82.394 Y101.151 E2.65751
G1 X82.786 Y100.337 E2.73243
G1 X83.363 Y99.565 E2.81236
G1 X84.081 Y98.924 E2.89218
G1 X84.912 Y98.437 E2.97205
G1 X85.318 Y98.298 E3.00764
G1 X85.894 Y98.129 F9000
G1 X85.228 Y97.699
;TYPE:Perimeter
G1 F1800
G1 X85.632 Y97.556 E3.04318
G1 X86.703 Y97.404 E3.13288
G1 X87.784 Y97.467 E3.22268
G1 X88.83 Y97.743 E3.31239
G1 X89.801 Y98.22 E3.4021
G1 X90.658 Y98.881 E3.49185
G1 X91.367 Y99.698 E3.58156
G1 X91.931 Y100.705 E3.67727
G1 X92.117 Y101.247 E3.72479
G1 X92.236 Y101.718 E3.76508
G1 X92.35 Y102.473 E3.8284
G1 X92.326 Y103.325 E3.89908
G1 X92.253 Y103.868 E3.94451
G1 X92.064 Y104.607 E4.00777
G1 X91.634 Y105.542 E4.09311
G1 X90.972 Y106.463 E4.18717
G1 X90.173 Y107.192 E4.27686
G1 X89.351 Y107.687 E4.35643
G1 X89.081 Y107.822 E4.38146
G1 X88.225 Y108.11 E4.45636
G1 X87.153 Y108.262 E4.54615
G1 X86.073 Y108.199 E4.63586
G1 X85.027 Y107.923 E4.72557
G1 X84.164 Y107.501 E4.80523
G1 X83.923 Y107.362 E4.8283
G1 X83.383 Y106.953 E4.88448
G1 X82.652 Y106.185 E4.97241
G1 X82.1 Y105.315 E5.05785
G1 X81.727 Y104.374 E5.14179
G1 X81.62 Y103.947 E5.17829
G1 X81.529 Y103.344 E5.22886
G1 X81.505 Y102.859 E5.26913
G1 X81.543 Y102.112 E5.33116
G1 X81.747 Y101.238 E5.40559
G1 X81.854 Y100.891 E5.4357
G1 X82.246 Y100.076 E5.5107
G1 X82.885 Y99.203 E5.60042
G1 X83.684 Y98.474 E5.69011
G1 X84.612 Y97.918 E5.77982
G1 X85.143 Y97.73 E5.82653
G1 E5.32653 F240
G92 E0
G1 X85.143 Y97.73 F9000
G1 X71.816 Y98.002
G1 E.5 F240
;TYPE:External perimeter
G1 F1800
G1 X72.739 Y98.065 E.57672
G1 X73.667 Y98.32 E.65653
G1 X74.527 Y98.754 E.73641
G1 X75.284 Y99.35 E.81631
G1 X75.907 Y100.084 E.89615
G1 X76.356 Y100.89 E.97266
G1 X76.55 Y101.441 E1.0211
G1 X76.643 Y101.808 E1.0525
G1 X76.757 Y102.562 E1.11574
G1 X76.726 Y103.295 E1.17658
G1 X76.671 Y103.72 E1.21212
G1 X76.483 Y104.459 E1.27536
G1 X76.093 Y105.282 E1.35088
G1 X75.494 Y106.1 E1.43496
G1 X74.776 Y106.742 E1.51483
G1 X74.051 Y107.168 E1.58456
G1 X73.809 Y107.281 E1.60671
G1 X73.034 Y107.541 E1.6745
G1 X72.079 Y107.667 E1.75438
G1 X71.118 Y107.601 E1.83426
G1 X70.189 Y107.346 E1.91415
G1 X69.329 Y106.911 E1.99407
G1 X68.745 Y106.475 E2.05451
G1 X68.091 Y105.777 E2.13383
G1 X67.584 Y104.958 E2.21371
G1 X67.249 Y104.055 E2.29358
G1 X67.1 Y103.104 E2.37341
G1 X67.142 Y102.142 E2.45326
G1 X67.374 Y101.207 E2.53315
G1 X67.817 Y100.286 E2.6179
G1 X68.363 Y99.565 E2.6929
G1 X69.081 Y98.924 E2.77272
G1 X69.912 Y98.437 E2.85259
G1 X70.823 Y98.125 E2.93244
G1 X71.727 Y98.006 E3.00805
G1 X72.326 Y98.038 F9000
G1 X71.816 Y97.41
;TYPE:Perimeter
G1 F1800
G1 X72.784 Y97.467 E3.08846
G1 X73.83 Y97.743 E3.17817
G1 X74.801 Y98.22 E3.26788
G1 X75.658 Y98.881 E3.35763
G1 X76.367 Y99.698 E3.44734
G1 X76.931 Y100.705 E3.54305
G1 X77.117 Y101.247 E3.59057
G1 X77.236 Y101.718 E3.63086
G1 X77.35 Y102.473 E3.69418
G1 X77.326 Y103.325 E3.76486
G1 X77.253 Y103.868 E3.81029
G1 X77.064 Y104.607 E3.87355
G1 X76.634 Y105.542 E3.95889
G1 X75.972 Y106.463 E4.05295
G1 X75.173 Y107.192 E4.14264
G1 X74.351 Y107.687 E4.22221
G1 X74 Y107.849 E4.25427
G1 X73.225 Y108.11 E4.32209
G1 X72.153 Y108.262 E4.41188
G1 X71.073 Y108.199 E4.50159
G1 X70.027 Y107.923 E4.5913
G1 X69.056 Y107.445 E4.68105
G1 X68.383 Y106.953 E4.75018
G1 X67.652 Y106.185 E4.83811
G1 X67.072 Y105.271 E4.92788
G1 X66.686 Y104.26 E5.01762
G1 X66.507 Y103.193 E5.10734
G1 X66.543 Y102.112 E5.19703
G1 X66.792 Y101.059 E5.28676
G1 X67.246 Y100.076 E5.37655
G1 X67.339 Y99.923 E5.3914
G1 X67.885 Y99.203 E5.46633
G1 X68.684 Y98.474 E5.55602
G1 X69.612 Y97.918 E5.64573
G1 X70.632 Y97.556 E5.73548
G1 X71.703 Y97.404 E5.82518
G1 X71.726 Y97.405 E5.82709
G1 E5.32709 F240
G92 E0
G1 X71.726 Y97.405 F9000
G1 X138.709 Y156.253
G1 E.5 F240
;TYPE:External perimeter
G1 F1800
G1 X138.224 Y156.375 E.54147
G1 X137.71 Y156.412 E.5842
G1 X65.293 Y156.412 E6.58953
G1 X64.603 Y156.345 E6.64702
G1 X64.122 Y156.211 E6.68843
G1 X63.664 Y155.995 E6.73042
G1 X63.232 Y155.738 E6.7721
G1 X62.848 Y155.406 E6.8142
G1 X62.527 Y155.015 E6.85615
G1 X62.246 Y154.598 E6.89785
G1 X62.039 Y154.131 E6.94021
G1 X61.905 Y153.647 E6.98186
G1 X61.838 Y152.957 E7.03935
G1 X61.838 Y97.043 E11.67614
G1 X61.888 Y96.526 E11.71921
G1 X61.985 Y96.033 E11.76088
G1 X62.167 Y95.56 E11.80291
G1 X62.517 Y94.976 E11.85937
G1 X62.844 Y94.598 E11.90082
G1 X63.154 Y94.343 E11.93411
G1 X63.634 Y94.006 E11.98275
G1 X64.117 Y93.79 E12.02663
G1 X64.756 Y93.629 E12.08128
G1 X65.29 Y93.587 E12.1257
G1 X137.866 Y93.592 E18.14422
G1 X138.391 Y93.654 E18.18806
G1 X139.038 Y93.851 E18.24415
G1 X139.633 Y94.168 E18.30006
G1 X140.156 Y94.598 E18.35621
G1 X140.483 Y94.976 E18.39766
G1 X140.831 Y95.557 E18.45382
G1 X141.058 Y96.192 E18.50974
G1 X141.107 Y96.522 E18.53741
G1 X141.158 Y97.114 E18.58668
G1 X141.163 Y152.96 E23.21783
G1 X141.125 Y153.474 E23.26057
G1 X140.96 Y154.131 E23.31675
G1 X140.67 Y154.743 E23.37291
G1 X140.383 Y155.152 E23.41434
G1 X139.904 Y155.631 E23.47052
G1 X139.341 Y156.007 E23.52666
G1 X138.884 Y156.209 E23.56809
G1 X138.796 Y156.231 E23.57561
G1 X138.211 Y156.363 F9000
G1 X138.52 Y155.682
;TYPE:Perimeter
G1 F1800
G1 X138.128 Y155.78 E23.60912
G1 X137.688 Y155.813 E23.64571
G1 X65.322 Y155.813 E29.64681
G1 X64.713 Y155.753 E29.69756
G1 X64.153 Y155.562 E29.74663
G1 X63.688 Y155.321 E29.79006
G1 X63.279 Y154.986 E29.8339
G1 X62.906 Y154.531 E29.88269
G1 X62.682 Y154.1 E29.92297
G1 X62.497 Y153.537 E29.97211
G1 X62.437 Y152.928 E30.02286
G1 X62.437 Y98.277 E34.55491
G1 X62.456 Y96.882 E34.6706
G1 X62.531 Y96.322 E34.71745
G1 X62.709 Y95.824 E34.76131
G1 X63.005 Y95.329 E34.80914
G1 X63.417 Y94.903 E34.85829
G1 X63.825 Y94.592 E34.90083
G1 X64.314 Y94.359 E34.94575
G1 X64.853 Y94.223 E34.99185
G1 X65.314 Y94.187 E35.0302
G1 X137.665 Y94.191 E41.03006
G1 X138.267 Y94.244 E41.08018
G1 X138.808 Y94.408 E41.12706
G1 X139.298 Y94.67 E41.17314
