; generated by PrusaSlicer 2.8.0+MacOS-arm64 on 2024-09-04 at 12:16:16 UTC


;
;

;
;
; 

; external perimeters extrusion width = 0.68mm
; perimeters extrusion width = 0.68mm
; infill extrusion width = 0.68mm
; solid infill extrusion width = 0.68mm
; top infill extrusion width = 0.60mm


EXCLUDE_OBJECT_DEFINE NAME='center_bed_level_press' CENTER=125.000,125.000 POLYGON=[[126.013,95.017],[129.041,95.273],[132.028,95.835],[134.812,96.650],[137.462,97.711],[140.000,99.019],[142.402,100.563],[144.646,102.328],[146.744,104.331],[148.723,106.637],[150.459,109.131],[151.934,111.788],[153.133,114.581],[154.042,117.480],[154.654,120.457],[154.961,123.481],[154.966,126.427],[154.695,129.269],[154.154,132.073],[153.350,134.812],[152.289,137.462],[150.981,140.000],[149.330,142.551],[147.429,144.923],[145.299,147.090],[143.545,148.582],[141.219,150.238],[138.665,151.707],[135.893,152.953],[133.009,153.911],[130.043,154.573],[127.025,154.932],[123.987,154.983],[120.959,154.727],[117.972,154.165],[115.188,153.350],[112.538,152.289],[110.000,150.981],[107.598,149.437],[105.354,147.672],[103.256,145.669],[101.277,143.363],[99.541,140.869],[98.066,138.212],[96.867,135.419],[95.958,132.520],[95.346,129.543],[95.039,126.519],[95.034,123.573],[95.305,120.731],[95.846,117.927],[96.650,115.188],[97.711,112.538],[99.019,110.000],[100.670,107.449],[102.571,105.077],[104.701,102.910],[107.040,100.970],[109.563,99.276],[112.245,97.847],[115.057,96.695],[117.927,95.846],[120.731,95.305],[123.573,95.034]]

;TYPE:Custom
START_PRINT BED_TEMP=75 HOTEND_TEMP=240 FILAMENT_TYPE=PET EXTRUSION_MULTIPLIER=0.88 PERIMETER_SPEED=70
G21 ; set units to millimeters
G90 ; use absolute coordinates
M82 ; use absolute distances for extrusion
G92 E0
; Filament gcode
; ########################### NOTE OFFSET CHANGES ####################################
; Prevents PETG buildup on nozzle.
; SET_GCODE_OFFSET Z=0.06
; ####################################################################################
M107
;LAYER_CHANGE
;Z:0.35
;HEIGHT:0.35
G1 E-.5 F240
G1 Z.35 F9000
EXCLUDE_OBJECT_START NAME='center_bed_level_press'
G92 E0
G1 X146.36 Y126.957
G1 E.5 F240
G92 E0
;TYPE:External perimeter
;WIDTH:0.675
G1 F1800
G1 X146.152 Y127.422 E.03913
G1 X145.887 Y127.883 E.07998
G1 X145.578 Y128.316 E.12084
G1 X145.227 Y128.716 E.16172
G1 X144.838 Y129.079 E.20259
G1 X144.415 Y129.401 E.24343
G1 X143.961 Y129.68 E.28436
G1 X143.483 Y129.912 E.32517
G1 X142.983 Y130.096 E.3661
G1 X142.468 Y130.228 E.40694
G1 X141.942 Y130.309 E.44782
G1 X141.411 Y130.337 E.48867
G1 X140.879 Y130.312 E.52958
G1 X140.353 Y130.234 E.57043
G1 X139.837 Y130.104 E.61131
G1 X139.336 Y129.924 E.6522
G1 X138.856 Y129.694 E.69309
G1 X138.401 Y129.418 E.73397
G1 X137.976 Y129.098 E.77484
G1 X137.585 Y128.737 E.81572
G1 X137.232 Y128.339 E.85659
G1 X136.92 Y127.908 E.89746
G1 X136.653 Y127.448 E.93832
G1 X136.433 Y126.964 E.97916
G1 X136.262 Y126.46 E1.02004
G1 X136.142 Y125.942 E1.06088
G1 X136.072 Y125.341 E1.10736
G1 X136.072 Y124.624 E1.16244
G1 X136.137 Y124.088 E1.20392
G1 X136.254 Y123.569 E1.24479
G1 X136.422 Y123.064 E1.28567
G1 X136.639 Y122.578 E1.32656
G1 X136.904 Y122.117 E1.36741
G1 X137.214 Y121.684 E1.40832
G1 X137.565 Y121.284 E1.4492
G1 X137.954 Y120.921 E1.49007
G1 X138.377 Y120.599 E1.53091
G1 X138.83 Y120.32 E1.57178
G1 X139.309 Y120.088 E1.61266
G1 X139.808 Y119.904 E1.65351
G1 X140.323 Y119.772 E1.69435
G1 X141.356 Y119.664 E1.77413
G1 X142.176 Y119.72 E1.83727
G1 X142.698 Y119.824 E1.87816
G1 X143.207 Y119.98 E1.91905
G1 X143.698 Y120.185 E1.95992
G1 X144.166 Y120.438 E2.00079
G1 X144.606 Y120.737 E2.04165
G1 X145.015 Y121.077 E2.08251
G1 X145.388 Y121.457 E2.12341
G1 X145.72 Y121.872 E2.16423
G1 X146.01 Y122.318 E2.2051
G1 X146.254 Y122.791 E2.24598
G1 X146.45 Y123.286 E2.28688
G1 X146.596 Y123.798 E2.32778
G1 X146.69 Y124.322 E2.36867
G1 X146.731 Y124.852 E2.4095
G1 X146.719 Y125.384 E2.45038
G1 X146.654 Y125.912 E2.49125
G1 X146.537 Y126.431 E2.53212
G1 X146.39 Y126.873 E2.5679
G1 X146.143 Y127.419 F9000
G1 X146.91 Y127.189
;TYPE:Perimeter
G1 F1800
G1 X146.699 Y127.668 E2.60811
G1 X146.407 Y128.183 E2.65359
G1 X146.065 Y128.666 E2.69905
G1 X145.677 Y129.113 E2.74452
G1 X145.246 Y129.519 E2.79
G1 X144.777 Y129.88 E2.83546
G1 X144.274 Y130.192 E2.88093
G1 X143.743 Y130.453 E2.92638
G1 X143.188 Y130.659 E2.97186
G1 X142.616 Y130.81 E3.0173
G1 X142.031 Y130.902 E3.06279
G1 X141.441 Y130.936 E3.10819
G1 X140.849 Y130.911 E3.15371
G1 X140.263 Y130.828 E3.19917
G1 X139.689 Y130.686 E3.24459
G1 X139.131 Y130.488 E3.29007
G1 X138.596 Y130.235 E3.33553
G1 X138.089 Y129.93 E3.38098
G1 X137.614 Y129.576 E3.42649
G1 X137.177 Y129.177 E3.47195
G1 X136.782 Y128.736 E3.51743
G1 X136.433 Y128.258 E3.56289
G1 X136.134 Y127.748 E3.6083
G1 X135.886 Y127.211 E3.65374
G1 X135.693 Y126.651 E3.69924
G1 X135.557 Y126.075 E3.7447
G1 X135.472 Y125.341 E3.80146
G1 X135.472 Y124.624 E3.85654
G1 X135.536 Y124.059 E3.90022
G1 X135.652 Y123.509 E3.9434
G1 X135.822 Y122.966 E3.98711
G1 X136.045 Y122.437 E4.03121
G1 X136.321 Y121.927 E4.07576
G1 X136.648 Y121.443 E4.12063
G1 X137.023 Y120.991 E4.16574
G1 X137.445 Y120.575 E4.21126
G1 X137.907 Y120.202 E4.25687
G1 X138.409 Y119.874 E4.30293
G1 X138.945 Y119.597 E4.34928
G1 X139.511 Y119.374 E4.39601
G1 X140.102 Y119.209 E4.44314
G1 X141.296 Y119.067 E4.53551
G1 X142.236 Y119.123 E4.60785
G1 X142.817 Y119.236 E4.65332
G1 X143.384 Y119.406 E4.69879
G1 X143.931 Y119.632 E4.74425
G1 X144.453 Y119.911 E4.78972
G1 X144.944 Y120.241 E4.83516
G1 X145.401 Y120.618 E4.88067
G1 X145.76 Y120.98 E4.91983
G1 X146.189 Y121.498 E4.9715
G1 X146.514 Y121.993 E5.01699
G1 X146.788 Y122.518 E5.06248
G1 X147.009 Y123.067 E5.10794
G1 X147.173 Y123.635 E5.15335
G1 X147.28 Y124.217 E5.19881
G1 X147.329 Y124.807 E5.24429
G1 X147.319 Y125.399 E5.28977
G1 X147.25 Y125.987 E5.33525
G1 X147.122 Y126.565 E5.38073
G1 X146.945 Y127.106 E5.42446
G1 X146.945 Y127.106 F9000
G1 X147.461 Y127.422
G1 F1800
G1 X147.246 Y127.915 E5.46578
G1 X146.926 Y128.483 E5.51586
G1 X146.612 Y128.932 E5.55795
G1 X146.126 Y129.51 E5.61596
G1 X145.654 Y129.958 E5.66595
G1 X145.139 Y130.358 E5.71604
G1 X144.587 Y130.704 E5.76608
G1 X144.003 Y130.993 E5.81613
G1 X143.393 Y131.223 E5.86621
G1 X142.764 Y131.391 E5.91622
G1 X142.121 Y131.496 E5.96627
G1 X141.47 Y131.535 E6.01637
G1 X140.819 Y131.51 E6.06641
G1 X140.174 Y131.421 E6.11643
G1 X139.541 Y131.267 E6.16647
G1 X138.926 Y131.051 E6.21654
G1 X138.336 Y130.775 E6.26658
G1 X137.776 Y130.442 E6.31663
G1 X137.252 Y130.054 E6.36672
G1 X136.769 Y129.617 E6.41675
G1 X136.333 Y129.133 E6.46679
G1 X135.946 Y128.609 E6.51683
G1 X135.614 Y128.048 E6.56691
G1 X135.339 Y127.457 E6.61698
G1 X135.125 Y126.842 E6.667
G1 X134.972 Y126.208 E6.7171
G1 X134.884 Y125.563 E6.76711
G1 X134.873 Y125.341 E6.78418
G1 X134.872 Y124.624 E6.83926
G1 X134.941 Y123.984 E6.88871
G1 X135.067 Y123.376 E6.93641
G1 X135.253 Y122.775 E6.98474
G1 X135.498 Y122.19 E7.03346
G1 X135.802 Y121.627 E7.08261
G1 X136.161 Y121.093 E7.13204
G1 X136.573 Y120.594 E7.18175
G1 X137.036 Y120.135 E7.23183
G1 X137.545 Y119.723 E7.28213
G1 X138.096 Y119.362 E7.33273
G1 X138.685 Y119.057 E7.38368
G1 X139.305 Y118.811 E7.43492
G1 X139.954 Y118.628 E7.48672
G1 X141.236 Y118.47 E7.58594
G1 X141.797 Y118.476 E7.62904
G1 X142.296 Y118.526 E7.66756
G1 X142.788 Y118.618 E7.70601
G1 X143.285 Y118.748 E7.74547
G1 X143.834 Y118.94 E7.79015
G1 X144.299 Y119.144 E7.82916
G1 X144.74 Y119.384 E7.86773
G1 X145.282 Y119.745 E7.91775
G1 X145.786 Y120.158 E7.9678
G1 X146.189 Y120.561 E8.01158
G1 X146.658 Y121.124 E8.06787
G1 X147.018 Y121.667 E8.11792
G1 X147.322 Y122.244 E8.16802
G1 X147.567 Y122.848 E8.21809
G1 X147.715 Y123.344 E8.25785
G1 X147.871 Y124.113 E8.31813
G1 X147.927 Y124.762 E8.36817
G1 X147.918 Y125.414 E8.41826
G1 X147.845 Y126.061 E8.46828
G1 X147.707 Y126.698 E8.51835
G1 X147.507 Y127.318 E8.56839
G1 X147.497 Y127.339 E8.57018
G1 E8.07018 F240
G92 E0
G1 X147.497 Y127.339 F9000
G1 X123.435 Y103.399
G1 E.5 F240
;TYPE:External perimeter
G1 F1800
G1 X123.928 Y103.272 E.53911
G1 X124.96 Y103.164 E.61882
G1 X125.781 Y103.22 E.68203
G1 X126.303 Y103.324 E.72292
G1 X126.811 Y103.48 E.76374
G1 X127.302 Y103.685 E.80461
G1 X127.698 Y103.899 E.83919
G1 X128.211 Y104.237 E.88638
G1 X128.619 Y104.577 E.92718
G1 X128.992 Y104.957 E.96808
G1 X129.325 Y105.372 E1.00895
G1 X129.615 Y105.818 E1.04982
G1 X129.859 Y106.291 E1.0907
G1 X130.055 Y106.786 E1.1316
G1 X130.2 Y107.298 E1.17248
G1 X130.294 Y107.822 E1.21337
G1 X130.335 Y108.352 E1.2542
G1 X130.323 Y108.884 E1.29508
G1 X130.259 Y109.412 E1.33594
G1 X130.142 Y109.931 E1.37681
G1 X129.974 Y110.436 E1.41769
G1 X129.756 Y110.922 E1.45861
G1 X129.491 Y111.383 E1.49946
G1 X129.182 Y111.816 E1.54032
G1 X128.831 Y112.216 E1.5812
G1 X128.442 Y112.579 E1.62207
G1 X128.019 Y112.901 E1.66291
G1 X127.566 Y113.18 E1.70378
G1 X127.087 Y113.412 E1.74466
G1 X126.587 Y113.596 E1.78559
G1 X126.072 Y113.728 E1.82643
G1 X125.546 Y113.809 E1.86731
G1 X125.015 Y113.837 E1.90816
G1 X124.483 Y113.812 E1.94907
G1 X123.957 Y113.734 E1.98992
G1 X123.441 Y113.604 E2.0308
G1 X122.941 Y113.424 E2.07162
G1 X122.461 Y113.194 E2.11251
G1 X122.006 Y112.918 E2.15339
G1 X121.581 Y112.598 E2.19426
G1 X121.19 Y112.237 E2.23514
G1 X120.837 Y111.839 E2.27601
G1 X120.525 Y111.408 E2.31688
G1 X120.257 Y110.948 E2.35778
G1 X120.037 Y110.464 E2.39862
G1 X119.866 Y109.96 E2.4395
G1 X119.747 Y109.442 E2.48033
G1 X119.679 Y108.914 E2.52122
G1 X119.677 Y108.124 E2.58191
G1 X119.741 Y107.588 E2.62338
G1 X119.858 Y107.069 E2.66425
G1 X120.026 Y106.564 E2.70513
G1 X120.244 Y106.078 E2.74605
G1 X120.509 Y105.617 E2.7869
G1 X120.818 Y105.184 E2.82776
G1 X121.169 Y104.784 E2.86864
G1 X121.558 Y104.421 E2.90951
G1 X121.981 Y104.099 E2.95035
G1 X122.434 Y103.82 E2.99122
G1 X122.913 Y103.588 E3.0321
G1 X123.35 Y103.427 E3.06787
G1 X123.932 Y103.283 F9000
G1 X123.273 Y102.823
;TYPE:Perimeter
G1 F1800
G1 X123.78 Y102.69 E3.10813
G1 X124.9 Y102.567 E3.19468
G1 X125.84 Y102.623 E3.26702
G1 X126.421 Y102.736 E3.31249
G1 X126.988 Y102.906 E3.35796
G1 X127.535 Y103.132 E3.40342
G1 X127.985 Y103.372 E3.4426
G1 X128.549 Y103.741 E3.49437
G1 X129.005 Y104.118 E3.53982
G1 X129.421 Y104.538 E3.58523
G1 X129.794 Y104.998 E3.63072
G1 X130.119 Y105.493 E3.67621
G1 X130.393 Y106.018 E3.7217
G1 X130.613 Y106.567 E3.76713
G1 X130.778 Y107.135 E3.81257
G1 X130.885 Y107.717 E3.85803
G1 X130.933 Y108.307 E3.9035
G1 X130.925 Y108.826 E3.94337
G1 X130.854 Y109.487 E3.99444
G1 X130.744 Y109.99 E4.03399
G1 X130.574 Y110.534 E4.07777
G1 X130.35 Y111.063 E4.1219
G1 X130.074 Y111.573 E4.16645
G1 X129.748 Y112.057 E4.21128
G1 X129.372 Y112.51 E4.2565
G1 X128.952 Y112.925 E4.30186
G1 X128.488 Y113.299 E4.34764
G1 X127.987 Y113.626 E4.3936
G1 X127.451 Y113.903 E4.43995
G1 X126.885 Y114.126 E4.48668
G1 X126.294 Y114.291 E4.53381
G1 X125.681 Y114.396 E4.58158
G1 X125.045 Y114.436 E4.63053
G1 X124.454 Y114.411 E4.67597
G1 X123.868 Y114.328 E4.72143
G1 X123.293 Y114.186 E4.76693
G1 X122.735 Y113.988 E4.81241
G1 X122.2 Y113.735 E4.85787
G1 X121.693 Y113.43 E4.90332
G1 X121.219 Y113.076 E4.94876
G1 X120.782 Y112.677 E4.99422
G1 X120.387 Y112.236 E5.0397
G1 X120.038 Y111.758 E5.08516
G1 X119.738 Y111.248 E5.13061
G1 X119.49 Y110.711 E5.17605
G1 X119.298 Y110.151 E5.22153
G1 X119.162 Y109.575 E5.26699
G1 X119.089 Y109.028 E5.30938
G1 X119.077 Y108.124 E5.37883
G1 X119.146 Y107.513 E5.42606
G1 X119.273 Y106.935 E5.47152
G1 X119.458 Y106.373 E5.51697
G1 X119.697 Y105.832 E5.5624
G1 X119.989 Y105.317 E5.60788
G1 X120.331 Y104.834 E5.65334
G1 X120.719 Y104.387 E5.69881
G1 X121.15 Y103.981 E5.74429
G1 X121.619 Y103.62 E5.78975
G1 X122.122 Y103.308 E5.83522
G1 X122.653 Y103.047 E5.88067
G1 X123.187 Y102.848 E5.92445
G1 X123.187 Y102.848 F9000
G1 X123.111 Y102.248
G1 F1800
G1 X123.632 Y102.109 E5.96587
G1 X124.84 Y101.97 E6.05928
G1 X125.401 Y101.976 E6.10238
G1 X125.9 Y102.026 E6.1409
G1 X126.54 Y102.148 E6.19095
G1 X127.165 Y102.333 E6.24102
G1 X127.768 Y102.579 E6.29105
G1 X128.272 Y102.845 E6.33483
G1 X128.887 Y103.245 E6.39119
G1 X129.39 Y103.658 E6.44118
G1 X129.851 Y104.12 E6.49132
G1 X130.263 Y104.624 E6.54133
G1 X130.623 Y105.168 E6.59144
G1 X130.926 Y105.744 E6.64143
G1 X131.171 Y106.348 E6.6915
G1 X131.355 Y106.973 E6.74155
G1 X131.475 Y107.613 E6.79157
G1 X131.532 Y108.262 E6.84162
G1 X131.525 Y108.841 E6.8861
G1 X131.449 Y109.561 E6.94172
G1 X131.328 Y110.124 E6.98596
G1 X131.142 Y110.725 E7.03429
G1 X130.897 Y111.31 E7.08301
G1 X130.594 Y111.873 E7.13212
G1 X130.235 Y112.407 E7.18155
G1 X129.822 Y112.906 E7.23131
G1 X129.36 Y113.364 E7.28128
G1 X128.85 Y113.777 E7.33169
G1 X128.299 Y114.138 E7.38229
G1 X127.711 Y114.443 E7.43317
G1 X127.09 Y114.689 E7.48448
G1 X126.442 Y114.872 E7.5362
G1 X125.77 Y114.989 E7.5886
G1 X125.075 Y115.035 E7.6421
G1 X124.538 Y115.016 E7.68338
G1 X123.92 Y114.942 E7.73119
G1 X123.306 Y114.808 E7.77947
G1 X122.702 Y114.614 E7.8282
G1 X122.116 Y114.36 E7.87726
G1 X121.554 Y114.048 E7.92664
G1 X121.023 Y113.681 E7.97622
G1 X120.529 Y113.26 E8.02608
G1 X120.076 Y112.791 E8.07617
G1 X119.671 Y112.276 E8.1265
G1 X119.318 Y111.721 E8.17703
G1 X119.022 Y111.13 E8.2278
G1 X118.785 Y110.508 E8.27893
G1 X118.611 Y109.86 E8.33047
G1 X118.493 Y109.103 E8.38932
G1 X118.477 Y108.124 E8.46453
G1 X118.551 Y107.439 E8.51746
G1 X118.689 Y106.802 E8.56753
G1 X118.889 Y106.182 E8.61757
G1 X119.15 Y105.585 E8.66762
G1 X119.469 Y105.017 E8.71766
G1 X119.844 Y104.484 E8.76772
G1 X120.269 Y103.99 E8.81778
G1 X120.742 Y103.542 E8.86782
G1 X121.257 Y103.142 E8.91791
G1 X121.809 Y102.796 E8.96795
G1 X122.392 Y102.507 E9.01793
G1 X123.002 Y102.277 E9.06801
G1 X123.024 Y102.271 E9.06976
G1 E8.56976 F240
G92 E0
G1 X123.024 Y102.271 F9000
G1 X106.919 Y130.097
G1 E.5 F240
;TYPE:External perimeter
G1 F1800
G1 X106.441 Y129.924 E.53905
G1 X105.961 Y129.694 E.57994
G1 X105.506 Y129.418 E.62082
G1 X105.081 Y129.098 E.66169
G1 X104.69 Y128.737 E.70257
G1 X104.337 Y128.339 E.74344
G1 X104.025 Y127.908 E.78431
G1 X103.757 Y127.448 E.82521
G1 X103.537 Y126.964 E.86605
G1 X103.366 Y126.46 E.90693
G1 X103.247 Y125.942 E.94776
G1 X103.179 Y125.414 E.98865
G1 X103.177 Y124.624 E1.04934
G1 X103.241 Y124.088 E1.09081
G1 X103.358 Y123.569 E1.13168
G1 X103.526 Y123.064 E1.17256
G1 X103.744 Y122.578 E1.21348
G1 X104.009 Y122.117 E1.25433
G1 X104.318 Y121.684 E1.29519
G1 X104.669 Y121.284 E1.33607
G1 X105.058 Y120.921 E1.37694
G1 X105.481 Y120.599 E1.41778
G1 X105.934 Y120.32 E1.45865
G1 X106.413 Y120.088 E1.49953
G1 X106.913 Y119.904 E1.54046
G1 X107.428 Y119.772 E1.5813
G1 X108.46 Y119.664 E1.66101
G1 X109.158 Y119.708 E1.71473
G1 X109.802 Y119.824 E1.765
G1 X110.311 Y119.98 E1.80589
G1 X110.802 Y120.185 E1.84676
G1 X111.27 Y120.438 E1.88763
G1 X111.711 Y120.737 E1.92856
G1 X112.119 Y121.077 E1.96936
G1 X112.492 Y121.457 E2.01026
G1 X112.825 Y121.872 E2.05113
G1 X113.115 Y122.318 E2.092
G1 X113.359 Y122.791 E2.13288
G1 X113.555 Y123.286 E2.17378
G1 X113.7 Y123.798 E2.21466
G1 X113.794 Y124.322 E2.25555
G1 X113.835 Y124.852 E2.29638
G1 X113.823 Y125.384 E2.33726
G1 X113.759 Y125.912 E2.37812
G1 X113.642 Y126.431 E2.41899
G1 X113.474 Y126.936 E2.45987
G1 X113.256 Y127.422 E2.50079
G1 X112.991 Y127.883 E2.54164
G1 X112.682 Y128.316 E2.5825
G1 X112.331 Y128.716 E2.62338
G1 X111.942 Y129.079 E2.66425
G1 X111.519 Y129.401 E2.70509
G1 X111.066 Y129.68 E2.74596
G1 X110.559 Y129.924 E2.78918
G1 X110.087 Y130.096 E2.82777
G1 X109.572 Y130.228 E2.86861
G1 X109.046 Y130.309 E2.90949
G1 X108.515 Y130.337 E2.95034
G1 X107.983 Y130.312 E2.99125
G1 X107.457 Y130.234 E3.0321
G1 X107.006 Y130.121 E3.06782
G1 X106.442 Y129.915 F9000
G1 X106.729 Y130.663
;TYPE:Perimeter
G1 F1800
G1 X106.235 Y130.488 E3.10808
G1 X105.7 Y130.235 E3.15354
G1 X105.193 Y129.93 E3.19899
G1 X104.719 Y129.576 E3.24443
G1 X104.282 Y129.177 E3.28989
G1 X103.887 Y128.736 E3.33537
G1 X103.538 Y128.258 E3.38083
G1 X103.238 Y127.748 E3.42628
G1 X102.99 Y127.211 E3.47172
G1 X102.798 Y126.651 E3.5172
G1 X102.662 Y126.075 E3.56266
G1 X102.584 Y125.489 E3.60807
G1 X102.577 Y124.624 E3.67452
G1 X102.646 Y124.013 E3.72175
