; generated by PrusaSlicer 2.8.0+MacOS-arm64 on 2024-08-15 at 08:11:52 UTC


;
;

;
;
; 

; external perimeters extrusion width = 0.68mm
; perimeters extrusion width = 0.68mm
; infill extrusion width = 0.68mm
; solid infill extrusion width = 0.68mm
; top infill extrusion width = 0.60mm


EXCLUDE_OBJECT_DEFINE NAME='bel_level_tuning' CENTER=124.999,125.001 POLYGON=[[226.652,0.055],[229.115,0.341],[231.537,0.870],[233.895,1.636],[235.042,2.106],[237.261,3.213],[238.326,3.848],[240.355,5.271],[242.234,6.889],[243.943,8.685],[245.466,10.642],[246.152,11.674],[247.368,13.835],[248.364,16.105],[249.130,18.463],[249.659,20.885],[249.945,23.348],[249.986,25.827],[249.782,28.297],[249.333,30.736],[248.645,33.117],[247.725,35.420],[246.581,37.619],[245.225,39.695],[243.671,41.626],[241.932,43.393],[240.027,44.980],[237.974,46.370],[235.794,47.550],[233.507,48.508],[232.331,48.901],[229.928,49.509],[227.476,49.877],[225.000,50.000],[225.000,200.000],[227.476,200.123],[228.707,200.276],[229.928,200.490],[232.331,201.099],[234.662,201.943],[235.794,202.450],[236.899,203.013],[239.018,204.300],[240.027,205.020],[241.932,206.607],[242.823,207.469],[244.472,209.321],[245.929,211.326],[247.181,213.466],[247.725,214.580],[248.645,216.882],[249.019,218.065],[249.588,220.478],[249.782,221.703],[249.986,224.173],[249.945,226.652],[249.833,227.887],[249.425,230.332],[249.130,231.537],[248.776,232.725],[247.894,235.042],[247.368,236.165],[246.152,238.326],[245.466,239.358],[243.943,241.315],[243.111,242.234],[241.315,243.943],[239.358,245.466],[238.326,246.152],[236.165,247.368],[235.042,247.894],[232.725,248.776],[231.537,249.130],[230.332,249.425],[227.887,249.833],[226.652,249.945],[224.173,249.986],[221.703,249.782],[220.478,249.588],[218.065,249.019],[216.882,248.645],[215.720,248.214],[213.466,247.181],[211.326,245.929],[209.321,244.472],[207.469,242.823],[206.607,241.932],[205.020,240.027],[204.300,239.018],[203.013,236.899],[202.450,235.794],[201.943,234.662],[201.099,232.331],[200.490,229.928],[200.276,228.707],[200.123,227.476],[200.000,225.000],[50.000,225.000],[49.969,226.240],[49.724,228.707],[49.509,229.928],[48.901,232.331],[48.508,233.507],[47.550,235.794],[46.987,236.899],[45.700,239.018],[44.210,240.999],[43.393,241.932],[42.531,242.823],[40.679,244.472],[38.674,245.929],[36.534,247.181],[35.420,247.725],[33.117,248.645],[31.935,249.019],[29.522,249.588],[28.297,249.782],[25.827,249.986],[23.348,249.945],[22.113,249.833],[19.668,249.425],[18.463,249.130],[17.275,248.776],[14.958,247.894],[13.835,247.368],[11.674,246.152],[10.642,245.466],[8.685,243.943],[6.889,242.234],[6.057,241.315],[5.271,240.355],[3.848,238.326],[3.213,237.261],[2.106,235.042],[1.636,233.895],[0.870,231.537],[0.341,229.115],[0.167,227.887],[0.055,226.652],[0.014,224.173],[0.218,221.703],[0.412,220.478],[0.981,218.065],[1.355,216.882],[2.275,214.580],[2.819,213.466],[3.419,212.381],[4.775,210.305],[5.528,209.321],[7.177,207.469],[8.068,206.607],[9.973,205.020],[12.026,203.630],[13.101,203.013],[15.338,201.943],[17.669,201.099],[20.072,200.490],[21.293,200.276],[22.524,200.123],[25.000,200.000],[25.000,50.000],[23.760,49.969],[21.293,49.724],[18.863,49.235],[17.669,48.901],[16.493,48.508],[14.206,47.550],[13.101,46.987],[10.982,45.700],[9.001,44.210],[8.068,43.393],[6.329,41.626],[5.528,40.679],[4.071,38.674],[3.419,37.619],[2.275,35.420],[1.355,33.117],[0.981,31.935],[0.667,30.736],[0.218,28.297],[0.014,25.827],[0.055,23.348],[0.167,22.113],[0.341,20.885],[0.870,18.463],[1.224,17.275],[2.106,14.958],[3.213,12.739],[3.848,11.674],[4.534,10.642],[6.057,8.685],[6.889,7.766],[8.685,6.057],[10.642,4.534],[11.674,3.848],[12.739,3.213],[14.958,2.106],[17.275,1.224],[18.463,0.870],[20.885,0.341],[22.113,0.167],[23.348,0.055],[25.827,0.014],[28.297,0.218],[29.522,0.412],[31.935,0.981],[33.117,1.355],[35.420,2.275],[37.619,3.419],[38.674,4.071],[40.679,5.528],[41.626,6.329],[43.393,8.068],[44.210,9.001],[45.700,10.982],[46.987,13.101],[47.550,14.206],[48.508,16.493],[48.901,17.669],[49.235,18.863],[49.724,21.293],[49.969,23.760],[50.000,25.000],[200.000,25.000],[200.123,22.524],[200.490,20.072],[201.099,17.669],[201.943,15.338],[203.013,13.101],[204.300,10.982],[205.790,9.001],[207.469,7.177],[209.321,5.528],[210.305,4.775],[212.381,3.419],[214.580,2.275],[216.882,1.355],[219.264,0.667],[221.703,0.218],[224.173,0.014]]

;TYPE:Custom
START_PRINT BED_TEMP=70 HOTEND_TEMP=220 FILAMENT_TYPE=PLA EXTRUSION_MULTIPLIER=0.95 PERIMETER_SPEED=70
G21 ; set units to millimeters
G90 ; use absolute coordinates
M82 ; use absolute distances for extrusion
G92 E0
; Filament gcode
M107
;LAYER_CHANGE
;Z:0.35
;HEIGHT:0.35
G1 E-.5 F240
G1 Z.35 F9000
EXCLUDE_OBJECT_START NAME='bel_level_tuning'
G92 E0
G1 X190.141 Y66.719
G1 E.5 F240
G92 E0
;TYPE:External perimeter
;WIDTH:0.675
G1 F1800
G1 X190.218 Y66.74 E.00662
G1 X190.321 Y66.883 E.02123
G1 X190.338 Y66.98 E.0294
G1 X190.338 Y115.036 E4.01455
G1 X190.297 Y115.186 E4.02745
G1 X190.142 Y115.317 E4.04428
G1 X189.055 Y115.384 E4.13459
G1 X188.119 Y115.523 E4.21306
G1 X187.198 Y115.753 E4.29178
G1 X186.509 Y116 E4.35248
G1 X185.878 Y116.261 E4.40911
G1 X185.043 Y116.706 E4.48757
G1 X184.256 Y117.231 E4.56602
G1 X183.526 Y117.827 E4.64417
G1 X182.542 Y118.858 E4.76236
G1 X181.979 Y119.614 E4.84053
G1 X181.488 Y120.427 E4.91929
G1 X181.175 Y121.088 E4.97994
G1 X180.912 Y121.719 E5.03663
G1 X180.635 Y122.623 E5.11504
G1 X180.438 Y123.597 E5.19745
G1 X180.355 Y123.751 E5.21196
G1 X180.144 Y123.838 E5.23089
G1 X154.928 Y123.837 E7.32198
G1 X154.711 Y123.745 E7.34153
G1 X154.628 Y123.56 E7.35834
G1 X154.522 Y122.117 E7.47833
G1 X154.353 Y120.723 E7.59478
G1 X154.117 Y119.34 E7.71113
G1 X153.817 Y117.968 E7.82759
G1 X153.452 Y116.613 E7.94396
G1 X153.023 Y115.276 E8.0604
G1 X152.532 Y113.961 E8.1768
G1 X151.979 Y112.671 E8.29319
G1 X151.366 Y111.409 E8.40954
G1 X150.993 Y110.731 E8.47371
G1 X150.65 Y110.106 E8.53283
G1 X149.963 Y108.978 E8.64236
G1 X149.153 Y107.779 E8.76235
G1 X149.105 Y107.583 E8.77908
G1 X149.191 Y107.402 E8.7957
G1 X189.825 Y66.768 E13.56112
G1 X190.009 Y66.682 E13.57796
G1 X190.054 Y66.694 E13.58182
G1 E13.08182 F240
G92 E0
G1 X190.054 Y66.694 F9000
G1 X190.152 Y183.277
G1 E.5 F240
G1 F1800
G1 X190.092 Y183.315 E.50589
G1 X189.908 Y183.29 E.52129
G1 X189.825 Y183.232 E.52969
G1 X149.191 Y142.598 E5.29511
G1 X149.105 Y142.417 E5.31173
G1 X149.155 Y142.218 E5.32875
G1 X149.963 Y141.022 E5.44844
G1 X150.693 Y139.823 E5.56485
G1 X151.365 Y138.591 E5.68123
G1 X151.979 Y137.329 E5.79761
G1 X152.256 Y136.683 E5.8559
G1 X152.532 Y136.039 E5.914
G1 X153.023 Y134.724 E6.0304
G1 X153.452 Y133.387 E6.14684
G1 X153.817 Y132.032 E6.26321
G1 X154.117 Y130.66 E6.37967
G1 X154.353 Y129.277 E6.49602
G1 X154.522 Y127.883 E6.61247
G1 X154.629 Y126.436 E6.73279
G1 X154.711 Y126.255 E6.74927
G1 X154.928 Y126.163 E6.76882
G1 X180.144 Y126.163 E8.85991
G1 X180.355 Y126.249 E8.87881
G1 X180.438 Y126.403 E8.89332
G1 X180.635 Y127.377 E8.97573
G1 X180.911 Y128.277 E9.0538
G1 X181.492 Y129.579 E9.17203
G1 X181.979 Y130.386 E9.25019
G1 X182.546 Y131.148 E9.32895
G1 X183.039 Y131.688 E9.38959
G1 X183.523 Y132.17 E9.44623
G1 X184.256 Y132.769 E9.52473
G1 X185.043 Y133.294 E9.60318
G1 X185.878 Y133.739 E9.68164
G1 X186.752 Y134.1 E9.76006
G1 X187.654 Y134.373 E9.83821
G1 X189.058 Y134.616 E9.95637
G1 X190.052 Y134.665 E10.0389
G1 X190.21 Y134.719 E10.05275
G1 X190.327 Y134.885 E10.06959
G1 X190.338 Y134.964 E10.0762
G1 X190.338 Y183.02 E14.06135
G1 X190.278 Y183.2 E14.07708
G1 X190.228 Y183.23 E14.08192
G1 E13.58192 F240
G92 E0
G1 X190.228 Y183.23 F9000
G1 X183.281 Y190.141
G1 E.5 F240
G1 F1800
G1 X183.26 Y190.218 E.50662
G1 X183.071 Y190.333 E.52497
G1 X183.02 Y190.337 E.52921
G1 X134.964 Y190.337 E4.51436
G1 X134.814 Y190.297 E4.52723
G1 X134.683 Y190.142 E4.54406
G1 X134.616 Y189.055 E4.63437
G1 X134.477 Y188.119 E4.71284
G1 X134.247 Y187.198 E4.79156
G1 X134 Y186.509 E4.85226
G1 X133.739 Y185.878 E4.90889
G1 X133.294 Y185.043 E4.98735
G1 X132.769 Y184.256 E5.0658
G1 X132.17 Y183.524 E5.14424
G1 X131.5 Y182.851 E5.22299
G1 X130.935 Y182.386 E5.28367
G1 X130.386 Y181.979 E5.34034
G1 X129.576 Y181.49 E5.4188
G1 X128.719 Y181.082 E5.49751
G1 X128.03 Y180.835 E5.55821
G1 X127.377 Y180.635 E5.61484
G1 X126.403 Y180.438 E5.69725
G1 X126.249 Y180.355 E5.71176
G1 X126.163 Y180.144 E5.73066
G1 X126.163 Y154.928 E7.82175
G1 X126.255 Y154.711 E7.8413
G1 X126.44 Y154.628 E7.85811
G1 X127.883 Y154.522 E7.9781
G1 X129.277 Y154.353 E8.09455
G1 X130.66 Y154.117 E8.2109
G1 X132.032 Y153.817 E8.32736
G1 X133.387 Y153.452 E8.44373
G1 X134.724 Y153.023 E8.56017
G1 X136.039 Y152.532 E8.67657
G1 X137.329 Y151.979 E8.79296
G1 X138.591 Y151.365 E8.90934
G1 X139.823 Y150.693 E9.02572
G1 X141.091 Y149.917 E9.149
G1 X142.221 Y149.153 E9.26212
G1 X142.417 Y149.105 E9.27885
G1 X142.598 Y149.191 E9.29547
G1 X183.232 Y189.825 E14.06089
G1 X183.318 Y190.009 E14.07773
G1 X183.306 Y190.054 E14.08159
G1 E13.58159 F240
G92 E0
G1 X183.306 Y190.054 F9000
G1 X123.755 Y154.734
G1 E.5 F240
G1 F1800
G1 X123.838 Y154.928 E.5175
G1 X123.838 Y180.144 E2.60859
G1 X123.751 Y180.355 E2.62752
G1 X123.597 Y180.438 E2.64203
G1 X122.623 Y180.635 E2.72444
G1 X121.723 Y180.911 E2.80251
G1 X120.421 Y181.492 E2.92074
G1 X119.614 Y181.979 E2.9989
G1 X118.855 Y182.544 E3.07737
G1 X118.153 Y183.183 E3.15609
G1 X117.663 Y183.727 E3.2168
G1 X117.231 Y184.256 E3.27344
G1 X116.706 Y185.043 E3.35189
G1 X116.261 Y185.878 E3.43035
G1 X116.082 Y186.312 E3.46928
G1 X115.764 Y187.203 E3.54773
G1 X115.534 Y188.12 E3.62613
G1 X115.396 Y189.054 E3.70442
G1 X115.305 Y190.172 E3.79744
G1 X115.187 Y190.297 E3.8117
G1 X115.037 Y190.337 E3.82457
G1 X66.98 Y190.337 E7.8098
G1 X66.8 Y190.278 E7.82551
G1 X66.685 Y190.092 E7.84364
G1 X66.71 Y189.908 E7.85904
G1 X66.768 Y189.825 E7.86744
G1 X107.402 Y149.191 E12.63286
G1 X107.583 Y149.105 E12.64948
G1 X107.782 Y149.155 E12.6665
G1 X108.978 Y149.963 E12.78619
G1 X110.177 Y150.693 E12.9026
G1 X111.409 Y151.365 E13.01898
G1 X112.671 Y151.979 E13.13536
G1 X113.961 Y152.532 E13.25175
G1 X115.276 Y153.023 E13.36815
G1 X116.613 Y153.452 E13.48459
G1 X117.968 Y153.817 E13.60096
G1 X119.34 Y154.117 E13.71742
G1 X120.723 Y154.353 E13.83377
G1 X122.117 Y154.522 E13.95022
G1 X123.564 Y154.629 E14.07054
G1 X123.686 Y154.684 E14.08164
G1 E13.58164 F240
G92 E0
G1 X123.686 Y154.684 F9000
G1 X126.252 Y220.244
G1 E.5 F240
G1 F1800
G1 X126.182 Y220.145 E.51005
G1 X126.163 Y220.038 E.51906
G1 X126.163 Y199.856 E2.19269
G1 X126.249 Y199.646 E2.21151
G1 X126.403 Y199.562 E2.22606
G1 X127.389 Y199.362 E2.30949
G1 X128.762 Y198.899 E2.42965
G1 X129.626 Y198.483 E2.50917
G1 X130.447 Y197.981 E2.58897
G1 X131.213 Y197.399 E2.66875
G1 X131.916 Y196.747 E2.74826
G1 X132.847 Y195.637 E2.8684
G1 X133.388 Y194.799 E2.95112
G1 X133.514 Y194.69 E2.96494
G1 X134.302 Y194.663 E3.03032
G1 X187.944 Y194.663 E7.4787
G1 X188.117 Y194.717 E7.49373
G1 X188.157 Y194.75 E7.49803
G1 X200.808 Y207.402 E8.98176
G1 X200.895 Y207.585 E8.99856
G1 X200.845 Y207.782 E9.01541
G1 X200.033 Y208.988 E9.13598
G1 X199.375 Y210.06 E9.24029
G1 X198.728 Y211.229 E9.35109
G1 X198.135 Y212.426 E9.46187
G1 X197.596 Y213.649 E9.5727
G1 X197.112 Y214.894 E9.68347
G1 X196.664 Y216.236 E9.8008
G1 X196.316 Y217.445 E9.90513
G1 X196.005 Y218.744 E10.0159
G1 X195.745 Y220.094 E10.12991
G1 X195.629 Y220.278 E10.14795
G1 X195.451 Y220.337 E10.1635
G1 X126.462 Y220.337 E15.88456
G1 X126.327 Y220.287 E15.8965
G1 E15.3965 F240
G92 E0
G1 X126.327 Y220.287 F9000
G1 X59.859 Y183.281
G1 E.5 F240
G1 F1800
G1 X59.782 Y183.26 E.50662
G1 X59.667 Y183.071 E.52497
G1 X59.663 Y183.02 E.52921
G1 X59.663 Y134.964 E4.51436
G1 X59.703 Y134.814 E4.52723
G1 X59.858 Y134.683 E4.54406
G1 X60.949 Y134.616 E4.6347
G1 X61.672 Y134.507 E4.69533
G1 X62.342 Y134.374 E4.75198
G1 X63.248 Y134.1 E4.83047
G1 X64.122 Y133.739 E4.90889
G1 X64.957 Y133.294 E4.98735
G1 X65.741 Y132.771 E5.0655
G1 X66.822 Y131.842 E5.1837
G1 X67.456 Y131.145 E5.26183
G1 X68.021 Y130.386 E5.3403
G1 X68.51 Y129.576 E5.41876
G1 X68.916 Y128.722 E5.49718
G1 X69.238 Y127.832 E5.57567
G1 X69.471 Y126.911 E5.65445
G1 X69.56 Y126.41 E5.69665
G1 X69.645 Y126.249 E5.71175
G1 X69.856 Y126.163 E5.73065
G1 X95.072 Y126.163 E7.82174
G1 X95.211 Y126.196 E7.83359
G1 X95.352 Y126.355 E7.85121
G1 X95.478 Y127.883 E7.97835
G1 X95.647 Y129.277 E8.0948
G1 X95.883 Y130.66 E8.21115
G1 X96.183 Y132.032 E8.32761
G1 X96.548 Y133.387 E8.44398
G1 X96.977 Y134.723 E8.56034
G1 X97.5 Y136.114 E8.68358
G1 X98.021 Y137.329 E8.79321
G1 X98.635 Y138.591 E8.90959
G1 X99.307 Y139.823 E9.02597
G1 X100.037 Y141.022 E9.14238
G1 X100.851 Y142.226 E9.2629
G1 X100.895 Y142.417 E9.27915
G1 X100.809 Y142.598 E9.29577
G1 X60.175 Y183.232 E14.06119
G1 X59.991 Y183.318 E14.07803
G1 X59.946 Y183.306 E14.08189
G1 E13.58189 F240
G92 E0
G1 X59.946 Y183.306 F9000
G1 X59.848 Y66.723
G1 E.5 F240
G1 F1800
G1 X59.908 Y66.685 E.50589
G1 X60.092 Y66.71 E.52129
G1 X60.175 Y66.768 E.52969
G1 X100.809 Y107.402 E5.29511
G1 X100.895 Y107.583 E5.31173
G1 X100.845 Y107.782 E5.32875
G1 X100.037 Y108.978 E5.44844
G1 X99.307 Y110.177 E5.56485
G1 X98.635 Y111.409 E5.68123
G1 X98.021 Y112.671 E5.79761
G1 X97.468 Y113.961 E5.914
G1 X96.977 Y115.276 E6.0304
G1 X96.548 Y116.613 E6.14684
G1 X96.183 Y117.968 E6.26321
G1 X95.883 Y119.339 E6.37959
G1 X95.638 Y120.805 E6.50285
G1 X95.478 Y122.117 E6.61246
G1 X95.371 Y123.564 E6.73278
G1 X95.289 Y123.745 E6.74926
G1 X95.099 Y123.836 E6.76673
G1 X69.856 Y123.837 E8.86006
G1 X69.645 Y123.751 E8.87896
G1 X69.562 Y123.597 E8.89347
G1 X69.365 Y122.62 E8.97612
G1 X69.149 Y121.921 E9.03679
G1 X68.917 Y121.278 E9.09348
G1 X68.51 Y120.424 E9.17193
G1 X68.021 Y119.614 E9.25039
G1 X67.456 Y118.855 E9.32886
G1 X66.817 Y118.153 E9.40758
G1 X66.273 Y117.663 E9.46829
G1 X65.744 Y117.231 E9.52493
G1 X64.957 Y116.706 E9.60338
G1 X64.122 Y116.261 E9.68184
G1 X63.684 Y116.08 E9.72114
G1 X62.796 Y115.764 E9.7993
G1 X61.88 Y115.534 E9.87762
G1 X60.946 Y115.396 E9.95591
G1 X59.837 Y115.309 E10.04816
G1 X59.703 Y115.187 E10.06319
G1 X59.663 Y115.037 E10.07606
G1 X59.663 Y66.98 E14.06129
G1 X59.722 Y66.8 E14.077
G1 X59.772 Y66.77 E14.08184
G1 E13.58184 F240
G92 E0
G1 X59.772 Y66.77 F9000
G1 X29.756 Y123.741
G1 E.5 F240
G1 F1800
G1 X29.675 Y123.625 E.51173
G1 X29.663 Y123.538 E.51901
G1 X29.663 Y54.549 E6.24007
G1 X29.722 Y54.371 E6.25562
G1 X29.906 Y54.255 E6.27366
G1 X31.256 Y53.995 E6.38767
G1 X32.555 Y53.684 E6.49844
G1 X33.839 Y53.315 E6.60923
G1 X35.106 Y52.888 E6.72011
G1 X36.351 Y52.404 E6.83088
G1 X37.574 Y51.865 E6.94171
G1 X38.771 Y51.272 E7.05249
G1 X39.94 Y50.625 E7.16329
G1 X41.144 Y49.882 E7.28062
G1 X42.263 Y49.13 E7.39242
G1 X42.446 Y49.11 E7.40769
G1 X42.598 Y49.191 E7.42197
G1 X55.25 Y61.843 E8.90575
G1 X55.336 Y62.027 E8.92259
G1 X55.337 Y116.361 E13.42835
G1 X55.262 Y116.56 E13.44599
G1 X54.344 Y117.167 E13.53725
G1 X53.253 Y118.084 E13.65544
G1 X52.603 Y118.784 E13.73466
G1 X51.754 Y119.963 E13.85514
G1 X51.409 Y120.613 E13.91616
G1 X50.922 Y121.692 E14.01433
G1 X50.639 Y122.608 E14.09383
G1 X50.438 Y123.597 E14.17752
G1 X50.354 Y123.751 E14.19207
G1 X50.144 Y123.838 E14.21092
G1 X29.962 Y123.838 E15.88455
G1 X29.825 Y123.791 E15.89656
G1 E15.39656 F240
G92 E0
G1 X29.825 Y123.791 F9000
G1 X115.235 Y59.761
G1 E.5 F240
G1 F1800
G1 X115.317 Y59.858 E.51053
G1 X115.384 Y60.945 E.60084
G1 X115.523 Y61.881 E.67931
G1 X115.753 Y62.802 E.75803
G1 X116 Y63.491 E.81873
G1 X116.261 Y64.122 E.87536
G1 X116.482 Y64.536 E.91428
G1 X116.968 Y65.35 E.9929
G1 X117.53 Y66.11 E1.07128
G1 X118.163 Y66.811 E1.14961
G1 X118.693 Y67.315 E1.21026
G1 X119.239 Y67.743 E1.26779
G1 X120.014 Y68.263 E1.34518
G1 X120.85 Y68.713 E1.42391
G1 X121.722 Y69.077 E1.50227
G1 X122.625 Y69.354 E1.5806
G1 X123.705 Y69.607 E1.67259
G1 X123.807 Y69.723 E1.6854
G1 X123.838 Y69.856 E1.69672
G1 X123.837 Y95.072 E3.78781
G1 X123.804 Y95.211 E3.79966
G1 X123.645 Y95.352 E3.81728
G1 X122.117 Y95.478 E3.94442
G1 X120.723 Y95.647 E4.06087
G1 X119.34 Y95.883 E4.17722
G1 X117.968 Y96.183 E4.29368
G1 X116.613 Y96.548 E4.41005
G1 X115.277 Y96.977 E4.52641
