; generated by PrusaSlicer 2.8.0+MacOS-arm64 on 2024-09-05 at 12:11:33 UTC


;
;

;
;
; 

; external perimeters extrusion width = 0.68mm
; perimeters extrusion width = 0.68mm
; infill extrusion width = 0.68mm
; solid infill extrusion width = 0.68mm
; top infill extrusion width = 0.60mm

; external perimeters extrusion width = 0.68mm
; perimeters extrusion width = 0.68mm
; infill extrusion width = 0.68mm
; solid infill extrusion width = 0.68mm
; top infill extrusion width = 0.60mm

; external perimeters extrusion width = 0.68mm
; perimeters extrusion width = 0.68mm
; infill extrusion width = 0.68mm
; solid infill extrusion width = 0.68mm
; top infill extrusion width = 0.60mm

; external perimeters extrusion width = 0.68mm
; perimeters extrusion width = 0.68mm
; infill extrusion width = 0.68mm
; solid infill extrusion width = 0.68mm
; top infill extrusion width = 0.60mm


EXCLUDE_OBJECT_DEFINE NAME='inner_corner_support_1' CENTER=112.000,107.000 POLYGON=[[122.000,122.000],[102.000,122.000],[102.000,92.000],[122.000,92.000]]
EXCLUDE_OBJECT_DEFINE NAME='inner_corner_support_3' CENTER=138.000,107.000 POLYGON=[[148.000,122.000],[128.000,122.000],[128.000,92.000],[148.000,92.000]]
EXCLUDE_OBJECT_DEFINE NAME='inner_corner_support_2' CENTER=112.000,143.000 POLYGON=[[122.000,158.000],[102.000,158.000],[102.000,128.000],[122.000,128.000]]
EXCLUDE_OBJECT_DEFINE NAME='inner_corner_support_4' CENTER=138.000,143.000 POLYGON=[[148.000,158.000],[128.000,158.000],[128.000,128.000],[148.000,128.000]]

;TYPE:Custom
START_PRINT BED_TEMP=65 HOTEND_TEMP=220 FILAMENT_TYPE=PLA EXTRUSION_MULTIPLIER=0.95 PERIMETER_SPEED=70
G21 ; set units to millimeters
G90 ; use absolute coordinates
M82 ; use absolute distances for extrusion
G92 E0
; Filament gcode
M107
;LAYER_CHANGE
;Z:0.35
;HEIGHT:0.35
G1 E-.5 F240
G1 Z.35 F9000
EXCLUDE_OBJECT_START NAME='inner_corner_support_4'
G92 E0
G1 X137.916 Y156.026
G1 E.5 F240
G92 E0
;TYPE:External perimeter
;WIDTH:0.675
G1 F1800
G1 X137.803 Y156.03 E.00938
G1 X137.206 Y155.931 E.05956
G1 X136.641 Y155.715 E.10972
G1 X136.02 Y155.301 E.17161
G1 X135.598 Y154.857 E.22241
G1 X135.278 Y154.344 E.27255
G1 X135.065 Y153.778 E.3227
G1 X134.969 Y153.181 E.37284
G1 X134.993 Y152.577 E.42297
G1 X135.137 Y151.99 E.47309
G1 X135.394 Y151.442 E.52328
G1 X135.754 Y150.957 E.57337
G1 X136.203 Y150.552 E.62351
G1 X136.724 Y150.245 E.67366
G1 X137.295 Y150.047 E.72378
G1 X137.894 Y149.966 E.77391
G1 X138.498 Y150.005 E.8241
G1 X139.081 Y150.163 E.87419
G1 X139.622 Y150.433 E.92433
G1 X140.099 Y150.806 E.97454
G1 X140.492 Y151.265 E1.02465
G1 X140.786 Y151.793 E1.07477
G1 X140.97 Y152.369 E1.12491
G1 X141.036 Y152.966 E1.17472
G1 X140.951 Y153.713 E1.23707
G1 X140.748 Y154.29 E1.28779
G1 X140.438 Y154.809 E1.33792
G1 X140.031 Y155.257 E1.38811
G1 X139.544 Y155.614 E1.43818
G1 X138.995 Y155.868 E1.48834
G1 X138.407 Y156.009 E1.53848
G1 X138.006 Y156.023 E1.57175
G1 X137.41 Y155.959 F9000
G1 X137.889 Y156.585
;TYPE:Perimeter
;WIDTH:0.613353
G1 F1800
G1 X137.817 Y156.588 E1.57711
;WIDTH:0.630025
G1 X137.46 Y156.553 E1.60463
;WIDTH:0.668405
G1 X137.103 Y156.518 E1.63405
;WIDTH:0.675
G1 X136.422 Y156.274 E1.69404
G1 X135.682 Y155.796 E1.7671
G1 X135.158 Y155.265 E1.82896
G1 X134.766 Y154.657 E1.88895
G1 X134.501 Y153.983 E1.94901
G1 X134.376 Y153.271 E2.00896
G1 X134.394 Y152.547 E2.06902
G1 X134.555 Y151.842 E2.12899
G1 X134.853 Y151.182 E2.18904
G1 X135.276 Y150.595 E2.24904
G1 X135.807 Y150.103 E2.30907
G1 X136.424 Y149.725 E2.36907
G1 X137.104 Y149.478 E2.42907
G1 X137.82 Y149.37 E2.48912
G1 X138.543 Y149.407 E2.54915
G1 X139.244 Y149.585 E2.60913
G1 X139.896 Y149.9 E2.66918
G1 X140.473 Y150.337 E2.7292
G1 X140.951 Y150.879 E2.78913
G1 X141.313 Y151.506 E2.84917
G1 X141.543 Y152.192 E2.90917
G1 X141.633 Y152.906 E2.96885
G1 X141.546 Y153.787 E3.04226
G1 X141.312 Y154.496 E3.10417
G1 X140.95 Y155.122 E3.16414
G1 X140.471 Y155.665 E3.22419
G1 X139.894 Y156.101 E3.28416
G1 X139.242 Y156.415 E3.34417
G1 X138.888 Y156.489 E3.37416
;WIDTH:0.644176
G1 X138.534 Y156.564 E3.40263
;WIDTH:0.613353
G1 X137.979 Y156.582 E3.44395
G1 E2.94395 F240
G92 E0
G1 X137.979 Y156.582 F9000
G1 X147.662 Y157.663
G1 E.5 F240
;TYPE:External perimeter
;WIDTH:0.675
G1 F1800
G1 X128.337 Y157.663 E2.10257
G1 X128.338 Y130.977 E4.31556
G1 X147.662 Y130.977 E5.91804
G1 X147.662 Y140.471 E6.70535
G1 X147.662 Y157.573 E8.12357
G1 X147.069 Y157.662 F9000
G1 X147.063 Y157.063
;TYPE:Perimeter
G1 F1800
G1 X139.139 Y157.063 E8.78068
G1 X138.754 Y157.082 E8.81265
;WIDTH:0.63672
G1 X138.368 Y157.101 E8.84265
;WIDTH:0.600014
G1 X137.6 Y157.1 E8.89838
;WIDTH:0.637507
G1 X137.209 Y157.081 E8.92881
;WIDTH:0.675
G1 X136.818 Y157.063 E8.96127
G1 X128.937 Y157.063 E9.61482
G1 X128.937 Y131.577 E11.7283
G1 X147.063 Y131.577 E13.23144
G1 X147.063 Y140.471 E13.96899
G1 X147.063 Y156.973 E15.33745
G1 X147.063 Y156.973 F9000
G1 X146.463 Y156.463
G1 F1800
G1 X140.419 Y156.463 E15.83866
G1 X140.911 Y156.073 E15.89072
G1 X141.462 Y155.435 E15.96063
G1 X141.876 Y154.701 E16.03051
G1 X142.062 Y154.188 E16.07576
G1 X142.141 Y153.861 E16.10366
G1 X142.226 Y153.181 E16.16049
G1 X142.23 Y152.846 E16.18827
G1 X142.116 Y152.015 E16.25783
G1 X141.84 Y151.219 E16.3277
G1 X141.411 Y150.494 E16.39756
G1 X140.847 Y149.868 E16.46743
G1 X140.169 Y149.366 E16.53739
G1 X139.406 Y149.008 E16.60728
G1 X138.587 Y148.808 E16.67719
G1 X137.745 Y148.775 E16.74707
G1 X136.913 Y148.909 E16.81695
G1 X136.124 Y149.206 E16.88686
G1 X135.41 Y149.653 E16.95672
G1 X134.798 Y150.232 E17.02659
G1 X134.313 Y150.922 E17.09653
G1 X133.974 Y151.694 E17.16645
G1 X133.795 Y152.517 E17.23629
G1 X133.783 Y153.36 E17.3062
G1 X133.938 Y154.188 E17.37606
G1 X134.254 Y154.97 E17.446
G1 X134.718 Y155.673 E17.51585
G1 X135.09 Y156.073 E17.56115
G1 X135.594 Y156.463 E17.614
G1 X129.537 Y156.463 E18.11629
G1 X129.537 Y132.176 E20.13034
G1 X146.463 Y132.176 E21.53396
G1 X146.463 Y140.471 E22.22184
G1 X146.463 Y156.373 E23.54055
G1 X146.463 Y156.373 F9000
G1 X145.863 Y155.863
G1 F1800
G1 X141.887 Y155.863 E23.87027
G1 X141.974 Y155.748 E23.88223
G1 X142.44 Y154.906 E23.96204
G1 X142.626 Y154.394 E24.00721
G1 X142.737 Y153.935 E24.04637
G1 X142.821 Y153.255 E24.10319
G1 X142.827 Y152.785 E24.14217
G1 X142.69 Y151.839 E24.22144
G1 X142.367 Y150.932 E24.30128
G1 X141.87 Y150.108 E24.38108
G1 X141.221 Y149.399 E24.46079
G1 X140.443 Y148.832 E24.54062
G1 X139.958 Y148.583 E24.58583
G1 X139.569 Y148.431 E24.62046
G1 X139.044 Y148.283 E24.66569
G1 X138.632 Y148.21 E24.70039
G1 X138.089 Y148.17 E24.74554
G1 X137.671 Y148.18 E24.78021
G1 X137.13 Y148.248 E24.82543
G1 X136.722 Y148.341 E24.86013
G1 X136.205 Y148.514 E24.90534
G1 X135.824 Y148.686 E24.94001
G1 X135.013 Y149.203 E25.01977
G1 X134.32 Y149.87 E25.09953
G1 X133.772 Y150.662 E25.1794
G1 X133.393 Y151.546 E25.25916
G1 X133.196 Y152.487 E25.33889
G1 X133.169 Y153.032 E25.38414
G1 X133.19 Y153.449 E25.41876
G1 X133.374 Y154.394 E25.4986
G1 X133.742 Y155.283 E25.57839
G1 X134.113 Y155.863 E25.63549
G1 X130.137 Y155.863 E25.96521
G1 X130.137 Y132.776 E27.87975
G1 X145.863 Y132.776 E29.18386
G1 X145.863 Y140.471 E29.82198
G1 X145.863 Y155.773 E31.09093
G1 X145.863 Y155.773 F9000
G1 X145.199 Y155.383
;TYPE:Solid infill
;WIDTH:0.675
G1 F1800
G1 X145.199 Y151.518 E31.41144
G1 X145.383 Y151.518 E31.4267
G1 X145.383 Y151.518 F9000
G1 X145.383 Y150.918
G1 F1800
G1 X144.599 Y150.918 E31.49171
G1 X144.599 Y155.383 E31.86198
G1 X144.599 Y155.383 F9000
G1 X143.999 Y155.383
G1 F1800
G1 X143.999 Y150.319 E32.28192
G1 X145.383 Y150.319 E32.39669
G1 X145.383 Y150.319 F9000
G1 X145.383 Y149.719
G1 F1800
G1 X143.399 Y149.719 E32.56122
G1 X143.399 Y155.383 E33.03092
G1 X142.799 Y155.383 F9000
G1 F1800
G1 X142.799 Y155.252 E33.04178
G1 E32.54178 F240
G92 E0
G1 X142.799 Y155.252 F9000
G1 X142.799 Y150.727
G1 E.5 F240
G1 F1800
G1 X142.799 Y149.119 E.63335
G1 X145.383 Y149.119 E.84763
G1 X145.383 Y149.119 F9000
G1 X145.383 Y148.519
G1 F1800
G1 X142.199 Y148.519 E1.11167
G1 X142.199 Y149.754 E1.21409
G1 E.71409 F240
G92 E0
G1 X142.199 Y149.754 F9000
G1 X138.908 Y147.773
G1 E.5 F240
G1 F1800
G1 X138 Y146.865 E.60649
G1 X137.096 Y147.769 E.71251
G1 E.21251 F240
G92 E0
G1 X137.096 Y147.769 F9000
G1 X138 Y144.32
G1 E.5 F240
G1 F1800
G1 X137.4 Y144.92 E.57037
G1 X136.552 Y144.92 E.64069
G1 X137.152 Y144.32 E.71106
G1 X136.552 Y143.72 E.78143
G1 X137.4 Y143.72 E.85175
G1 X137.4 Y142.871 E.92216
G1 X138 Y143.471 E.99253
G1 X138.6 Y142.871 E1.0629
G1 X138.6 Y143.72 E1.13331
G1 X139.448 Y143.72 E1.20363
G1 X138.848 Y144.32 E1.274
G1 X139.448 Y144.92 E1.34437
G1 X138.6 Y144.92 E1.41469
G1 X138.6 Y145.768 E1.48501
G1 X138 Y145.168 E1.55538
G1 X136.8 Y146.368 E1.69611
G1 X136.8 Y145.519 E1.76652
G1 X135.103 Y145.519 E1.90725
G1 X136.303 Y144.32 E2.04792
G1 X135.103 Y143.12 E2.18865
G1 X136.8 Y143.12 E2.32938
G1 X136.8 Y141.423 E2.47011
G1 X138 Y142.623 E2.61084
G1 X139.2 Y141.423 E2.75157
G1 X139.2 Y143.12 E2.8923
G1 X140.897 Y143.12 E3.03303
G1 X139.697 Y144.32 E3.17376
G1 X140.897 Y145.519 E3.31443
G1 X139.2 Y145.519 E3.45516
G1 X139.2 Y147.216 E3.59589
G1 X138 Y146.016 E3.73662
G1 X136.2 Y147.816 E3.94772
G1 X136.2 Y146.119 E4.08845
G1 X133.655 Y146.119 E4.2995
G1 X135.455 Y144.32 E4.51054
G1 X133.655 Y142.52 E4.72164
G1 X136.2 Y142.52 E4.93269
G1 X136.2 Y139.975 E5.14374
G1 X138 Y141.774 E5.35478
G1 X139.8 Y139.975 E5.56582
G1 X139.8 Y142.52 E5.77687
G1 X142.345 Y142.52 E5.98792
G1 X140.545 Y144.32 E6.19902
G1 X142.345 Y146.119 E6.41006
G1 X139.8 Y146.119 E6.62111
G1 X139.8 Y148.007 E6.77768
G1 X139.8 Y148.007 F9000
G1 X140.4 Y148.276
G1 F1800
G1 X140.4 Y146.719 E6.9068
G1 X143.793 Y146.719 E7.18817
G1 X141.393 Y144.32 E7.46958
G1 X143.793 Y141.92 E7.75104
G1 X140.4 Y141.92 E8.03241
G1 X140.4 Y138.527 E8.31378
G1 X138 Y140.926 E8.59519
G1 X135.6 Y138.527 E8.8766
G1 X135.6 Y141.92 E9.15797
G1 X132.207 Y141.92 E9.43934
G1 X134.607 Y144.32 E9.7208
G1 X132.207 Y146.719 E10.00221
G1 X135.6 Y146.719 E10.28358
G1 X135.6 Y148.272 E10.41237
G1 X135.6 Y148.272 F9000
G1 X135.001 Y148.622
G1 F1800
G1 X135.001 Y147.319 E10.52042
G1 X130.759 Y147.319 E10.8722
G1 X133.758 Y144.32 E11.22391
G1 X130.759 Y141.32 E11.57568
G1 X135.001 Y141.32 E11.92746
G1 X135.001 Y137.078 E12.27924
G1 X138 Y140.078 E12.63101
G1 X140.999 Y137.078 E12.98278
G1 X140.999 Y141.32 E13.33456
G1 X145.241 Y141.32 E13.68634
G1 X142.242 Y144.32 E14.03811
G1 X145.241 Y147.319 E14.38982
G1 X140.999 Y147.319 E14.7416
G1 X140.999 Y148.622 E14.84965
G1 X140.999 Y148.622 F9000
G1 X141.599 Y149.1
G1 F1800
G1 X141.599 Y147.919 E14.94759
G1 X145.383 Y147.919 E15.26139
G1 X145.383 Y146.612 F9000
G1 F1800
G1 X143.09 Y144.32 E15.53025
G1 X145.383 Y142.027 E15.79917
G1 X145.383 Y142.875 F9000
G1 F1800
G1 X143.939 Y144.32 E15.96858
G1 X145.383 Y145.764 E16.13793
G1 X145.383 Y144.916 F9000
G1 F1800
G1 X144.787 Y144.32 E16.20783
G1 X145.383 Y143.724 E16.27773
G1 E15.77773 F240
G92 E0
G1 X145.383 Y143.724 F9000
G1 X137.966 Y133.256
G1 E.5 F240
G1 F1800
G1 X138 Y133.291 E.50405
G1 X138.034 Y133.256 E.5081
G1 X138.034 Y133.256 F9000
G1 X138.883 Y133.256
G1 F1800
G1 X138 Y134.139 E.61166
G1 X137.117 Y133.256 E.71522
G1 X137.117 Y133.256 F9000
G1 X136.269 Y133.256
G1 F1800
G1 X138 Y134.988 E.91828
G1 X139.731 Y133.256 E1.12134
G1 X139.731 Y133.256 F9000
G1 X140.58 Y133.256
G1 F1800
G1 X138 Y135.836 E1.42391
G1 X135.42 Y133.256 E1.72648
G1 X135.42 Y133.256 F9000
G1 X134.572 Y133.256
G1 F1800
G1 X138 Y136.684 E2.1285
G1 X141.428 Y133.256 E2.53052
G1 E2.03052 F240
G92 E0
G1 X141.428 Y133.256 F9000
G1 X145.383 Y137.121
G1 E.5 F240
G1 F1800
G1 X145.199 Y137.121 E.51526
G1 X145.199 Y133.256 E.83577
G1 X145.199 Y133.256 F9000
G1 X144.599 Y133.256
G1 F1800
G1 X144.599 Y137.721 E1.20604
G1 X145.383 Y137.721 E1.27105
G1 X145.383 Y137.721 F9000
G1 X145.383 Y138.321
G1 F1800
G1 X143.999 Y138.321 E1.38582
G1 X143.999 Y133.256 E1.80585
G1 X143.999 Y133.256 F9000
G1 X143.399 Y133.256
G1 F1800
G1 X143.399 Y138.921 E2.27563
G1 X145.383 Y138.921 E2.44016
G1 X145.383 Y138.921 F9000
G1 X145.383 Y140.72
G1 F1800
G1 X141.599 Y140.72 E2.75396
G1 X141.599 Y135.63 E3.17606
G1 X138 Y139.229 E3.59814
G1 X134.401 Y135.63 E4.02022
G1 X134.401 Y140.72 E4.44232
G1 X130.617 Y140.72 E4.75612
G1 X130.617 Y140.72 F9000
G1 X130.617 Y140.12
G1 F1800
G1 X133.801 Y140.12 E5.02016
G1 X133.801 Y134.182 E5.51258
G1 X138 Y138.381 E6.00502
G1 X142.199 Y134.182 E6.49746
G1 X142.199 Y140.12 E6.98988
G1 X145.383 Y140.12 E7.25392
G1 X145.383 Y140.12 F9000
G1 X145.383 Y139.52
G1 F1800
G1 X142.799 Y139.52 E7.4682
G1 X142.799 Y133.256 E7.98766
G1 X142.799 Y133.256 F9000
G1 X142.276 Y133.256
G1 F1800
G1 X138 Y137.533 E8.48919
G1 X133.724 Y133.256 E8.99072
G1 X133.724 Y133.256 F9000
G1 X133.201 Y133.256
G1 F1800
G1 X133.201 Y139.52 E9.51018
G1 X130.617 Y139.52 E9.72446
G1 X130.617 Y139.52 F9000
G1 X130.617 Y138.921
G1 F1800
G1 X132.601 Y138.921 E9.88899
G1 X132.601 Y133.256 E10.35877
G1 X132.601 Y133.256 F9000
G1 X132.001 Y133.256
G1 F1800
G1 X132.001 Y138.321 E10.7788
G1 X130.617 Y138.321 E10.89357
G1 X130.617 Y138.321 F9000
G1 X130.617 Y137.721
G1 F1800
G1 X131.401 Y137.721 E10.95858
G1 X131.401 Y133.256 E11.32885
G1 X131.401 Y133.256 F9000
G1 X130.801 Y133.256
G1 F1800
G1 X130.801 Y137.121 E11.64936
G1 X130.617 Y137.121 E11.66462
G1 E11.16462 F240
G92 E0
G1 X130.617 Y142.027 F9000
G1 E.5 F240
G1 F1800
G1 X132.91 Y144.32 E.76892
G1 X130.617 Y146.612 E1.03778
G1 X130.617 Y146.612 F9000
G1 X130.617 Y145.764
G1 F1800
G1 X132.061 Y144.32 E1.20713
G1 X130.617 Y142.875 E1.37654
G1 X130.617 Y142.875 F9000
G1 X130.617 Y143.724
G1 F1800
G1 X131.213 Y144.32 E1.44644
G1 X130.617 Y144.916 E1.51634
G1 E1.01634 F240
G92 E0
G1 X130.617 Y144.916 F9000
G1 X133.201 Y150.742
G1 E.5 F240
G1 F1800
G1 X133.201 Y149.119 E.63459
G1 X130.617 Y149.119 E.84887
G1 X130.617 Y149.119 F9000
G1 X130.617 Y148.519
G1 F1800
G1 X133.801 Y148.519 E1.11291
G1 X133.801 Y149.76 E1.21582
G1 X133.801 Y149.76 F9000
G1 X134.401 Y149.103
G1 F1800
G1 X134.401 Y147.919 E1.31401
G1 X130.617 Y147.919 E1.62781
G1 X130.617 Y149.719 F9000
G1 F1800
G1 X132.601 Y149.719 E1.79234
G1 X132.601 Y155.383 E2.26204
G1 X132.001 Y155.383 F9000
G1 F1800
G1 X132.001 Y150.319 E2.68198
G1 X130.617 Y150.319 E2.79675
G1 X130.617 Y150.319 F9000
G1 X130.617 Y150.918
G1 F1800
G1 X131.401 Y150.918 E2.86176
G1 X131.401 Y155.383 E3.23203
G1 X131.401 Y155.383 F9000
G1 X130.801 Y155.383
G1 F1800
G1 X130.801 Y151.518 E3.55254
G1 X130.617 Y151.518 E3.5678
G1 E3.0678 F240
G92 E0
G1 X130.617 Y151.518 F9000
EXCLUDE_OBJECT_END NAME='inner_corner_support_4'
EXCLUDE_OBJECT_START NAME='inner_corner_support_2'
G92 E0
G1 X111.933 Y129.968
G1 E.5 F240
;TYPE:External perimeter
;WIDTH:0.675
G1 F1800
G1 X112.498 Y130.005 E.54695
G1 X113.081 Y130.163 E.59704
G1 X113.622 Y130.433 E.64718
G1 X114.099 Y130.806 E.69739
G1 X114.492 Y131.265 E.7475
G1 X114.786 Y131.793 E.79762
G1 X114.97 Y132.369 E.84776
G1 X115.036 Y132.97 E.8979
G1 X114.982 Y133.573 E.94811
G1 X114.751 Y134.283 E1.01003
G1 X114.438 Y134.809 E1.06079
G1 X114.031 Y135.257 E1.11098
G1 X113.544 Y135.614 E1.16105
G1 X112.995 Y135.868 E1.21121
G1 X112.407 Y136.009 E1.26135
G1 X111.803 Y136.03 E1.31147
G1 X111.206 Y135.931 E1.36165
G1 X110.641 Y135.715 E1.41181
G1 X110.13 Y135.392 E1.46194
G1 X109.693 Y134.974 E1.51209
G1 X109.348 Y134.478 E1.56219
G1 X109.108 Y133.923 E1.61233
G1 X108.982 Y133.332 E1.66244
G1 X108.993 Y132.585 E1.72439
G1 X109.137 Y131.99 E1.77516
G1 X109.394 Y131.442 E1.82535
G1 X109.754 Y130.957 E1.87544
G1 X110.203 Y130.552 E1.92558
G1 X110.724 Y130.245 E1.97573
G1 X111.295 Y130.047 E2.02585
G1 X111.843 Y129.973 E2.07171
G1 X112.442 Y130.008 F9000
G1 X111.933 Y129.416
;TYPE:Perimeter
;WIDTH:0.610049
G1 F1800
G1 X112.54 Y129.439 E2.11663
;WIDTH:0.642524
G1 X112.892 Y129.512 E2.14483
;WIDTH:0.675
G1 X113.244 Y129.585 E2.17464
G1 X113.896 Y129.9 E2.23469
G1 X114.473 Y130.337 E2.29471
G1 X114.951 Y130.879 E2.35464
G1 X115.313 Y131.506 E2.41468
G1 X115.543 Y132.192 E2.47468
G1 X115.633 Y132.91 E2.53469
G1 X115.579 Y133.633 E2.59481
G1 X115.319 Y134.474 E2.66781
G1 X114.95 Y135.122 E2.72965
G1 X114.471 Y135.665 E2.7897
