; generated by PrusaSlicer 2.8.1+MacOS-arm64 on 2024-11-27 at 04:35:24 UTC


;
;

;
;
; 

; external perimeters extrusion width = 0.55mm
; perimeters extrusion width = 0.60mm
; infill extrusion width = 0.60mm
; solid infill extrusion width = 0.60mm
; top infill extrusion width = 0.55mm
; first layer extrusion width = 0.60mm

; external perimeters extrusion width = 0.55mm
; perimeters extrusion width = 0.60mm
; infill extrusion width = 0.60mm
; solid infill extrusion width = 0.60mm
; top infill extrusion width = 0.55mm
; first layer extrusion width = 0.60mm

; external perimeters extrusion width = 0.55mm
; perimeters extrusion width = 0.60mm
; infill extrusion width = 0.60mm
; solid infill extrusion width = 0.60mm
; top infill extrusion width = 0.55mm
; first layer extrusion width = 0.60mm

; external perimeters extrusion width = 0.55mm
; perimeters extrusion width = 0.60mm
; infill extrusion width = 0.60mm
; solid infill extrusion width = 0.60mm
; top infill extrusion width = 0.55mm
; first layer extrusion width = 0.60mm

M73 P0 R112

EXCLUDE_OBJECT_DEFINE NAME='inner_corner_support_2' CENTER=165.000,167.500 POLYGON=[[175.000,182.500],[155.000,182.500],[155.000,152.500],[175.000,152.500]]
EXCLUDE_OBJECT_DEFINE NAME='inner_corner_support_3' CENTER=85.000,82.500 POLYGON=[[95.000,97.500],[75.000,97.500],[75.000,67.500],[95.000,67.500]]
EXCLUDE_OBJECT_DEFINE NAME='inner_corner_support_1' CENTER=80.000,167.500 POLYGON=[[95.000,177.500],[65.000,177.500],[65.000,157.500],[95.000,157.500]]
EXCLUDE_OBJECT_DEFINE NAME='inner_corner_support_4' CENTER=170.000,82.500 POLYGON=[[185.000,92.500],[155.000,92.500],[155.000,72.500],[185.000,72.500]]

M190 S55 ; set bed temperature and wait for it to be reached
M104 S230 ; set temperature
;TYPE:Custom
START_PRINT BED_TEMP=55 HOTEND_TEMP=230 FILAMENT_TYPE=PLA EXTRUSION_MULTIPLIER=0.98
M109 S230 ; set temperature and wait for it to be reached
G21 ; set units to millimeters
G90 ; use absolute coordinates
M82 ; use absolute distances for extrusion
G92 E0
; Filament gcode
SET_GCODE_OFFSET Z=0.01
M107
;LAYER_CHANGE
;Z:0.3
;HEIGHT:0.3
G1 E-.53 F600
G1 Z.6 F9000
EXCLUDE_OBJECT_START NAME='inner_corner_support_4'
G92 E0
G1 X183.592 Y82.792
G1 Z.3
G1 E.53 F1200
;TYPE:Perimeter
;WIDTH:0.579155
G1 F1800
G1 X183.562 Y83.05 E.54634
;WIDTH:0.607657
G1 X183.521 Y83.407 E.5702
G1 X183.268 Y84.086 E.61832
;WIDTH:0.6
G1 X182.889 Y84.702 E.66567
G1 X182.396 Y85.231 E.71301
G1 X181.807 Y85.651 E.76037
G1 X181.147 Y85.947 E.80773
G1 X180.441 Y86.106 E.85511
G1 X179.718 Y86.122 E.90246
G1 X179.006 Y85.994 E.94982
G1 X178.333 Y85.728 E.9972
G1 X177.727 Y85.333 E1.04456
G1 X177.112 Y84.7 E1.10234
G1 X176.723 Y84.067 E1.15098
G1 X176.477 Y83.386 E1.19838
G1 X176.371 Y82.671 E1.2457
G1 X176.41 Y81.948 E1.2931
G1 X176.59 Y81.248 E1.34042
G1 X176.906 Y80.597 E1.3878
G1 X177.344 Y80.021 E1.43517
G1 X177.888 Y79.544 E1.48254
G1 X178.516 Y79.185 E1.5299
G1 X179.202 Y78.956 E1.57725
G1 X179.913 Y78.869 E1.62415
G1 X180.798 Y78.958 E1.68238
G1 X181.504 Y79.193 E1.73109
G1 X182.129 Y79.557 E1.77844
G1 X182.67 Y80.037 E1.82579
G1 X183.105 Y80.615 E1.87315
G1 X183.417 Y81.267 E1.92047
G1 X183.579 Y81.972 E1.96783
;WIDTH:0.570586
G1 X183.603 Y82.692 E2.0124
;WIDTH:0.579155
G1 X183.6 Y82.717 E2.01398
G1 X183.6 Y82.717 F9000
G1 X183.086 Y82.741
;TYPE:External perimeter
;WIDTH:0.6
G1 F1800
G1 X182.99 Y83.314 E2.05202
G1 X182.77 Y83.89 E2.09239
G1 X182.439 Y84.411 E2.1328
G1 X182.012 Y84.857 E2.17322
G1 X181.505 Y85.209 E2.21363
G1 X180.939 Y85.453 E2.25398
G1 X180.335 Y85.581 E2.2944
G1 X179.718 Y85.586 E2.3348
G1 X179.112 Y85.469 E2.37521
G1 X178.541 Y85.234 E2.41564
G1 X178.029 Y84.891 E2.45599
G1 X177.504 Y84.336 E2.50601
G1 X177.186 Y83.799 E2.54687
M73 P0 R111
G1 X176.985 Y83.216 E2.58724
G1 X176.903 Y82.604 E2.62767
G1 X176.944 Y81.988 E2.66809
G1 X177.106 Y81.393 E2.70846
G1 X177.383 Y80.841 E2.74889
G1 X177.763 Y80.355 E2.78928
G1 X178.232 Y79.955 E2.82964
G1 X178.772 Y79.655 E2.87008
G1 X179.36 Y79.468 E2.91048
G1 X179.967 Y79.401 E2.95046
G1 X180.732 Y79.49 E3.00088
G1 X181.32 Y79.697 E3.04169
G1 X181.85 Y80.014 E3.08212
G1 X182.306 Y80.43 E3.12253
G1 X182.67 Y80.928 E3.16291
G1 X182.929 Y81.488 E3.2033
G1 X183.071 Y82.088 E3.24367
G1 X183.091 Y82.667 E3.2816
G1 X183.015 Y83.161 F9000
G1 E2.7516 F600
G92 E0
G1 X182.458 Y89.958 Z.419 F9000
G1 Z.3
G1 E.53 F1200
;TYPE:Perimeter
G1 F1800
G1 X160.207 Y89.958 E1.98676
G1 X160.207 Y75.042 E2.9633
G1 X182.458 Y75.042 E4.42006
G1 X182.458 Y76.218 E4.49705
G1 X182.458 Y77.878 E4.60573
G2 X180.996 Y77.363 I-2.508 J4.79 E4.70756
G2 X179.752 Y77.27 I-1.135 J6.763 E4.78934
G2 X175.934 Y85.793 I.252 J5.23 E5.54443
G2 X176.822 Y86.661 I5.184 J-4.415 E5.62584
G2 X180.282 Y87.728 I3.198 J-4.226 E5.86776
G1 X181.045 Y87.623 E5.91818
G1 X181.771 Y87.427 E5.96741
G1 X182.458 Y87.118 E6.01673
G1 X182.458 Y89.883 E6.19775
G1 X182.458 Y89.883 F9000
G1 X182.993 Y90.493
G1 F1800
G1 X159.671 Y90.493 E7.72462
G1 X159.671 Y74.507 E8.77121
G1 X182.993 Y74.507 E10.29808
G1 X182.993 Y76.218 E10.4101
G1 X182.988 Y78.865 E10.5834
G1 X182.688 Y78.643 E10.60783
G1 X181.87 Y78.187 E10.66914
G2 X180.93 Y77.895 I-2.057 J4.97 E10.73367
G2 X179.806 Y77.803 I-1.085 J6.325 E10.8076
G2 X178.886 Y77.933 I.354 J5.829 E10.86849
G1 X178.003 Y78.244 E10.92978
G1 X177.2 Y78.724 E10.99103
G1 X176.507 Y79.354 E11.05235
G1 X175.953 Y80.108 E11.11361
G2 X176.327 Y85.429 I4.058 J2.388 E11.48486
G2 X177.123 Y86.219 I4.858 J-4.107 E11.55838
G1 X177.917 Y86.715 E11.61967
G1 X178.794 Y87.044 E11.68099
G1 X179.718 Y87.193 E11.74227
G2 X180.939 Y87.098 I.209 J-5.213 E11.82263
G1 X181.563 Y86.934 E11.86487
G1 X182.411 Y86.536 E11.9262
G1 X182.993 Y86.121 E11.973
G1 X182.993 Y90.418 E12.25432
G1 X182.993 Y90.418 F9000
G1 X183.529 Y91.029
G1 F1800
G1 X159.135 Y91.029 E13.85138
G1 X159.135 Y73.971 E14.96815
G1 X183.529 Y73.971 E16.56521
G1 X183.529 Y76.218 E16.71232
G1 X183.529 Y80.287 E16.97871
G1 X183.034 Y79.644 E17.03184
G1 X182.408 Y79.1 E17.08614
G1 X181.687 Y78.69 E17.14044
G1 X180.864 Y78.426 E17.19703
G2 X179.859 Y78.336 I-1.063 J6.154 E17.26316
G1 X179.044 Y78.444 E17.31698
G1 X178.259 Y78.714 E17.37133
G1 X177.544 Y79.134 E17.42562
G1 X176.926 Y79.688 E17.47996
G1 X176.429 Y80.352 E17.53426
G1 X176.075 Y81.103 E17.58862
G1 X175.875 Y81.908 E17.64292
G1 X175.84 Y82.737 E17.69724
G1 X175.969 Y83.557 E17.75159
G1 X176.259 Y84.334 E17.80589
G1 X176.719 Y85.065 E17.86244
G1 X177.425 Y85.776 E17.92804
G1 X178.125 Y86.221 E17.98234
G1 X178.9 Y86.519 E18.0367
G1 X179.718 Y86.657 E18.09101
G2 X180.833 Y86.573 I.222 J-4.476 E18.16441
G1 X181.355 Y86.44 E18.19968
G1 X182.109 Y86.094 E18.25399
G1 X182.779 Y85.605 E18.30829
G1 X183.173 Y85.201 E18.34524
G1 X183.529 Y84.699 E18.38553
G1 X183.529 Y90.954 E18.79504
G1 X183.529 Y90.954 F9000
G1 X184.064 Y91.564
G1 F1800
G1 X158.6 Y91.564 E20.46215
G1 X158.6 Y73.436 E21.64898
G1 X184.064 Y73.436 E23.31609
G1 X184.064 Y76.218 E23.49823
G1 X184.064 Y81.352 E23.83435
G1 X184.086 Y82.122 E23.88478
;WIDTH:0.558315
G1 X184.085 Y82.89 E23.93115
;WIDTH:0.604289
G2 X184.064 Y84.236 I25.041 J1.061 E24.02
;WIDTH:0.6
G1 X184.064 Y91.489 E24.49485
G1 X184.064 Y91.489 F9000
G1 X184.6 Y92.1
;TYPE:External perimeter
G1 F1800
G1 X158.064 Y92.1 E26.23214
G1 X158.064 Y72.9 E27.48915
G1 X184.6 Y72.9 E29.22644
G1 X184.6 Y76.218 E29.44367
G1 X184.6 Y92.025 E30.47854
G1 X184.106 Y92.099 F9000
G1 E29.94854 F600
G92 E0
G1 X181.206 Y75.203 Z.599 F9000
G1 Z.3
G1 E.53 F1200
;TYPE:Solid infill
;WIDTH:0.603995
G1 F1800
G1 X182.056 Y76.053 E.60929
G1 X182.056 Y76.816 E.65962
G1 X180.684 Y75.444 E.7876
G1 X179.92 Y75.444 E.83799
G1 X181.563 Y77.087 E.99125
G2 X180.627 Y76.914 I-1.281 J4.308 E1.05415
G1 X179.157 Y75.444 E1.19127
G1 X178.394 Y75.444 E1.2416
G1 X179.815 Y76.865 E1.37415
G1 X179.122 Y76.935 E1.42009
G1 X177.631 Y75.444 E1.55917
G1 X176.868 Y75.444 E1.6095
G1 X178.496 Y77.072 E1.76136
G2 X177.925 Y77.264 I1.163 J4.407 E1.80112
G1 X176.105 Y75.444 E1.97089
G1 X175.342 Y75.444 E2.02122
G1 X177.402 Y77.504 E2.21337
G2 X176.919 Y77.785 I1.723 J3.512 E2.25026
G1 X174.579 Y75.444 E2.46858
G1 X173.815 Y75.444 E2.51897
G1 X176.477 Y78.106 E2.76728
G2 X176.071 Y78.463 I2.615 J3.382 E2.80296
G1 X173.052 Y75.444 E3.08457
G1 X172.289 Y75.444 E3.1349
G1 X175.703 Y78.858 E3.45335
G1 X175.371 Y79.289 E3.48923
G1 X171.526 Y75.444 E3.84788
G1 X170.763 Y75.444 E3.89821
G1 X175.078 Y79.759 E4.3007
G1 X174.823 Y80.267 E4.33819
G1 X170 Y75.444 E4.78807
G1 X169.237 Y75.444 E4.8384
G1 X174.621 Y80.829 E5.34066
G1 X174.462 Y81.432 E5.38179
G1 X168.473 Y75.444 E5.94039
G1 X167.71 Y75.444 E5.99072
G1 X174.386 Y82.12 E6.61344
G2 X174.375 Y82.872 I3.667 J.427 E6.66313
G1 X166.947 Y75.444 E7.356
G1 X166.184 Y75.444 E7.40633
G1 X174.859 Y84.119 E8.21552
G1 E7.68552 F600
G92 E0
G1 X174.859 Y84.119 F9000
G1 X181.477 Y87.685 Z.431
G1 Z.3
G1 E.53 F1200
G1 F1800
G1 X182.056 Y88.263 E.58396
G1 X182.056 Y89.027 E.63435
G1 X181.059 Y88.03 E.72735
G3 X180.388 Y88.121 I-.84 J-3.639 E.77207
G1 X181.822 Y89.556 E.90588
G1 X181.059 Y89.556 E.95621
G1 X179.625 Y88.121 E1.09002
G3 X178.727 Y87.987 I.37 J-5.521 E1.14997
G1 X180.296 Y89.556 E1.29632
G1 X179.533 Y89.556 E1.34665
G1 X177.557 Y87.58 E1.53097
G3 X176.123 Y86.588 I2.582 J-5.263 E1.64641
G3 X175.269 Y85.566 I5.106 J-5.137 E1.73438
G1 X174.915 Y84.939 E1.78187
G1 X165.421 Y75.444 E2.6675
G1 X164.658 Y75.444 E2.71783
G1 X178.769 Y89.556 E4.03412
G1 X178.006 Y89.556 E4.08445
G1 X163.895 Y75.444 E5.40074
G1 X163.132 Y75.444 E5.45107
G1 X177.243 Y89.556 E6.76736
G1 X176.48 Y89.556 E6.81769
G1 X162.368 Y75.444 E8.13403
G1 X161.605 Y75.444 E8.18436
G1 X175.717 Y89.556 E9.5007
G1 X174.954 Y89.556 E9.55103
G1 X160.842 Y75.444 E10.86737
G1 X160.608 Y75.444 E10.8828
G1 X160.608 Y75.974 E10.91776
G1 X174.191 Y89.556 E12.18471
G1 X173.428 Y89.556 E12.23504
G1 X160.608 Y76.737 E13.43082
G1 X160.608 Y77.5 E13.48115
G1 X172.664 Y89.556 E14.60571
G1 X171.901 Y89.556 E14.65604
G1 X160.608 Y78.263 E15.70943
G1 X160.608 Y79.026 E15.75976
G1 X171.138 Y89.556 E16.74198
G1 X170.375 Y89.556 E16.79231
G1 X160.608 Y79.789 E17.70336
G1 X160.608 Y80.552 E17.75369
G1 X169.612 Y89.556 E18.59357
G1 X168.849 Y89.556 E18.6439
G1 X160.608 Y81.315 E19.4126
G1 X160.608 Y82.079 E19.46299
G1 X168.086 Y89.556 E20.16048
G1 X167.322 Y89.556 E20.21087
G1 X160.608 Y82.842 E20.83714
G1 X160.608 Y83.605 E20.88747
G1 X166.559 Y89.556 E21.44257
G1 X165.796 Y89.556 E21.4929
G1 X160.608 Y84.368 E21.97683
G1 X160.608 Y85.131 E22.02716
G1 X165.033 Y89.556 E22.43992
G1 X164.27 Y89.556 E22.49025
G1 X160.608 Y85.894 E22.83183
G1 X160.608 Y86.657 E22.88216
G1 X163.507 Y89.556 E23.15257
G1 X162.744 Y89.556 E23.2029
G1 X160.608 Y87.42 E23.40214
G1 X160.608 Y88.184 E23.45253
G1 X161.981 Y89.556 E23.58055
G1 X161.217 Y89.556 E23.63094
G1 X160.367 Y88.706 E23.71023
;LAYER_CHANGE
;Z:0.6
;HEIGHT:0.3
G1 E23.18023 F600
G92 E0
G1 X160.367 Y88.706 Z.3 F9000
G1 X177.018 Y84.447 Z.6
G1 X183.517 Y82.784 Z.6
M104 S215 ; set temperature
G1 E.53 F1200
;TYPE:Perimeter
;WIDTH:0.72855
G1 F900
G1 X183.489 Y83.034 E.55042
;WIDTH:0.756555
G1 X183.449 Y83.384 E.58022
G1 X183.37 Y83.544 E.59532
;WIDTH:0.717416
G1 X183.291 Y83.703 E.60949
;WIDTH:0.678277
G1 X183.212 Y83.862 E.62281
;WIDTH:0.639138
G1 X183.133 Y84.022 E.63535
;WIDTH:0.6
G1 X182.769 Y84.612 E.68074
G1 X182.296 Y85.119 E.72614
G1 X181.731 Y85.522 E.77158
G1 X181.098 Y85.805 E.81698
G1 X180.421 Y85.957 E.86241
G1 X179.728 Y85.972 E.90779
G1 X179.045 Y85.849 E.95322
G1 X178.401 Y85.594 E.99857
G1 X177.819 Y85.216 E1.044
G1 X177.23 Y84.608 E1.09942
G1 X176.857 Y84 E1.14612
G1 X176.622 Y83.348 E1.19149
G1 X176.521 Y82.662 E1.23689
G1 X176.558 Y81.969 E1.28232
G1 X176.731 Y81.298 E1.32769
G1 X177.034 Y80.674 E1.3731
G1 X177.455 Y80.123 E1.4185
G1 X177.977 Y79.665 E1.46396
G1 X178.578 Y79.321 E1.5093
G1 X179.237 Y79.102 E1.55476
G1 X179.912 Y79.018 E1.59929
G1 X180.766 Y79.104 E1.65548
G1 X181.443 Y79.33 E1.70221
G1 X182.043 Y79.679 E1.74765
G1 X182.561 Y80.14 E1.79305
G1 X182.978 Y80.694 E1.83845
G1 X183.277 Y81.32 E1.88387
;WIDTH:0.640492
G1 X183.353 Y81.54 E1.90026
;WIDTH:0.680985
G1 X183.429 Y81.759 E1.91773
;WIDTH:0.721478
G1 X183.505 Y81.979 E1.93642
G1 X183.528 Y82.684 E1.99307
;WIDTH:0.72855
G1 X183.525 Y82.71 E1.99519
G1 X183.525 Y82.71 F9000
G1 X182.962 Y82.729
;TYPE:External perimeter
;WIDTH:0.55
G1 F900
G1 X182.869 Y83.282 E2.02848
G1 X182.657 Y83.835 E2.06363
G1 X182.34 Y84.335 E2.09877
G1 X181.93 Y84.763 E2.13395
G1 X181.443 Y85.1 E2.1691
G1 X180.9 Y85.335 E2.20422
G1 X180.32 Y85.457 E2.2394
G1 X179.728 Y85.461 E2.27454
G1 X179.147 Y85.349 E2.30966
G1 X178.599 Y85.123 E2.34485
G1 X178.107 Y84.794 E2.37998
G1 X177.604 Y84.26 E2.42352
G1 X177.299 Y83.745 E2.45905
G1 X177.106 Y83.185 E2.49421
G1 X177.028 Y82.598 E2.52936
G1 X177.067 Y82.007 E2.56452
G1 X177.223 Y81.436 E2.59966
G1 X177.489 Y80.907 E2.63481
G1 X177.854 Y80.441 E2.66995
G1 X178.305 Y80.057 E2.70511
G1 X178.823 Y79.769 E2.74029
G1 X179.387 Y79.59 E2.77541
G1 X179.964 Y79.526 E2.80987
G1 X180.704 Y79.611 E2.85408
G1 X181.269 Y79.81 E2.88964
G1 X181.776 Y80.115 E2.92476
G1 X182.214 Y80.514 E2.95993
G1 X182.563 Y80.992 E2.99506
G1 X182.811 Y81.53 E3.03022
G1 X182.948 Y82.106 E3.06536
G1 X182.966 Y82.654 E3.09791
G1 X182.891 Y83.149 F9000
G1 E2.56791 F600
G92 E0
G1 X182.608 Y90.108 Z.722 F9000
G1 Z.6
G1 E.53 F1200
;TYPE:Perimeter
;WIDTH:0.6
G1 F3600
G1 X159.757 Y90.108 E2.02604
G1 F3085.524
G1 X159.757 Y74.892 E3.02222
G1 F3600
G1 X182.608 Y74.892 E4.51826
G1 X182.608 Y78.141 E4.73097
G1 X181.993 Y77.82 E4.77639
G1 X181.481 Y77.634 E4.81205
G2 X179.749 Y77.42 I-1.585 J5.707 E4.92672
G2 X175.738 Y85.275 I.258 J5.084 E5.62511
G2 X176.914 Y86.543 I4.846 J-3.316 E5.73875
G2 X180.272 Y87.579 I3.105 J-4.106 E5.97354
G1 X181.016 Y87.476 E6.02271
G1 X181.722 Y87.286 E6.07058
G1 F3599.137
G1 X182.608 Y86.865 E6.1348
G1 F3574.009
G1 X182.608 Y90.033 E6.34221
G1 X182.608 Y90.033 F9000
G1 X183.143 Y90.643
G1 F3600
G1 X159.221 Y90.643 E7.90837
G1 F2933.782
G1 X159.221 Y74.357 E8.9746
G1 F3600
G1 X183.143 Y74.357 E10.54076
G1 X183.143 Y79.219 E10.85907
G1 X182.601 Y78.765 E10.90536
G1 X181.81 Y78.324 E10.96465
G1 X181.298 Y78.138 E11.00031
G2 X179.804 Y77.953 I-1.41 J5.266 E11.09918
G1 X178.921 Y78.078 E11.15757
G1 X178.066 Y78.38 E11.21694
G1 X177.288 Y78.845 E11.27628
G1 X176.617 Y79.455 E11.33565
G1 X176.081 Y80.185 E11.39494
G2 X176.202 Y85.008 I3.944 J2.314 E11.72766
G2 X177.216 Y86.101 I4.425 J-3.09 E11.82558
G1 X177.985 Y86.581 E11.88493
G1 X178.833 Y86.899 E11.94422
G1 X179.728 Y87.043 E12.00357
G1 X180.272 Y87.043 E12.03919
G2 X181.514 Y86.792 I-.711 J-6.715 E12.12227
G1 X182.335 Y86.407 E12.18164
G1 X182.784 Y86.101 E12.21721
G1 X183.143 Y85.784 E12.24856
G1 F3575.101
G1 X183.143 Y90.568 E12.56176
G1 X183.143 Y90.568 F9000
G1 X183.679 Y91.179
G1 F3600
G1 X158.685 Y91.179 E14.1981
G1 F2762.456
G1 X158.685 Y73.821 E15.33452
G1 F3600
G1 X183.679 Y73.821 E16.97086
G1 X183.679 Y80.909 E17.43491
G1 X183.413 Y80.381 E17.47362
G1 X182.925 Y79.747 E17.526
G1 X182.322 Y79.222 E17.57834
G1 X181.626 Y78.827 E17.63073
G1 X180.831 Y78.573 E17.68537
G2 X179.858 Y78.486 I-1.028 J6.001 E17.74939
G1 X179.079 Y78.59 E17.80084
G1 X178.322 Y78.85 E17.85324
G1 X177.632 Y79.255 E17.90562
G1 X177.036 Y79.789 E17.95801
G1 X176.558 Y80.43 E18.01036
G1 X176.216 Y81.153 E18.06272
G1 X176.024 Y81.929 E18.11506
G1 X175.99 Y82.728 E18.16742
G1 X176.114 Y83.519 E18.21984
G1 X176.393 Y84.268 E18.27217
G1 X176.837 Y84.972 E18.32666
G1 X177.518 Y85.658 E18.38994
G1 X178.193 Y86.087 E18.4423
G1 X178.939 Y86.374 E18.49463
G1 X179.728 Y86.508 E18.54702
G1 X180.272 Y86.508 E18.58264
G2 X181.306 Y86.299 I-.79 J-6.573 E18.65178
G1 X182.033 Y85.965 E18.70416
G1 X182.679 Y85.493 E18.75654
G1 X183.219 Y84.903 E18.8089
G1 X183.514 Y84.446 E18.84451
G1 X183.679 Y84.096 E18.86984
G1 F3585.594
G1 X183.679 Y91.104 E19.32865
G1 X183.679 Y91.104 F9000
G1 X184.214 Y91.714
G1 F3375.329
G1 X183.8 Y91.714 E19.35575
G1 F3600
G1 X158.864 Y91.714 E20.98829
G1 F2682.35
G1 X158.15 Y91.714 E21.03504
G1 F2571.548
G1 X158.15 Y74 E22.19476
G1 F2612.642
G1 X158.15 Y73.286 E22.24151
