; generated by PrusaSlicer 2.8.0+MacOS-arm64 on 2024-09-06 at 08:44:03 UTC


;
;

;
;
; 

; external perimeters extrusion width = 0.68mm
; perimeters extrusion width = 0.68mm
; infill extrusion width = 0.68mm
; solid infill extrusion width = 0.68mm
; top infill extrusion width = 0.60mm
; support material extrusion width = 0.60mm

; external perimeters extrusion width = 0.68mm
; perimeters extrusion width = 0.68mm
; infill extrusion width = 0.68mm
; solid infill extrusion width = 0.68mm
; top infill extrusion width = 0.60mm
; support material extrusion width = 0.60mm


EXCLUDE_OBJECT_DEFINE NAME='cwe3d_name_tag_r' CENTER=123.875,120.353 POLYGON=[[166.966,110.105],[167.634,110.255],[168.282,110.689],[168.716,111.338],[168.868,112.103],[168.859,128.799],[168.716,129.368],[168.350,129.946],[167.896,130.319],[167.258,130.565],[80.868,130.603],[80.194,130.486],[79.599,130.149],[79.153,129.631],[78.907,128.993],[78.878,111.907],[79.060,111.248],[79.386,110.760],[79.925,110.339],[80.478,110.141]]
EXCLUDE_OBJECT_DEFINE NAME='cwe3d_name_tag_l' CENTER=123.860,146.120 POLYGON=[[166.951,135.872],[167.708,136.062],[168.267,136.455],[168.701,137.104],[168.853,137.870],[168.843,154.566],[168.701,155.135],[168.335,155.713],[167.796,156.133],[167.243,156.331],[80.853,156.370],[80.179,156.253],[79.584,155.916],[79.138,155.398],[78.891,154.760],[78.863,137.674],[79.045,137.014],[79.371,136.526],[79.825,136.154],[80.463,135.908]]

;TYPE:Custom
START_PRINT BED_TEMP=65 HOTEND_TEMP=220 FILAMENT_TYPE=PLA EXTRUSION_MULTIPLIER=0.95 PERIMETER_SPEED=80
G21 ; set units to millimeters
G90 ; use absolute coordinates
M82 ; use absolute distances for extrusion
G92 E0
; Filament gcode
M107
;LAYER_CHANGE
;Z:0.35
;HEIGHT:0.35
G1 E-.5 F240
G1 Z.35 F9000
EXCLUDE_OBJECT_START NAME='cwe3d_name_tag_l'
G92 E0
G1 X79.217 Y154.522
G1 E.5 F240
G92 E0
;TYPE:External perimeter
;WIDTH:0.675
G1 F1800
G1 X79.19 Y154.353 E.01419
G1 X79.2 Y137.703 E1.39493
G1 X79.348 Y137.169 E1.44088
G1 X79.624 Y136.755 E1.48214
G1 X80.009 Y136.439 E1.52344
G1 X80.383 Y136.285 E1.55698
G1 X80.87 Y136.207 E1.59788
G1 X166.753 Y136.209 E8.71991
G1 X167.173 Y136.239 E8.75483
G1 X167.632 Y136.412 E8.79551
G1 X168.027 Y136.695 E8.83581
G1 X168.311 Y137.09 E8.87615
G1 X168.482 Y137.546 E8.91654
G1 X168.515 Y137.973 E8.95206
G1 X168.506 Y154.525 E10.32467
G1 X168.383 Y155.015 E10.36656
G1 X168.081 Y155.488 E10.4131
G1 X167.642 Y155.83 E10.45925
G1 X167.17 Y155.999 E10.50082
G1 X166.836 Y156.032 E10.52865
G1 X80.956 Y156.032 E17.65043
G1 X80.802 Y156.027 E17.66321
G1 X80.289 Y155.932 E17.70647
G1 X79.975 Y155.771 E17.73573
G1 X79.576 Y155.431 E17.7792
G1 X79.408 Y155.15 E17.80635
G1 X79.265 Y154.829 E17.83549
G1 X79.231 Y154.611 E17.85379
G1 X79.196 Y154.012 F9000
G1 X79.813 Y154.449
;TYPE:Perimeter
G1 F1800
G1 X79.79 Y154.324 E17.86433
G1 X79.8 Y137.902 E19.22616
G1 X79.845 Y137.56 E19.25477
G1 X80.073 Y137.162 E19.29281
G1 X80.437 Y136.895 E19.33025
G1 X80.899 Y136.807 E19.36925
G1 X166.753 Y136.809 E26.48887
G1 X167.049 Y136.829 E26.51347
G1 X167.441 Y136.99 E26.54861
G1 X167.733 Y137.282 E26.58285
G1 X167.861 Y137.564 E26.60853
G1 X167.916 Y137.973 E26.64275
G1 X167.906 Y154.314 E27.99786
G1 X167.833 Y154.745 E28.03411
G1 X167.693 Y155.005 E28.0586
G1 X167.479 Y155.218 E28.08364
G1 X167.167 Y155.363 E28.11217
G1 X166.807 Y155.432 E28.14257
G1 X80.956 Y155.432 E35.26195
G1 X80.82 Y155.427 E35.27324
G1 X80.425 Y155.336 E35.30685
G1 X80.124 Y155.13 E35.3371
G1 X79.869 Y154.753 E35.37484
G1 X79.829 Y154.537 E35.39306
G1 X79.829 Y154.537 F9000
G1 X80.406 Y154.375
G1 F1800
G1 X80.39 Y154.295 E35.39983
G1 X80.4 Y137.84 E36.7644
G1 X80.448 Y137.682 E36.77809
G1 X80.665 Y137.453 E36.80425
G1 X80.928 Y137.407 E36.82639
G1 X166.854 Y137.409 E43.95198
G1 X167.106 Y137.491 E43.97396
G1 X167.274 Y137.695 E43.99588
G1 X167.316 Y137.972 E44.01911
G1 X167.306 Y154.277 E45.37124
G1 X167.252 Y154.592 E45.39774
G1 X167.098 Y154.751 E45.4161
G1 X166.777 Y154.832 E45.44355
G1 X80.956 Y154.832 E52.56044
G1 X80.805 Y154.825 E52.57298
G1 X80.582 Y154.734 E52.59295
G1 X80.436 Y154.533 E52.61355
G1 X80.423 Y154.464 E52.61937
G1 E52.11937 F240
G92 E0
G1 X80.423 Y154.464 F9000
G1 X165.837 Y137.592
G1 E.5 F240
;TYPE:Solid infill
;WIDTH:0.679785
G1 F1800
G1 X166.865 Y138.621 E.62158
G1 X166.865 Y139.475 E.69296
G1 X165.252 Y137.862 E.88364
G1 X164.396 Y137.862 E.95519
G1 X166.864 Y140.33 E1.24694
G1 X166.864 Y141.185 E1.31841
G1 X163.541 Y137.862 E1.71123
G1 X162.686 Y137.862 E1.7827
G1 X166.863 Y142.039 E2.27647
G1 X166.863 Y142.894 E2.34794
G1 X161.831 Y137.862 E2.94278
G1 X160.976 Y137.862 E3.01425
G1 X166.862 Y143.749 E3.71011
G1 X166.862 Y144.603 E3.78149
G1 X160.121 Y137.862 E4.57836
G1 X159.265 Y137.862 E4.64991
G1 X166.861 Y145.458 E5.54785
G1 X166.861 Y146.313 E5.61932
G1 X158.41 Y137.862 E6.61833
G1 X157.555 Y137.862 E6.6898
G1 X166.86 Y147.167 E7.78976
G1 X166.86 Y148.022 E7.86123
G1 X156.7 Y137.862 E9.06226
G1 X155.845 Y137.862 E9.13373
G1 X166.859 Y148.876 E10.43572
G1 X166.859 Y149.731 E10.50719
G1 X154.989 Y137.862 E11.91031
G1 X154.134 Y137.861 E11.98178
G1 X166.858 Y150.586 E13.48597
G1 X166.858 Y151.44 E13.55735
G1 X153.279 Y137.861 E15.16255
G1 X152.424 Y137.861 E15.23402
G1 X166.857 Y152.295 E16.94023
G1 X166.857 Y153.15 E17.0117
G1 X151.569 Y137.861 E18.81899
G1 X150.713 Y137.861 E18.89054
G1 X166.856 Y154.004 E20.79884
G1 X166.856 Y154.316 E20.82492
G1 X166.843 Y154.357 E20.82852
G1 X166.744 Y154.382 E20.83706
G1 X166.379 Y154.382 E20.86757
G1 X149.858 Y137.861 E22.82055
G1 X149.003 Y137.861 E22.89202
G1 X165.524 Y154.382 E24.845
G1 X164.669 Y154.382 E24.91647
G1 X148.148 Y137.861 E26.86945
G1 X147.293 Y137.861 E26.94092
G1 X163.814 Y154.382 E28.8939
G1 X162.959 Y154.382 E28.96537
G1 X146.437 Y137.861 E30.91841
G1 X145.582 Y137.861 E30.98988
G1 X162.104 Y154.382 E32.94292
G1 X161.249 Y154.382 E33.01439
G1 X144.727 Y137.861 E34.96743
G1 X143.872 Y137.861 E35.0389
G1 X160.393 Y154.382 E36.99188
G1 X159.538 Y154.382 E37.06335
G1 X143.017 Y137.861 E39.01633
G1 X142.161 Y137.861 E39.08788
G1 X158.683 Y154.382 E41.04092
G1 X157.828 Y154.382 E41.11239
G1 X141.306 Y137.861 E43.06543
G1 X140.451 Y137.861 E43.1369
G1 X156.973 Y154.382 E45.08994
G1 X156.118 Y154.382 E45.16141
G1 X139.596 Y137.86 E47.11451
G1 X138.741 Y137.86 E47.18598
G1 X155.263 Y154.382 E49.13908
G1 X154.407 Y154.382 E49.21063
G1 X137.885 Y137.86 E51.16373
G1 X137.03 Y137.86 E51.2352
G1 X153.552 Y154.382 E53.1883
G1 X152.697 Y154.382 E53.25977
G1 X136.175 Y137.86 E55.21287
G1 X135.32 Y137.86 E55.28434
G1 X151.842 Y154.382 E57.23744
G1 X150.987 Y154.382 E57.30891
G1 X134.465 Y137.86 E59.26201
G1 X133.609 Y137.86 E59.33356
G1 X150.132 Y154.382 E61.28672
G1 X149.277 Y154.382 E61.35819
G1 X132.754 Y137.86 E63.31135
G1 X131.899 Y137.86 E63.38282
G1 X148.421 Y154.382 E65.33592
G1 X147.566 Y154.382 E65.40739
G1 X131.044 Y137.86 E67.36049
G1 X130.189 Y137.86 E67.43196
G1 X146.711 Y154.382 E69.38506
G1 X145.856 Y154.382 E69.45653
G1 X129.333 Y137.86 E71.40969
G1 X128.478 Y137.86 E71.48116
G1 X145.001 Y154.382 E73.43432
G1 X144.146 Y154.382 E73.50579
G1 X127.623 Y137.86 E75.45895
G1 X126.768 Y137.86 E75.53042
G1 X143.291 Y154.382 E77.48358
G1 X142.436 Y154.382 E77.55505
G1 X125.913 Y137.86 E79.50821
G1 X125.057 Y137.859 E79.57976
G1 X141.58 Y154.382 E81.53298
G1 X140.725 Y154.382 E81.60445
G1 X124.202 Y137.859 E83.55767
G1 X123.347 Y137.859 E83.62914
G1 X139.87 Y154.382 E85.58236
G1 X139.015 Y154.382 E85.65383
G1 X122.492 Y137.859 E87.60705
G1 X121.637 Y137.859 E87.67852
G1 X138.16 Y154.382 E89.63174
G1 X137.305 Y154.382 E89.70321
G1 X120.781 Y137.859 E91.65649
G1 X119.926 Y137.859 E91.72796
G1 X136.45 Y154.382 E93.68124
G1 X135.594 Y154.382 E93.75279
G1 X119.071 Y137.859 E95.70601
G1 X118.216 Y137.859 E95.77748
G1 X134.739 Y154.382 E97.7307
G1 X133.884 Y154.382 E97.80217
G1 X117.361 Y137.859 E99.75539
G1 X116.505 Y137.859 E99.82694
G1 X133.029 Y154.382 E101.78022
G1 X132.174 Y154.382 E101.85169
G1 X115.65 Y137.859 E103.80497
G1 X114.795 Y137.859 E103.87644
G1 X131.319 Y154.382 E105.82972
G1 X130.464 Y154.382 E105.90119
G1 X113.94 Y137.859 E107.85447
G1 X113.085 Y137.859 E107.92594
G1 X129.608 Y154.382 E109.87916
G1 X128.753 Y154.382 E109.95063
G1 X112.229 Y137.859 E111.90391
G1 X111.374 Y137.859 E111.97538
G1 X127.898 Y154.382 E113.92866
G1 X127.043 Y154.382 E114.00013
G1 X110.519 Y137.858 E115.95347
G1 X109.664 Y137.858 E116.02494
G1 X126.188 Y154.382 E117.97828
G1 X125.333 Y154.382 E118.04975
G1 X108.809 Y137.858 E120.00309
G1 X107.954 Y137.858 E120.07456
G1 X124.478 Y154.382 E122.0279
G1 X123.622 Y154.382 E122.09945
G1 X107.098 Y137.858 E124.05279
G1 X106.243 Y137.858 E124.12426
G1 X122.767 Y154.382 E126.0776
G1 X121.912 Y154.382 E126.14907
G1 X105.388 Y137.858 E128.10241
G1 X104.533 Y137.858 E128.17388
G1 X121.057 Y154.382 E130.12722
G1 X120.202 Y154.382 E130.19869
G1 X103.678 Y137.858 E132.15203
G1 X102.822 Y137.858 E132.22358
G1 X119.347 Y154.382 E134.17698
G1 X118.492 Y154.382 E134.24845
G1 X101.967 Y137.858 E136.20185
G1 X101.112 Y137.858 E136.27332
G1 X117.637 Y154.382 E138.22672
G1 X116.781 Y154.382 E138.29827
G1 X100.257 Y137.858 E140.25161
G1 X99.402 Y137.858 E140.32308
G1 X115.926 Y154.382 E142.27642
G1 X115.071 Y154.382 E142.34789
G1 X98.546 Y137.858 E144.30129
G1 X97.691 Y137.858 E144.37276
G1 X114.216 Y154.382 E146.32616
G1 X113.361 Y154.382 E146.39763
G1 X96.836 Y137.858 E148.35103
G1 X95.981 Y137.857 E148.4225
G1 X112.506 Y154.382 E150.37595
G1 X111.651 Y154.382 E150.44742
G1 X95.126 Y137.857 E152.40087
G1 X94.27 Y137.857 E152.47242
G1 X110.795 Y154.382 E154.42587
G1 X109.94 Y154.382 E154.49734
G1 X93.415 Y137.857 E156.45079
G1 X92.56 Y137.857 E156.52226
G1 X109.085 Y154.382 E158.47571
G1 X108.23 Y154.382 E158.54718
G1 X91.705 Y137.857 E160.50063
G1 X90.85 Y137.857 E160.5721
G1 X107.375 Y154.382 E162.52555
G1 X106.52 Y154.382 E162.59702
G1 X89.994 Y137.857 E164.55053
G1 X89.139 Y137.857 E164.622
G1 X105.665 Y154.382 E166.57551
G1 X104.809 Y154.382 E166.64706
G1 X88.284 Y137.857 E168.60051
G1 X87.429 Y137.857 E168.67198
G1 X103.954 Y154.382 E170.62543
G1 X103.099 Y154.382 E170.6969
G1 X86.574 Y137.857 E172.65035
G1 X85.719 Y137.857 E172.72182
G1 X102.244 Y154.382 E174.67527
G1 X101.389 Y154.382 E174.74674
G1 X84.863 Y137.857 E176.70025
G1 X84.008 Y137.857 E176.77172
G1 X100.534 Y154.382 E178.72523
G1 X99.679 Y154.382 E178.7967
G1 X83.153 Y137.857 E180.75021
G1 X82.298 Y137.857 E180.82168
G1 X98.823 Y154.382 E182.77513
G1 X97.968 Y154.382 E182.8466
G1 X81.443 Y137.857 E184.80005
G1 X80.883 Y137.865 E184.84686
G1 X80.85 Y137.902 E184.851
G1 X80.85 Y138.119 E184.86914
G1 X97.113 Y154.382 E186.79162
G1 X96.258 Y154.382 E186.86309
G1 X80.849 Y138.973 E188.68462
G1 X80.849 Y139.828 E188.75609
G1 X95.403 Y154.382 E190.47655
G1 X94.548 Y154.382 E190.54802
G1 X80.848 Y140.683 E192.16747
G1 X80.848 Y141.537 E192.23885
G1 X93.693 Y154.382 E193.75728
G1 X92.837 Y154.382 E193.82883
G1 X80.847 Y142.392 E195.24619
G1 X80.847 Y143.247 E195.31766
G1 X91.982 Y154.382 E196.63395
G1 X91.127 Y154.382 E196.70542
G1 X80.846 Y144.101 E197.92076
G1 X80.846 Y144.956 E197.99223
G1 X90.272 Y154.382 E199.1065
G1 X89.417 Y154.382 E199.17797
G1 X80.845 Y145.811 E200.19123
G1 X80.845 Y146.665 E200.26261
G1 X88.562 Y154.382 E201.17485
G1 X87.707 Y154.382 E201.24632
G1 X80.844 Y147.52 E202.05755
G1 X80.844 Y148.375 E202.12902
G1 X86.852 Y154.382 E202.83918
G1 X85.996 Y154.382 E202.91073
G1 X80.843 Y149.229 E203.51988
G1 X80.843 Y150.084 E203.59135
G1 X85.141 Y154.382 E204.09943
G1 X84.286 Y154.382 E204.1709
G1 X80.842 Y150.938 E204.57802
G1 X80.842 Y151.793 E204.64949
G1 X83.431 Y154.382 E204.95554
G1 X82.576 Y154.382 E205.02701
G1 X80.841 Y152.648 E205.23205
G1 X80.841 Y153.502 E205.30343
G1 X81.991 Y154.652 E205.43937
G1 E204.93937 F240
G92 E0
G1 X81.991 Y154.652 F9000
EXCLUDE_OBJECT_END NAME='cwe3d_name_tag_l'
EXCLUDE_OBJECT_START NAME='cwe3d_name_tag_r'
G92 E0
G1 X80.877 Y110.441
G1 E.5 F240
;TYPE:External perimeter
;WIDTH:0.675
G1 F1800
G1 X80.885 Y110.441 E.50066
G1 X166.768 Y110.443 E7.62269
G1 X167.188 Y110.473 E7.65761
G1 X167.647 Y110.645 E7.69826
G1 X168.043 Y110.929 E7.73867
G1 X168.326 Y111.324 E7.77897
G1 X168.497 Y111.779 E7.81928
G1 X168.531 Y112.207 E7.85488
G1 X168.521 Y128.759 E9.22749
G1 X168.398 Y129.249 E9.26938
G1 X168.103 Y129.713 E9.31498
G1 X167.716 Y130.031 E9.35652
G1 X167.427 Y130.168 E9.38304
G1 X166.852 Y130.266 E9.43141
G1 X80.972 Y130.266 E16.55319
G1 X80.54 Y130.232 E16.58913
G1 X80.021 Y130.031 E16.63528
G1 X79.796 Y129.846 E16.65944
G1 X79.528 Y129.57 E16.69134
G1 X79.304 Y129.162 E16.72994
G1 X79.206 Y128.587 E16.77831
G1 X79.215 Y111.936 E18.15913
G1 X79.363 Y111.402 E18.20508
G1 X79.645 Y110.979 E18.24724
G1 X80.079 Y110.642 E18.29281
G1 X80.551 Y110.473 E18.33438
G1 X80.787 Y110.45 E18.35404
G1 X81.387 Y110.442 F9000
G1 X80.892 Y111.045
;TYPE:Perimeter
G1 F1800
G1 X80.914 Y111.04 E18.35591
G1 X166.768 Y111.043 E25.47553
G1 X167.064 Y111.062 E25.50013
G1 X167.456 Y111.223 E25.53527
G1 X167.748 Y111.515 E25.56951
G1 X167.876 Y111.797 E25.59519
G1 X167.931 Y112.206 E25.62941
G1 X167.921 Y128.685 E26.99597
G1 X167.783 Y129.138 E27.03524
G1 X167.52 Y129.415 E27.06692
G1 X167.217 Y129.603 E27.09649
G1 X166.822 Y129.666 E27.12966
G1 X80.972 Y129.666 E34.24895
G1 X80.798 Y129.654 E34.26341
G1 X80.462 Y129.576 E34.29201
G1 X80.071 Y129.296 E34.33189
G1 X79.868 Y128.951 E34.36509
G1 X79.806 Y128.557 E34.39817
G1 X79.815 Y111.988 E35.77219
G1 X79.903 Y111.674 E35.79923
G1 X80.187 Y111.292 E35.8387
G1 X80.529 Y111.119 E35.87048
G1 X80.804 Y111.063 E35.89375
G1 X80.804 Y111.063 F9000
G1 X80.908 Y111.649
G1 F1800
G1 X80.944 Y111.64 E35.89683
G1 X166.869 Y111.643 E43.02234
G1 X167.121 Y111.724 E43.04429
G1 X167.289 Y111.929 E43.06627
G1 X167.331 Y112.206 E43.0895
G1 X167.321 Y128.51 E44.44154
G1 X167.268 Y128.825 E44.46803
G1 X167.069 Y129.01 E44.49056
G1 X166.793 Y129.066 E44.51391
G1 X80.972 Y129.066 E51.6308
G1 X80.667 Y129.009 E51.65653
G1 X80.467 Y128.816 E51.67958
G1 X80.406 Y128.528 E51.70399
G1 X80.415 Y112.196 E53.05836
G1 X80.443 Y111.945 E53.0793
G1 X80.623 Y111.722 E53.10307
G1 X80.821 Y111.672 E53.12001
G1 E52.62001 F240
G92 E0
G1 X80.821 Y111.672 F9000
G1 X167.15 Y113.115
G1 E.5 F240
;TYPE:Solid infill
;WIDTH:0.675417
G1 F1800
G1 X166.131 Y112.096 E.61959
G1 X165.282 Y112.096 E.69004
G1 X166.88 Y113.693 E.87752
G1 X166.88 Y114.542 E.94797
G1 X164.433 Y112.096 E1.23509
G1 X163.584 Y112.096 E1.30554
G1 X166.879 Y115.39 E1.69218
G1 X166.879 Y116.239 E1.76263
G1 X162.735 Y112.096 E2.2489
G1 X161.886 Y112.095 E2.31935
G1 X166.878 Y117.087 E2.9052
G1 X166.878 Y117.936 E2.97565
G1 X161.037 Y112.095 E3.66114
G1 X160.188 Y112.095 E3.73159
G1 X166.877 Y118.784 E4.5166
G1 X166.877 Y119.633 E4.58705
G1 X159.339 Y112.095 E5.4717
G1 X158.49 Y112.095 E5.54215
G1 X166.876 Y120.481 E6.52632
G1 X166.876 Y121.33 E6.59677
G1 X157.641 Y112.095 E7.68057
G1 X156.792 Y112.095 E7.75102
G1 X166.875 Y122.178 E8.93434
G1 X166.875 Y123.027 E9.00479
G1 X155.943 Y112.095 E10.28775
G1 X155.094 Y112.095 E10.3582
G1 X166.874 Y123.875 E11.74068
G1 X166.874 Y124.724 E11.81113
G1 X154.245 Y112.095 E13.29325
G1 X153.396 Y112.095 E13.3637
G1 X166.873 Y125.572 E14.94534
G1 X166.873 Y126.42 E15.01571
G1 X152.547 Y112.095 E16.69692
G1 X151.698 Y112.095 E16.76737
G1 X166.872 Y127.269 E18.54816
G1 X166.872 Y128.117 E18.61853
G1 X150.849 Y112.095 E20.4989
G1 X150 Y112.095 E20.56935
G1 X166.521 Y128.616 E22.50822
G1 X165.672 Y128.616 E22.57867
G1 X149.151 Y112.095 E24.51754
G1 X148.302 Y112.095 E24.58799
G1 X164.823 Y128.616 E26.52686
G1 X163.974 Y128.616 E26.59731
G1 X147.453 Y112.094 E28.53624
G1 X146.604 Y112.094 E28.60669
G1 X163.125 Y128.616 E30.54562
G1 X162.276 Y128.616 E30.61607
G1 X145.755 Y112.094 E32.555
G1 X144.906 Y112.094 E32.62545
G1 X161.427 Y128.616 E34.56438
G1 X160.579 Y128.616 E34.63475
G1 X144.057 Y112.094 E36.57374
G1 X143.208 Y112.094 E36.64419
G1 X159.73 Y128.616 E38.58318
G1 X158.881 Y128.616 E38.65363
G1 X142.359 Y112.094 E40.59262
G1 X141.51 Y112.094 E40.66307
G1 X158.032 Y128.616 E42.60206
