; generated by PrusaSlicer 2.8.0+MacOS-arm64 on 2024-09-06 at 20:08:10 UTC


;
;

;
;
; 

; external perimeters extrusion width = 0.68mm
; perimeters extrusion width = 0.68mm
; infill extrusion width = 0.68mm
; solid infill extrusion width = 0.68mm
; top infill extrusion width = 0.60mm

; external perimeters extrusion width = 0.68mm
; perimeters extrusion width = 0.68mm
; infill extrusion width = 0.68mm
; solid infill extrusion width = 0.68mm
; top infill extrusion width = 0.60mm


EXCLUDE_OBJECT_DEFINE NAME='led_base_bracket_l' CENTER=111.561,119.838 POLYGON=[[125.772,184.838],[97.351,184.838],[97.351,54.838],[125.772,54.838]]
EXCLUDE_OBJECT_DEFINE NAME='led_base_bracket_r' CENTER=144.327,120.686 POLYGON=[[158.537,185.686],[130.116,185.686],[130.116,55.686],[158.537,55.686]]

;TYPE:Custom
START_PRINT BED_TEMP=65 HOTEND_TEMP=220 FILAMENT_TYPE=PLA EXTRUSION_MULTIPLIER=0.95 PERIMETER_SPEED=70
G21 ; set units to millimeters
G90 ; use absolute coordinates
M82 ; use absolute distances for extrusion
G92 E0
; Filament gcode
M107
;LAYER_CHANGE
;Z:0.35
;HEIGHT:0.35
G1 E-.5 F240
G1 Z.35 F9000
EXCLUDE_OBJECT_START NAME='led_base_bracket_r'
G92 E0
G1 X141.164 Y120.243
G1 E.5 F240
G92 E0
;TYPE:External perimeter
;WIDTH:0.675
G1 F1800
G1 X141.195 Y120.358 E.00988
G1 X141.221 Y120.709 E.03907
G1 X141.185 Y121.07 E.06916
G1 X141.069 Y121.458 E.10274
G1 X140.879 Y121.816 E.13635
G1 X140.621 Y122.129 E.16999
G1 X140.307 Y122.385 E.20359
G1 X139.948 Y122.574 E.23723
G1 X139.559 Y122.688 E.27085
G1 X139.155 Y122.722 E.30447
G1 X138.752 Y122.676 E.33811
G1 X138.366 Y122.551 E.37176
G1 X138.013 Y122.352 E.40536
G1 X137.717 Y122.098 E.4377
G1 X137.514 Y121.85 E.46428
G1 X137.316 Y121.497 E.49784
G1 X137.193 Y121.11 E.53151
G1 X137.15 Y120.767 E.56018
G1 X137.185 Y120.303 E.59877
G1 X137.3 Y119.915 E.63233
G1 X137.49 Y119.556 E.66601
G1 X137.748 Y119.243 E.69965
G1 X138.062 Y118.987 E.73325
G1 X138.421 Y118.798 E.76689
G1 X138.81 Y118.685 E.80048
G1 X139.207 Y118.65 E.83353
G1 X139.617 Y118.696 E.86774
G1 X140.003 Y118.822 E.90141
G1 X140.356 Y119.021 E.93501
G1 X140.663 Y119.286 E.96864
G1 X140.911 Y119.607 E1.00228
G1 X141.091 Y119.97 E1.03588
G1 X141.141 Y120.156 E1.05185
G1 X141.2 Y120.753 F9000
G1 X141.756 Y120.122
;TYPE:Perimeter
G1 F1800
G1 X141.762 Y120.14 E1.05342
G1 X141.822 Y120.682 E1.09864
G1 X141.762 Y121.232 E1.14452
G1 X141.603 Y121.732 E1.18803
G1 X141.348 Y122.19 E1.2315
G1 X141.007 Y122.589 E1.27503
G1 X140.594 Y122.912 E1.31851
G1 X140.125 Y123.147 E1.36201
G1 X139.619 Y123.285 E1.4055
G1 X139.095 Y123.319 E1.44905
G1 X138.575 Y123.249 E1.49256
G1 X138.079 Y123.078 E1.53607
G1 X137.628 Y122.812 E1.57949
G1 X137.258 Y122.485 E1.62044
G1 X136.994 Y122.15 E1.65581
G1 X136.748 Y121.688 E1.69922
G1 X136.598 Y121.185 E1.74275
G1 X136.555 Y120.841 E1.7715
G1 X136.576 Y120.317 E1.81499
G1 X136.701 Y119.808 E1.85845
G1 X136.924 Y119.333 E1.90197
G1 X137.237 Y118.912 E1.94547
G1 X137.627 Y118.561 E1.98898
G1 X138.079 Y118.295 E2.03247
G1 X138.575 Y118.123 E2.076
G1 X139.087 Y118.053 E2.11885
G1 X139.616 Y118.087 E2.16281
G1 X140.125 Y118.225 E2.20654
G1 X140.594 Y118.46 E2.25004
G1 X141.007 Y118.784 E2.29357
G1 X141.348 Y119.182 E2.33703
G1 X141.603 Y119.641 E2.38057
G1 X141.729 Y120.036 E2.41495
G1 E1.91495 F240
G92 E0
G1 X141.729 Y120.036 F9000
G1 X131.683 Y56.024
G1 E.5 F240
;TYPE:External perimeter
G1 F1800
G1 X156.28 Y56.024 E2.53976
G1 X156.28 Y68.322 E3.5596
G1 X156.28 Y185.349 E13.26431
G1 X131.683 Y185.349 E15.30407
G1 X131.683 Y56.114 E26.02116
G1 X132.277 Y56.025 F9000
G1 X132.283 Y56.624
;TYPE:Perimeter
G1 F1800
G1 X155.681 Y56.624 E27.96149
G1 X155.681 Y68.322 E28.93157
G1 X155.681 Y184.749 E38.58652
G1 X132.283 Y184.749 E40.52685
G1 X132.283 Y56.714 E51.14442
G1 X132.283 Y56.714 F9000
G1 X132.998 Y57.104
;TYPE:Solid infill
;WIDTH:0.675
G1 F1800
G1 X143.982 Y68.087 E52.43253
G1 X154.966 Y57.104 E53.72064
G1 X154.966 Y57.104 F9000
G1 X155.201 Y57.717
G1 F1800
G1 X143.982 Y68.936 E55.03637
G1 X132.763 Y57.717 E56.3521
G1 E55.8521 F240
G92 E0
G1 X132.763 Y57.717 F9000
G1 X137.24 Y57.104
G1 E.5 F240
G1 F1800
G1 X143.982 Y63.845 E1.29062
G1 X150.724 Y57.104 E2.08124
G1 X150.724 Y57.104 F9000
G1 X149.875 Y57.104
G1 F1800
G1 X143.982 Y62.997 E2.77235
G1 X138.089 Y57.104 E3.46346
G1 X138.089 Y57.104 F9000
G1 X138.937 Y57.104
G1 F1800
G1 X143.982 Y62.149 E4.05512
G1 X149.027 Y57.104 E4.64678
G1 X149.027 Y57.104 F9000
G1 X148.179 Y57.104
G1 F1800
G1 X143.982 Y61.3 E5.13893
G1 X139.785 Y57.104 E5.63108
G1 X139.785 Y57.104 F9000
G1 X140.634 Y57.104
G1 F1800
G1 X143.982 Y60.452 E6.02372
G1 X147.33 Y57.104 E6.41636
G1 E5.91636 F240
G92 E0
G1 X147.33 Y57.104 F9000
G1 X144.785 Y57.104
G1 E.5 F240
G1 F1800
G1 X143.982 Y57.907 E.59417
G1 X143.179 Y57.104 E.68834
G1 X143.179 Y57.104 F9000
G1 X142.33 Y57.104
G1 F1800
G1 X143.982 Y58.755 E.88202
G1 X145.633 Y57.104 E1.07564
G1 X145.633 Y57.104 F9000
G1 X146.482 Y57.104
G1 F1800
G1 X143.982 Y59.604 E1.36883
G1 X141.482 Y57.104 E1.66202
G1 E1.16202 F240
G92 E0
G1 X141.482 Y57.104 F9000
G1 X151.572 Y57.104
G1 E.5 F240
G1 F1800
G1 X143.982 Y64.694 E1.39013
G1 X136.392 Y57.104 E2.28026
G1 X136.392 Y57.104 F9000
G1 X135.543 Y57.104
G1 F1800
G1 X143.982 Y65.542 E3.2699
G1 X152.42 Y57.104 E4.25948
G1 X152.42 Y57.104 F9000
G1 X153.269 Y57.104
G1 F1800
G1 X143.982 Y66.39 E5.34857
G1 X134.695 Y57.104 E6.43766
G1 X134.695 Y57.104 F9000
G1 X133.847 Y57.104
G1 F1800
G1 X143.982 Y67.239 E7.62626
G1 X154.117 Y57.104 E8.81486
G1 X154.117 Y57.104 F9000
G1 X155.201 Y58.565
G1 F1800
G1 X143.982 Y69.784 E10.13059
G1 X132.763 Y58.565 E11.44632
G1 X132.763 Y58.565 F9000
G1 X132.763 Y59.414
G1 F1800
G1 X143.982 Y70.632 E12.76199
G1 X155.201 Y59.414 E14.07766
G1 X155.201 Y59.414 F9000
G1 X155.201 Y60.262
G1 F1800
G1 X143.982 Y71.481 E15.39339
G1 X132.763 Y60.262 E16.70912
G1 X132.763 Y60.262 F9000
G1 X132.763 Y61.11
G1 F1800
G1 X143.982 Y72.329 E18.02485
G1 X155.201 Y61.11 E19.34058
G1 X155.201 Y61.11 F9000
G1 X155.201 Y61.959
G1 F1800
G1 X143.982 Y73.177 E20.65625
G1 X132.763 Y61.959 E21.97192
G1 X132.763 Y61.959 F9000
G1 X132.763 Y62.807
G1 F1800
G1 X143.982 Y74.026 E23.28765
G1 X155.201 Y62.807 E24.60338
G1 E24.10338 F240
G92 E0
G1 X155.201 Y62.807 F9000
G1 X155.201 Y65.352
G1 E.5 F240
G1 F1800
G1 X143.982 Y76.571 E1.81573
G1 X132.763 Y65.352 E3.13146
G1 X132.763 Y65.352 F9000
G1 X132.763 Y64.504
G1 F1800
G1 X143.982 Y75.723 E4.44719
G1 X155.201 Y64.504 E5.76292
G1 X155.201 Y64.504 F9000
G1 X155.201 Y63.655
G1 F1800
G1 X143.982 Y74.874 E7.07865
G1 X132.763 Y63.655 E8.39438
G1 E7.89438 F240
G92 E0
G1 X132.763 Y63.655 F9000
G1 X132.763 Y66.201
G1 E.5 F240
G1 F1800
G1 X143.982 Y77.419 E1.81567
G1 X155.201 Y66.201 E3.13134
G1 X155.201 Y66.201 F9000
G1 X155.201 Y67.049
G1 F1800
G1 X143.982 Y78.268 E4.44707
G1 X132.763 Y67.049 E5.7628
G1 X132.763 Y67.049 F9000
G1 X132.763 Y67.897
G1 F1800
G1 X143.982 Y79.116 E7.07853
G1 X155.201 Y67.897 E8.39426
G1 E7.89426 F240
G92 E0
G1 X155.201 Y67.897 F9000
G1 X155.201 Y70.442
G1 E.5 F240
G1 F1800
G1 X143.982 Y81.661 E1.81573
G1 X132.763 Y70.442 E3.13146
G1 X132.763 Y70.442 F9000
G1 X132.763 Y71.291
G1 F1800
G1 X143.982 Y82.51 E4.44719
G1 X155.201 Y71.291 E5.76292
G1 E5.26292 F240
G92 E0
G1 X155.201 Y71.291 F9000
G1 X155.201 Y75.533
G1 E.5 F240
G1 F1800
G1 X143.982 Y86.751 E1.81567
G1 X132.763 Y75.533 E3.13134
G1 X132.763 Y75.533 F9000
G1 X132.763 Y76.381
G1 F1800
G1 X143.982 Y87.6 E4.44707
G1 X155.201 Y76.381 E5.7628
G1 X155.201 Y76.381 F9000
G1 X155.201 Y77.229
G1 F1800
G1 X143.982 Y88.448 E7.07853
G1 X132.763 Y77.229 E8.39426
G1 X132.763 Y77.229 F9000
G1 X132.763 Y78.078
G1 F1800
G1 X143.982 Y89.297 E9.70999
G1 X155.201 Y78.078 E11.02572
G1 X155.201 Y78.078 F9000
G1 X155.201 Y78.926
G1 F1800
G1 X143.982 Y90.145 E12.34145
G1 X132.763 Y78.926 E13.65718
G1 X132.763 Y78.926 F9000
G1 X132.763 Y79.775
G1 F1800
G1 X143.982 Y90.993 E14.97285
G1 X155.201 Y79.775 E16.28852
G1 X155.201 Y79.775 F9000
G1 X155.201 Y80.623
G1 F1800
G1 X143.982 Y91.842 E17.60425
G1 X132.763 Y80.623 E18.91998
G1 X132.763 Y80.623 F9000
G1 X132.763 Y81.471
G1 F1800
G1 X143.982 Y92.69 E20.23571
G1 X155.201 Y81.471 E21.55144
G1 X155.201 Y81.471 F9000
G1 X155.201 Y82.32
G1 F1800
G1 X143.982 Y93.538 E22.86711
G1 X132.763 Y82.32 E24.18278
G1 X132.763 Y82.32 F9000
G1 X132.763 Y83.168
G1 F1800
G1 X143.982 Y94.387 E25.49851
G1 X155.201 Y83.168 E26.81424
G1 X155.201 Y83.168 F9000
G1 X155.201 Y84.016
G1 F1800
G1 X143.982 Y95.235 E28.12997
G1 X132.763 Y84.016 E29.4457
G1 E28.9457 F240
G92 E0
G1 X132.763 Y84.016 F9000
G1 X132.763 Y86.562
G1 E.5 F240
G1 F1800
G1 X143.982 Y97.78 E1.81567
G1 X155.201 Y86.562 E3.13134
G1 X155.201 Y86.562 F9000
G1 X155.201 Y85.713
G1 F1800
G1 X143.982 Y96.932 E4.44707
G1 X132.763 Y85.713 E5.7628
G1 X132.763 Y85.713 F9000
G1 X132.763 Y84.865
G1 F1800
G1 X143.982 Y96.083 E7.07847
G1 X155.201 Y84.865 E8.39414
G1 E7.89414 F240
G92 E0
G1 X155.201 Y84.865 F9000
G1 X132.763 Y68.746
G1 E.5 F240
G1 F1800
G1 X143.982 Y79.964 E1.81567
G1 X155.201 Y68.746 E3.13134
G1 X155.201 Y68.746 F9000
G1 X155.201 Y69.594
G1 F1800
G1 X143.982 Y80.813 E4.44707
G1 X132.763 Y69.594 E5.7628
G1 E5.2628 F240
G92 E0
G1 X132.763 Y69.594 F9000
G1 X132.763 Y72.139
G1 E.5 F240
G1 F1800
G1 X143.982 Y83.358 E1.81573
G1 X155.201 Y72.139 E3.13146
G1 X155.201 Y72.139 F9000
G1 X155.201 Y72.988
G1 F1800
G1 X143.982 Y84.206 E4.44713
G1 X132.763 Y72.988 E5.7628
G1 X132.763 Y72.988 F9000
G1 X132.763 Y73.836
G1 F1800
G1 X143.982 Y85.055 E7.07853
G1 X155.201 Y73.836 E8.39426
G1 X155.201 Y73.836 F9000
G1 X155.201 Y74.684
G1 F1800
G1 X143.982 Y85.903 E9.70999
G1 X132.763 Y74.684 E11.02572
G1 E10.52572 F240
G92 E0
G1 X132.763 Y74.684 F9000
G1 X132.763 Y89.107
G1 E.5 F240
G1 F1800
G1 X143.982 Y100.325 E1.81567
G1 X155.201 Y89.107 E3.13134
G1 X155.201 Y89.107 F9000
G1 X155.201 Y88.258
G1 F1800
G1 X143.982 Y99.477 E4.44707
G1 X132.763 Y88.258 E5.7628
G1 X132.763 Y88.258 F9000
G1 X132.763 Y87.41
G1 F1800
G1 X143.982 Y98.629 E7.07853
G1 X155.201 Y87.41 E8.39426
G1 E7.89426 F240
G92 E0
G1 X155.201 Y87.41 F9000
G1 X155.201 Y89.955
G1 E.5 F240
G1 F1800
G1 X143.982 Y101.174 E1.81573
G1 X132.763 Y89.955 E3.13146
G1 X132.763 Y89.955 F9000
G1 X132.763 Y90.803
G1 F1800
G1 X143.982 Y102.022 E4.44719
G1 X155.201 Y90.803 E5.76292
G1 X155.201 Y90.803 F9000
G1 X155.201 Y91.652
G1 F1800
G1 X143.982 Y102.87 E7.07859
G1 X132.763 Y91.652 E8.39426
G1 X132.763 Y91.652 F9000
G1 X132.763 Y92.5
G1 F1800
G1 X143.982 Y103.719 E9.70999
G1 X155.201 Y92.5 E11.02572
G1 X155.201 Y92.5 F9000
G1 X155.201 Y93.348
G1 F1800
G1 X143.982 Y104.567 E12.34145
G1 X132.763 Y93.348 E13.65718
G1 E13.15718 F240
G92 E0
G1 X132.763 Y93.348 F9000
G1 X132.763 Y112.288
G1 E.5 F240
G1 F1800
G1 X135.583 Y112.288 E.73385
G1 X135.583 Y100.411 E1.71878
G1 X143.982 Y108.809 E2.70373
G1 X152.38 Y100.411 E3.68862
G1 X152.38 Y112.288 E4.67355
G1 X155.201 Y112.288 E4.90749
G1 X155.201 Y112.288 F9000
G1 X155.201 Y111.688
G1 F1800
G1 X152.98 Y111.688 E5.09167
G1 X152.98 Y98.962 E6.147
G1 X143.982 Y107.961 E7.20231
G1 X134.984 Y98.962 E8.25762
G1 X134.984 Y111.688 E9.31295
G1 X132.763 Y111.688 E9.49713
G1 X132.763 Y111.688 F9000
G1 X132.763 Y111.088
G1 F1800
G1 X134.384 Y111.088 E9.63155
G1 X134.384 Y97.514 E10.7572
G1 X143.982 Y107.112 E11.88282
G1 X153.58 Y97.514 E13.00844
G1 X153.58 Y111.088 E14.13409
G1 X155.201 Y111.088 E14.26851
G1 X155.201 Y111.088 F9000
G1 X155.201 Y110.488
G1 F1800
G1 X154.18 Y110.488 E14.35318
G1 X154.18 Y96.066 E15.54916
G1 X143.982 Y106.264 E16.74515
G1 X133.784 Y96.066 E17.94114
G1 X133.784 Y110.488 E19.13712
G1 X132.763 Y110.488 E19.22179
G1 X132.763 Y110.488 F9000
G1 X132.763 Y109.888
G1 F1800
G1 X133.184 Y109.888 E19.2567
G1 X133.184 Y94.618 E20.523
G1 X143.982 Y105.416 E21.78935
G1 X154.78 Y94.618 E23.0557
G1 X154.78 Y109.888 E24.322
G1 X155.201 Y109.888 E24.35691
G1 E23.85691 F240
G92 E0
G1 X155.201 Y109.888 F9000
G1 X155.201 Y112.888
G1 E.5 F240
G1 F1800
G1 X151.78 Y112.888 E.78369
G1 X151.78 Y101.859 E1.69829
G1 X143.982 Y109.657 E2.61281
G1 X136.183 Y101.859 E3.52739
G1 X136.183 Y112.888 E4.44199
G1 X132.763 Y112.888 E4.7256
G1 X132.763 Y112.888 F9000
G1 X132.763 Y113.488
G1 F1800
G1 X136.783 Y113.488 E5.05897
G1 X136.783 Y103.307 E5.90325
G1 X143.982 Y110.506 E6.74753
G1 X151.181 Y103.307 E7.59181
G1 X151.181 Y113.488 E8.43609
G1 X155.201 Y113.488 E8.76946
G1 X155.201 Y113.488 F9000
G1 X155.201 Y114.087
G1 F1800
G1 X150.581 Y114.087 E9.15258
G1 X150.581 Y104.755 E9.92646
G1 X143.982 Y111.354 E10.70037
G1 X137.383 Y104.755 E11.47428
G1 X137.383 Y114.087 E12.24816
G1 X132.763 Y114.087 E12.63128
G1 X132.763 Y114.087 F9000
G1 X132.763 Y114.687
G1 F1800
G1 X137.983 Y114.687 E13.06416
G1 X137.983 Y106.204 E13.76763
G1 X143.982 Y112.203 E14.47117
G1 X149.981 Y106.204 E15.17471
G1 X149.981 Y114.687 E15.87818
G1 X155.201 Y114.687 E16.31106
G1 X155.201 Y114.687 F9000
G1 X155.201 Y115.287
G1 F1800
G1 X149.381 Y115.287 E16.7937
G1 X149.381 Y107.652 E17.42685
G1 X143.982 Y113.051 E18.06003
G1 X138.583 Y107.652 E18.69321
G1 X138.583 Y115.287 E19.32636
G1 X132.763 Y115.287 E19.809
G1 E19.309 F240
G92 E0
G1 X132.763 Y115.287 F9000
G1 X138.374 Y117.687
G1 E.5 F240
G1 F1800
G1 X136.741 Y117.687 E.63542
G1 X137.28 Y118.226 E.69863
G1 X137.28 Y118.226 F9000
G1 X136.842 Y118.637
G1 F1800
G1 X135.292 Y117.087 E.88041
G1 X140.383 Y117.087 E1.30259
G1 X140.383 Y111.997 E1.72469
G1 X143.982 Y115.596 E2.14677
G1 X147.581 Y111.997 E2.56885
G1 X147.581 Y117.087 E2.99095
G1 X152.671 Y117.087 E3.41305
G1 X149.072 Y120.686 E3.83513
G1 X152.671 Y124.286 E4.25727
G1 X147.581 Y124.286 E4.67937
G1 X147.581 Y129.376 E5.10147
G1 X143.982 Y125.776 E5.52361
G1 X139.783 Y129.976 E6.01611
G1 X139.783 Y124.885 E6.43829
G1 X133.844 Y124.885 E6.93079
G1 X136.491 Y122.239 E7.24116
G1 X136.491 Y122.239 F9000
G1 X136.233 Y121.648
G1 F1800
G1 X132.763 Y125.118 E7.64811
G1 X132.763 Y125.118 F9000
G1 X132.763 Y125.485
G1 F1800
G1 X139.183 Y125.485 E8.1805
G1 X139.183 Y131.424 E8.673
G1 X143.982 Y126.625 E9.23581
G1 X148.181 Y130.824 E9.72825
G1 X148.181 Y124.885 E10.22075
G1 X154.12 Y124.885 E10.71325
G1 X149.921 Y120.686 E11.20569
G1 X154.12 Y116.487 E11.69813
G1 X148.181 Y116.487 E12.19063
G1 X148.181 Y110.548 E12.68313
G1 X143.982 Y114.748 E13.17563
G1 X139.783 Y110.548 E13.66813
G1 X139.783 Y116.487 E14.16063
G1 X133.844 Y116.487 E14.65313
G1 X136.488 Y119.131 E14.96321
G1 X136.488 Y119.131 F9000
G1 X136.227 Y119.719
G1 F1800
G1 X132.763 Y116.255 E15.36946
G1 X132.763 Y116.255 F9000
G1 X132.763 Y115.887
G1 F1800
G1 X139.183 Y115.887 E15.90185
G1 X139.183 Y109.1 E16.46468
G1 X143.982 Y113.899 E17.02749
G1 X148.781 Y109.1 E17.5903
G1 X148.781 Y115.887 E18.15313
G1 X155.201 Y115.887 E18.68552
G1 X155.201 Y115.887 F9000
G1 X155.201 Y116.255
G1 F1800
G1 X150.769 Y120.686 E19.20523
G1 X155.201 Y125.118 E19.725
G1 X155.201 Y125.118 F9000
G1 X155.201 Y125.485
G1 F1800
G1 X148.781 Y125.485 E20.25739
G1 X148.781 Y132.272 E20.82022
G1 X143.982 Y127.473 E21.38303
G1 X138.583 Y132.872 E22.01621
G1 X138.583 Y126.085 E22.57904
G1 X132.763 Y126.085 E23.06168
G1 X132.763 Y126.085 F9000
G1 X132.763 Y124.27
G1 F1800
G1 X136.09 Y120.943 E23.45186
G1 X136.09 Y120.943 F9000
G1 X136.088 Y120.427
G1 F1800
G1 X132.763 Y117.103 E23.84175
G1 X132.763 Y117.103 F9000
G1 X132.763 Y117.951
G1 F1800
G1 X135.498 Y120.686 E24.1625
G1 X132.763 Y123.421 E24.48325
G1 X132.763 Y123.421 F9000
G1 X132.763 Y122.573
G1 F1800
G1 X134.65 Y120.686 E24.70455
G1 X132.763 Y118.8 E24.92579
G1 E24.42579 F240
G92 E0
G1 X132.763 Y118.8 F9000
G1 X132.763 Y120.876
G1 E.5 F240
G1 F1800
G1 X132.953 Y120.686 E.52228
G1 X132.763 Y120.496 E.54456
G1 X132.763 Y120.496 F9000
G1 X132.763 Y119.648
G1 F1800
G1 X133.801 Y120.686 E.66629
G1 X132.763 Y121.725 E.78808
G1 E.28808 F240
G92 E0
G1 X132.763 Y121.725 F9000
G1 X138.374 Y123.686
G1 E.5 F240
G1 F1800
G1 X136.741 Y123.686 E.63542
G1 X137.28 Y123.146 E.69869
G1 X137.28 Y123.146 F9000
G1 X136.847 Y122.731
G1 F1800
G1 X135.292 Y124.286 E.88106
G1 X140.383 Y124.286 E1.30324
G1 X140.383 Y128.527 E1.65493
G1 X143.982 Y124.928 E2.07701
G1 X146.981 Y127.928 E2.42878
G1 X146.981 Y123.686 E2.78056
