; generated by PrusaSlicer 2.8.0+MacOS-arm64 on 2024-09-05 at 13:31:22 UTC


;
;

;
;
; 

; external perimeters extrusion width = 0.68mm
; perimeters extrusion width = 0.68mm
; infill extrusion width = 0.68mm
; solid infill extrusion width = 0.68mm
; top infill extrusion width = 0.60mm

; external perimeters extrusion width = 0.68mm
; perimeters extrusion width = 0.68mm
; infill extrusion width = 0.68mm
; solid infill extrusion width = 0.68mm
; top infill extrusion width = 0.60mm

; external perimeters extrusion width = 0.68mm
; perimeters extrusion width = 0.68mm
; infill extrusion width = 0.68mm
; solid infill extrusion width = 0.68mm
; top infill extrusion width = 0.60mm

; external perimeters extrusion width = 0.68mm
; perimeters extrusion width = 0.68mm
; infill extrusion width = 0.68mm
; solid infill extrusion width = 0.68mm
; top infill extrusion width = 0.60mm


EXCLUDE_OBJECT_DEFINE NAME='bed_frame_rear_right_bracket' CENTER=143.278,149.605 POLYGON=[[153.000,102.709],[153.000,173.709],[153.058,174.885],[153.231,176.050],[153.701,177.752],[154.152,178.840],[154.707,179.878],[155.362,180.857],[156.515,182.194],[157.387,182.985],[158.333,183.686],[159.869,184.557],[160.957,185.007],[162.659,185.478],[163.824,185.651],[165.000,185.709],[190.500,185.709],[193.000,188.209],[193.000,190.709],[130.500,190.709],[128.000,188.209],[128.000,103.209],[130.500,100.709],[151.000,100.709]]
EXCLUDE_OBJECT_DEFINE NAME='bed_frame_rear_left_bracket' CENTER=72.280,169.103 POLYGON=[[122.000,130.500],[119.500,133.000],[94.000,133.000],[92.824,133.058],[91.659,133.231],[90.517,133.517],[89.408,133.913],[88.343,134.417],[87.333,135.022],[85.941,136.109],[85.109,136.941],[84.361,137.852],[83.417,139.343],[82.701,140.957],[82.231,142.659],[82.014,144.411],[82.000,216.000],[80.000,218.000],[59.500,218.000],[57.000,215.500],[57.000,130.500],[59.500,128.000],[122.000,128.000]]
EXCLUDE_OBJECT_DEFINE NAME='bed_frame_front_right_bracket' CENTER=106.720,80.893 POLYGON=[[122.000,34.500],[122.000,119.500],[119.500,122.000],[59.500,122.000],[57.000,119.500],[57.000,117.000],[85.000,117.000],[86.761,116.870],[87.916,116.640],[89.043,116.299],[90.131,115.848],[91.169,115.293],[92.148,114.638],[93.059,113.891],[93.891,113.059],[94.638,112.148],[95.583,110.657],[96.299,109.043],[96.769,107.341],[96.986,105.589],[97.000,34.000],[99.000,32.000],[119.500,32.000]]
EXCLUDE_OBJECT_DEFINE NAME='bed_frame_front_left_bracket' CENTER=180.411,117.048 POLYGON=[[195.689,78.441],[195.689,163.441],[193.189,165.941],[172.689,165.941],[170.689,163.941],[170.689,92.941],[170.631,91.764],[170.459,90.599],[169.988,88.898],[169.537,87.810],[168.982,86.771],[168.328,85.792],[167.175,84.455],[166.302,83.664],[164.858,82.648],[163.820,82.093],[162.732,81.642],[161.605,81.300],[159.866,80.998],[158.689,80.941],[130.689,80.941],[130.689,78.441],[133.189,75.941],[193.189,75.941]]

;TYPE:Custom
START_PRINT BED_TEMP=80 HOTEND_TEMP=250 FILAMENT_TYPE=PET EXTRUSION_MULTIPLIER=0.92 PERIMETER_SPEED=70
G21 ; set units to millimeters
G90 ; use absolute coordinates
M82 ; use absolute distances for extrusion
G92 E0
; Filament gcode
; ########################### NOTE OFFSET CHANGES ####################################
; Prevents PETG buildup on nozzle.
; SET_GCODE_OFFSET Z=0.06
; ####################################################################################
M107
;LAYER_CHANGE
;Z:0.35
;HEIGHT:0.35
G1 E-.5 F240
G1 Z.35 F9000
EXCLUDE_OBJECT_START NAME='bed_frame_front_right_bracket'
G92 E0
G1 X104.835 Y84.877
G1 E.5 F240
G92 E0
;TYPE:External perimeter
;WIDTH:0.675
G1 F1800
G1 X105.265 Y84.508 E.0455
G1 X105.793 Y84.214 E.09403
G1 X106.369 Y84.03 E.14259
G1 X106.966 Y83.964 E.19083
G1 X107.713 Y84.049 E.25121
G1 X108.29 Y84.252 E.30033
G1 X108.809 Y84.562 E.34888
G1 X109.257 Y84.969 E.39749
G1 X109.614 Y85.456 E.44598
G1 X109.868 Y86.005 E.49456
G1 X110.009 Y86.593 E.54312
G1 X110.03 Y87.197 E.59166
G1 X109.931 Y87.794 E.64026
G1 X109.715 Y88.359 E.68884
G1 X109.392 Y88.87 E.73739
G1 X108.974 Y89.307 E.78595
G1 X108.478 Y89.652 E.83447
G1 X107.932 Y89.889 E.88227
G1 X107.332 Y90.018 E.93156
G1 X106.727 Y90.024 E.98015
G1 X106.134 Y89.91 E1.02864
G1 X105.574 Y89.681 E1.07723
G1 X105.071 Y89.345 E1.12581
G1 X104.645 Y88.916 E1.17436
G1 X104.249 Y88.283 E1.23432
G1 X104.047 Y87.705 E1.28349
G1 X103.966 Y87.106 E1.33203
G1 X104.005 Y86.502 E1.38064
G1 X104.163 Y85.919 E1.42915
G1 X104.433 Y85.378 E1.47771
G1 X104.774 Y84.942 E1.52216
G1 X105.228 Y84.55 F9000
G1 X104.421 Y84.453
;TYPE:Perimeter
G1 F1800
G1 X104.879 Y84.049 E1.57121
G1 X105.506 Y83.687 E1.62935
G1 X106.192 Y83.457 E1.68746
G1 X106.906 Y83.367 E1.74525
G1 X107.787 Y83.454 E1.81635
G1 X108.496 Y83.688 E1.87631
G1 X109.122 Y84.05 E1.93438
G1 X109.665 Y84.529 E1.99253
G1 X110.101 Y85.106 E2.05061
G1 X110.415 Y85.758 E2.10873
G1 X110.594 Y86.459 E2.16683
G1 X110.63 Y87.182 E2.22496
G1 X110.521 Y87.898 E2.28312
G1 X110.274 Y88.578 E2.34122
G1 X109.896 Y89.195 E2.39933
G1 X109.404 Y89.725 E2.45741
G1 X108.816 Y90.148 E2.51558
G1 X108.165 Y90.441 E2.57291
G1 X107.451 Y90.606 E2.63176
G1 X106.727 Y90.624 E2.68992
G1 X106.015 Y90.498 E2.74799
G1 X105.341 Y90.233 E2.80615
G1 X104.733 Y89.841 E2.86425
G1 X104.215 Y89.335 E2.9224
G1 X103.737 Y88.596 E2.99308
G1 X103.478 Y87.896 E3.05302
G1 X103.37 Y87.18 E3.11117
G1 X103.407 Y86.457 E3.16931
G1 X103.585 Y85.756 E3.22739
G1 X103.9 Y85.104 E3.28554
G1 X104.337 Y84.527 E3.34367
G1 X104.354 Y84.512 E3.34549
G1 X104.354 Y84.512 F9000
G1 X104.007 Y84.028
G1 F1800
G1 X104.494 Y83.589 E3.39814
G1 X105.219 Y83.16 E3.46579
G1 X106.016 Y82.884 E3.53352
G1 X106.845 Y82.77 E3.60072
G1 X107.181 Y82.774 E3.62771
G1 X107.861 Y82.859 E3.68274
G1 X108.188 Y82.938 E3.70976
G1 X108.701 Y83.124 E3.75358
G1 X109.435 Y83.538 E3.82126
G1 X110.073 Y84.089 E3.88896
G1 X110.588 Y84.756 E3.95663
G1 X110.962 Y85.511 E4.02429
G1 X111.178 Y86.326 E4.092
G1 X111.229 Y87.167 E4.15966
G1 X111.112 Y88.002 E4.22737
G1 X110.832 Y88.797 E4.29506
G1 X110.4 Y89.521 E4.36277
G1 X109.833 Y90.144 E4.43042
G1 X109.154 Y90.643 E4.49809
G1 X108.398 Y90.994 E4.56503
G1 X107.57 Y91.194 E4.63344
G1 X106.996 Y91.224 E4.6796
G1 X106.476 Y91.202 E4.7214
G1 X105.896 Y91.086 E4.7689
G1 X105.108 Y90.786 E4.83661
G1 X104.395 Y90.336 E4.90432
G1 X103.786 Y89.754 E4.97197
G1 X103.58 Y89.489 E4.99893
G1 X103.225 Y88.909 E5.05354
G1 X102.909 Y88.087 E5.12426
G1 X102.775 Y87.255 E5.19194
G1 X102.808 Y86.413 E5.25961
G1 X103.008 Y85.594 E5.32732
G1 X103.366 Y84.831 E5.395
G1 X103.868 Y84.153 E5.46275
G1 X103.94 Y84.088 E5.47054
G1 X103.94 Y84.088 F9000
G1 X103.592 Y83.603
G1 F1800
G1 X104.108 Y83.13 E5.52675
G1 X104.932 Y82.633 E5.60403
G1 X105.318 Y82.471 E5.63765
G1 X105.839 Y82.31 E5.68144
G1 X106.247 Y82.228 E5.71486
G1 X106.785 Y82.173 E5.75829
G1 X107.255 Y82.179 E5.79604
G1 X107.935 Y82.264 E5.85107
G1 X108.394 Y82.374 E5.88898
G1 X108.906 Y82.561 E5.93275
G1 X109.283 Y82.742 E5.96633
G1 X109.748 Y83.026 E6.01009
G1 X110.081 Y83.279 E6.04368
G1 X110.481 Y83.649 E6.08744
G1 X110.757 Y83.963 E6.12101
G1 X111.076 Y84.406 E6.16485
G1 X111.285 Y84.768 E6.19842
G1 X111.509 Y85.265 E6.2422
G1 X111.642 Y85.661 E6.27575
G1 X111.763 Y86.192 E6.31949
G1 X111.815 Y86.607 E6.35308
G1 X111.829 Y87.152 E6.39686
G1 X111.798 Y87.569 E6.43044
G1 X111.703 Y88.106 E6.47424
G1 X111.59 Y88.508 E6.50778
G1 X111.391 Y89.016 E6.5516
G1 X111.2 Y89.388 E6.58518
G1 X110.904 Y89.846 E6.62897
G1 X110.643 Y90.173 E6.66257
G1 X110.263 Y90.563 E6.7063
G1 X109.942 Y90.832 E6.73993
G1 X109.492 Y91.139 E6.78368
G1 X109.125 Y91.339 E6.81725
G1 X108.622 Y91.551 E6.86109
G1 X108.223 Y91.674 E6.89462
G1 X107.689 Y91.782 E6.93837
G1 X106.996 Y91.824 E6.99413
G1 X106.44 Y91.804 E7.03881
G1 X105.777 Y91.674 E7.09307
G1 X105.378 Y91.551 E7.1266
G1 X104.875 Y91.339 E7.17044
G1 X104.058 Y90.832 E7.24766
G1 X103.357 Y90.173 E7.32493
G1 X103.068 Y89.802 E7.3627
G1 X102.713 Y89.221 E7.41738
G1 X102.515 Y88.795 E7.45511
G1 X102.341 Y88.278 E7.49892
G1 X102.248 Y87.87 E7.53253
G1 X102.18 Y87.329 E7.57632
G1 X102.17 Y86.911 E7.6099
G1 X102.21 Y86.368 E7.65363
G1 X102.43 Y85.431 E7.73093
G1 X102.832 Y84.557 E7.80819
G1 X103.399 Y83.779 E7.8855
G1 X103.526 Y83.663 E7.89931
G1 E7.39931 F240
G92 E0
G1 X103.526 Y83.663 F9000
G1 X104.643 Y105.11
G1 E.5 F240
;TYPE:External perimeter
G1 F1800
G1 X104.806 Y104.902 E.52122
G1 X105.265 Y104.508 E.5698
G1 X105.793 Y104.214 E.61833
G1 X106.369 Y104.03 E.66689
G1 X106.966 Y103.964 E.71513
G1 X107.713 Y104.049 E.77551
G1 X108.281 Y104.248 E.82384
G1 X108.809 Y104.562 E.87317
G1 X109.257 Y104.969 E.92178
G1 X109.614 Y105.456 E.97027
G1 X109.868 Y106.005 E1.01885
G1 X110.009 Y106.593 E1.06741
G1 X110.03 Y107.197 E1.11595
G1 X109.931 Y107.794 E1.16455
G1 X109.715 Y108.359 E1.21313
G1 X109.392 Y108.87 E1.26168
G1 X108.974 Y109.307 E1.31024
G1 X108.478 Y109.652 E1.35876
G1 X107.923 Y109.892 E1.40732
G1 X107.332 Y110.018 E1.45585
G1 X106.727 Y110.024 E1.50444
G1 X106.134 Y109.91 E1.55293
G1 X105.574 Y109.681 E1.60152
G1 X105.087 Y109.356 E1.64854
G1 X104.608 Y108.857 E1.70409
G1 X104.294 Y108.361 E1.75123
G1 X104.083 Y107.812 E1.79846
G1 X103.965 Y107.095 E1.85682
G1 X104.005 Y106.502 E1.90455
G1 X104.156 Y105.942 E1.95113
G1 X104.433 Y105.378 E2.00159
G1 X104.587 Y105.181 E2.02167
G1 X105.001 Y104.746 F9000
G1 X104.186 Y104.727
;TYPE:Perimeter
G1 F1800
G1 X104.337 Y104.527 E2.0418
G1 X104.879 Y104.049 E2.09984
G1 X105.506 Y103.687 E2.15798
G1 X106.192 Y103.457 E2.21609
G1 X106.906 Y103.367 E2.27388
G1 X107.787 Y103.454 E2.34498
G1 X108.486 Y103.685 E2.4041
G1 X109.122 Y104.05 E2.46299
G1 X109.665 Y104.529 E2.52114
G1 X110.101 Y105.106 E2.57922
G1 X110.415 Y105.758 E2.63734
G1 X110.594 Y106.459 E2.69544
G1 X110.63 Y107.182 E2.75357
G1 X110.521 Y107.898 E2.81173
G1 X110.274 Y108.578 E2.86983
G1 X109.896 Y109.195 E2.92794
G1 X109.504 Y109.623 E2.97455
G1 X109.267 Y109.841 E3.00041
G1 X108.816 Y110.148 E3.04422
G1 X108.156 Y110.445 E3.10234
G1 X107.451 Y110.606 E3.16041
G1 X106.727 Y110.624 E3.21857
G1 X106.015 Y110.498 E3.27664
G1 X105.341 Y110.233 E3.3348
G1 X104.749 Y109.851 E3.39138
G1 X104.353 Y109.464 E3.43585
G1 X103.998 Y109.048 E3.47977
G1 X103.725 Y108.576 E3.52356
G1 X103.514 Y108.003 E3.5726
G1 X103.428 Y107.638 E3.60272
G1 X103.367 Y107.149 E3.6423
G1 X103.407 Y106.457 E3.69797
G1 X103.554 Y105.868 E3.74672
G1 X103.651 Y105.589 E3.77044
G1 X103.9 Y105.104 E3.81422
G1 X104.131 Y104.798 E3.84501
G1 X104.131 Y104.798 F9000
G1 X103.728 Y104.342
G1 F1800
G1 X103.868 Y104.153 E3.8639
G1 X104.494 Y103.589 E3.93157
G1 X105.219 Y103.16 E3.99922
G1 X106.016 Y102.884 E4.06695
G1 X106.845 Y102.77 E4.13415
G1 X107.181 Y102.774 E4.16114
G1 X107.861 Y102.859 E4.21617
G1 X108.188 Y102.938 E4.24319
G1 X108.701 Y103.124 E4.28701
G1 X109.435 Y103.538 E4.35469
G1 X110.073 Y104.089 E4.42239
G1 X110.588 Y104.756 E4.49006
G1 X110.962 Y105.511 E4.55772
G1 X111.178 Y106.326 E4.62543
G1 X111.229 Y107.167 E4.69309
G1 X111.112 Y108.002 E4.7608
G1 X110.832 Y108.797 E4.82849
G1 X110.4 Y109.521 E4.8962
G1 X109.933 Y110.042 E4.95239
G1 X109.605 Y110.336 E4.98776
G1 X109.154 Y110.643 E5.03157
G1 X108.389 Y110.998 E5.0993
G1 X107.57 Y111.194 E5.16693
G1 X106.727 Y111.224 E5.23467
G1 X105.896 Y111.086 E5.30232
G1 X105.108 Y110.786 E5.37003
G1 X104.411 Y110.347 E5.43618
G1 X104.141 Y110.117 E5.46466
G1 X103.678 Y109.619 E5.51927
G1 X103.368 Y109.156 E5.56402
G1 X103.102 Y108.657 E5.60943
G1 X102.909 Y108.087 E5.65776
G1 X102.77 Y107.203 E5.72962
G1 X102.793 Y106.615 E5.77688
G1 X102.86 Y106.118 E5.81715
G1 X103.008 Y105.594 E5.86088
G1 X103.366 Y104.831 E5.92856
G1 X103.674 Y104.415 E5.97013
G1 X103.674 Y104.415 F9000
G1 X103.269 Y103.958
G1 F1800
G1 X103.399 Y103.779 E5.9879
G1 X104.108 Y103.13 E6.06509
G1 X104.932 Y102.633 E6.14237
G1 X105.318 Y102.471 E6.17599
G1 X105.839 Y102.31 E6.21978
G1 X106.247 Y102.228 E6.2532
G1 X106.785 Y102.173 E6.29663
G1 X107.255 Y102.179 E6.33438
G1 X107.935 Y102.263 E6.3894
G1 X108.394 Y102.374 E6.42732
G1 X108.906 Y102.561 E6.47109
G1 X109.451 Y102.845 E6.52044
G1 X109.917 Y103.141 E6.56478
G1 X110.481 Y103.649 E6.62574
G1 X110.757 Y103.963 E6.65931
G1 X111.076 Y104.406 E6.70315
G1 X111.285 Y104.768 E6.73672
G1 X111.509 Y105.265 E6.7805
G1 X111.642 Y105.661 E6.81405
G1 X111.763 Y106.192 E6.85779
G1 X111.815 Y106.607 E6.89138
G1 X111.829 Y107.152 E6.93516
G1 X111.798 Y107.569 E6.96874
G1 X111.703 Y108.106 E7.01254
G1 X111.59 Y108.508 E7.04608
G1 X111.391 Y109.016 E7.0899
G1 X111.2 Y109.388 E7.12348
G1 X110.904 Y109.846 E7.16727
G1 X110.643 Y110.173 E7.20087
G1 X110.263 Y110.563 E7.2446
G1 X109.942 Y110.832 E7.27823
G1 X109.492 Y111.139 E7.32198
G1 X109.125 Y111.339 E7.35555
G1 X108.622 Y111.551 E7.39939
G1 X108.223 Y111.674 E7.43292
G1 X107.689 Y111.782 E7.47667
G1 X107.273 Y111.824 E7.51025
G1 X106.727 Y111.824 E7.5541
G1 X106.311 Y111.782 E7.58768
G1 X105.777 Y111.674 E7.63143
G1 X105.378 Y111.551 E7.66496
G1 X104.875 Y111.339 E7.7088
G1 X104.508 Y111.139 E7.74237
G1 X104.058 Y110.832 E7.78612
G1 X103.701 Y110.525 E7.82393
G1 X103.239 Y110.027 E7.87848
G1 X102.959 Y109.648 E7.91632
G1 X102.686 Y109.176 E7.96011
G1 X102.514 Y108.795 E7.99368
G1 X102.341 Y108.278 E8.03746
G1 X102.237 Y107.787 E8.07777
G1 X102.172 Y107.257 E8.12065
G1 X102.182 Y106.746 E8.1617
G1 X102.239 Y106.146 E8.2101
G1 X102.399 Y105.543 E8.2602
G1 X102.583 Y105.042 E8.30306
G1 X102.832 Y104.557 E8.34684
G1 X103.216 Y104.03 E8.39921
G1 E7.89921 F240
G92 E0
G1 X103.216 Y104.03 F9000
G1 X104.55 Y40.229
G1 E.5 F240
;TYPE:External perimeter
G1 F1800
G1 X104.806 Y39.902 E.53335
G1 X105.265 Y39.508 E.58193
G1 X105.793 Y39.214 E.63046
G1 X106.369 Y39.03 E.67902
G1 X106.966 Y38.964 E.72726
G1 X107.713 Y39.049 E.78764
G1 X108.29 Y39.252 E.83676
G1 X108.809 Y39.562 E.88531
G1 X109.257 Y39.969 E.93392
G1 X109.614 Y40.456 E.98241
G1 X109.868 Y41.005 E1.03099
G1 X110.009 Y41.593 E1.07955
G1 X110.03 Y42.197 E1.12809
G1 X109.931 Y42.794 E1.17669
G1 X109.715 Y43.359 E1.22527
G1 X109.392 Y43.87 E1.27382
G1 X108.974 Y44.307 E1.32238
G1 X108.478 Y44.652 E1.3709
G1 X107.923 Y44.892 E1.41946
G1 X107.332 Y45.018 E1.46799
G1 X106.727 Y45.024 E1.51658
G1 X106.106 Y44.903 E1.56739
G1 X105.574 Y44.681 E1.61368
G1 X105.071 Y44.345 E1.66226
G1 X104.645 Y43.916 E1.71081
G1 X104.249 Y43.283 E1.77077
G1 X104.047 Y42.705 E1.81994
G1 X103.966 Y42.106 E1.86848
G1 X104.005 Y41.502 E1.91709
G1 X104.163 Y40.919 E1.9656
G1 X104.433 Y40.378 E2.01416
G1 X104.495 Y40.3 E2.02216
G1 X104.889 Y39.847 F9000
G1 X104.077 Y39.87
;TYPE:Perimeter
G1 F1800
G1 X104.337 Y39.527 E2.05673
G1 X104.879 Y39.049 E2.11477
G1 X105.506 Y38.687 E2.17291
G1 X106.192 Y38.457 E2.23102
G1 X106.906 Y38.367 E2.28881
G1 X107.787 Y38.454 E2.35991
G1 X108.496 Y38.688 E2.41987
G1 X109.122 Y39.05 E2.47794
G1 X109.665 Y39.529 E2.53609
G1 X110.101 Y40.106 E2.59417
G1 X110.415 Y40.758 E2.65229
G1 X110.594 Y41.459 E2.71039
G1 X110.63 Y42.182 E2.76852
G1 X110.521 Y42.898 E2.82668
G1 X110.274 Y43.578 E2.88478
G1 X109.896 Y44.195 E2.94289
G1 X109.404 Y44.725 E3.00097
G1 X108.816 Y45.148 E3.05914
G1 X108.156 Y45.445 E3.11726
G1 X107.451 Y45.606 E3.17533
G1 X106.727 Y45.624 E3.23349
G1 X105.931 Y45.477 E3.2985
G1 X105.341 Y45.233 E3.34977
G1 X104.733 Y44.841 E3.40787
G1 X104.215 Y44.335 E3.46602
G1 X103.737 Y43.596 E3.5367
G1 X103.478 Y42.896 E3.59664
G1 X103.37 Y42.18 E3.65479
G1 X103.407 Y41.457 E3.71293
G1 X103.585 Y40.756 E3.77101
G1 X103.9 Y40.104 E3.82916
G1 X104.023 Y39.942 E3.8455
G1 X104.023 Y39.942 F9000
G1 X103.603 Y39.511
G1 F1800
G1 X103.868 Y39.153 E3.88127
G1 X104.494 Y38.589 E3.94894
G1 X105.219 Y38.16 E4.01659
G1 X106.016 Y37.884 E4.08432
G1 X106.845 Y37.77 E4.15152
G1 X107.181 Y37.774 E4.17851
G1 X107.861 Y37.859 E4.23354
G1 X108.701 Y38.124 E4.30428
G1 X109.435 Y38.538 E4.37196
G1 X110.073 Y39.089 E4.43966
G1 X110.588 Y39.756 E4.50733
G1 X110.962 Y40.511 E4.57499
G1 X111.178 Y41.326 E4.6427
G1 X111.229 Y42.167 E4.71036
G1 X111.112 Y43.002 E4.77807
G1 X110.832 Y43.797 E4.84576
G1 X110.4 Y44.521 E4.91347
G1 X109.833 Y45.144 E4.98112
G1 X109.154 Y45.643 E5.04879
G1 X108.389 Y45.998 E5.11652
G1 X107.57 Y46.194 E5.18415
