; generated by PrusaSlicer 2.8.1+MacOS-arm64 on 2024-11-27 at 04:15:37 UTC


;
;

;
;
; 

; external perimeters extrusion width = 0.55mm
; perimeters extrusion width = 0.60mm
; infill extrusion width = 0.60mm
; solid infill extrusion width = 0.60mm
; top infill extrusion width = 0.55mm
; first layer extrusion width = 0.60mm

; external perimeters extrusion width = 0.55mm
; perimeters extrusion width = 0.60mm
; infill extrusion width = 0.60mm
; solid infill extrusion width = 0.60mm
; top infill extrusion width = 0.55mm
; first layer extrusion width = 0.60mm

M73 P0 R115

EXCLUDE_OBJECT_DEFINE NAME='lister_name_tag_back_r_(Instance_1)' CENTER=125.004,163.700 POLYGON=[[169.049,153.801],[169.428,153.896],[169.707,154.093],[169.924,154.417],[170.000,154.800],[169.999,172.649],[169.942,172.937],[169.773,173.234],[169.514,173.458],[169.195,173.581],[81.000,173.600],[80.663,173.542],[80.366,173.373],[80.142,173.114],[80.019,172.795],[80.001,154.751],[80.076,154.417],[80.259,154.128],[80.529,153.918],[80.805,153.819]]
EXCLUDE_OBJECT_DEFINE NAME='lister_name_tag_back_r_(Instance_2)' CENTER=125.004,137.900 POLYGON=[[169.049,128.001],[169.383,128.076],[169.707,128.293],[169.924,128.617],[170.000,129.000],[169.999,146.849],[169.942,147.137],[169.773,147.434],[169.514,147.658],[169.195,147.781],[81.000,147.800],[80.663,147.742],[80.366,147.573],[80.142,147.314],[80.019,146.995],[80.001,128.951],[80.076,128.617],[80.259,128.328],[80.529,128.118],[80.805,128.019]]
EXCLUDE_OBJECT_DEFINE NAME='lister_name_tag_back_r_(Instance_3)' CENTER=125.004,189.500 POLYGON=[[169.049,179.601],[169.428,179.696],[169.707,179.893],[169.924,180.217],[170.000,180.600],[169.999,198.449],[169.942,198.737],[169.773,199.034],[169.514,199.258],[169.195,199.381],[81.000,199.400],[80.663,199.342],[80.366,199.173],[80.142,198.914],[80.019,198.595],[80.001,180.551],[80.076,180.217],[80.259,179.928],[80.529,179.718],[80.805,179.619]]
EXCLUDE_OBJECT_DEFINE NAME='lister_name_tag_back_r_(Instance_4)' CENTER=125.004,112.100 POLYGON=[[169.049,102.201],[169.383,102.276],[169.707,102.493],[169.924,102.817],[170.000,103.200],[169.999,121.049],[169.942,121.337],[169.773,121.634],[169.514,121.858],[169.195,121.981],[81.000,122.000],[80.663,121.942],[80.366,121.773],[80.142,121.514],[80.019,121.195],[80.001,103.151],[80.076,102.817],[80.259,102.528],[80.529,102.318],[80.805,102.219]]
EXCLUDE_OBJECT_DEFINE NAME='lister_name_tag_back_l_(Instance_1)' CENTER=125.004,60.500 POLYGON=[[169.049,50.601],[169.383,50.676],[169.707,50.893],[169.924,51.217],[170.000,51.600],[169.999,69.449],[169.942,69.737],[169.773,70.034],[169.514,70.258],[169.195,70.381],[81.000,70.400],[80.663,70.342],[80.366,70.173],[80.142,69.914],[80.019,69.595],[80.001,51.551],[80.076,51.217],[80.259,50.928],[80.529,50.718],[80.805,50.619]]
EXCLUDE_OBJECT_DEFINE NAME='lister_name_tag_back_l_(Instance_2)' CENTER=125.004,86.300 POLYGON=[[169.049,76.401],[169.383,76.476],[169.707,76.693],[169.924,77.017],[170.000,77.400],[169.999,95.249],[169.942,95.537],[169.773,95.834],[169.514,96.058],[169.195,96.181],[81.000,96.200],[80.663,96.142],[80.366,95.973],[80.142,95.714],[80.019,95.395],[80.001,77.351],[80.076,77.017],[80.259,76.728],[80.529,76.518],[80.805,76.419]]

M190 S55 ; set bed temperature and wait for it to be reached
M104 S230 ; set temperature
;TYPE:Custom
START_PRINT BED_TEMP=55 HOTEND_TEMP=230 FILAMENT_TYPE=PLA EXTRUSION_MULTIPLIER=0.98
M109 S230 ; set temperature and wait for it to be reached
G21 ; set units to millimeters
G90 ; use absolute coordinates
M82 ; use absolute distances for extrusion
G92 E0
; Filament gcode
SET_GCODE_OFFSET Z=0.01
M107
;LAYER_CHANGE
;Z:0.3
;HEIGHT:0.3
G1 E-.53 F600
G1 Z.6 F9000
EXCLUDE_OBJECT_START NAME='lister_name_tag_back_l_(Instance_1)'
G92 E0
G1 X165.593 Y58.06
G1 Z.3
G1 E.53 F1200
;TYPE:Perimeter
;WIDTH:0.6
G1 F1800
G3 X165.819 Y58.027 I.592 J3.255 E.54496
G1 X166.352 Y58.042 E.57987
G1 X167.023 Y58.241 E.62569
G1 X167.644 Y58.643 E.67412
G1 X168.118 Y59.21 E.7225
;WIDTH:0.625933
G1 X168.39 Y59.786 E.76622
;WIDTH:0.653599
G1 X168.451 Y59.961 E.77957
G1 X168.492 Y60.497 E.81829
;WIDTH:0.650025
G1 X168.455 Y60.998 E.85425
G1 X168.383 Y61.232 E.87178
;WIDTH:0.626725
G1 X168.176 Y61.689 E.90626
;WIDTH:0.6
G1 X167.729 Y62.278 E.95467
G1 X167.128 Y62.708 E1.00305
G1 X166.427 Y62.943 E1.05145
G3 X165.452 Y62.918 I-.387 J-4.029 E1.11546
G1 X164.977 Y62.759 E1.14825
G3 X164.356 Y62.357 I1.475 J-2.957 E1.19678
G3 X163.882 Y61.79 I2.282 J-2.39 E1.24527
G3 X163.596 Y61.108 I2.885 J-1.612 E1.29379
G3 X163.524 Y60.372 I3.23 J-.689 E1.34231
G3 X163.671 Y59.648 I3.291 J.294 E1.39078
G3 X164.026 Y59 I3.059 J1.251 E1.43925
G3 X164.555 Y58.478 I5.465 J5.009 E1.48793
G1 X165.098 Y58.19 E1.52817
G3 X165.519 Y58.074 I1.087 J3.125 E1.55678
G1 X165.519 Y58.074 F9000
G1 X165.675 Y58.601
;TYPE:External perimeter
G1 F1800
G1 X165.912 Y58.555 E1.57259
G1 X166.377 Y58.589 E1.60311
G1 X166.853 Y58.749 E1.63599
G1 X167.331 Y59.078 E1.67398
G1 X167.691 Y59.534 E1.71202
G1 X167.895 Y60.045 E1.74804
G1 X167.947 Y60.443 E1.77432
G1 X167.897 Y60.942 E1.80715
G1 X167.682 Y61.481 E1.84514
G1 X167.318 Y61.933 E1.88313
G1 X166.837 Y62.258 E1.92114
G1 X166.282 Y62.427 E1.95912
G1 X165.701 Y62.424 E1.99716
G1 X165.147 Y62.251 E2.03516
G1 X164.669 Y61.922 E2.07315
G1 X164.309 Y61.466 E2.11119
G1 X164.099 Y60.925 E2.14918
G1 X164.059 Y60.346 E2.18718
G1 X164.19 Y59.78 E2.22522
G1 X164.483 Y59.279 E2.26322
G1 X164.863 Y58.915 E2.29767
G1 X165.342 Y58.667 E2.33298
G1 X165.601 Y58.616 E2.35026
G1 X166.1 Y58.579 F9000
G1 E1.82026 F600
G92 E0
G1 X148.913 Y58.654 Z.6 F9000
G1 X85.909 Y58.928
G1 Z.3
G1 E.53 F1200
;TYPE:Perimeter
G1 F1800
G3 X86.118 Y59.21 I-2.546 J2.105 E.55299
G1 X86.378 Y59.791 E.59466
G1 X86.475 Y60.296 E.62833
G1 X86.43 Y60.995 E.67419
G3 X86.176 Y61.689 I-3.21 J-.78 E.72267
G3 X85.729 Y62.278 I-2.838 J-1.692 E.77118
G3 X85.128 Y62.708 I-2.213 J-2.454 E.81966
G3 X84.427 Y62.943 I-1.392 J-2.997 E.86817
G3 X83.688 Y62.96 I-.446 J-3.274 E.91667
G1 X82.977 Y62.759 E.96504
G1 X82.356 Y62.357 E1.01347
G1 X81.882 Y61.79 E1.06185
;WIDTH:0.627814
G1 X81.583 Y61.113 E1.11282
;WIDTH:0.638627
G1 X81.529 Y60.874 E1.13002
G1 X81.511 Y60.373 E1.16521
;WIDTH:0.642655
G1 X81.527 Y60.129 E1.18249
G1 X81.671 Y59.648 E1.21798
;WIDTH:0.6
G1 X82.026 Y59 E1.26635
G1 X82.165 Y58.83 E1.28073
G1 X82.651 Y58.419 E1.3224
G1 X83.098 Y58.19 E1.35528
G1 X83.819 Y58.027 E1.40367
G1 X84.352 Y58.042 E1.43858
G1 X85.023 Y58.241 E1.4844
G3 X85.644 Y58.643 I-1.475 J2.957 E1.53293
G3 X85.861 Y58.871 I-2.281 J2.39 E1.55354
G1 X85.861 Y58.871 F9000
G1 X85.482 Y59.269
;TYPE:External perimeter
G1 F1800
G1 X85.691 Y59.534 E1.57564
G1 X85.889 Y60.016 E1.60975
G1 X85.947 Y60.443 E1.63796
G1 X85.897 Y60.942 E1.67079
G1 X85.682 Y61.481 E1.70878
G1 X85.318 Y61.933 E1.74677
G1 X84.837 Y62.258 E1.78478
G1 X84.282 Y62.427 E1.82276
G1 X83.701 Y62.424 E1.8608
G1 X83.147 Y62.251 E1.8988
G1 X82.669 Y61.922 E1.93679
G1 X82.309 Y61.466 E1.97483
G1 X82.099 Y60.925 E2.01282
G1 X82.059 Y60.346 E2.05082
G1 X82.19 Y59.78 E2.08886
G1 X82.483 Y59.279 E2.12686
G1 X82.529 Y59.222 E2.13166
G1 X82.895 Y58.896 E2.16375
G1 X83.342 Y58.667 E2.19663
G1 X83.912 Y58.555 E2.23466
G1 X84.377 Y58.589 E2.26518
G1 X84.853 Y58.749 E2.29806
G1 X85.331 Y59.078 E2.33605
G1 X85.435 Y59.21 E2.34705
G1 X85.713 Y59.626 F9000
G1 E1.81705 F600
G92 E0
G1 X102.82 Y57.967 Z.6 F9000
G1 X168.997 Y51.548
G1 Z.3
G1 E.53 F1200
;TYPE:Perimeter
G1 F1800
G1 X169.01 Y51.55 E.53086
G1 X169.064 Y51.697 E.54111
G1 X169.064 Y59.243 E1.03514
;WIDTH:0.626799
G1 X169.05 Y59.58 E1.05833
;WIDTH:0.653599
G2 X169.051 Y60.525 I9.624 J.464 E1.12642
;WIDTH:0.626725
G2 X169.064 Y61.869 I30.874 J.387 E1.21881
;WIDTH:0.6
G1 X169.063 Y69.352 E1.70872
G1 X169.054 Y69.409 E1.7125
G1 X168.958 Y69.464 E1.71974
G1 X81.084 Y69.464 E7.47278
G1 X80.991 Y69.45 E7.47894
G1 X80.936 Y69.358 E7.48596
G1 X80.936 Y61.726 E7.98562
;WIDTH:0.638627
G1 X80.955 Y60.889 E8.04438
;WIDTH:0.642655
G2 X80.936 Y59.556 I-18.794 J-.396 E8.13863
;WIDTH:0.6
G1 X80.937 Y51.661 E8.65551
G3 X81.042 Y51.536 I.125 J-.001 E8.66714
G1 X168.904 Y51.537 E14.4194
G1 X168.922 Y51.539 E14.42059
G1 X168.922 Y51.539 F9000
G1 X169.08 Y51.027
;TYPE:External perimeter
G1 F1800
G1 X169.225 Y51.049 E14.43019
G1 X169.42 Y51.18 E14.44557
G1 X169.549 Y51.372 E14.46071
G1 X169.6 Y51.697 E14.48225
G1 X169.599 Y69.416 E15.6423
G1 X169.514 Y69.683 E15.66064
G1 X169.306 Y69.911 E15.68085
G1 X168.984 Y70 E15.70272
G1 X81.025 Y70 E21.46133
G1 X80.71 Y69.911 E21.48276
M73 P0 R114
G1 X80.489 Y69.706 E21.5025
G1 X80.4 Y69.384 E21.52437
G1 X80.401 Y51.588 E22.68946
G1 X80.504 Y51.286 E22.71035
G1 X80.691 Y51.09 E22.72809
G1 X81.016 Y51 E22.75017
G1 X168.904 Y51.001 E28.50413
G1 X169.006 Y51.016 E28.51088
G1 X169.445 Y51.256 F9000
G1 X167.818 Y51.697
;TYPE:Solid infill
;WIDTH:0.601175
G1 F1800
G1 X168.663 Y52.542 E28.58929
G1 X168.663 Y53.301 E28.63909
G1 X167.3 Y51.938 E28.76556
G1 X166.541 Y51.938 E28.81536
G1 X168.663 Y54.06 E29.01226
G1 X168.662 Y54.819 E29.06206
G1 X165.782 Y51.938 E29.32934
G1 X165.023 Y51.938 E29.37914
G1 X168.662 Y55.578 E29.71685
G1 X168.662 Y56.337 E29.76665
G1 X164.264 Y51.938 E30.17479
G1 X163.505 Y51.938 E30.22459
G1 X168.662 Y57.096 E30.70316
G1 X168.662 Y57.855 E30.75296
G1 X162.745 Y51.938 E31.302
G1 X161.986 Y51.938 E31.3518
G1 X168.662 Y58.614 E31.97127
G1 X168.662 Y59.238 E32.01221
G3 X168.618 Y59.294 I-.036 J.017 E32.01793
G2 X167.886 Y58.323 I-2.872 J1.402 E32.09821
G2 X167.161 Y57.864 I-2.275 J2.792 E32.15465
G1 X161.227 Y51.938 E32.7049
G1 X160.468 Y51.938 E32.7547
G1 X166.157 Y57.628 E33.28263
G2 X165.454 Y57.683 I-.193 J2.024 E33.32913
G1 X159.709 Y51.938 E33.86221
G1 X158.95 Y51.938 E33.91201
G1 X164.868 Y57.857 E34.46119
G1 X164.372 Y58.12 E34.49803
G1 X158.191 Y51.938 E35.07162
G1 X157.431 Y51.938 E35.12149
G1 X163.964 Y58.471 E35.72769
G2 X163.623 Y58.889 I.97 J1.139 E35.76328
G1 X156.672 Y51.938 E36.40827
G1 X155.913 Y51.938 E36.45807
G1 X163.344 Y59.369 E37.1476
G2 X163.177 Y59.961 I4.344 J1.547 E37.18799
G1 X155.154 Y51.938 E37.93245
G1 X154.395 Y51.938 E37.98225
G1 X163.395 Y60.939 E38.81741
G1 E38.28741 F600
G92 E0
G1 X163.395 Y60.939 F9000
G1 X168.202 Y61.949 Z.386
G1 Z.3
G1 E.53 F1200
G1 F1800
G1 X168.662 Y62.41 E.57273
G1 X168.662 Y63.169 E.62253
G1 X168.033 Y62.54 E.6809
G3 X167.609 Y62.875 I-1.605 J-1.591 E.71644
G1 X168.662 Y63.928 E.81415
G1 X168.662 Y64.687 E.86395
G1 X167.123 Y63.148 E1.00675
G3 X166.543 Y63.327 I-1.474 J-3.74 E1.04661
G1 X168.662 Y65.446 E1.24323
G1 X168.662 Y66.205 E1.29303
G1 X165.565 Y63.108 E1.5804
G1 E1.0504 F600
G92 E0
G1 X165.565 Y63.108 F9000
G1 X168.903 Y67.205 Z.392
G1 Z.3
G1 E.53 F1200
G1 F1800
G1 X153.636 Y51.938 E1.94663
G1 X152.876 Y51.938 E1.9965
G1 X168.662 Y67.723 E3.46125
G1 X168.662 Y68.482 E3.51105
G1 X152.117 Y51.938 E5.04622
G1 X151.358 Y51.938 E5.09602
G1 X168.483 Y69.063 E6.68506
G1 X167.724 Y69.063 E6.73486
G1 X150.599 Y51.938 E8.3239
G1 X149.84 Y51.938 E8.3737
G1 X166.964 Y69.063 E9.96269
G1 X166.205 Y69.063 E10.01249
G1 X149.081 Y51.938 E11.60148
G1 X148.322 Y51.938 E11.65128
G1 X165.446 Y69.063 E13.24027
G1 X164.687 Y69.063 E13.29007
G1 X147.562 Y51.938 E14.87911
G1 X146.803 Y51.938 E14.92891
G1 X163.928 Y69.063 E16.51795
G1 X163.169 Y69.063 E16.56775
G1 X146.044 Y51.938 E18.15679
G1 X145.285 Y51.938 E18.20659
G1 X162.41 Y69.063 E19.79563
G1 X161.65 Y69.063 E19.8455
G1 X144.526 Y51.938 E21.43449
G1 X143.767 Y51.938 E21.48429
G1 X160.891 Y69.063 E23.07328
G1 X160.132 Y69.063 E23.12308
G1 X143.008 Y51.938 E24.71207
G1 X142.248 Y51.938 E24.76194
G1 X159.373 Y69.063 E26.35098
G1 X158.614 Y69.063 E26.40078
G1 X141.489 Y51.938 E27.98982
G1 X140.73 Y51.938 E28.03962
G1 X157.855 Y69.063 E29.62866
G1 X157.096 Y69.063 E29.67846
G1 X139.971 Y51.938 E31.2675
G1 X139.212 Y51.938 E31.3173
G1 X156.336 Y69.063 E32.90629
G1 X155.577 Y69.063 E32.95609
G1 X138.453 Y51.938 E34.54508
G1 X137.693 Y51.938 E34.59495
G1 X154.818 Y69.063 E36.18399
G1 X154.059 Y69.063 E36.23379
G1 X136.934 Y51.938 E37.82283
G1 X136.175 Y51.938 E37.87263
G1 X153.3 Y69.063 E39.46167
G1 X152.541 Y69.063 E39.51147
G1 X135.416 Y51.938 E41.10051
G1 X134.657 Y51.938 E41.15031
G1 X151.782 Y69.063 E42.73935
G1 X151.022 Y69.063 E42.78922
G1 X133.898 Y51.938 E44.37821
G1 X133.139 Y51.938 E44.42801
G1 X150.263 Y69.063 E46.017
G1 X149.504 Y69.063 E46.0668
G1 X132.379 Y51.938 E47.65584
G1 X131.62 Y51.938 E47.70564
G1 X148.745 Y69.063 E49.29468
G1 X147.986 Y69.063 E49.34448
G1 X130.861 Y51.938 E50.93352
G1 X130.102 Y51.938 E50.98332
G1 X147.227 Y69.063 E52.57236
G1 X146.468 Y69.063 E52.62216
G1 X129.343 Y51.938 E54.2112
G1 X128.584 Y51.938 E54.261
G1 X145.708 Y69.063 E55.84999
G1 X144.949 Y69.063 E55.89979
G1 X127.825 Y51.938 E57.48878
G1 X127.065 Y51.938 E57.53865
G1 X144.19 Y69.063 E59.12769
G1 X143.431 Y69.063 E59.17749
G1 X126.306 Y51.938 E60.76653
G1 X125.547 Y51.938 E60.81633
G1 X142.672 Y69.063 E62.40537
G1 X141.913 Y69.063 E62.45517
G1 X124.788 Y51.938 E64.04421
G1 X124.029 Y51.938 E64.09401
G1 X141.154 Y69.063 E65.68305
G1 X140.394 Y69.063 E65.73292
G1 X123.27 Y51.938 E67.32191
G1 X122.51 Y51.938 E67.37178
G1 X139.635 Y69.063 E68.96082
G1 X138.876 Y69.063 E69.01062
G1 X121.751 Y51.938 E70.59966
G1 X120.992 Y51.938 E70.64946
G1 X138.117 Y69.063 E72.2385
G1 X137.358 Y69.063 E72.2883
G1 X120.233 Y51.938 E73.87734
G1 X119.474 Y51.938 E73.92714
G1 X136.599 Y69.063 E75.51618
G1 X135.84 Y69.063 E75.56598
M73 P1 R114
G1 X118.715 Y51.938 E77.15502
G1 X117.956 Y51.938 E77.20482
G1 X135.08 Y69.063 E78.79381
G1 X134.321 Y69.063 E78.84361
G1 X117.196 Y51.938 E80.43265
G1 X116.437 Y51.938 E80.48245
G1 X133.562 Y69.063 E82.07149
G1 X132.803 Y69.063 E82.12129
G1 X115.678 Y51.938 E83.71033
G1 X114.919 Y51.938 E83.76013
G1 X132.044 Y69.063 E85.34917
G1 X131.285 Y69.063 E85.39897
G1 X114.16 Y51.938 E86.98801
G1 X113.401 Y51.938 E87.03781
G1 X130.526 Y69.063 E88.62685
G1 X129.766 Y69.063 E88.67672
M73 P1 R113
G1 X112.642 Y51.938 E90.26571
G1 X111.882 Y51.938 E90.31558
G1 X129.007 Y69.063 E91.90462
G1 X128.248 Y69.063 E91.95442
G1 X111.123 Y51.938 E93.54346
G1 X110.364 Y51.938 E93.59326
G1 X127.489 Y69.063 E95.1823
G1 X126.73 Y69.063 E95.2321
G1 X109.605 Y51.938 E96.82114
G1 X108.846 Y51.938 E96.87094
G1 X125.971 Y69.063 E98.45998
G1 X125.212 Y69.063 E98.50978
G1 X108.087 Y51.938 E100.09882
G1 X107.327 Y51.938 E100.14869
G1 X124.452 Y69.063 E101.73773
G1 X123.693 Y69.063 E101.78753
G1 X106.568 Y51.938 E103.37657
G1 X105.809 Y51.938 E103.42637
G1 X122.934 Y69.063 E105.01541
G1 X122.175 Y69.063 E105.06521
G1 X105.05 Y51.938 E106.65425
G1 X104.291 Y51.938 E106.70405
G1 X121.416 Y69.063 E108.29309
G1 X120.657 Y69.063 E108.34289
G1 X103.532 Y51.938 E109.93193
G1 X102.773 Y51.938 E109.98173
G1 X119.898 Y69.063 E111.57077
G1 X119.138 Y69.063 E111.62064
G1 X102.013 Y51.938 E113.20968
G1 X101.254 Y51.938 E113.25948
G1 X118.379 Y69.063 E114.84852
G1 X117.62 Y69.063 E114.89832
G1 X100.495 Y51.938 E116.48736
G1 X99.736 Y51.938 E116.53716
G1 X116.861 Y69.063 E118.1262
G1 X116.102 Y69.063 E118.176
G1 X98.977 Y51.938 E119.76504
G1 X98.218 Y51.938 E119.81484
G1 X115.343 Y69.063 E121.40388
G1 X114.584 Y69.063 E121.45368
G1 X97.458 Y51.938 E123.04277
G1 X96.699 Y51.938 E123.09257
G1 X113.824 Y69.063 E124.68161
G1 X113.065 Y69.063 E124.73141
G1 X95.94 Y51.938 E126.32045
G1 X95.181 Y51.938 E126.37025
G1 X112.306 Y69.063 E127.95929
G1 X111.547 Y69.063 E128.00909
G1 X94.422 Y51.938 E129.59813
G1 X93.663 Y51.937 E129.64793
G1 X110.788 Y69.063 E131.23702
G1 X110.029 Y69.063 E131.28682
G1 X92.904 Y51.937 E132.87591
G1 X92.144 Y51.937 E132.92578
G1 X109.27 Y69.063 E134.51491
G1 X108.511 Y69.063 E134.56471
G1 X91.385 Y51.937 E136.15384
G1 X90.626 Y51.937 E136.20364
G1 X107.751 Y69.063 E137.79273
G1 X106.992 Y69.063 E137.84253
G1 X89.867 Y51.937 E139.43162
G1 X89.108 Y51.937 E139.48142
G1 X106.233 Y69.063 E141.07051
G1 X105.474 Y69.063 E141.12031
G1 X88.349 Y51.937 E142.7094
G1 X87.59 Y51.937 E142.7592
G1 X104.715 Y69.063 E144.34829
G1 X103.956 Y69.063 E144.39809
G1 X86.83 Y51.937 E145.98722
G1 X86.071 Y51.937 E146.03702
