; generated by PrusaSlicer 2.8.0+MacOS-arm64 on 2024-09-09 at 09:18:03 UTC


;
;

;
;
; 

; external perimeters extrusion width = 0.68mm
; perimeters extrusion width = 0.68mm
; infill extrusion width = 0.68mm
; solid infill extrusion width = 0.68mm
; top infill extrusion width = 0.60mm


EXCLUDE_OBJECT_DEFINE NAME='cooling_test_mini_stl' CENTER=125.008,124.963 POLYGON=[[130.000,149.000],[129.866,149.500],[129.707,149.707],[129.500,149.866],[129.000,150.000],[121.000,150.000],[120.500,149.866],[120.134,149.500],[120.034,149.259],[120.000,100.000],[130.000,100.000]]

;TYPE:Custom
START_PRINT BED_TEMP=65 HOTEND_TEMP=220 FILAMENT_TYPE=PLA EXTRUSION_MULTIPLIER=0.95 PERIMETER_SPEED=80
G21 ; set units to millimeters
G90 ; use absolute coordinates
M82 ; use absolute distances for extrusion
G92 E0
; Filament gcode
M107
;LAYER_CHANGE
;Z:0.35
;HEIGHT:0.35
G1 E-.5 F240
G1 Z.35 F9000
EXCLUDE_OBJECT_START NAME='cooling_test_mini_stl'
G92 E0
G1 X120.338 Y100.338
G1 E.5 F240
G92 E0
;TYPE:External perimeter
;WIDTH:0.675
G1 F1800
G1 X129.663 Y100.338 E.7733
G1 X129.663 Y105 E1.15991
G1 X129.663 Y148.978 E4.80688
G1 X129.571 Y149.33 E4.83705
G1 X129.33 Y149.571 E4.86531
G1 X128.978 Y149.663 E4.89548
G1 X121.022 Y149.663 E5.55525
G1 X120.67 Y149.571 E5.58542
G1 X120.429 Y149.33 E5.61368
G1 X120.338 Y148.978 E5.64383
G1 X120.338 Y100.428 E9.66994
G1 X120.931 Y100.338 F9000
G1 X120.937 Y100.937
;TYPE:Perimeter
G1 F1800
G1 X129.063 Y100.937 E10.34381
G1 X129.063 Y105 E10.68074
G1 X129.053 Y149.014 E14.33069
G1 X128.939 Y149.063 E14.34098
G1 X120.986 Y149.053 E15.0005
G1 X120.937 Y148.939 E15.01079
G1 X120.937 Y101.027 E18.98399
G1 X120.937 Y101.027 F9000
G1 X121.537 Y101.537
G1 F1800
G1 X128.463 Y101.537 E19.55834
G1 X128.463 Y105 E19.84552
G1 X128.463 Y148.463 E23.44978
G1 X121.537 Y148.463 E24.02413
G1 X121.537 Y101.627 E27.9081
G1 E27.4081 F240
G92 E0
G1 X121.537 Y101.627 F9000
G1 X127.054 Y101.717
G1 E.5 F240
;TYPE:Solid infill
;WIDTH:0.682435
G1 F1800
G1 X128.013 Y102.676 E.61386
G1 X128.013 Y103.535 E.68598
G1 X126.465 Y101.987 E.86977
G1 X125.607 Y101.987 E.9418
G1 X128.013 Y104.393 E1.22746
G1 X128.013 Y105.252 E1.29958
G1 X124.748 Y101.987 E1.68723
G1 X123.889 Y101.987 E1.75935
G1 X128.013 Y106.111 E2.24899
G1 X128.013 Y106.97 E2.32111
G1 X123.03 Y101.987 E2.91274
G1 X122.171 Y101.987 E2.98486
G1 X128.013 Y107.829 E3.67848
G1 X128.013 Y108.688 E3.7506
G1 X121.987 Y102.662 E4.46607
G1 X121.987 Y103.521 E4.53819
G1 X128.013 Y109.547 E5.25366
G1 X128.013 Y110.406 E5.32578
G1 X121.987 Y104.38 E6.04125
G1 X121.987 Y105.239 E6.11337
G1 X128.013 Y111.265 E6.82884
G1 X128.013 Y112.123 E6.90087
G1 X121.987 Y106.098 E7.61628
G1 X121.987 Y106.957 E7.6884
G1 X128.013 Y112.982 E8.40381
G1 X128.013 Y113.841 E8.47593
G1 X121.987 Y107.816 E9.19134
G1 X121.987 Y108.674 E9.26337
G1 X128.013 Y114.7 E9.97884
G1 X128.013 Y115.559 E10.05096
G1 X121.987 Y109.533 E10.76643
G1 X121.987 Y110.392 E10.83855
G1 X128.013 Y116.418 E11.55402
G1 X128.013 Y117.277 E11.62614
G1 X121.987 Y111.251 E12.34161
G1 X121.987 Y112.11 E12.41373
G1 X128.013 Y118.136 E13.1292
G1 X128.013 Y118.995 E13.20132
G1 X121.987 Y112.969 E13.91679
G1 X121.987 Y113.828 E13.98891
G1 X128.013 Y119.853 E14.70432
G1 X128.013 Y120.712 E14.77644
G1 X121.987 Y114.687 E15.49185
G1 X121.987 Y115.546 E15.56397
G1 X128.013 Y121.571 E16.27938
G1 X128.013 Y122.43 E16.3515
G1 X121.987 Y116.404 E17.06697
G1 X121.987 Y117.263 E17.13909
G1 X128.013 Y123.289 E17.85456
G1 X128.013 Y124.148 E17.92668
G1 X121.987 Y118.122 E18.64215
G1 X121.987 Y118.981 E18.71427
G1 X128.013 Y125.007 E19.42974
G1 X128.013 Y125.866 E19.50186
G1 X121.987 Y119.84 E20.21733
G1 X121.987 Y120.699 E20.28945
G1 X128.013 Y126.725 E21.00492
G1 X128.013 Y127.583 E21.07695
G1 X121.987 Y121.558 E21.79236
G1 X121.987 Y122.417 E21.86448
G1 X128.013 Y128.442 E22.57989
G1 X128.013 Y129.301 E22.65201
G1 X121.987 Y123.276 E23.36742
G1 X121.987 Y124.134 E23.43945
G1 X128.013 Y130.16 E24.15492
G1 X128.013 Y131.019 E24.22704
G1 X121.987 Y124.993 E24.94251
G1 X121.987 Y125.852 E25.01463
G1 X128.013 Y131.878 E25.7301
G1 X128.013 Y132.737 E25.80222
G1 X121.987 Y126.711 E26.51769
G1 X121.987 Y127.57 E26.58981
G1 X128.013 Y133.596 E27.30528
G1 X128.013 Y134.454 E27.37731
G1 X121.987 Y128.429 E28.09272
G1 X121.987 Y129.288 E28.16484
G1 X128.013 Y135.313 E28.88025
G1 X128.013 Y136.172 E28.95237
G1 X121.987 Y130.147 E29.66778
G1 X121.987 Y131.006 E29.7399
G1 X128.013 Y137.031 E30.45531
G1 X128.013 Y137.89 E30.52743
G1 X121.987 Y131.864 E31.2429
G1 X121.987 Y132.723 E31.31502
G1 X128.013 Y138.749 E32.03049
G1 X128.013 Y139.608 E32.10261
G1 X121.987 Y133.582 E32.81808
G1 X121.987 Y134.441 E32.8902
G1 X128.013 Y140.467 E33.60567
G1 X128.013 Y141.326 E33.67779
G1 X121.987 Y135.3 E34.39326
G1 X121.987 Y136.159 E34.46538
G1 X128.013 Y142.184 E35.18079
G1 X128.013 Y143.043 E35.25291
G1 X121.987 Y137.018 E35.96832
G1 X121.987 Y137.877 E36.04044
G1 X128.013 Y143.902 E36.75585
G1 X128.013 Y144.761 E36.82797
G1 X121.987 Y138.736 E37.54338
G1 X121.987 Y139.594 E37.61541
G1 X128.013 Y145.62 E38.33088
G1 X128.013 Y146.479 E38.403
G1 X121.987 Y140.453 E39.11847
G1 X121.987 Y141.312 E39.19059
G1 X128.013 Y147.338 E39.90606
G1 X128.013 Y148.013 E39.96273
G1 X127.829 Y148.013 E39.97818
G1 X121.987 Y142.171 E40.6718
G1 X121.987 Y143.03 E40.74392
G1 X126.97 Y148.013 E41.33555
G1 X126.111 Y148.013 E41.40767
G1 X121.987 Y143.889 E41.89731
G1 X121.987 Y144.748 E41.96943
G1 X125.252 Y148.013 E42.35708
G1 X124.393 Y148.013 E42.4292
G1 X121.987 Y145.607 E42.71486
G1 X121.987 Y146.465 E42.78689
G1 X123.535 Y148.013 E42.97068
G1 X122.676 Y148.013 E43.0428
G1 X121.717 Y147.054 E43.15666
;LAYER_CHANGE
;Z:0.55
;HEIGHT:0.2
G1 Z.55 F9000
M104 S215 ; set temperature
G1 E42.65666 F240
G92 E0
G1 X121.717 Y147.054 Z.55 F9000
G1 X120.338 Y100.338
G1 E.5 F240
G92 E0
;TYPE:External perimeter
;WIDTH:0.674999
G1 F1920
G1 X129.663 Y100.338 E.46559
G1 X129.663 Y105 E.69836
G1 X129.663 Y148.978 E2.89417
G1 X129.571 Y149.33 E2.91234
G1 X129.33 Y149.571 E2.92936
G1 X128.978 Y149.663 E2.94753
G1 X121.022 Y149.663 E3.34477
G1 X120.67 Y149.571 E3.36294
G1 X120.429 Y149.33 E3.37996
G1 X120.338 Y148.978 E3.39811
G1 X120.338 Y100.428 E5.8222
G1 X120.931 Y100.338 F9000
G1 X120.97 Y100.97
;TYPE:Perimeter
G1 F4800
G1 X129.03 Y100.97 E6.22463
G1 X129.03 Y105 E6.42585
G1 X129.022 Y149.003 E8.62291
G1 X128.936 Y149.03 E8.62741
G1 X120.997 Y149.022 E9.0238
G1 X120.97 Y148.936 E9.0283
G1 X120.97 Y101.06 E11.41873
G1 X120.97 Y101.06 F9000
G1 X121.602 Y101.602
G1 F4800
G1 X128.398 Y101.602 E11.75805
G1 X128.398 Y105 E11.92771
G1 X128.398 Y148.398 E14.09456
G1 X121.602 Y148.398 E14.43388
G1 X121.602 Y101.692 E16.7659
G1 X121.602 Y101.692 F9000
G1 X122.247 Y102.127
;TYPE:Solid infill
;WIDTH:0.82836
G1 F2880
G1 X122.178 Y102.058 E16.77195
G1 X122.083 Y102.083 E16.77804
G1 X122.058 Y102.178 E16.78413
G1 X122.127 Y102.247 E16.79018
G1 X122.222 Y102.222 E16.79627
;WIDTH:0.674999
G1 X122.076 Y103.231 E16.84717
G1 X123.231 Y102.076 E16.92873
G1 X123.327 Y102.001 E16.93481
;WIDTH:0.634306
G1 X123.423 Y101.926 E16.9405
;WIDTH:0.593613
G1 X123.519 Y101.851 E16.9458
;WIDTH:0.55292
G1 X123.458 Y101.868 E16.94835
G1 X123.413 Y101.822 E16.95094
G1 X123.429 Y101.761 E16.95348
G1 X123.491 Y101.744 E16.95607
G1 X123.536 Y101.789 E16.95863
;WIDTH:0.674999
G1 X124.125 Y102.076 E16.99134
G1 X122.076 Y104.125 E17.13602
G1 X122.076 Y105.019 E17.18066
G1 X125.019 Y102.076 E17.38847
G1 X125.913 Y102.076 E17.43311
G1 X122.076 Y105.913 E17.70405
G1 X122.076 Y106.807 E17.74869
G1 X126.807 Y102.076 E18.08275
G1 X127.701 Y102.076 E18.12739
G1 X122.076 Y107.701 E18.52458
G1 X122.076 Y108.595 E18.56922
G1 X127.924 Y102.746 E18.98219
G1 X127.924 Y103.64 E19.02683
G1 X122.076 Y109.489 E19.4398
G1 X122.076 Y110.383 E19.48444
G1 X127.924 Y104.534 E19.89741
G1 X127.924 Y105.428 E19.94205
G1 X122.076 Y111.276 E20.35498
G1 X122.076 Y112.17 E20.39962
G1 X127.924 Y106.322 E20.81255
G1 X127.924 Y107.216 E20.85719
G1 X122.076 Y113.064 E21.27012
G1 X122.076 Y113.958 E21.31476
G1 X127.924 Y108.11 E21.72769
G1 X127.924 Y109.003 E21.77228
G1 X122.076 Y114.852 E22.18525
G1 X122.076 Y115.746 E22.22989
G1 X127.924 Y109.897 E22.64286
G1 X127.924 Y110.791 E22.6875
G1 X122.076 Y116.64 E23.10047
G1 X122.076 Y117.534 E23.14511
G1 X127.924 Y111.685 E23.55808
G1 X127.924 Y112.579 E23.60272
G1 X122.076 Y118.428 E24.01569
G1 X122.076 Y119.322 E24.06033
G1 X127.924 Y113.473 E24.4733
G1 X127.924 Y114.367 E24.51794
G1 X122.076 Y120.215 E24.93087
G1 X122.076 Y121.109 E24.97551
G1 X127.924 Y115.261 E25.38844
G1 X127.924 Y116.155 E25.43308
G1 X122.076 Y122.003 E25.84601
G1 X122.076 Y122.897 E25.89065
G1 X127.924 Y117.049 E26.30358
G1 X127.924 Y117.942 E26.34817
G1 X122.076 Y123.791 E26.76114
G1 X122.076 Y124.685 E26.80578
G1 X127.924 Y118.836 E27.21875
G1 X127.924 Y119.73 E27.26339
G1 X122.076 Y125.579 E27.67636
G1 X122.076 Y126.473 E27.721
G1 X127.924 Y120.624 E28.13397
G1 X127.924 Y121.518 E28.17861
G1 X122.076 Y127.367 E28.59158
G1 X122.076 Y128.26 E28.63617
G1 X127.924 Y122.412 E29.0491
G1 X127.924 Y123.306 E29.09374
G1 X122.076 Y129.154 E29.50667
G1 X122.076 Y130.048 E29.55131
G1 X127.924 Y124.2 E29.96424
G1 X127.924 Y125.094 E30.00888
G1 X122.076 Y130.942 E30.42181
G1 X122.076 Y131.836 E30.46645
G1 X127.924 Y125.987 E30.87942
G1 X127.924 Y126.881 E30.92406
G1 X122.076 Y132.73 E31.33703
G1 X122.076 Y133.624 E31.38167
G1 X127.924 Y127.775 E31.79464
G1 X127.924 Y128.669 E31.83928
G1 X122.076 Y134.518 E32.25225
G1 X122.076 Y135.412 E32.29689
G1 X127.924 Y129.563 E32.70986
G1 X127.924 Y130.457 E32.7545
G1 X122.076 Y136.306 E33.16747
G1 X122.076 Y137.199 E33.21206
G1 X127.924 Y131.351 E33.62499
G1 X127.924 Y132.245 E33.66963
G1 X122.076 Y138.093 E34.08256
G1 X122.076 Y138.987 E34.1272
G1 X127.924 Y133.139 E34.54013
G1 X127.924 Y134.033 E34.58477
G1 X122.076 Y139.881 E34.9977
G1 X122.076 Y140.775 E35.04234
G1 X127.924 Y134.926 E35.45531
G1 X127.924 Y135.82 E35.49995
G1 X122.076 Y141.669 E35.91292
G1 X122.076 Y142.563 E35.95756
G1 X127.924 Y136.714 E36.37053
G1 X127.924 Y137.608 E36.41517
G1 X122.076 Y143.457 E36.82814
G1 X122.076 Y144.351 E36.87278
G1 X127.924 Y138.502 E37.28575
G1 X127.924 Y139.396 E37.33039
G1 X122.076 Y145.244 E37.74332
G1 X122.076 Y146.138 E37.78796
G1 X127.924 Y140.29 E38.20089
G1 X127.924 Y141.184 E38.24553
G1 X122.076 Y147.032 E38.65846
G1 X122.078 Y147.924 E38.703
G1 X127.924 Y142.078 E39.11579
G1 X127.924 Y142.971 E39.16038
G1 X122.971 Y147.924 E39.51012
G1 X123.865 Y147.924 E39.55476
G1 X127.924 Y143.865 E39.84137
G1 X127.924 Y144.759 E39.88601
G1 X124.759 Y147.924 E40.10949
G1 X125.653 Y147.924 E40.15413
G1 X127.924 Y145.653 E40.31449
G1 X127.924 Y146.547 E40.35913
G1 X126.547 Y147.924 E40.45636
G1 X127.441 Y147.924 E40.501
G1 X127.924 Y147.441 E40.53511
;LAYER_CHANGE
;Z:0.75
;HEIGHT:0.2
G1 Z.75 F9000
G1 E40.03511 F240
G92 E0
G1 X127.924 Y147.441 Z.75 F9000
G1 X120.338 Y100.338
G1 E.5 F240
G92 E0
;TYPE:External perimeter
G1 F1920
G1 X129.663 Y100.338 E.46559
G1 X129.663 Y105 E.69836
G1 X129.663 Y148.978 E2.89417
G1 X129.571 Y149.33 E2.91234
G1 X129.33 Y149.571 E2.92936
G1 X128.978 Y149.663 E2.94753
G1 X121.022 Y149.663 E3.34477
G1 X120.67 Y149.571 E3.36294
G1 X120.429 Y149.33 E3.37996
G1 X120.338 Y148.978 E3.39811
G1 X120.338 Y100.428 E5.8222
G1 X120.931 Y100.338 F9000
G1 X120.97 Y100.97
;TYPE:Perimeter
G1 F4800
G1 X129.03 Y100.97 E6.22463
G1 X129.03 Y105 E6.42585
G1 X129.022 Y149.003 E8.62291
G1 X128.936 Y149.03 E8.62741
G1 X120.997 Y149.022 E9.0238
G1 X120.97 Y148.936 E9.0283
G1 X120.97 Y101.06 E11.41873
G1 X120.97 Y101.06 F9000
G1 X121.602 Y101.602
G1 F4800
G1 X128.398 Y101.602 E11.75805
G1 X128.398 Y105 E11.92771
G1 X128.398 Y148.398 E14.09456
G1 X121.602 Y148.398 E14.43388
G1 X121.602 Y101.692 E16.7659
G1 E16.2659 F240
G92 E0
G1 X121.602 Y101.692 F9000
G1 X122.127 Y147.753
G1 E.5 F240
;TYPE:Solid infill
;WIDTH:0.82836
G1 F2880
G1 X122.058 Y147.822 E.50605
G1 X122.083 Y147.917 E.51214
G1 X122.178 Y147.942 E.51823
G1 X122.247 Y147.873 E.52428
G1 X122.222 Y147.778 E.53037
;WIDTH:0.674999
G1 X122.076 Y146.769 E.58127
G1 X123.231 Y147.924 E.66283
G1 X124.125 Y147.924 E.70747
G1 X122.076 Y145.875 E.85215
G1 X122.076 Y144.981 E.89679
G1 X125.019 Y147.924 E1.1046
G1 X125.913 Y147.924 E1.14924
G1 X122.076 Y144.087 E1.42018
G1 X122.076 Y143.193 E1.46482
G1 X126.807 Y147.924 E1.79888
G1 X126.807 Y147.924 F9000
G1 X128.14 Y148.05
;WIDTH:0.55292
G1 F2880
G1 X128.157 Y148.112 E1.80147
G1 X128.112 Y148.157 E1.80403
G1 X128.05 Y148.14 E1.80662
G1 X128.033 Y148.079 E1.80917
G1 X128.079 Y148.033 E1.81179
;WIDTH:0.593613
G1 X127.953 Y147.997 E1.81749
;WIDTH:0.634306
G1 X127.827 Y147.961 E1.82361
;WIDTH:0.674999
G1 X127.701 Y147.924 E1.83017
G1 X122.076 Y142.299 E2.22736
G1 X122.076 Y141.405 E2.272
G1 X127.924 Y147.254 E2.68497
G1 X127.924 Y146.36 E2.72961
G1 X122.076 Y140.511 E3.14258
G1 X122.076 Y139.617 E3.18722
G1 X127.924 Y145.466 E3.60019
G1 X127.924 Y144.572 E3.64483
G1 X122.076 Y138.724 E4.05776
G1 X122.076 Y137.83 E4.1024
G1 X127.924 Y143.678 E4.51533
G1 X127.924 Y142.784 E4.55997
G1 X122.076 Y136.936 E4.9729
G1 X122.076 Y136.042 E5.01754
G1 X127.924 Y141.89 E5.43047
G1 X127.924 Y140.997 E5.47506
G1 X122.076 Y135.148 E5.88803
G1 X122.076 Y134.254 E5.93267
G1 X127.924 Y140.103 E6.34564
G1 X127.924 Y139.209 E6.39028
G1 X122.076 Y133.36 E6.80325
G1 X122.076 Y132.466 E6.84789
G1 X127.924 Y138.315 E7.26086
G1 X127.924 Y137.421 E7.3055
G1 X122.076 Y131.572 E7.71847
G1 X122.076 Y130.678 E7.76311
G1 X127.924 Y136.527 E8.17608
G1 X127.924 Y135.633 E8.22072
G1 X122.076 Y129.785 E8.63365
G1 X122.076 Y128.891 E8.67829
G1 X127.924 Y134.739 E9.09122
G1 X127.924 Y133.845 E9.13586
G1 X122.076 Y127.997 E9.54879
G1 X122.076 Y127.103 E9.59343
G1 X127.924 Y132.951 E10.00636
G1 X127.924 Y132.058 E10.05095
G1 X122.076 Y126.209 E10.46392
G1 X122.076 Y125.315 E10.50856
G1 X127.924 Y131.164 E10.92153
G1 X127.924 Y130.27 E10.96617
G1 X122.076 Y124.421 E11.37914
G1 X122.076 Y123.527 E11.42378
G1 X127.924 Y129.376 E11.83675
G1 X127.924 Y128.482 E11.88139
G1 X122.076 Y122.633 E12.29436
G1 X122.076 Y121.74 E12.33895
G1 X127.924 Y127.588 E12.75188
G1 X127.924 Y126.694 E12.79652
G1 X122.076 Y120.846 E13.20945
G1 X122.076 Y119.952 E13.25409
G1 X127.924 Y125.8 E13.66702
G1 X127.924 Y124.906 E13.71166
G1 X122.076 Y119.058 E14.12459
G1 X122.076 Y118.164 E14.16923
G1 X127.924 Y124.013 E14.5822
G1 X127.924 Y123.119 E14.62684
G1 X122.076 Y117.27 E15.03981
G1 X122.076 Y116.376 E15.08445
G1 X127.924 Y122.225 E15.49742
G1 X127.924 Y121.331 E15.54206
G1 X122.076 Y115.482 E15.95503
G1 X122.076 Y114.588 E15.99967
G1 X127.924 Y120.437 E16.41264
G1 X127.924 Y119.543 E16.45728
G1 X122.076 Y113.694 E16.87025
G1 X122.076 Y112.801 E16.91484
G1 X127.924 Y118.649 E17.32777
G1 X127.924 Y117.755 E17.37241
G1 X122.076 Y111.907 E17.78534
G1 X122.076 Y111.013 E17.82998
G1 X127.924 Y116.861 E18.24291
G1 X127.924 Y115.967 E18.28755
G1 X122.076 Y110.119 E18.70048
G1 X122.076 Y109.225 E18.74512
G1 X127.924 Y115.074 E19.15809
G1 X127.924 Y114.18 E19.20273
G1 X122.076 Y108.331 E19.6157
G1 X122.076 Y107.437 E19.66034
G1 X127.924 Y113.286 E20.07331
G1 X127.924 Y112.392 E20.11795
G1 X122.076 Y106.543 E20.53092
G1 X122.076 Y105.649 E20.57556
G1 X127.924 Y111.498 E20.98853
G1 X127.924 Y110.604 E21.03317
G1 X122.076 Y104.756 E21.4461
G1 X122.076 Y103.862 E21.49074
G1 X127.924 Y109.71 E21.90367
G1 X127.924 Y108.816 E21.94831
G1 X122.076 Y102.968 E22.36124
G1 X122.078 Y102.076 E22.40578
G1 X127.924 Y107.922 E22.81857
G1 X127.924 Y107.029 E22.86316
G1 X122.971 Y102.076 E23.2129
G1 X123.865 Y102.076 E23.25754
G1 X127.924 Y106.135 E23.54415
G1 X127.924 Y105.241 E23.58879
G1 X124.759 Y102.076 E23.81227
G1 X125.653 Y102.076 E23.85691
G1 X127.924 Y104.347 E24.01727
G1 X127.924 Y103.453 E24.06191
G1 X126.547 Y102.076 E24.15914
G1 X127.441 Y102.076 E24.20378
G1 X127.924 Y102.559 E24.23789
M106 S76.5
;LAYER_CHANGE
;Z:0.95
;HEIGHT:0.2
G1 Z.95 F9000
G1 E23.73789 F240
G92 E0
G1 X127.924 Y102.559 Z.95 F9000
G1 X120.338 Y100.338
G1 E.5 F240
G92 E0
;TYPE:External perimeter
G1 F1920
G1 X129.663 Y100.338 E.46559
