; generated by PrusaSlicer 2.8.1+MacOS-arm64 on 2024-10-29 at 09:33:23 UTC


;
;

;
;
; 

; external perimeters extrusion width = 0.55mm
; perimeters extrusion width = 0.60mm
; infill extrusion width = 0.60mm
; solid infill extrusion width = 0.60mm
; top infill extrusion width = 0.55mm
; first layer extrusion width = 0.60mm

; external perimeters extrusion width = 0.55mm
; perimeters extrusion width = 0.60mm
; infill extrusion width = 0.60mm
; solid infill extrusion width = 0.60mm
; top infill extrusion width = 0.55mm
; first layer extrusion width = 0.60mm

; external perimeters extrusion width = 0.55mm
; perimeters extrusion width = 0.60mm
; infill extrusion width = 0.60mm
; solid infill extrusion width = 0.60mm
; top infill extrusion width = 0.55mm
; first layer extrusion width = 0.60mm

; external perimeters extrusion width = 0.55mm
; perimeters extrusion width = 0.60mm
; infill extrusion width = 0.60mm
; solid infill extrusion width = 0.60mm
; top infill extrusion width = 0.55mm
; first layer extrusion width = 0.60mm

M73 P0 R333

EXCLUDE_OBJECT_DEFINE NAME='bed_frame_front_left_bracket' CENTER=87.788,154.241 POLYGON=[[103.066,115.633],[103.066,200.633],[100.566,203.133],[80.066,203.133],[78.066,201.133],[78.066,130.133],[78.008,128.957],[77.836,127.792],[77.550,126.650],[76.914,125.002],[76.359,123.964],[75.705,122.985],[74.551,121.648],[73.679,120.857],[72.733,120.155],[71.197,119.285],[70.109,118.835],[68.982,118.493],[67.242,118.191],[66.066,118.133],[38.066,118.133],[38.066,115.633],[40.566,113.133],[100.566,113.133]]
EXCLUDE_OBJECT_DEFINE NAME='bed_frame_front_right_bracket' CENTER=87.969,69.685 POLYGON=[[103.249,23.292],[103.249,108.292],[100.749,110.792],[40.749,110.792],[38.249,108.292],[38.249,105.792],[66.249,105.792],[68.010,105.662],[69.165,105.432],[70.292,105.090],[71.380,104.640],[72.418,104.085],[73.398,103.430],[74.308,102.683],[75.141,101.851],[75.888,100.940],[76.832,99.449],[77.548,97.835],[78.019,96.133],[78.235,94.381],[78.249,22.792],[80.249,20.792],[100.749,20.792]]
EXCLUDE_OBJECT_DEFINE NAME='bed_frame_rear_left_bracket' CENTER=120.433,154.417 POLYGON=[[170.153,115.814],[167.653,118.314],[142.153,118.314],[140.976,118.372],[139.811,118.545],[138.110,119.016],[137.022,119.466],[135.983,120.022],[135.004,120.676],[134.094,121.423],[133.261,122.256],[132.514,123.166],[131.569,124.658],[130.854,126.272],[130.383,127.973],[130.167,129.726],[130.153,201.314],[128.153,203.314],[107.653,203.314],[105.153,200.814],[105.153,115.814],[107.653,113.314],[170.153,113.314]]
EXCLUDE_OBJECT_DEFINE NAME='bed_frame_rear_right_bracket' CENTER=121.114,68.975 POLYGON=[[130.836,22.079],[130.836,93.079],[130.894,94.255],[131.066,95.420],[131.353,96.562],[131.988,98.209],[132.543,99.248],[133.197,100.227],[134.351,101.564],[135.223,102.355],[136.169,103.056],[137.705,103.926],[138.793,104.377],[140.495,104.848],[141.660,105.021],[142.836,105.079],[168.336,105.079],[170.836,107.579],[170.836,110.079],[108.336,110.079],[105.836,107.579],[105.836,22.579],[108.336,20.079],[128.836,20.079]]

M190 S70 ; set bed temperature and wait for it to be reached
M104 S230 ; set temperature
;TYPE:Custom
START_PRINT BED_TEMP=70 HOTEND_TEMP=230 FILAMENT_TYPE=PET EXTRUSION_MULTIPLIER=0.96
M109 S230 ; set temperature and wait for it to be reached
G21 ; set units to millimeters
G90 ; use absolute coordinates
M82 ; use absolute distances for extrusion
G92 E0
; Filament gcode
; ########################### NOTE OFFSET CHANGES ####################################
; Prevents PETG buildup on nozzle.
; PETG does not like to be touching the nozzle, this causes buildup on nozzle
; Once the bed z distance is finaly chuned a small offset for PETG works perfectly
SET_GCODE_OFFSET Z=0.2
; ####################################################################################
M107
;LAYER_CHANGE
;Z:0.3
;HEIGHT:0.3
G1 E-.55 F600
G1 Z.8 F9000
EXCLUDE_OBJECT_START NAME='bed_frame_rear_right_bracket'
G92 E0
G1 X126.065 Y75.272
G1 Z.3
G1 E.6 F1200
;TYPE:Perimeter
;WIDTH:0.6
G1 F1800
G3 X124.382 Y78.931 I-5.232 J-.19 E.86513
G3 X122.389 Y80.086 I-3.739 J-4.155 E1.01393
G1 X121.595 Y80.259 E1.06605
G3 X117.658 Y79.24 I-.746 J-5.232 E1.33377
G3 X116.77 Y78.372 I4.296 J-5.283 E1.41352
G3 X120.588 Y69.848 I4.07 J-3.294 E2.15333
G3 X121.831 Y69.942 I.109 J6.856 E2.23339
G3 X126.068 Y75.197 I-.998 J5.14 E2.70386
G1 X126.068 Y75.197 F9000
G1 X125.534 Y75.247
G1 F1800
G1 X125.408 Y76.171 E2.76367
G1 X125.101 Y77.056 E2.82375
G1 X124.625 Y77.862 E2.88378
G1 X123.998 Y78.557 E2.94381
G1 X123.246 Y79.115 E3.00387
G1 X122.399 Y79.512 E3.06386
G1 X122.229 Y79.574 E3.07547
G1 X121.489 Y79.734 E3.12403
G3 X120.293 Y79.753 I-.726 J-8.086 E3.20081
G1 X119.63 Y79.623 E3.24414
G3 X117.959 Y78.797 I1.299 J-4.732 E3.36442
G3 X117.162 Y78.008 I4.063 J-4.897 E3.43644
G3 X116.631 Y77.181 I4.258 J-3.323 E3.49956
G3 X120.641 Y70.381 I4.212 J-2.098 E4.10016
G3 X121.765 Y70.473 I.04 J6.417 E4.17258
G3 X123.523 Y71.221 I-.963 J4.706 E4.29593
G1 X124.235 Y71.83 E4.35602
G1 X124.811 Y72.568 E4.41606
G1 X125.229 Y73.406 E4.47612
G1 X125.474 Y74.309 E4.53613
G1 X125.53 Y75.172 E4.59159
G1 X125.53 Y75.172 F9000
G1 X124.997 Y75.218
G1 F1800
G1 X124.999 Y75.257 E4.59409
G1 X124.881 Y76.078 E4.64728
G1 X124.603 Y76.86 E4.70051
G1 X124.175 Y77.571 E4.75373
G1 X123.615 Y78.183 E4.80693
G1 X122.945 Y78.672 E4.86013
G3 X122.07 Y79.063 I-6.369 J-13.079 E4.92161
G1 X121.383 Y79.209 E4.96665
G1 X120.83 Y79.236 E5.00216
G3 X119.736 Y79.098 I-.023 J-4.213 E5.07308
G1 X118.961 Y78.8 E5.12633
G1 X118.261 Y78.355 E5.17953
G3 X117.555 Y77.643 I4.017 J-4.693 E5.24391
G1 X117.095 Y76.913 E5.29925
G1 X116.805 Y76.135 E5.3525
G1 X116.676 Y75.316 E5.40567
G1 X116.711 Y74.487 E5.45888
G1 X116.91 Y73.681 E5.51212
G1 X117.265 Y72.931 E5.56534
G1 X117.761 Y72.266 E5.61855
G1 X118.38 Y71.713 E5.67178
G1 X119.095 Y71.293 E5.72496
G1 X119.88 Y71.023 E5.7782
G1 X120.695 Y70.914 E5.83093
G3 X121.7 Y71.005 I-.058 J6.244 E5.89572
G3 X122.523 Y71.269 I-1.101 J4.855 E5.95122
G1 X123.244 Y71.678 E6.00438
G1 X123.87 Y72.223 E6.05761
G1 X124.376 Y72.881 E6.11084
G1 X124.741 Y73.626 E6.16405
G1 X124.952 Y74.428 E6.21724
G1 X124.992 Y75.143 E6.26317
G1 X124.992 Y75.143 F9000
G1 X124.46 Y75.192
G1 F1800
G1 X124.463 Y75.27 E6.26818
G1 X124.353 Y75.985 E6.31457
G1 X124.104 Y76.664 E6.36095
G1 X123.725 Y77.28 E6.40733
G1 X123.232 Y77.809 E6.45371
G1 X122.643 Y78.23 E6.50014
G1 X121.91 Y78.552 E6.55149
G1 X121.277 Y78.684 E6.59296
G1 X120.554 Y78.7 E6.63934
G1 X119.842 Y78.573 E6.68572
G1 X119.169 Y78.306 E6.73215
G1 X118.563 Y77.912 E6.77851
G1 X117.948 Y77.279 E6.83511
G1 X117.558 Y76.645 E6.88285
G1 X117.313 Y75.965 E6.9292
G1 X117.207 Y75.249 E6.97562
G1 X117.245 Y74.527 E7.02199
G1 X117.426 Y73.826 E7.06842
G1 X117.742 Y73.175 E7.11483
G1 X118.18 Y72.6 E7.16119
G1 X118.724 Y72.123 E7.20759
G1 X119.351 Y71.763 E7.25396
G1 X120.038 Y71.535 E7.30038
G1 X120.749 Y71.447 E7.34633
G1 X121.634 Y71.537 E7.40338
G1 X122.339 Y71.772 E7.45104
G1 X122.965 Y72.135 E7.49745
G1 X123.506 Y72.616 E7.54388
G1 X123.941 Y73.193 E7.59022
G1 X124.253 Y73.846 E7.63663
G1 X124.429 Y74.548 E7.68304
G1 X124.456 Y75.117 E7.71957
G1 X124.456 Y75.117 F9000
G1 X123.924 Y75.165
;TYPE:External perimeter
G1 F1800
G1 X123.928 Y75.284 E7.72721
G1 X123.826 Y75.892 E7.76675
G1 X123.605 Y76.469 E7.80638
G1 X123.275 Y76.99 E7.84593
G1 X122.848 Y77.435 E7.88548
G1 X122.341 Y77.787 E7.92506
G1 X121.75 Y78.041 E7.96631
G1 X121.171 Y78.159 E8.00421
G1 X120.554 Y78.165 E8.04378
G1 X119.948 Y78.048 E8.08336
G1 X119.377 Y77.813 E8.12296
G1 X118.864 Y77.469 E8.16257
G1 X118.34 Y76.914 E8.21152
G1 X118.022 Y76.377 E8.25155
G1 X117.821 Y75.794 E8.2911
G1 X117.739 Y75.182 E8.3307
G1 X117.78 Y74.567 E8.37023
G1 X117.942 Y73.971 E8.40984
G1 X118.218 Y73.42 E8.44936
G1 X118.599 Y72.934 E8.48896
G1 X119.068 Y72.533 E8.52853
G1 X119.608 Y72.234 E8.56812
G1 X120.196 Y72.047 E8.60769
G1 X120.803 Y71.98 E8.64686
G1 X121.568 Y72.068 E8.69625
G1 X122.156 Y72.275 E8.73623
G1 X122.686 Y72.592 E8.77584
G1 X123.142 Y73.008 E8.81543
G1 X123.506 Y73.506 E8.85499
G1 X123.765 Y74.066 E8.89456
G1 X123.907 Y74.667 E8.93417
G1 X123.921 Y75.09 E8.96131
G1 X123.872 Y75.588 F9000
G1 E8.41131 F600
G92 E0
G1 X125.973 Y96.048 Z.659 F9000
G1 Z.3
G1 E.6 F1200
;TYPE:Perimeter
G1 F1800
G3 X125.886 Y96.486 I-9.028 J-1.558 E.62864
G3 X125.453 Y97.56 I-10.012 J-3.415 E.70294
G3 X124.726 Y98.578 I-5.682 J-3.286 E.78329
G3 X117.658 Y99.24 I-3.893 J-3.507 E1.28348
G3 X116.77 Y98.372 I4.219 J-5.204 E1.36323
G3 X118.583 Y90.352 I4.071 J-3.295 E1.96961
G3 X120.737 Y89.838 I2.349 J5.072 E2.11258
G1 X121.831 Y89.942 E2.18306
G3 X125.486 Y92.671 I-1.002 J5.154 E2.48568
G3 X126.07 Y95.296 I-4.857 J2.46 E2.65995
G3 X125.985 Y95.974 I-9.125 J-.806 E2.70378
G1 X125.985 Y95.974 F9000
G1 X125.448 Y95.942
G1 F1800
G3 X125.369 Y96.344 I-7.809 J-1.318 E2.73006
G3 X124.94 Y97.374 I-7.98 J-2.725 E2.80167
G3 X123.975 Y98.58 I-4.626 J-2.709 E2.90107
G1 X123.246 Y99.115 E2.95906
G3 X117.959 Y98.797 I-2.409 J-4.058 E3.3197
G3 X117.162 Y98.008 I4.063 J-4.897 E3.39172
G3 X116.631 Y97.181 I4.258 J-3.323 E3.45484
G3 X118.839 Y90.822 I4.217 J-2.098 E3.93575
G3 X120.758 Y90.373 I2.083 J4.576 E4.06297
G1 X121.765 Y90.473 E4.12787
G3 X123.523 Y91.221 I-.963 J4.706 E4.25122
G1 X124.235 Y91.83 E4.31131
G1 X124.811 Y92.568 E4.37135
G1 X125.229 Y93.406 E4.43141
G1 X125.437 Y94.146 E4.48071
G3 X125.534 Y95.243 I-5.035 J1.001 E4.55147
G3 X125.46 Y95.868 I-7.895 J-.619 E4.59184
G1 X125.46 Y95.868 F9000
G1 X124.924 Y95.836
G1 F1800
G3 X124.922 Y95.848 I-3.99 J-.772 E4.59262
G3 X124.601 Y96.864 I-4.367 J-.819 E4.66112
G1 X124.179 Y97.565 E4.7136
G1 X123.615 Y98.183 E4.76726
G1 X122.945 Y98.672 E4.82046
G1 X122.191 Y99.019 E4.87369
G1 X121.383 Y99.209 E4.92692
G1 X120.554 Y99.236 E4.98011
G1 X119.736 Y99.098 E5.03331
G1 X118.961 Y98.8 E5.08656
G1 X118.261 Y98.355 E5.13976
G3 X117.555 Y97.643 I4.017 J-4.693 E5.20414
G1 X117.095 Y96.913 E5.25948
G1 X116.805 Y96.135 E5.31273
G1 X116.676 Y95.316 E5.3659
G1 X116.711 Y94.487 E5.41911
G1 X116.91 Y93.681 E5.47235
G1 X117.265 Y92.931 E5.52557
G1 X117.761 Y92.266 E5.57878
G1 X118.38 Y91.713 E5.63201
G1 X119.095 Y91.293 E5.68519
G1 X119.88 Y91.023 E5.73843
G1 X120.778 Y90.908 E5.79649
G1 X121.7 Y91.005 E5.85595
G3 X122.523 Y91.269 I-1.101 J4.855 E5.91145
G1 X123.244 Y91.678 E5.96461
G1 X123.87 Y92.223 E6.01784
G1 X124.376 Y92.881 E6.07107
G1 X124.741 Y93.626 E6.12428
G3 X124.986 Y94.761 I-5.674 J1.82 E6.19887
G3 X124.937 Y95.762 I-4.052 J.303 E6.26331
G1 X124.937 Y95.762 F9000
G1 X124.394 Y95.729
G1 F1800
G1 X124.353 Y95.985 E6.27994
G1 X124.173 Y96.488 E6.3142
G3 X123.725 Y97.28 I-3.459 J-1.433 E6.3727
G1 X123.232 Y97.809 E6.41908
G1 X122.643 Y98.23 E6.46551
G1 X121.983 Y98.525 E6.51187
G1 X121.277 Y98.684 E6.55828
G1 X120.554 Y98.7 E6.60466
G1 X119.842 Y98.573 E6.65104
G1 X119.169 Y98.306 E6.69747
G1 X118.563 Y97.912 E6.74383
G1 X117.948 Y97.279 E6.80043
G1 X117.558 Y96.645 E6.84817
G1 X117.313 Y95.965 E6.89452
G1 X117.207 Y95.249 E6.94094
G1 X117.245 Y94.527 E6.98731
G1 X117.426 Y93.826 E7.03374
G1 X117.742 Y93.175 E7.08015
G1 X118.18 Y92.6 E7.12651
G1 X118.724 Y92.123 E7.17291
G1 X119.351 Y91.763 E7.21928
G1 X120.038 Y91.535 E7.2657
G1 X120.799 Y91.444 E7.31485
G1 X121.634 Y91.537 E7.36873
G1 X122.339 Y91.772 E7.41639
G1 X122.965 Y92.135 E7.4628
G1 X123.506 Y92.616 E7.50923
G1 X123.941 Y93.193 E7.55557
G1 X124.253 Y93.846 E7.60198
G3 X124.464 Y95.292 I-4.161 J1.345 E7.69614
G1 X124.406 Y95.655 E7.71972
G1 X124.406 Y95.655 F9000
G1 X123.871 Y95.623
;TYPE:External perimeter
G1 F1800
G1 X123.826 Y95.892 E7.73721
G1 X123.605 Y96.469 E7.77684
G1 X123.279 Y96.984 E7.81593
G1 X122.848 Y97.435 E7.85594
G1 X122.341 Y97.787 E7.89552
G1 X121.775 Y98.032 E7.93507
G1 X121.171 Y98.159 E7.97465
G1 X120.554 Y98.165 E8.01422
G1 X119.948 Y98.048 E8.0538
G1 X119.377 Y97.813 E8.0934
G1 X118.864 Y97.469 E8.13301
G1 X118.34 Y96.914 E8.18196
G1 X118.022 Y96.377 E8.22199
G1 X117.821 Y95.794 E8.26154
G1 X117.739 Y95.182 E8.30114
G1 X117.78 Y94.567 E8.34067
G1 X117.942 Y93.971 E8.38028
G1 X118.218 Y93.42 E8.4198
G1 X118.599 Y92.934 E8.4594
G1 X119.068 Y92.533 E8.49897
G1 X119.608 Y92.234 E8.53856
G1 X120.196 Y92.047 E8.57813
G1 X120.819 Y91.979 E8.61832
G1 X121.568 Y92.068 E8.66669
G1 X122.156 Y92.275 E8.70667
G1 X122.686 Y92.592 E8.74628
G1 X123.142 Y93.008 E8.78587
G1 X123.506 Y93.506 E8.82543
G1 X123.765 Y94.066 E8.865
G1 X123.907 Y94.667 E8.90461
G1 X123.928 Y95.284 E8.9442
G1 X123.883 Y95.549 E8.96144
G1 X123.762 Y96.035 F9000
G1 E8.41144 F600
G92 E0
G1 X123.792 Y67.39 Z.8 F9000
G1 X123.835 Y25.792
G1 Z.3
G1 E.6 F1200
;TYPE:Perimeter
G1 F1800
G3 X116.291 Y32.678 I-3.001 J4.288 E1.8024
G3 X115.81 Y31.534 I6.009 J-3.198 E1.8821
G3 X121.126 Y24.855 I5.025 J-1.456 E2.5224
G1 X121.831 Y24.942 E2.56796
G3 X123.773 Y25.75 I-.997 J5.138 E2.70378
G1 X123.773 Y25.75 F9000
G1 X123.526 Y26.223
G1 F1800
G1 X124.232 Y26.828 E2.76341
G1 X124.811 Y27.568 E2.82367
G1 X125.229 Y28.406 E2.88373
G1 X125.474 Y29.309 E2.94374
G1 X125.534 Y30.243 E3.00376
G1 X125.408 Y31.171 E3.06382
G1 X125.101 Y32.056 E3.1239
G1 X124.625 Y32.862 E3.18393
G1 X123.998 Y33.557 E3.24396
G1 X123.246 Y34.115 E3.30402
G1 X122.399 Y34.512 E3.36401
G3 X116.741 Y32.388 I-1.557 J-4.449 E3.78474
G3 X116.313 Y31.351 I5.644 J-2.934 E3.85678
G3 X116.788 Y27.687 I4.548 J-1.273 E4.10023
G1 X117.343 Y26.932 E4.16033
G1 X118.035 Y26.302 E4.22035
G1 X118.839 Y25.822 E4.2804
G1 X119.722 Y25.511 E4.34044
G3 X121.06 Y25.386 I1.125 J4.819 E4.42689
G1 X121.765 Y25.473 E4.47245
G3 X122.706 Y25.765 I-1.116 J5.262 E4.53573
G1 X123.461 Y26.186 E4.59117
G1 X123.461 Y26.186 F9000
G1 X123.21 Y26.659
G1 F1800
G1 X123.244 Y26.678 E4.59367
G1 X123.867 Y27.22 E4.64663
G1 X124.376 Y27.881 E4.70013
G1 X124.741 Y28.626 E4.75334
G1 X124.952 Y29.428 E4.80653
G1 X124.999 Y30.257 E4.85978
G1 X124.881 Y31.078 E4.91297
G1 X124.603 Y31.86 E4.9662
G1 X124.175 Y32.571 E5.01942
G1 X123.615 Y33.183 E5.07262
G1 X122.945 Y33.672 E5.12582
G1 X122.191 Y34.019 E5.17905
G1 X121.383 Y34.209 E5.23228
G1 X120.554 Y34.236 E5.28547
G1 X119.736 Y34.098 E5.33867
G1 X118.961 Y33.8 E5.39192
G1 X118.261 Y33.355 E5.44512
G1 X117.663 Y32.779 E5.49837
G1 X117.191 Y32.097 E5.55156
G3 X116.816 Y31.167 I5.522 J-2.763 E5.61594
G3 X116.676 Y30.316 I4.851 J-1.238 E5.67132
G1 X116.711 Y29.487 E5.72453
G1 X116.91 Y28.681 E5.77777
G1 X117.265 Y27.931 E5.83099
G1 X117.761 Y27.266 E5.8842
G1 X118.38 Y26.713 E5.93743
G1 X119.095 Y26.293 E5.99061
G1 X119.88 Y26.023 E6.04385
G1 X120.695 Y25.914 E6.09658
G1 X120.995 Y25.918 E6.11582
G1 X121.7 Y26.005 E6.16138
G1 X122.523 Y26.269 E6.21681
G1 X123.145 Y26.622 E6.26268
G1 X123.145 Y26.622 F9000
G1 X122.897 Y27.096
G1 F1800
G1 X122.965 Y27.135 E6.26771
G1 X123.503 Y27.613 E6.31386
G1 X123.941 Y28.193 E6.36047
G1 X124.253 Y28.846 E6.40688
G1 X124.429 Y29.548 E6.45329
G1 X124.463 Y30.27 E6.49965
G1 X124.353 Y30.985 E6.54604
G1 X124.104 Y31.664 E6.59242
G1 X123.725 Y32.28 E6.6388
G1 X123.232 Y32.809 E6.68518
G1 X122.643 Y33.23 E6.73161
G1 X121.983 Y33.525 E6.77797
G1 X121.277 Y33.684 E6.82438
G1 X120.554 Y33.7 E6.87076
G1 X119.842 Y33.573 E6.91714
G1 X119.169 Y33.306 E6.96357
G1 X118.563 Y32.912 E7.00993
G1 X118.046 Y32.405 E7.05637
G1 X117.641 Y31.807 E7.10269
G1 X117.32 Y30.984 E7.15934
G1 X117.207 Y30.249 E7.20703
G1 X117.245 Y29.527 E7.2534
G1 X117.426 Y28.826 E7.29983
G1 X117.742 Y28.175 E7.34624
G1 X118.18 Y27.6 E7.3926
G1 X118.724 Y27.123 E7.439
G1 X119.351 Y26.763 E7.48537
G1 X120.038 Y26.535 E7.53179
G1 X120.749 Y26.447 E7.57774
G1 X120.929 Y26.449 E7.58928
G1 X121.634 Y26.537 E7.63484
G1 X122.34 Y26.772 E7.68256
G1 X122.832 Y27.058 E7.71906
G1 X122.832 Y27.058 F9000
G1 X122.584 Y27.531
;TYPE:External perimeter
G1 F1800
G1 X122.686 Y27.592 E7.72668
G1 X123.139 Y28.005 E7.76599
G1 X123.506 Y28.506 E7.80582
G1 X123.765 Y29.066 E7.84539
G1 X123.907 Y29.667 E7.885
G1 X123.928 Y30.284 E7.92459
G1 X123.826 Y30.892 E7.96413
G1 X123.605 Y31.469 E8.00376
G1 X123.275 Y31.99 E8.04331
G1 X122.848 Y32.435 E8.08286
G1 X122.341 Y32.787 E8.12244
G1 X121.775 Y33.032 E8.16199
