; generated by PrusaSlicer 2.8.1+MacOS-arm64 on 2024-10-29 at 13:38:27 UTC


;
;

;
;
; 

; external perimeters extrusion width = 0.55mm
; perimeters extrusion width = 0.60mm
; infill extrusion width = 0.60mm
; solid infill extrusion width = 0.60mm
; top infill extrusion width = 0.55mm
; first layer extrusion width = 0.60mm

; external perimeters extrusion width = 0.55mm
; perimeters extrusion width = 0.60mm
; infill extrusion width = 0.60mm
; solid infill extrusion width = 0.60mm
; top infill extrusion width = 0.55mm
; first layer extrusion width = 0.60mm

; external perimeters extrusion width = 0.55mm
; perimeters extrusion width = 0.60mm
; infill extrusion width = 0.60mm
; solid infill extrusion width = 0.60mm
; top infill extrusion width = 0.55mm
; first layer extrusion width = 0.60mm

; external perimeters extrusion width = 0.55mm
; perimeters extrusion width = 0.60mm
; infill extrusion width = 0.60mm
; solid infill extrusion width = 0.60mm
; top infill extrusion width = 0.55mm
; first layer extrusion width = 0.60mm

M73 P0 R335

EXCLUDE_OBJECT_DEFINE NAME='bed_frame_front_right_bracket' CENTER=132.195,129.928 POLYGON=[[147.475,83.536],[147.475,168.536],[144.975,171.036],[84.975,171.036],[82.475,168.536],[82.475,166.036],[110.475,166.036],[112.236,165.906],[113.391,165.676],[114.518,165.334],[115.606,164.884],[116.645,164.329],[117.624,163.674],[118.534,162.927],[119.367,162.095],[120.114,161.184],[121.059,159.693],[121.774,158.078],[122.245,156.377],[122.461,154.625],[122.475,83.036],[124.475,81.036],[144.975,81.036]]
EXCLUDE_OBJECT_DEFINE NAME='bed_frame_front_left_bracket' CENTER=88.213,55.335 POLYGON=[[137.106,42.554],[137.106,63.054],[135.106,65.054],[63.517,65.069],[61.764,65.285],[60.063,65.756],[58.975,66.206],[57.439,67.077],[56.493,67.778],[55.620,68.569],[54.829,69.442],[54.128,70.387],[53.258,71.924],[52.807,73.012],[52.465,74.139],[52.235,75.294],[52.106,77.054],[52.106,105.054],[49.606,105.054],[47.106,102.554],[47.106,42.554],[49.606,40.054],[134.606,40.054]]
EXCLUDE_OBJECT_DEFINE NAME='bed_frame_rear_left_bracket' CENTER=97.534,111.692 POLYGON=[[147.254,73.089],[144.754,75.589],[119.254,75.589],[118.078,75.647],[116.913,75.819],[115.771,76.106],[114.662,76.502],[113.597,77.006],[112.587,77.611],[111.195,78.697],[110.363,79.530],[109.616,80.440],[108.671,81.932],[107.956,83.546],[107.485,85.248],[107.269,87.000],[107.254,158.589],[105.254,160.589],[84.754,160.589],[82.254,158.089],[82.254,73.089],[84.754,70.589],[147.254,70.589]]
EXCLUDE_OBJECT_DEFINE NAME='bed_frame_rear_right_bracket' CENTER=69.004,139.203 POLYGON=[[78.726,92.306],[78.726,163.306],[78.784,164.482],[78.957,165.647],[79.243,166.789],[79.878,168.437],[80.749,169.973],[81.450,170.919],[82.241,171.791],[83.578,172.944],[84.557,173.599],[85.596,174.154],[86.684,174.604],[88.385,175.075],[89.550,175.248],[90.726,175.306],[116.226,175.306],[118.726,177.806],[118.726,180.306],[56.226,180.306],[53.726,177.806],[53.726,92.806],[56.226,90.306],[76.726,90.306]]

M190 S70 ; set bed temperature and wait for it to be reached
M104 S230 ; set temperature
;TYPE:Custom
START_PRINT BED_TEMP=70 HOTEND_TEMP=230 FILAMENT_TYPE=PET EXTRUSION_MULTIPLIER=0.96
M109 S230 ; set temperature and wait for it to be reached
G21 ; set units to millimeters
G90 ; use absolute coordinates
M82 ; use absolute distances for extrusion
G92 E0
; Filament gcode
; ########################### NOTE OFFSET CHANGES ####################################
; Prevents PETG buildup on nozzle.
; PETG does not like to be touching the nozzle, this causes buildup on nozzle
; Once the bed z distance is finaly chuned a small offset for PETG works perfectly
SET_GCODE_OFFSET Z=0.24
; ####################################################################################
M107
;LAYER_CHANGE
;Z:0.3
;HEIGHT:0.3
G1 E-.55 F600
G1 Z.8 F9000
EXCLUDE_OBJECT_START NAME='bed_frame_front_left_bracket'
G92 E0
G1 X80.628 Y60.074
G1 Z.3
G1 E.6 F1200
;TYPE:Perimeter
;WIDTH:0.6
G1 F1800
G3 X76.878 Y55.276 I1.477 J-5.019 E1.01683
G1 X76.895 Y54.573 E1.06193
G3 X87.018 Y56.865 I5.212 J.483 E2.20404
G3 X86.45 Y57.97 I-6.31 J-2.547 E2.28383
G3 X80.7 Y60.095 I-4.345 J-2.915 E2.70386
G1 X80.7 Y60.095 F9000
G1 X80.79 Y59.549
G1 F1800
G1 X80.129 Y59.32 E2.74872
G1 X79.323 Y58.843 E2.80879
G1 X78.627 Y58.217 E2.86883
G1 X78.069 Y57.465 E2.92889
G1 X77.672 Y56.617 E2.98894
G3 X77.413 Y55.29 I4.709 J-1.605 E3.07592
G1 X77.431 Y54.586 E3.12108
G3 X77.698 Y53.403 I7.211 J1.008 E3.19895
G1 X77.998 Y52.768 E3.24399
G3 X83.648 Y50.613 I4.113 J2.301 E3.66503
G3 X86.507 Y56.707 I-1.554 J4.447 E4.14593
G3 X85.987 Y57.702 I-5.872 J-2.437 E4.21803
G3 X85.354 Y58.453 I-4.43 J-3.09 E4.28111
G1 X84.616 Y59.029 E4.34115
G1 X83.779 Y59.448 E4.40118
G1 X82.875 Y59.692 E4.46123
G3 X81.941 Y59.753 I-.845 J-5.809 E4.52132
G1 X81.013 Y59.627 E4.58138
G1 X80.86 Y59.574 E4.59176
G1 X80.86 Y59.574 F9000
G1 X80.946 Y59.042
G1 F1800
G1 X80.324 Y58.821 E4.63409
G1 X79.613 Y58.393 E4.68731
G1 X79.001 Y57.833 E4.74051
G1 X78.512 Y57.163 E4.79371
G1 X78.165 Y56.409 E4.84694
G1 X77.986 Y55.658 E4.89645
G1 X77.949 Y55.303 E4.91934
G1 X77.966 Y54.599 E4.9645
G3 X78.197 Y53.598 I7.02 J1.091 E5.03044
G1 X78.48 Y53 E5.07287
G1 X78.962 Y52.319 E5.12638
G1 X79.566 Y51.751 E5.17955
G1 X80.271 Y51.313 E5.23278
G1 X81.049 Y51.024 E5.28601
G1 X81.868 Y50.894 E5.33919
G1 X82.697 Y50.93 E5.39241
G1 X83.503 Y51.129 E5.44565
G1 X84.253 Y51.484 E5.49887
G1 X84.918 Y51.98 E5.55208
G1 X85.471 Y52.598 E5.60527
G1 X85.891 Y53.314 E5.65851
G1 X86.161 Y54.098 E5.71169
G1 X86.27 Y54.921 E5.76493
G1 X86.214 Y55.749 E5.81815
G1 X85.995 Y56.55 E5.87141
G3 X85.523 Y57.434 I-5.663 J-2.454 E5.93575
G1 X84.961 Y58.089 E5.9911
G1 X84.303 Y58.594 E6.0443
G1 X83.558 Y58.96 E6.09753
G1 X82.756 Y59.17 E6.1507
G1 X81.927 Y59.217 E6.20395
G1 X81.106 Y59.099 E6.25714
G1 X81.017 Y59.068 E6.26318
G1 X81.017 Y59.068 F9000
G1 X81.102 Y58.536
G1 F1800
G1 X80.52 Y58.323 E6.30293
G1 X79.904 Y57.944 E6.34931
G1 X79.375 Y57.45 E6.39573
G1 X78.954 Y56.861 E6.44216
G1 X78.659 Y56.201 E6.48852
G3 X78.484 Y55.316 I5.885 J-1.621 E6.54643
G1 X78.502 Y54.613 E6.59153
G1 X78.665 Y53.887 E6.63925
G1 X78.963 Y53.233 E6.68534
G1 X79.389 Y52.643 E6.73201
G1 X79.921 Y52.152 E6.77844
G1 X80.539 Y51.777 E6.8248
G1 X81.219 Y51.531 E6.87118
G1 X81.935 Y51.426 E6.91759
G1 X82.657 Y51.464 E6.96396
G1 X83.358 Y51.644 E7.01038
G1 X84.009 Y51.96 E7.05679
G1 X84.584 Y52.399 E7.10319
G1 X85.061 Y52.942 E7.14954
G1 X85.421 Y53.57 E7.19596
G1 X85.649 Y54.256 E7.24232
G1 X85.737 Y54.974 E7.28871
G1 X85.681 Y55.696 E7.33515
G1 X85.483 Y56.392 E7.38156
G1 X85.059 Y57.166 E7.43816
G1 X84.569 Y57.724 E7.48579
G1 X83.991 Y58.159 E7.53218
G1 X83.338 Y58.471 E7.57859
G1 X82.636 Y58.648 E7.62502
G1 X81.914 Y58.682 E7.67138
G1 X81.199 Y58.572 E7.71777
G1 X81.172 Y58.562 E7.71962
G1 X81.172 Y58.562 F9000
G1 X81.258 Y58.031
;TYPE:External perimeter
G1 F1800
G1 X80.716 Y57.824 E7.75683
G1 X80.194 Y57.494 E7.79644
G1 X79.749 Y57.067 E7.83599
G1 X79.397 Y56.56 E7.87557
G1 X79.152 Y55.993 E7.91518
G1 X79.02 Y55.33 E7.95853
G1 X79.037 Y54.626 E8.00369
G1 X79.185 Y54.02 E8.0437
G1 X79.446 Y53.465 E8.08303
G1 X79.816 Y52.966 E8.12287
G1 X80.275 Y52.554 E8.16243
G1 X80.807 Y52.241 E8.20202
G1 X81.39 Y52.039 E8.24159
G1 X82.002 Y51.957 E8.28119
G1 X82.617 Y51.998 E8.32072
G1 X83.213 Y52.16 E8.36033
G1 X83.764 Y52.437 E8.39988
G1 X84.25 Y52.817 E8.43945
G1 X84.651 Y53.287 E8.47907
G1 X84.951 Y53.826 E8.51863
G1 X85.138 Y54.414 E8.5582
G1 X85.204 Y55.028 E8.5978
G1 X85.148 Y55.642 E8.63734
G1 X84.971 Y56.234 E8.67697
G1 X84.595 Y56.898 E8.72591
G1 X84.176 Y57.36 E8.76591
G1 X83.678 Y57.725 E8.80551
G1 X83.118 Y57.983 E8.84505
G1 X82.517 Y58.126 E8.88467
G1 X81.901 Y58.146 E8.9242
G1 X81.33 Y58.051 E8.96132
G1 X80.86 Y57.878 F9000
G1 E8.41132 F600
G92 E0
G1 X66.239 Y58.264 Z.555 F9000
G1 Z.3
G1 E.6 F1200
;TYPE:Perimeter
G1 F1800
G3 X64.513 Y59.704 I-4.143 J-3.211 E.74529
G3 X61.888 Y60.289 I-2.46 J-4.856 E.91957
G3 X60.698 Y60.104 I.806 J-9.124 E.99686
G3 X59.625 Y59.671 I3.414 J-10.011 E1.0711
G1 X59.038 Y59.297 E1.11574
G3 X57.178 Y56.825 I3.144 J-4.301 E1.31704
G3 X56.871 Y55.347 I6.751 J-2.172 E1.41404
G1 X56.898 Y54.512 E1.46762
G3 X66.832 Y52.802 I5.209 J.548 E2.33779
G3 X67.226 Y53.98 I-6.229 J2.739 E2.41756
G3 X66.284 Y58.204 I-5.13 J1.073 E2.70367
G1 X66.284 Y58.204 F9000
G1 X65.809 Y57.922
G1 F1800
G1 X65.354 Y58.453 E2.74852
G1 X64.616 Y59.029 E2.80856
G1 X63.779 Y59.448 E2.86859
G1 X63.038 Y59.655 E2.91793
G3 X61.941 Y59.753 I-1.001 J-5.035 E2.9887
G3 X60.84 Y59.588 I.619 J-7.894 E3.06016
G3 X59.81 Y59.158 I2.725 J-7.98 E3.13179
G3 X58.604 Y58.194 I2.709 J-4.625 E3.23115
G1 X58.069 Y57.465 E3.28914
G3 X57.672 Y56.617 I5.098 J-2.909 E3.34925
G3 X57.406 Y55.313 I6.35 J-1.973 E3.43474
G1 X57.433 Y54.539 E3.48441
G3 X59.515 Y51.131 I4.708 J.537 E3.74879
G3 X66.362 Y53.058 I2.588 J3.934 E4.26586
G3 X66.711 Y54.125 I-5.845 J2.502 E4.33795
G3 X66.804 Y55.331 I-7.168 J1.16 E4.41561
G1 X66.713 Y55.976 E4.45739
G3 X65.963 Y57.742 I-4.713 J-.958 E4.58127
G1 X65.858 Y57.865 E4.59164
G1 X65.858 Y57.865 F9000
G1 X65.394 Y57.591
G1 F1800
G1 X64.961 Y58.089 E4.63396
G1 X64.303 Y58.594 E4.68716
G1 X63.558 Y58.96 E4.74039
G3 X62.424 Y59.205 I-1.82 J-5.676 E4.81491
G3 X61.336 Y59.14 I-.304 J-4.052 E4.88502
G3 X60.32 Y58.819 I.819 J-4.368 E4.95352
G1 X59.619 Y58.398 E5.00596
G1 X59.001 Y57.833 E5.05966
G1 X58.512 Y57.163 E5.11286
G1 X58.165 Y56.409 E5.16609
G3 X57.94 Y55.28 I6.134 J-1.808 E5.24002
G1 X57.968 Y54.565 E5.28591
G1 X58.146 Y53.755 E5.3391
G1 X58.482 Y52.996 E5.39233
G1 X58.962 Y52.319 E5.44555
G1 X59.566 Y51.751 E5.49872
G1 X60.271 Y51.313 E5.55195
G1 X61.049 Y51.024 E5.60518
G1 X61.868 Y50.894 E5.65836
G1 X62.697 Y50.93 E5.71158
G1 X63.503 Y51.129 E5.76482
G1 X64.253 Y51.483 E5.81801
G1 X64.918 Y51.98 E5.87125
G1 X65.471 Y52.598 E5.92444
G1 X65.889 Y53.31 E5.97739
G3 X66.23 Y54.431 I-9.081 J3.372 E6.05258
G1 X66.272 Y55.129 E6.09743
G1 X66.183 Y55.896 E6.14695
G3 X65.916 Y56.741 I-4.724 J-1.029 E6.20386
G1 X65.506 Y57.463 E6.25711
G1 X65.444 Y57.534 E6.26316
G1 X65.444 Y57.534 F9000
G1 X64.98 Y57.261
G1 F1800
G1 X64.569 Y57.724 E6.30287
G1 X63.991 Y58.159 E6.34926
G1 X63.338 Y58.471 E6.39567
G3 X61.892 Y58.682 I-1.345 J-4.161 E6.48983
G1 X61.199 Y58.572 E6.53483
G1 X60.696 Y58.392 E6.56909
G3 X59.904 Y57.944 I1.433 J-3.459 E6.62759
G1 X59.375 Y57.45 E6.67401
G1 X58.954 Y56.861 E6.72044
G1 X58.659 Y56.201 E6.7668
G1 X58.475 Y55.246 E6.82917
G1 X58.502 Y54.592 E6.87115
G1 X58.665 Y53.887 E6.91756
G1 X58.965 Y53.229 E6.96394
G1 X59.389 Y52.643 E7.01033
G1 X59.921 Y52.152 E7.05676
G1 X60.539 Y51.777 E7.10312
G1 X61.219 Y51.531 E7.1495
G1 X61.935 Y51.426 E7.19591
G1 X62.657 Y51.464 E7.24228
G1 X63.358 Y51.644 E7.2887
G1 X64.009 Y51.96 E7.33511
G1 X64.584 Y52.399 E7.38151
G1 X65.061 Y52.942 E7.42786
G1 X65.419 Y53.566 E7.474
G3 X65.709 Y54.592 I-7.876 J2.777 E7.54243
G1 X65.737 Y55.155 E7.57858
G1 X65.653 Y55.816 E7.62131
G1 X65.412 Y56.558 E7.67134
G1 X65.049 Y57.183 E7.71769
G1 X65.03 Y57.205 E7.71955
G1 X65.03 Y57.205 F9000
G1 X64.567 Y56.931
;TYPE:External perimeter
G1 F1800
G1 X64.176 Y57.36 E7.75678
G1 X63.678 Y57.725 E7.79638
G1 X63.118 Y57.983 E7.83592
G1 X62.517 Y58.126 E7.87554
G1 X61.901 Y58.146 E7.91507
G1 X61.292 Y58.044 E7.95467
G1 X60.716 Y57.824 E7.99421
G1 X60.201 Y57.498 E8.0333
G1 X59.749 Y57.067 E8.07335
G1 X59.397 Y56.56 E8.11293
G1 X59.152 Y55.993 E8.15254
G1 X59.01 Y55.213 E8.20339
G1 X59.037 Y54.619 E8.24152
G1 X59.185 Y54.02 E8.28109
G1 X59.447 Y53.461 E8.32068
G1 X59.816 Y52.966 E8.36028
G1 X60.275 Y52.554 E8.39984
G1 X60.807 Y52.241 E8.43943
G1 X61.39 Y52.039 E8.479
G1 X62.002 Y51.957 E8.5186
G1 X62.617 Y51.998 E8.55813
G1 X63.213 Y52.16 E8.59774
G1 X63.764 Y52.437 E8.63729
G1 X64.25 Y52.817 E8.67686
G1 X64.651 Y53.287 E8.71648
G1 X64.949 Y53.823 E8.75581
G1 X65.164 Y54.56 E8.80505
G1 X65.202 Y55.182 E8.84502
G1 X65.124 Y55.736 E8.8809
G1 X64.909 Y56.375 E8.92414
G1 X64.611 Y56.871 E8.96125
G1 X64.279 Y57.245 F9000
G1 E8.41125 F600
G92 E0
G1 X92.899 Y58.441 Z.8 F9000
G1 X128.958 Y59.948
G1 Z.3
G1 E.6 F1200
;TYPE:Perimeter
G1 F1800
G3 X122.944 Y58.233 I-1.855 J-4.896 E1.02983
G3 X121.978 Y56.113 I4.499 J-3.333 E1.18034
G3 X121.91 Y54.364 I5.74 J-1.099 E1.29302
G1 X122.108 Y53.491 E1.35043
G3 X132.185 Y53.783 I4.997 J1.569 E2.22086
G3 X132.338 Y55.016 I-6.649 J1.451 E2.30065
G3 X129.028 Y59.921 I-5.235 J.036 E2.70396
G1 X129.028 Y59.921 F9000
G1 X128.776 Y59.449
G1 F1800
G1 X127.875 Y59.692 E2.76381
G3 X126.941 Y59.753 I-.845 J-5.809 E2.8239
G1 X126.013 Y59.627 E2.88396
G1 X125.129 Y59.32 E2.94398
G1 X124.323 Y58.843 E3.00405
G1 X123.627 Y58.217 E3.06409
G1 X123.069 Y57.465 E3.12415
G3 X122.507 Y56.033 I4.865 J-2.736 E3.22312
G3 X122.442 Y54.424 I5.122 J-1.014 E3.32681
G1 X122.627 Y53.623 E3.37953
G1 X122.755 Y53.272 E3.40349
G3 X129.497 Y51.007 I4.354 J1.793 E3.92049
G1 X130.252 Y51.561 E3.98055
G1 X130.882 Y52.254 E4.04061
G1 X131.362 Y53.058 E4.10066
G1 X131.673 Y53.941 E4.1607
G3 X131.804 Y55.056 I-6.225 J1.294 E4.23279
G3 X131.704 Y56.033 I-5.401 J-.058 E4.29586
G1 X131.419 Y56.924 E4.35585
G1 X130.963 Y57.742 E4.41591
G1 X130.357 Y58.45 E4.47568
G1 X129.616 Y59.029 E4.53599
G1 X128.843 Y59.416 E4.59143
G1 X128.843 Y59.416 F9000
G1 X128.593 Y58.942
G1 F1800
G1 X128.558 Y58.96 E4.59395
G1 X127.756 Y59.17 E4.64712
G1 X126.927 Y59.217 E4.70037
G1 X126.106 Y59.099 E4.75356
G1 X125.324 Y58.821 E4.80679
G1 X124.613 Y58.393 E4.86001
G1 X124.001 Y57.833 E4.91321
G1 X123.512 Y57.163 E4.96641
G3 X123.114 Y56.243 I5.454 J-2.9 E5.03077
G1 X122.953 Y55.395 E5.08613
G1 X122.974 Y54.483 E5.14463
G1 X123.146 Y53.755 E5.1926
G1 X123.482 Y52.996 E5.24583
G1 X123.962 Y52.319 E5.29905
G1 X124.566 Y51.751 E5.35222
G1 X125.271 Y51.313 E5.40545
G1 X126.049 Y51.024 E5.45868
G1 X126.868 Y50.894 E5.51186
G1 X127.697 Y50.93 E5.56508
G1 X128.503 Y51.129 E5.61832
G1 X129.253 Y51.484 E5.67154
G1 X129.918 Y51.98 E5.72475
G1 X130.471 Y52.598 E5.77794
G1 X130.891 Y53.314 E5.83118
G1 X131.161 Y54.099 E5.88442
G1 X131.27 Y55.096 E5.94874
G1 X131.174 Y55.953 E6.00405
G1 X130.916 Y56.741 E6.05723
G1 X130.506 Y57.463 E6.11048
G1 X129.964 Y58.086 E6.16344
G1 X129.303 Y58.594 E6.21691
G1 X128.661 Y58.909 E6.26277
G1 X128.661 Y58.909 F9000
G1 X128.409 Y58.437
G1 F1800
G1 X128.338 Y58.471 E6.26782
G1 X127.636 Y58.648 E6.31425
G1 X126.914 Y58.682 E6.36061
G1 X126.199 Y58.572 E6.407
G1 X125.52 Y58.323 E6.45338
G1 X124.904 Y57.944 E6.49976
G1 X124.375 Y57.45 E6.54618
G1 X123.954 Y56.861 E6.59261
G1 X123.613 Y56.047 E6.64921
G1 X123.482 Y55.315 E6.6969
G1 X123.506 Y54.543 E6.74643
G1 X123.665 Y53.887 E6.78972
G1 X123.965 Y53.229 E6.8361
G1 X124.389 Y52.643 E6.88249
G1 X124.921 Y52.152 E6.92892
G1 X125.539 Y51.777 E6.97528
G1 X126.219 Y51.531 E7.02166
G1 X126.935 Y51.426 E7.06807
G1 X127.657 Y51.464 E7.11444
G1 X128.358 Y51.644 E7.16086
G1 X129.009 Y51.96 E7.20727
G1 X129.584 Y52.399 E7.25367
G1 X130.061 Y52.942 E7.30002
G1 X130.421 Y53.57 E7.34644
G1 X130.649 Y54.257 E7.39286
G1 X130.735 Y55.135 E7.44944
G1 X130.645 Y55.873 E7.49712
G1 X130.412 Y56.558 E7.54352
G1 X130.049 Y57.183 E7.58987
G1 X129.571 Y57.721 E7.63602
G1 X128.991 Y58.159 E7.68263
G1 X128.477 Y58.405 E7.71918
G1 X128.477 Y58.405 F9000
G1 X128.225 Y57.934
;TYPE:External perimeter
G1 F1800
G1 X128.118 Y57.983 E7.72673
G1 X127.517 Y58.126 E7.76635
G1 X126.901 Y58.146 E7.80588
G1 X126.292 Y58.044 E7.84548
G1 X125.716 Y57.824 E7.88502
G1 X125.194 Y57.494 E7.92463
G1 X124.749 Y57.067 E7.96418
G1 X124.397 Y56.56 E8.00376
G1 X124.112 Y55.851 E8.05277
G1 X124.012 Y55.235 E8.09279
G1 X124.039 Y54.602 E8.13342
G1 X124.185 Y54.02 E8.1719
G1 X124.447 Y53.461 E8.21149
G1 X124.816 Y52.966 E8.25109
G1 X125.275 Y52.554 E8.29065
G1 X125.807 Y52.241 E8.33024
G1 X126.39 Y52.039 E8.36981
G1 X127.002 Y51.957 E8.40941
G1 X127.617 Y51.998 E8.44894
G1 X128.213 Y52.16 E8.48855
G1 X128.764 Y52.437 E8.5281
G1 X129.25 Y52.817 E8.56767
G1 X129.651 Y53.287 E8.60729
G1 X129.951 Y53.826 E8.64685
G1 X130.138 Y54.415 E8.68648
G1 X130.201 Y55.175 E8.73539
G1 X130.115 Y55.793 E8.77541
