; generated by PrusaSlicer 2.8.0+MacOS-arm64 on 2024-09-06 at 20:37:09 UTC


;
;

;
;
; 

; external perimeters extrusion width = 0.68mm
; perimeters extrusion width = 0.68mm
; infill extrusion width = 0.68mm
; solid infill extrusion width = 0.68mm
; top infill extrusion width = 0.60mm


EXCLUDE_OBJECT_DEFINE NAME='5015_blower_fan_bracket' CENTER=132.493,118.363 POLYGON=[[159.999,133.857],[150.017,133.857],[150.017,123.766],[137.356,123.768],[136.778,123.884],[136.258,124.164],[135.903,124.505],[135.642,124.923],[135.455,125.784],[135.520,126.272],[136.104,128.499],[136.445,130.675],[136.567,132.875],[136.546,133.976],[136.338,136.170],[135.913,138.331],[135.275,140.440],[134.429,142.474],[133.319,144.544],[133.242,144.972],[133.460,145.556],[136.016,148.458],[136.502,149.210],[136.830,150.044],[136.964,150.703],[136.998,151.375],[136.931,152.044],[136.689,152.907],[136.155,153.890],[135.394,154.711],[134.654,155.217],[133.829,155.565],[132.727,155.760],[131.832,155.716],[130.963,155.496],[129.967,154.986],[129.280,154.410],[123.134,147.464],[122.440,146.451],[122.013,145.299],[121.881,144.079],[121.946,143.344],[122.119,142.626],[122.634,141.512],[124.130,139.254],[125.056,137.241],[125.503,135.832],[125.808,134.386],[125.994,132.178],[125.850,129.966],[125.572,128.515],[125.151,127.098],[124.592,125.729],[123.900,124.423],[122.628,122.608],[121.636,121.512],[120.541,120.520],[119.352,119.641],[118.083,118.884],[116.744,118.257],[115.350,117.766],[113.185,117.294],[110.974,117.148],[108.765,117.332],[106.609,117.842],[103.613,119.045],[101.959,119.363],[100.946,119.361],[99.945,119.212],[98.357,118.649],[97.485,118.135],[96.456,117.263],[90.721,110.710],[90.235,109.702],[90.012,108.605],[90.067,107.488],[90.309,106.625],[90.844,105.642],[91.276,105.126],[91.780,104.681],[92.344,104.316],[92.957,104.038],[93.605,103.856],[94.272,103.772],[94.944,103.788],[95.607,103.904],[96.244,104.118],[96.843,104.425],[97.719,105.122],[99.806,107.468],[100.089,107.654],[100.466,107.736],[100.935,107.631],[103.015,106.472],[104.090,105.966],[106.306,105.104],[107.441,104.752],[109.754,104.206],[112.108,103.876],[114.483,103.766],[150.017,103.766],[150.017,94.234],[159.999,94.234]]

;TYPE:Custom
START_PRINT BED_TEMP=65 HOTEND_TEMP=220 FILAMENT_TYPE=PLA EXTRUSION_MULTIPLIER=0.95 PERIMETER_SPEED=80
G21 ; set units to millimeters
G90 ; use absolute coordinates
M82 ; use absolute distances for extrusion
G92 E0
; Filament gcode
M107
;LAYER_CHANGE
;Z:0.35
;HEIGHT:0.35
G1 E-.5 F240
G1 Z.35 F9000
EXCLUDE_OBJECT_START NAME='5015_blower_fan_bracket'
G92 E0
G1 X131.772 Y154.296
G1 E.5 F240
G92 E0
;TYPE:External perimeter
;WIDTH:0.675
G1 F1800
G1 X131.419 Y154.182 E.03076
G1 X130.945 Y153.915 E.07587
G1 X130.532 Y153.559 E.12109
G1 X130.198 Y153.128 E.16631
G1 X129.957 Y152.64 E.21144
G1 X129.817 Y152.114 E.25658
G1 X129.781 Y151.645 E.29559
G1 X129.842 Y151.104 E.34074
G1 X130.008 Y150.585 E.38593
G1 X130.274 Y150.11 E.43108
G1 X130.628 Y149.696 E.47625
G1 X131.033 Y149.376 E.51905
G1 X131.491 Y149.139 E.56181
G1 X132.013 Y148.986 E.60692
G1 X132.549 Y148.94 E.65153
G1 X133.023 Y148.986 E.69102
G1 X133.545 Y149.14 E.73615
G1 X134.027 Y149.393 E.78129
G1 X134.444 Y149.731 E.8258
G1 X134.784 Y150.14 E.86991
G1 X135.027 Y150.585 E.91196
G1 X135.194 Y151.104 E.95717
G1 X135.255 Y151.682 E1.00537
G1 X135.206 Y152.189 E1.04761
G1 X135.056 Y152.695 E1.09138
G1 X134.795 Y153.192 E1.13793
G1 X134.45 Y153.614 E1.18313
G1 X134.027 Y153.958 E1.22834
G1 X133.545 Y154.212 E1.27352
G1 X133.022 Y154.365 E1.31871
G1 X132.479 Y154.412 E1.36391
G1 X131.938 Y154.35 E1.40907
G1 X131.858 Y154.324 E1.41605
G1 X131.3 Y154.102 F9000
G1 E.91605 F240
G92 E0
G1 X153.537 Y126.134 F9000
G1 E.5 F240
G1 F1800
G1 X153.595 Y126.031 E.5098
G1 X153.847 Y125.739 E.54179
G1 X154.152 Y125.504 E.57372
G1 X154.439 Y125.356 E.6005
G1 X155.159 Y125.21 E.66142
G1 X155.543 Y125.244 E.69339
G1 X155.932 Y125.365 E.72717
G1 X156.418 Y125.662 E.7744
G1 X156.739 Y126.001 E.81312
G1 X156.935 Y126.333 E.84509
G1 X157.061 Y126.697 E.87703
G1 X157.113 Y127.079 E.909
G1 X157.088 Y127.464 E.94099
G1 X156.987 Y127.836 E.97296
G1 X156.814 Y128.181 E1.00497
G1 X156.577 Y128.485 E1.03694
G1 X156.284 Y128.736 E1.06893
G1 X155.947 Y128.923 E1.10089
G1 X155.579 Y129.04 E1.13291
G1 X155.196 Y129.082 E1.16486
G1 X154.812 Y129.048 E1.19683
G1 X154.443 Y128.938 E1.22876
G1 X154.102 Y128.756 E1.26081
G1 X153.804 Y128.511 E1.2928
G1 X153.561 Y128.212 E1.32475
G1 X153.382 Y127.871 E1.35669
G1 X153.274 Y127.5 E1.38873
G1 X153.242 Y127.116 E1.42068
G1 X153.286 Y126.733 E1.45265
G1 X153.405 Y126.367 E1.48457
G1 X153.492 Y126.212 E1.49931
G1 X153.87 Y125.746 F9000
G1 X153.028 Y125.806
;TYPE:Perimeter
G1 F1800
G1 X153.034 Y125.793 E1.5005
G1 X153.345 Y125.395 E1.54239
G1 X153.728 Y125.067 E1.58421
G1 X154.165 Y124.823 E1.62572
G1 X154.815 Y124.656 E1.68137
G1 X155.204 Y124.612 E1.71383
G1 X155.706 Y124.667 E1.75571
G1 X156.245 Y124.853 E1.80299
G1 X156.73 Y125.15 E1.85015
G1 X157.143 Y125.545 E1.89754
G1 X157.421 Y125.966 E1.93938
G1 X157.61 Y126.434 E1.98124
G1 X157.703 Y126.93 E2.02309
G1 X157.696 Y127.435 E2.06497
G1 X157.589 Y127.928 E2.1068
G1 X157.386 Y128.39 E2.14865
G1 X157.096 Y128.803 E2.1905
G1 X156.729 Y129.15 E2.23238
G1 X156.301 Y129.418 E2.27426
G1 X155.829 Y129.596 E2.31609
G1 X155.33 Y129.676 E2.358
G1 X154.826 Y129.656 E2.39983
G1 X154.336 Y129.537 E2.44165
G1 X153.879 Y129.323 E2.4835
G1 X153.473 Y129.022 E2.52541
G1 X153.135 Y128.647 E2.56728
G1 X152.878 Y128.212 E2.60918
G1 X152.713 Y127.736 E2.65096
G1 X152.645 Y127.236 E2.69281
G1 X152.677 Y126.732 E2.73469
G1 X152.809 Y126.245 E2.77653
G1 X152.988 Y125.887 E2.80972
G1 E2.30972 F240
G92 E0
G1 X152.988 Y125.887 F9000
G1 X155.708 Y112.219
G1 E.5 F240
;TYPE:External perimeter
G1 F1800
G1 X155.913 Y112.281 E.51776
G1 X156.268 Y112.475 E.55131
G1 X156.687 Y112.863 E.59867
G1 X156.935 Y113.259 E.63742
G1 X157.061 Y113.623 E.66936
G1 X157.113 Y114.005 E.70133
G1 X157.088 Y114.39 E.73332
G1 X156.987 Y114.762 E.76529
G1 X156.814 Y115.107 E.7973
G1 X156.577 Y115.411 E.82927
G1 X156.284 Y115.662 E.86126
G1 X155.947 Y115.849 E.89322
G1 X155.579 Y115.966 E.92524
G1 X155.196 Y116.008 E.95719
G1 X154.812 Y115.974 E.98916
G1 X154.443 Y115.863 E1.02111
G1 X154.102 Y115.682 E1.05312
G1 X153.788 Y115.418 E1.08714
G1 X153.561 Y115.138 E1.11703
G1 X153.382 Y114.797 E1.14897
G1 X153.274 Y114.426 E1.18101
G1 X153.242 Y114.042 E1.21296
G1 X153.286 Y113.659 E1.24493
G1 X153.405 Y113.292 E1.27692
G1 X153.595 Y112.957 E1.30886
G1 X153.863 Y112.654 E1.34241
G1 X154.335 Y112.332 E1.38979
G1 X154.776 Y112.178 E1.42853
G1 X155.159 Y112.136 E1.46048
G1 X155.543 Y112.17 E1.49245
G1 X155.621 Y112.194 E1.49922
G1 X156.172 Y112.432 F9000
G1 X155.884 Y111.648
;TYPE:Perimeter
G1 F1800
G1 X156.02 Y111.681 E1.51083
G1 X156.474 Y111.894 E1.55242
G1 X157.095 Y112.423 E1.62007
G1 X157.421 Y112.892 E1.66744
G1 X157.61 Y113.36 E1.7093
G1 X157.703 Y113.856 E1.75115
G1 X157.696 Y114.361 E1.79303
G1 X157.589 Y114.854 E1.83486
G1 X157.386 Y115.316 E1.87671
G1 X157.096 Y115.729 E1.91856
G1 X156.729 Y116.076 E1.96044
G1 X156.301 Y116.344 E2.00232
G1 X155.829 Y116.522 E2.04415
G1 X155.33 Y116.602 E2.08606
G1 X154.826 Y116.582 E2.12789
G1 X154.336 Y116.463 E2.16971
G1 X153.879 Y116.249 E2.21156
G1 X153.473 Y115.948 E2.25347
G1 X153.135 Y115.573 E2.29534
G1 X152.878 Y115.138 E2.33724
G1 X152.713 Y114.662 E2.37902
G1 X152.645 Y114.162 E2.42087
G1 X152.677 Y113.658 E2.46275
G1 X152.809 Y113.171 E2.50459
G1 X153.034 Y112.719 E2.54646
G1 X153.343 Y112.324 E2.58805
G1 X153.524 Y112.159 E2.60836
G1 X153.996 Y111.836 E2.65579
G1 X154.527 Y111.622 E2.70327
G1 X155.025 Y111.542 E2.7451
G1 X155.529 Y111.562 E2.78693
G1 X155.796 Y111.627 E2.80972
G1 E2.30972 F240
G92 E0
G1 X155.796 Y111.627 F9000
G1 X156.993 Y101.617
G1 E.5 F240
;TYPE:External perimeter
G1 F1800
G1 X156.987 Y101.638 E.50181
G1 X156.814 Y101.983 E.53382
G1 X156.577 Y102.287 E.56579
G1 X156.284 Y102.538 E.59778
G1 X155.947 Y102.725 E.62974
G1 X155.579 Y102.842 E.66176
G1 X155.196 Y102.884 E.69371
G1 X154.812 Y102.85 E.72568
G1 X154.443 Y102.74 E.75761
G1 X154.102 Y102.558 E.78966
G1 X153.804 Y102.313 E.82165
G1 X153.561 Y102.014 E.8536
G1 X153.382 Y101.673 E.88554
G1 X153.274 Y101.303 E.9175
G1 X153.242 Y100.918 E.94954
G1 X153.286 Y100.535 E.98151
G1 X153.405 Y100.169 E1.01343
G1 X153.595 Y99.833 E1.04544
G1 X153.862 Y99.531 E1.07887
G1 X154.335 Y99.208 E1.12637
G1 X154.776 Y99.054 E1.16511
G1 X155.159 Y99.012 E1.19706
G1 X155.543 Y99.047 E1.22904
G1 X155.913 Y99.157 E1.26105
G1 X156.27 Y99.352 E1.29478
G1 X156.687 Y99.739 E1.34196
G1 X156.935 Y100.135 E1.38071
G1 X157.061 Y100.499 E1.41265
G1 X157.113 Y100.881 E1.44462
G1 X157.088 Y101.266 E1.47661
G1 X157.016 Y101.531 E1.49938
G1 X156.735 Y102.061 F9000
G1 X157.543 Y101.834
;TYPE:Perimeter
G1 F1800
G1 X157.386 Y102.193 E1.53187
G1 X157.096 Y102.605 E1.57365
G1 X156.729 Y102.953 E1.61559
G1 X156.301 Y103.22 E1.65742
G1 X155.829 Y103.398 E1.69925
G1 X155.654 Y103.438 E1.71414
G1 X155.151 Y103.483 E1.75602
G1 X154.65 Y103.427 E1.79783
G1 X154.169 Y103.273 E1.83971
G1 X153.728 Y103.027 E1.88159
G1 X153.345 Y102.699 E1.92341
G1 X153.034 Y102.301 E1.9653
G1 X152.809 Y101.85 E2.0071
G1 X152.677 Y101.362 E2.04902
G1 X152.645 Y100.859 E2.09082
G1 X152.713 Y100.358 E2.13275
G1 X152.878 Y99.882 E2.17453
G1 X153.135 Y99.448 E2.21636
G1 X153.524 Y99.036 E2.26335
G1 X153.996 Y98.713 E2.31078
G1 X154.527 Y98.498 E2.35829
G1 X155.025 Y98.418 E2.40012
G1 X155.529 Y98.438 E2.44195
G1 X156.02 Y98.557 E2.48385
G1 X156.476 Y98.771 E2.52562
G1 X157.095 Y99.3 E2.59314
G1 X157.421 Y99.768 E2.64044
G1 X157.61 Y100.236 E2.6823
G1 X157.703 Y100.732 E2.72415
G1 X157.696 Y101.237 E2.76603
G1 X157.589 Y101.73 E2.80786
G1 X157.579 Y101.752 E2.80986
G1 E2.30986 F240
G92 E0
G1 X157.579 Y101.752 F9000
G1 X93.154 Y111.062
G1 E.5 F240
;TYPE:External perimeter
G1 F1800
G1 X92.95 Y110.947 E.51942
G1 X92.538 Y110.591 E.56457
G1 X92.245 Y110.224 E.60351
G1 X91.99 Y109.743 E.64866
G1 X91.84 Y109.254 E.69108
G1 X91.787 Y108.738 E.7341
G1 X91.818 Y108.365 E.76514
G1 X91.911 Y107.929 E.80211
G1 X92.013 Y107.617 E.82933
G1 X92.279 Y107.142 E.87448
G1 X92.634 Y106.728 E.91971
G1 X93.029 Y106.413 E.96161
G1 X93.495 Y106.172 E1.00512
G1 X94.018 Y106.018 E1.05033
G1 X94.554 Y105.972 E1.09494
G1 X95.044 Y106.023 E1.13579
G1 X95.55 Y106.172 E1.17953
G1 X96.02 Y106.416 E1.22345
G1 X96.412 Y106.728 E1.265
G1 X96.767 Y107.142 E1.31023
G1 X97.033 Y107.617 E1.35538
G1 X97.199 Y108.136 E1.40057
G1 X97.259 Y108.678 E1.44579
G1 X97.211 Y109.221 E1.491
G1 X97.056 Y109.743 E1.53616
G1 X96.8 Y110.224 E1.58135
G1 X96.465 Y110.633 E1.62519
G1 X96.032 Y110.99 E1.67173
G1 X95.55 Y111.244 E1.71691
G1 X95.027 Y111.397 E1.7621
G1 X94.484 Y111.444 E1.8073
G1 X93.943 Y111.382 E1.85246
G1 X93.425 Y111.214 E1.89762
G1 X93.233 Y111.106 E1.91589
G1 X92.744 Y110.758 F9000
G1 E1.41589 F240
G92 E0
G1 X150.261 Y123.526 F9000
G1 E.5 F240
G1 F1800
G1 X150.234 Y123.488 E.50387
G1 X150.056 Y123.429 E.51942
G1 X137.354 Y123.431 E1.57276
G1 X136.738 Y123.543 E1.62468
G1 X136.28 Y123.747 E1.66626
G1 X135.948 Y123.997 E1.70072
G1 X135.622 Y124.33 E1.73936
G1 X135.345 Y124.761 E1.78185
G1 X135.191 Y125.188 E1.81949
G1 X135.121 Y125.716 E1.86366
G1 X135.195 Y126.364 E1.91775
G1 X135.526 Y127.511 E2.01675
G1 X135.773 Y128.568 E2.10677
G1 X135.968 Y129.635 E2.19672
G1 X136.109 Y130.711 E2.28671
G1 X136.196 Y131.792 E2.37664
G1 X136.229 Y132.877 E2.46666
G1 X136.208 Y133.961 E2.55657
G1 X136.133 Y135.044 E2.6466
G1 X136.004 Y136.121 E2.73655
G1 X135.821 Y137.191 E2.82657
G1 X135.586 Y138.25 E2.91653
G1 X135.297 Y139.296 E3.00652
G1 X134.957 Y140.326 E3.09647
G1 X134.566 Y141.338 E3.18644
G1 X134.068 Y142.44 E3.28672
G1 X132.99 Y144.473 E3.47755
G1 X132.904 Y144.969 E3.5193
G1 X133.031 Y145.488 E3.56361
G1 X133.205 Y145.777 E3.59158
G1 X135.746 Y148.663 E3.91045
G1 X136.203 Y149.368 E3.98012
G1 X136.443 Y149.938 E4.03141
G1 X136.597 Y150.541 E4.08302
G1 X136.659 Y151.159 E4.13453
G1 X136.629 Y151.781 E4.18617
G1 X136.507 Y152.387 E4.23743
G1 X136.203 Y153.162 E4.30647
G1 X135.754 Y153.858 E4.37516
G1 X135.176 Y154.452 E4.44389
G1 X134.489 Y154.921 E4.51287
G1 X133.928 Y155.174 E4.5639
G1 X133.122 Y155.38 E4.63289
G1 X132.295 Y155.422 E4.70156
G1 X131.475 Y155.299 E4.77032
G1 X130.696 Y155.016 E4.83905
G1 X129.993 Y154.588 E4.9073
G1 X129.519 Y154.171 E4.95965
G1 X123.244 Y147.07 E5.74549
G1 X122.741 Y146.295 E5.82211
G1 X122.4 Y145.44 E5.89844
G1 X122.324 Y145.079 E5.92903
G1 X122.239 Y144.416 E5.98446
G1 X122.233 Y143.862 E6.0304
G1 X122.335 Y143.167 E6.08865
G1 X122.515 Y142.517 E6.14458
G1 X122.804 Y141.892 E6.20168
G1 X123.632 Y140.696 E6.32231
G1 X124.046 Y140.063 E6.38503
G1 X124.428 Y139.411 E6.4477
G1 X124.778 Y138.741 E6.51039
G1 X125.094 Y138.054 E6.5731
G1 X125.295 Y137.551 E6.61802
G1 X125.677 Y136.443 E6.71521
G1 X125.839 Y135.881 E6.76371
G1 X126.005 Y135.175 E6.82385
G1 X126.143 Y134.432 E6.88652
G1 X126.213 Y133.909 E6.93028
G1 X126.313 Y132.735 E7.02799
G1 X126.331 Y132.143 E7.07711
G1 X126.319 Y131.417 E7.13732
G1 X126.27 Y130.663 E7.19998
G1 X126.183 Y129.912 E7.26267
G1 X126.059 Y129.166 E7.32538
G1 X125.898 Y128.427 E7.3881
G1 X125.7 Y127.698 E7.45074
G1 X125.467 Y126.979 E7.51342
G1 X125.198 Y126.272 E7.57615
G1 X124.839 Y125.468 E7.64917
G1 X124.485 Y124.775 E7.7137
G1 X124.186 Y124.244 E7.76424
G1 X123.783 Y123.604 E7.82696
G1 X123.349 Y122.985 E7.88965
G1 X122.884 Y122.389 E7.95234
G1 X122.391 Y121.816 E8.01502
G1 X121.87 Y121.268 E8.07772
G1 X121.322 Y120.747 E8.14042
G1 X120.749 Y120.254 E8.2031
G1 X120.152 Y119.79 E8.2658
G1 X119.533 Y119.356 E8.32849
G1 X118.893 Y118.953 E8.39121
G1 X118.234 Y118.583 E8.45388
G1 X117.558 Y118.245 E8.51656
G1 X116.865 Y117.942 E8.57928
G1 X116.158 Y117.673 E8.64201
G1 X115.439 Y117.44 E8.70469
G1 X114.709 Y117.243 E8.76739
G1 X113.495 Y117.003 E8.87001
G1 X112.31 Y116.861 E8.96898
G1 X111.719 Y116.822 E9.0181
G1 X110.963 Y116.811 E9.0808
G1 X110.208 Y116.836 E9.14344
G1 X109.69 Y116.88 E9.18655
G1 X108.495 Y117.039 E9.28652
G1 X107.889 Y117.155 E9.33769
G1 X107.226 Y117.312 E9.39419
G1 X106.5 Y117.523 E9.45689
G1 X105.785 Y117.769 E9.51959
G1 X105.087 Y118.049 E9.58196
G1 X104.115 Y118.496 E9.67068
G1 X103.509 Y118.723 E9.72434
G1 X102.889 Y118.89 E9.77759
G1 X102.258 Y118.996 E9.83065
G1 X101.292 Y119.04 E9.91084
G1 X100.33 Y118.944 E9.99101
G1 X99.71 Y118.805 E10.0437
G1 X98.795 Y118.481 E10.12419
G1 X98.223 Y118.197 E10.17715
G1 X97.678 Y117.857 E10.23042
G1 X97.168 Y117.466 E10.28371
G1 X96.698 Y117.028 E10.33699
G1 X91.252 Y110.869 E11.01877
G1 X90.796 Y110.164 E11.0884
G1 X90.557 Y109.597 E11.13943
G1 X90.371 Y108.786 E11.20843
G1 X90.35 Y107.955 E11.27736
G1 X90.441 Y107.346 E11.32842
G1 X90.706 Y106.554 E11.39768
G1 X91 Y106.013 E11.44874
G1 X91.521 Y105.36 E11.51802
G1 X91.982 Y104.953 E11.56902
G1 X92.691 Y104.518 E11.638
G1 X93.47 Y104.234 E11.70676
G1 X94.292 Y104.11 E11.7757
G1 X94.911 Y104.125 E11.82705
G1 X95.523 Y104.232 E11.87857
G1 X96.113 Y104.43 E11.93018
G1 X96.667 Y104.714 E11.98181
G1 X97.095 Y105.021 E12.02549
G1 X97.477 Y105.358 E12.06773
G1 X99.54 Y107.677 E12.32512
G1 X99.909 Y107.939 E12.36265
G1 X100.402 Y108.067 E12.40489
G1 X100.67 Y108.055 E12.42714
G1 X101.103 Y107.924 E12.46465
G1 X102.128 Y107.323 E12.56318
G1 X103.166 Y106.774 E12.66056
G1 X104.227 Y106.274 E12.75783
G1 X105.31 Y105.824 E12.85508
G1 X106.413 Y105.424 E12.95238
G1 X107.534 Y105.076 E13.04972
G1 X108.669 Y104.78 E13.14699
G1 X109.769 Y104.547 E13.24023
G1 X110.974 Y104.348 E13.34151
G1 X112.139 Y104.212 E13.43878
G1 X113.31 Y104.131 E13.53612
G1 X114.486 Y104.104 E13.63367
G1 X150.121 Y104.096 E16.58878
G1 X150.295 Y103.982 E16.60603
G1 X150.354 Y103.804 E16.62158
G1 X150.354 Y94.746 E17.37273
G1 X159.662 Y94.746 E18.14462
G1 X159.662 Y97.148 E18.34381
G1 X159.662 Y133.344 E21.34544
G1 X150.354 Y133.344 E22.11733
G1 X150.354 Y124.525 E22.84866
G1 X150.341 Y123.639 E22.92214
G1 X150.313 Y123.6 E22.92612
G1 X149.734 Y123.441 F9000
G1 E22.42612 F240
G92 E0
G1 X135.909 Y150.984 F9000
G1 E.5 F240
