; generated by PrusaSlicer 2.8.0+MacOS-arm64 on 2024-09-04 at 09:31:36 UTC


;
;

;
;
; 

; external perimeters extrusion width = 0.68mm
; perimeters extrusion width = 0.68mm
; infill extrusion width = 0.68mm
; solid infill extrusion width = 0.68mm
; top infill extrusion width = 0.60mm

; external perimeters extrusion width = 0.68mm
; perimeters extrusion width = 0.68mm
; infill extrusion width = 0.68mm
; solid infill extrusion width = 0.68mm
; top infill extrusion width = 0.60mm

; external perimeters extrusion width = 0.68mm
; perimeters extrusion width = 0.68mm
; infill extrusion width = 0.68mm
; solid infill extrusion width = 0.68mm
; top infill extrusion width = 0.60mm


EXCLUDE_OBJECT_DEFINE NAME='terminal_block_cover' CENTER=140.933,168.056 POLYGON=[[148.317,198.044],[133.661,198.043],[133.345,197.980],[133.019,197.795],[132.802,197.556],[132.650,197.213],[132.617,175.639],[133.750,175.402],[134.480,175.151],[135.519,174.642],[136.165,174.219],[137.047,173.470],[138.032,172.284],[138.605,171.279],[139.071,170.076],[139.279,169.795],[139.751,169.572],[141.420,169.562],[142.090,169.375],[142.452,169.130],[142.791,168.730],[142.973,168.333],[143.054,167.816],[142.981,167.297],[142.805,166.897],[142.536,166.552],[142.114,166.242],[141.447,166.044],[139.657,166.030],[139.181,165.802],[138.973,165.515],[138.501,164.400],[137.918,163.441],[136.937,162.313],[136.070,161.601],[135.108,161.022],[134.425,160.716],[133.354,160.384],[132.617,160.250],[132.619,139.060],[132.699,138.704],[132.860,138.435],[133.092,138.224],[133.426,138.076],[148.317,138.044]]
EXCLUDE_OBJECT_DEFINE NAME='terminal_box' CENTER=63.376,89.657 POLYGON=[[71.788,84.026],[72.995,84.026],[72.995,95.267],[71.788,95.267],[71.788,119.623],[57.156,119.623],[56.742,119.541],[56.288,119.187],[56.077,118.597],[56.076,104.692],[52.634,104.685],[52.155,104.558],[51.694,104.231],[51.694,95.483],[51.842,94.973],[52.158,94.643],[52.585,94.480],[52.941,94.490],[54.092,94.788],[55.126,94.840],[56.151,94.686],[57.355,94.214],[58.405,93.459],[59.236,92.468],[59.798,91.303],[60.028,90.293],[60.028,89.000],[59.874,88.238],[59.608,87.507],[58.934,86.404],[58.008,85.501],[56.887,84.854],[55.642,84.504],[54.349,84.472],[52.890,84.811],[52.484,84.793],[51.964,84.484],[51.702,83.912],[51.694,75.154],[51.987,74.911],[52.351,74.800],[56.076,74.796],[56.077,60.695],[56.230,60.193],[56.601,59.822],[57.156,59.668],[71.788,59.668]]
EXCLUDE_OBJECT_DEFINE NAME='terminal_base_bracket' CENTER=193.143,78.736 POLYGON=[[200.220,100.853],[197.220,100.853],[197.201,85.720],[197.048,84.950],[196.747,84.226],[196.433,83.729],[195.906,83.148],[195.031,82.547],[193.316,84.262],[181.141,84.262],[181.141,82.234],[181.023,82.234],[181.023,75.072],[181.141,75.072],[181.141,73.020],[193.316,73.020],[195.029,74.733],[195.906,74.131],[196.651,73.223],[197.048,72.328],[197.215,71.363],[197.220,56.855],[200.220,56.855]]

;TYPE:Custom
START_PRINT BED_TEMP=65 HOTEND_TEMP=220 FILAMENT_TYPE=PLA EXTRUSION_MULTIPLIER=0.95 PERIMETER_SPEED=80
G21 ; set units to millimeters
G90 ; use absolute coordinates
M82 ; use absolute distances for extrusion
G92 E0
; Filament gcode
M107
;LAYER_CHANGE
;Z:0.35
;HEIGHT:0.35
G1 E-.5 F240
G1 Z.35 F9000
EXCLUDE_OBJECT_START NAME='terminal_base_bracket'
G92 E0
G1 X193.157 Y81.778
G1 E.5 F240
G92 E0
;TYPE:External perimeter
;WIDTH:0.675
G1 F1800
G1 X193.157 Y75.496 E.52095
G1 X193.674 Y75.479 E.56385
G1 X194.507 Y75.308 E.63437
G1 X195.285 Y74.981 E.70435
G1 X195.826 Y74.632 E.75774
G1 X196.449 Y74.062 E.82776
G1 X196.843 Y73.55 E.88134
G1 X197.237 Y72.799 E.95167
G1 X197.478 Y71.984 E1.02215
G1 X197.557 Y71.168 E1.09013
G1 X197.557 Y59.017 E2.09778
G1 X199.882 Y59.017 E2.29059
G1 X199.882 Y60.18 E2.38703
G1 X199.882 Y98.69 E5.58055
G1 X197.557 Y98.69 E5.77336
G1 X197.557 Y86.111 E6.8165
G1 X197.533 Y85.664 E6.85362
G1 X197.421 Y85.036 E6.90652
G1 X197.213 Y84.422 E6.96028
G1 X196.809 Y83.679 E7.03041
G1 X196.271 Y83.03 E7.10032
G1 X195.786 Y82.616 E7.1532
G1 X195.233 Y82.272 E7.20721
G1 X194.451 Y81.954 E7.27722
G1 X193.674 Y81.799 E7.34292
G1 X193.243 Y81.785 E7.37868
G1 X193.159 Y81.191 F9000
G1 X193.757 Y81.191
;TYPE:Perimeter
G1 F1800
G1 X193.757 Y76.109 E7.80012
G1 X193.791 Y76.068 E7.80454
G1 X194.737 Y75.862 E7.88483
G1 X195.606 Y75.488 E7.96328
G1 X196.229 Y75.077 E8.02517
G1 X196.922 Y74.431 E8.10374
G1 X197.372 Y73.833 E8.1658
G1 X197.811 Y72.973 E8.24587
G1 X198.075 Y72.043 E8.32604
G1 X198.157 Y71.168 E8.39892
G1 X198.157 Y59.617 E9.35681
G1 X199.282 Y59.617 E9.4501
G1 X199.282 Y60.18 E9.49679
G1 X199.282 Y98.09 E12.64056
G1 X198.157 Y98.09 E12.73385
G1 X198.157 Y86.111 E13.72723
G1 X198.125 Y85.562 E13.77283
G1 X197.991 Y84.848 E13.83307
G1 X197.742 Y84.139 E13.89539
G1 X197.273 Y83.298 E13.97524
G1 X196.663 Y82.576 E14.05362
G1 X196.107 Y82.109 E14.11383
G1 X195.462 Y81.717 E14.17642
G1 X194.568 Y81.365 E14.2561
G1 X193.829 Y81.221 E14.31854
G1 E13.81854 F240
G92 E0
G1 X193.829 Y81.221 F9000
G1 X198.67 Y72.216
G1 E.5 F240
;WIDTH:0.700741
G1 F1800
G1 X198.693 Y71.764 E.53914
;WIDTH:0.654128
G1 X198.716 Y71.312 E.57537
;WIDTH:0.607515
G1 X198.72 Y71.168 E.58597
;WIDTH:0.600445
G1 X198.72 Y60.18 E1.38393
G1 E.88393 F240
G92 E0
G1 X198.72 Y60.18 F9000
G1 X194.357 Y80.642
G1 E.5 F240
;WIDTH:0.675
G1 F1800
G1 X194.357 Y76.567 E.83793
G1 X194.966 Y76.416 E.88996
G1 X195.927 Y75.994 E.977
G1 X196.632 Y75.521 E1.0474
G1 X197.395 Y74.8 E1.13445
G1 X197.901 Y74.115 E1.20507
G1 X198.385 Y73.147 E1.29482
;WIDTH:0.700741
G1 X198.67 Y72.216 E1.37903
G1 X198.674 Y72.4 E1.39495
;WIDTH:0.692791
G1 X198.683 Y73.192 E1.46258
;WIDTH:0.675
G1 X198.683 Y84.042 E2.36234
;WIDTH:0.709445
G1 X198.665 Y84.455 E2.39859
;WIDTH:0.743891
G1 X198.648 Y84.868 E2.4368
G1 X198.58 Y84.653 E2.45765
;WIDTH:0.717411
G1 X198.271 Y83.856 E2.53355
;WIDTH:0.675
G1 X197.737 Y82.918 E2.62306
G1 X197.055 Y82.122 E2.70998
G1 X196.428 Y81.602 E2.77753
G1 X195.698 Y81.166 E2.84804
G1 X194.966 Y80.862 E2.91377
G1 X194.376 Y80.717 E2.96415
G1 E2.46415 F240
G92 E0
G1 X194.376 Y80.717 F9000
G1 X198.72 Y97.528
G1 E.5 F240
;WIDTH:0.600445
G1 F1800
G1 X198.72 Y86.111 E1.32911
;WIDTH:0.641683
G1 X198.699 Y85.462 E1.37997
;WIDTH:0.675752
G1 X198.682 Y85.264 E1.39647
;WIDTH:0.709821
G1 X198.665 Y85.066 E1.41391
;WIDTH:0.743891
G1 X198.648 Y84.868 E1.43228
G1 E.93228 F240
G92 E0
G1 X198.648 Y84.868 F9000
G1 X198.503 Y75.543
G1 E.5 F240
;TYPE:Solid infill
;WIDTH:0.683317
G1 F1800
G1 X197.875 Y74.916 E.57461
G1 X197.746 Y75.082 E.59229
G1 X197.469 Y75.37 E.62589
G1 X198.233 Y76.134 E.71673
G1 X198.233 Y76.994 E.78904
G1 X197.018 Y75.779 E.93351
G1 X196.674 Y76.054 E.97054
G1 X196.526 Y76.147 E.98524
G1 X198.233 Y77.854 E1.18821
G1 X198.233 Y78.714 E1.26052
G1 X195.987 Y76.469 E1.52752
G1 X195.387 Y76.729 E1.5825
G1 X198.233 Y79.574 E1.92084
G1 X198.233 Y80.434 E1.99315
G1 X194.807 Y77.009 E2.40045
G1 X194.807 Y77.869 E2.47276
G1 X198.233 Y81.294 E2.88006
G1 X198.233 Y82.155 E2.95245
G1 X194.807 Y78.729 E3.35981
G1 X194.807 Y79.589 E3.43212
G1 X198.266 Y83.048 E3.8434
;LAYER_CHANGE
;Z:0.55
;HEIGHT:0.2
G1 Z.55 F9000
M104 S215 ; set temperature
G1 E3.3434 F240
G92 E0
G1 Z.55 F9000
G1 X193.157 Y81.778
G1 E.5 F240
G92 E0
;TYPE:External perimeter
;WIDTH:0.674999
G1 F1531
G1 X193.157 Y80.762 E.05073
G1 X193.157 Y76.517 E.26268
G1 X193.157 Y75.496 E.31366
G1 X193.676 Y75.479 E.33959
G1 X194.501 Y75.31 E.38164
G1 X195.105 Y75.072 E.41405
G1 X195.828 Y74.631 E.45633
G1 X196.449 Y74.062 E.49838
G1 X196.845 Y73.546 E.53086
G1 X197.238 Y72.798 E.57305
G1 X197.479 Y71.983 E.61548
G1 X197.557 Y71.168 E.65636
G1 X197.557 Y60.03 E1.21248
G1 X197.557 Y58.742 E1.27679
G1 X199.882 Y58.742 E1.39288
G1 X199.882 Y59.905 E1.45095
G1 X199.882 Y60.917 E1.50148
G1 X199.882 Y97.678 E3.33695
G1 X199.882 Y98.965 E3.40121
G1 X197.557 Y98.965 E3.5173
G1 X197.557 Y97.678 E3.58156
G1 X197.557 Y86.111 E4.1591
G1 X197.466 Y85.235 E4.20307
G1 X197.217 Y84.43 E4.24514
G1 X196.922 Y83.854 E4.27745
G1 X196.42 Y83.184 E4.31925
G1 X195.953 Y82.745 E4.35125
G1 X195.429 Y82.38 E4.38313
G1 X194.858 Y82.096 E4.41497
G1 X194.251 Y81.899 E4.44683
G1 X193.668 Y81.798 E4.47637
G1 X193.243 Y81.785 E4.4976
G1 X193.159 Y81.191 F9000
G1 X193.789 Y81.16
;TYPE:Perimeter
G1 F1531
G1 X193.789 Y76.899 E4.71035
G1 X193.799 Y76.099 E4.7503
G1 X194.729 Y75.9 E4.79779
G1 X195.43 Y75.614 E4.83559
G1 X196.252 Y75.1 E4.884
G1 X196.948 Y74.45 E4.93155
G1 X197.403 Y73.843 E4.96943
G1 X197.842 Y72.981 E5.01773
;WIDTH:0.713022
G1 X198.126 Y72.046 E5.06946
;WIDTH:0.761413
G1 X198.163 Y71.922 E5.0768
;WIDTH:0.809803
G1 X198.2 Y71.797 E5.0847
;WIDTH:0.858193
G1 X198.236 Y71.673 E5.09302
;WIDTH:0.906583
G1 X198.273 Y71.548 E5.10191
G1 X198.297 Y71.168 E5.12789
;WIDTH:0.889381
G1 X198.297 Y60.458 E5.84401
G1 X198.297 Y59.481 E5.90934
G1 X199.143 Y59.481 E5.96591
G1 X199.143 Y59.905 E5.99426
G1 X199.143 Y71.168 E6.74735
;WIDTH:0.906583
G1 X199.134 Y71.59 E6.77615
G1 X199.158 Y71.71 E6.7845
;WIDTH:0.860267
G1 X199.181 Y71.83 E6.79239
;WIDTH:0.81395
G1 X199.204 Y71.95 E6.79983
;WIDTH:0.767633
G1 X199.227 Y72.07 E6.80682
;WIDTH:0.721316
G1 X199.25 Y72.189 E6.81332
;WIDTH:0.674999
G1 X199.25 Y84.088 E7.40743
;WIDTH:0.717429
G1 X199.229 Y84.351 E7.42149
;WIDTH:0.759859
G1 X199.208 Y84.614 E7.43643
;WIDTH:0.802289
G1 X199.187 Y84.877 E7.45226
;WIDTH:0.845418
G1 X199.165 Y84.977 E7.45875
;WIDTH:0.888547
G1 X199.143 Y85.078 E7.46565
;WIDTH:0.931675
G1 X199.122 Y85.178 E7.47282
G1 X199.143 Y86.111 E7.53834
;WIDTH:0.889381
G1 X199.143 Y97.249 E8.28308
G1 X199.143 Y98.226 E8.34841
G1 X198.297 Y98.226 E8.40498
G1 X198.297 Y97.249 E8.47031
G1 X198.297 Y86.111 E9.21505
;WIDTH:0.892953
G1 X198.293 Y86.007 E9.22204
;WIDTH:0.931675
G1 X198.235 Y85.222 E9.2773
G1 X198.201 Y85.159 E9.28233
;WIDTH:0.888547
G1 X198.167 Y85.096 E9.28711
;WIDTH:0.845418
G1 X198.132 Y85.033 E9.29168
;WIDTH:0.802289
G1 X198.015 Y84.738 E9.31072
;WIDTH:0.759859
G1 X197.899 Y84.442 E9.32872
;WIDTH:0.717429
G1 X197.782 Y84.146 E9.34568
;WIDTH:0.674999
G1 X197.43 Y83.478 E9.38338
G1 X196.856 Y82.727 E9.43058
G1 X196.317 Y82.228 E9.46725
G1 X195.714 Y81.815 E9.50374
G1 X195.056 Y81.496 E9.54025
G1 X194.359 Y81.276 E9.57674
G1 X193.861 Y81.19 E9.60197
G1 X193.861 Y81.19 F9000
G1 X194.421 Y80.577
G1 F1440
G1 X194.421 Y76.62 E9.79954
G1 X194.957 Y76.489 E9.82709
G1 X195.755 Y76.156 E9.87026
G1 X196.677 Y75.568 E9.92486
G1 X197.446 Y74.838 E9.9778
G1 X197.961 Y74.141 E10.02107
G1 X198.447 Y73.165 E10.07551
G1 X198.521 Y72.848 E10.09176
;WIDTH:0.640644
G1 X198.596 Y72.532 E10.10709
;WIDTH:0.606289
G1 X198.67 Y72.216 E10.12153
;WIDTH:0.604103
G1 X198.654 Y72.402 E10.12981
;WIDTH:0.639551
G1 X198.636 Y72.796 E10.1484
;WIDTH:0.674999
G1 X198.618 Y73.19 E10.16809
G1 X198.618 Y84.677 E10.74163
G1 X198.346 Y83.862 E10.78453
G1 X197.937 Y83.101 E10.82767
G1 X197.292 Y82.269 E10.88023
G1 X196.681 Y81.711 E10.92154
G1 X195.998 Y81.251 E10.96266
G1 X195.254 Y80.896 E11.00382
G1 X194.441 Y80.652 E11.0462
G1 E10.5462 F240
G92 E0
G1 X194.441 Y80.652 F9000
G1 X196.569 Y75.968
G1 E.5 F240
;TYPE:Solid infill
;WIDTH:0.55292
G1 F1531
G1 X195.862 Y76.516 E.53604
;WIDTH:0.593613
G1 X195.713 Y76.617 E.54387
;WIDTH:0.634306
G1 X195.564 Y76.717 E.55225
;WIDTH:0.674999
G1 X195.415 Y76.818 E.56124
G1 X194.896 Y77.338 E.59792
G1 X194.857 Y77.173 E.60639
;WIDTH:0.634306
G1 X194.818 Y77.009 E.61426
;WIDTH:0.593613
G1 X194.78 Y76.845 E.62158
;WIDTH:0.55292
G1 X194.735 Y76.8 E.62414
G1 X194.673 Y76.816 E.62672
G1 X194.656 Y76.878 E.62931
G1 X194.702 Y76.923 E.6319
G1 X194.763 Y76.906 E.63445
G1 X194.763 Y76.906 F9000
G1 X194.896 Y78.231
;WIDTH:0.674999
G1 F1531
G1 X198.233 Y74.879 E.87061
;WIDTH:0.634306
G1 X198.322 Y74.774 E.87704
;WIDTH:0.593613
G1 X198.411 Y74.67 E.88299
;WIDTH:0.55292
G1 X198.35 Y74.687 E.88554
G1 X198.305 Y74.642 E.8881
G1 X198.321 Y74.58 E.89068
G1 X198.383 Y74.564 E.89326
G1 X198.428 Y74.609 E.89582
G1 X198.428 Y74.609 F9000
G1 X198.144 Y75.877
;WIDTH:0.674999
G1 F1531
G1 X194.896 Y79.125 E1.12517
G1 X194.896 Y79.125 F9000
G1 X194.744 Y80.47
;WIDTH:0.55292
G1 F1531
G1 X194.682 Y80.486 E1.12775
G1 X194.637 Y80.441 E1.13031
G1 X194.654 Y80.38 E1.13286
G1 X194.715 Y80.363 E1.13541
G1 X194.76 Y80.408 E1.13797
;WIDTH:0.593613
G1 X194.805 Y80.278 E1.14395
;WIDTH:0.634306
G1 X194.851 Y80.149 E1.15035
;WIDTH:0.674999
G1 X194.896 Y80.019 E1.15722
G1 X198.144 Y76.771 E1.38657
G1 X198.144 Y77.665 E1.43121
G1 X195.373 Y80.436 E1.62687
G1 X195.988 Y80.715 E1.66059
G1 X198.144 Y78.559 E1.81283
G1 X198.144 Y79.452 E1.85742
G1 X196.554 Y81.042 E1.96969
G1 X197.071 Y81.419 E2.00164
G1 X198.144 Y80.346 E2.07741
G1 X198.144 Y81.24 E2.12205
G1 X197.537 Y81.848 E2.16495
G1 X198.158 Y82.308 E2.20354
;WIDTH:0.840376
G1 X198.087 Y82.237 E2.20987
G1 X197.991 Y82.263 E2.21614
G1 X197.965 Y82.36 E2.22247
G1 X198.036 Y82.43 E2.22875
G1 X198.132 Y82.404 E2.23502
;LAYER_CHANGE
;Z:0.75
;HEIGHT:0.2
G1 Z.75 F9000
G1 E1.73502 F240
G92 E0
G1 X198.132 Y82.404 Z.75 F9000
G1 X193.157 Y81.778
G1 E.5 F240
G92 E0
;TYPE:External perimeter
;WIDTH:0.674999
G1 F1544
G1 X193.157 Y80.762 E.05073
G1 X193.157 Y76.517 E.26268
G1 X193.157 Y75.496 E.31366
G1 X193.677 Y75.479 E.33964
G1 X194.501 Y75.31 E.38164
G1 X195.106 Y75.071 E.41412
G1 X195.828 Y74.631 E.45634
G1 X196.449 Y74.061 E.49843
G1 X196.847 Y73.543 E.53105
G1 X197.238 Y72.798 E.57306
G1 X197.479 Y71.983 E.61549
G1 X197.557 Y71.168 E.65637
G1 X197.557 Y59.755 E1.22622
G1 X197.557 Y58.542 E1.28678
G1 X199.882 Y58.542 E1.40287
G1 X199.882 Y59.705 E1.46094
G1 X199.882 Y60.717 E1.51147
G1 X199.882 Y97.953 E3.37065
G1 X199.882 Y99.165 E3.43116
G1 X197.557 Y99.165 E3.54725
G1 X197.557 Y97.953 E3.60776
G1 X197.557 Y86.111 E4.19903
G1 X197.466 Y85.235 E4.243
G1 X197.217 Y84.43 E4.28507
G1 X196.922 Y83.853 E4.31743
G1 X196.421 Y83.186 E4.35908
G1 X195.953 Y82.745 E4.39119
G1 X195.429 Y82.38 E4.42307
G1 X194.858 Y82.096 E4.45491
G1 X194.251 Y81.899 E4.48677
G1 X193.668 Y81.798 E4.51631
G1 X193.243 Y81.785 E4.53754
G1 X193.159 Y81.191 F9000
G1 X193.789 Y81.16
;TYPE:Perimeter
G1 F1544
G1 X193.789 Y76.9 E4.75024
G1 X193.8 Y76.099 E4.79024
G1 X194.729 Y75.9 E4.83768
G1 X195.431 Y75.613 E4.87555
G1 X196.252 Y75.1 E4.92389
G1 X196.948 Y74.45 E4.97144
G1 X197.404 Y73.841 E5.00943
G1 X197.842 Y72.981 E5.05762
;WIDTH:0.713022
G1 X198.126 Y72.046 E5.10935
;WIDTH:0.761413
G1 X198.163 Y71.922 E5.11669
;WIDTH:0.809803
G1 X198.2 Y71.797 E5.12459
;WIDTH:0.858193
G1 X198.236 Y71.673 E5.13291
;WIDTH:0.906583
G1 X198.273 Y71.548 E5.1418
G1 X198.297 Y71.168 E5.16778
;WIDTH:0.889381
G1 X198.297 Y60.183 E5.90228
G1 X198.297 Y59.281 E5.96259
G1 X199.143 Y59.281 E6.01916
G1 X199.143 Y59.705 E6.04751
G1 X199.143 Y71.168 E6.81398
;WIDTH:0.906583
G1 X199.134 Y71.59 E6.84278
G1 X199.158 Y71.71 E6.85113
;WIDTH:0.860267
G1 X199.181 Y71.83 E6.85902
;WIDTH:0.81395
G1 X199.204 Y71.95 E6.86646
;WIDTH:0.767633
G1 X199.227 Y72.07 E6.87345
;WIDTH:0.721316
G1 X199.25 Y72.189 E6.87995
;WIDTH:0.674999
G1 X199.25 Y84.088 E7.47406
;WIDTH:0.717429
G1 X199.229 Y84.351 E7.48812
;WIDTH:0.759859
G1 X199.208 Y84.614 E7.50306
;WIDTH:0.802289
G1 X199.187 Y84.877 E7.51889
;WIDTH:0.845418
G1 X199.165 Y84.977 E7.52538
;WIDTH:0.888547
G1 X199.143 Y85.078 E7.53228
;WIDTH:0.931676
G1 X199.122 Y85.178 E7.53945
G1 X199.143 Y86.111 E7.60497
;WIDTH:0.889381
G1 X199.143 Y97.524 E8.36809
G1 X199.143 Y98.426 E8.4284
G1 X198.297 Y98.426 E8.48497
G1 X198.297 Y97.524 E8.54528
G1 X198.297 Y86.111 E9.3084
;WIDTH:0.892953
G1 X198.293 Y86.007 E9.31539
;WIDTH:0.931676
G1 X198.235 Y85.222 E9.37065
G1 X198.201 Y85.159 E9.37568
;WIDTH:0.888547
G1 X198.167 Y85.096 E9.38046
;WIDTH:0.845418
G1 X198.132 Y85.033 E9.38503
;WIDTH:0.802289
G1 X198.015 Y84.738 E9.40407
;WIDTH:0.759859
G1 X197.899 Y84.442 E9.42207
;WIDTH:0.717429
G1 X197.782 Y84.146 E9.43903
;WIDTH:0.674999
G1 X197.429 Y83.477 E9.4768
G1 X196.857 Y82.728 E9.52386
G1 X196.317 Y82.228 E9.56061
G1 X195.714 Y81.815 E9.5971
G1 X195.056 Y81.496 E9.63361
G1 X194.359 Y81.276 E9.6701
G1 X193.861 Y81.19 E9.69533
G1 X193.861 Y81.19 F9000
G1 X194.421 Y80.577
G1 F1440
G1 X194.421 Y76.62 E9.8929
G1 X194.957 Y76.489 E9.92045
G1 X195.757 Y76.155 E9.96374
