; generated by PrusaSlicer 2.8.1+MacOS-arm64 on 2024-10-11 at 04:45:19 UTC


;
;

;
;
; 

; external perimeters extrusion width = 0.68mm
; perimeters extrusion width = 0.68mm
; infill extrusion width = 0.68mm
; solid infill extrusion width = 0.68mm
; top infill extrusion width = 0.60mm


EXCLUDE_OBJECT_DEFINE NAME='CAPS_(Instance_1)' CENTER=101.308,136.846 POLYGON=[[101.688,128.008],[103.192,128.203],[104.920,128.771],[106.496,129.681],[107.852,130.893],[108.773,132.099],[109.586,133.726],[109.998,135.186],[110.154,136.999],[109.998,138.508],[109.474,140.250],[108.605,141.848],[107.428,143.235],[105.992,144.352],[104.358,145.152],[102.894,145.550],[101.080,145.691],[99.276,145.457],[97.558,144.860],[95.998,143.923],[94.867,142.912],[93.763,141.466],[92.977,139.825],[92.544,138.058],[92.466,136.543],[92.648,135.037],[93.201,133.304],[94.097,131.721],[95.298,130.354],[96.754,129.262],[98.401,128.491],[99.871,128.117]]
EXCLUDE_OBJECT_DEFINE NAME='CAPS_(Instance_2)' CENTER=101.308,113.153 POLYGON=[[101.688,104.314],[103.192,104.509],[104.920,105.077],[106.496,105.987],[107.852,107.200],[108.931,108.664],[109.688,110.318],[110.091,112.093],[110.143,113.609],[109.863,115.406],[109.221,117.108],[108.429,118.402],[107.205,119.748],[105.992,120.658],[104.358,121.458],[102.594,121.906],[100.777,121.984],[99.276,121.763],[97.558,121.166],[95.998,120.229],[94.663,118.993],[93.763,117.772],[92.977,116.131],[92.544,114.364],[92.466,112.849],[92.715,111.047],[93.201,109.610],[94.097,108.027],[95.298,106.661],[96.754,105.569],[98.401,104.797],[99.871,104.424]]
EXCLUDE_OBJECT_DEFINE NAME='CAPS_(Instance_3)' CENTER=125.001,136.846 POLYGON=[[125.380,128.008],[126.885,128.203],[128.613,128.771],[130.189,129.681],[131.545,130.893],[132.466,132.099],[133.279,133.726],[133.690,135.186],[133.846,136.999],[133.690,138.508],[133.167,140.250],[132.298,141.848],[131.121,143.235],[129.685,144.352],[128.050,145.152],[126.587,145.550],[124.773,145.691],[122.969,145.457],[121.251,144.860],[119.691,143.923],[118.560,142.912],[117.456,141.466],[116.670,139.825],[116.237,138.058],[116.159,136.543],[116.408,134.741],[116.894,133.304],[117.790,131.721],[118.991,130.354],[120.447,129.262],[122.094,128.491],[123.564,128.117]]
EXCLUDE_OBJECT_DEFINE NAME='CAPS_(Instance_4)' CENTER=148.694,136.847 POLYGON=[[149.073,128.008],[150.873,128.273],[152.306,128.771],[153.882,129.681],[155.238,130.893],[156.159,132.099],[156.972,133.726],[157.435,135.485],[157.539,136.999],[157.321,138.805],[156.860,140.250],[155.991,141.848],[154.814,143.235],[153.378,144.352],[151.743,145.152],[150.280,145.550],[148.466,145.691],[146.662,145.457],[144.943,144.860],[143.384,143.923],[142.253,142.912],[141.149,141.466],[140.470,140.109],[139.977,138.358],[139.852,136.543],[140.034,135.037],[140.587,133.304],[141.483,131.721],[142.684,130.354],[144.139,129.262],[145.787,128.491],[147.257,128.117]]
EXCLUDE_OBJECT_DEFINE NAME='CAPS_(Instance_5)' CENTER=148.694,113.154 POLYGON=[[149.073,104.314],[150.873,104.579],[152.306,105.077],[153.882,105.987],[155.238,107.200],[156.317,108.664],[157.074,110.318],[157.477,112.093],[157.529,113.609],[157.249,115.406],[156.607,117.109],[155.815,118.402],[154.591,119.748],[153.378,120.658],[151.743,121.458],[149.980,121.906],[148.163,121.984],[146.662,121.764],[144.943,121.166],[143.384,120.229],[142.253,119.218],[141.149,117.772],[140.470,116.416],[139.977,114.664],[139.852,112.849],[140.034,111.343],[140.587,109.610],[141.483,108.027],[142.684,106.661],[144.139,105.569],[145.787,104.797],[147.257,104.424]]
EXCLUDE_OBJECT_DEFINE NAME='CAPS_(Instance_6)' CENTER=125.001,113.154 POLYGON=[[125.380,104.314],[126.885,104.509],[128.613,105.077],[130.189,105.987],[131.545,107.200],[132.624,108.664],[133.381,110.318],[133.784,112.093],[133.836,113.609],[133.556,115.406],[132.914,117.109],[132.122,118.402],[130.898,119.748],[129.685,120.658],[128.050,121.458],[126.287,121.906],[124.470,121.984],[122.969,121.764],[121.251,121.166],[119.691,120.229],[118.560,119.218],[117.456,117.772],[116.670,116.131],[116.237,114.364],[116.159,112.849],[116.408,111.047],[116.894,109.610],[117.790,108.027],[118.991,106.661],[120.447,105.569],[122.094,104.797],[123.564,104.424]]

;TYPE:Custom
START_PRINT BED_TEMP=80 HOTEND_TEMP=225 FILAMENT_TYPE=FLEX EXTRUSION_MULTIPLIER=0.92 PERIMETER_SPEED=20
G21 ; set units to millimeters
G90 ; use absolute coordinates
M82 ; use absolute distances for extrusion
G92 E0
; Filament gcode
; ########################### NOTE OFFSET CHANGES ####################################
; Prevents PETG buildup on nozzle.
; SET_GCODE_OFFSET Z=0
; ####################################################################################
M107
;LAYER_CHANGE
;Z:0.35
;HEIGHT:0.35
G1 E-.5 F240
G1 Z.35 F9000
EXCLUDE_OBJECT_START NAME='CAPS_(Instance_5)'
G92 E0
G1 X151.715 Y113.445
G1 E.5 F240
;TYPE:External perimeter
;WIDTH:0.675
G1 F900
G1 X151.691 Y113.708 E.52121
G1 X151.518 Y114.288 E.56982
G1 X151.234 Y114.821 E.61832
G1 X150.85 Y115.288 E.66687
G1 X150.381 Y115.67 E.71545
G1 X149.711 Y116.001 E.77546
G1 X149.116 Y116.145 E.82462
G1 X148.512 Y116.166 E.87316
G1 X147.97 Y116.076 E.91728
G1 X147.35 Y115.851 E.97025
G1 X146.839 Y115.528 E1.0188
G1 X146.402 Y115.11 E1.06736
G1 X146.057 Y114.614 E1.11588
G1 X145.817 Y114.059 E1.16444
G1 X145.691 Y113.468 E1.21297
G1 X145.702 Y112.721 E1.27297
G1 X145.855 Y112.095 E1.32472
G1 X146.079 Y111.628 E1.36632
G1 X146.463 Y111.093 E1.41921
G1 X146.912 Y110.688 E1.46777
G1 X147.388 Y110.407 E1.51216
G1 X148.004 Y110.183 E1.5648
G1 X148.603 Y110.101 E1.61335
G1 X149.17 Y110.138 E1.65898
G1 X149.79 Y110.299 E1.71042
G1 X150.242 Y110.524 E1.75097
G1 X150.808 Y110.942 E1.80748
G1 X151.201 Y111.401 E1.85601
G1 X151.495 Y111.929 E1.90454
G1 X151.679 Y112.505 E1.9531
G1 X151.745 Y113.106 E2.00166
G1 X151.723 Y113.355 E2.02173
G1 X151.611 Y113.944 F9000
G1 X152.306 Y113.519
;TYPE:Perimeter
G1 F900
G1 X152.288 Y113.768 E2.04178
G1 X152.156 Y114.256 E2.08238
G1 X152.022 Y114.63 E2.11428
G1 X151.761 Y115.108 E2.15802
G1 X151.31 Y115.674 E2.21614
G1 X150.913 Y116.013 E2.25806
G1 X150.584 Y116.246 E2.29044
G1 X149.971 Y116.542 E2.34511
G1 X149.41 Y116.693 E2.39177
G1 X149.072 Y116.752 E2.41932
G1 X148.527 Y116.765 E2.4631
G1 X147.866 Y116.667 E2.51676
G1 X147.308 Y116.479 E2.56405
G1 X146.972 Y116.328 E2.59363
G1 X146.514 Y116.032 E2.63742
G1 X145.984 Y115.54 E2.6955
G1 X145.561 Y114.952 E2.75367
G1 X145.264 Y114.292 E2.81179
G1 X145.103 Y113.587 E2.86986
G1 X145.102 Y112.706 E2.94061
G1 X145.293 Y111.886 E3.00823
G1 X145.538 Y111.368 E3.05425
G1 X145.985 Y110.73 E3.11681
G1 X146.516 Y110.238 E3.17494
G1 X147.088 Y109.887 E3.22884
G1 X147.813 Y109.614 E3.29105
G1 X148.411 Y109.521 E3.33965
G1 X148.708 Y109.502 E3.36355
G1 X149.252 Y109.542 E3.40736
G1 X149.793 Y109.676 E3.45212
G1 X150.12 Y109.787 E3.47985
G1 X150.605 Y110.035 E3.5236
G1 X151.008 Y110.334 E3.5639
G1 X151.31 Y110.598 E3.59611
G1 X151.66 Y111.015 E3.63983
G1 X152.022 Y111.642 E3.69797
G1 X152.187 Y112.116 E3.73828
G1 X152.288 Y112.504 E3.77048
G1 X152.342 Y113.046 E3.81422
G1 X152.313 Y113.429 E3.84507
G1 X152.313 Y113.429 F9000
G1 X152.908 Y113.594
G1 F900
G1 X152.885 Y113.828 E3.86395
G1 X152.729 Y114.433 E3.91413
G1 X152.549 Y114.916 E3.95552
G1 X152.288 Y115.395 E3.99933
G1 X151.948 Y115.846 E4.04469
G1 X151.61 Y116.222 E4.08529
G1 X151.129 Y116.608 E4.13482
G1 X150.729 Y116.843 E4.17208
G1 X150.231 Y117.082 E4.21644
G1 X149.544 Y117.278 E4.27381
G1 X149.087 Y117.351 E4.31098
G1 X148.542 Y117.365 E4.35476
G1 X147.762 Y117.258 E4.41799
G1 X147.42 Y117.167 E4.44641
G1 X146.912 Y116.968 E4.49023
G1 X146.446 Y116.702 E4.53332
G1 X146.012 Y116.402 E4.57569
G1 X145.565 Y115.969 E4.62567
G1 X145.066 Y115.29 E4.69334
G1 X144.711 Y114.525 E4.76107
G1 X144.571 Y113.984 E4.80595
G1 X144.487 Y113.478 E4.84714
G1 X144.503 Y112.691 E4.91036
G1 X144.559 Y112.316 E4.94081
G1 X144.731 Y111.676 E4.99403
G1 X144.998 Y111.108 E5.04443
G1 X145.178 Y110.803 E5.07287
G1 X145.51 Y110.364 E5.11707
G1 X146.119 Y109.789 E5.18433
G1 X146.788 Y109.368 E5.24781
G1 X147.105 Y109.219 E5.27594
G1 X147.627 Y109.044 E5.32015
G1 X148.337 Y108.926 E5.37795
G1 X148.753 Y108.904 E5.4114
G1 X149.296 Y108.944 E5.45513
G1 X149.955 Y109.099 E5.5095
G1 X150.393 Y109.253 E5.54679
G1 X150.878 Y109.502 E5.59057
G1 X151.382 Y109.865 E5.64045
G1 X151.769 Y110.212 E5.68219
G1 X152.12 Y110.63 E5.72602
G1 X152.404 Y111.089 E5.76937
G1 X152.643 Y111.566 E5.81222
G1 X152.825 Y112.151 E5.86142
G1 X152.922 Y112.818 E5.91555
G1 X152.939 Y113.285 E5.95308
G1 X152.917 Y113.504 E5.97076
G1 E5.47076 F240
G92 E0
G1 X152.917 Y113.504 F9000
G1 X153.794 Y106.888
G1 E.5 F240
;TYPE:External perimeter
G1 F900
G1 X154.406 Y107.44 E.56619
G1 X154.977 Y108.075 E.63477
G1 X155.459 Y108.737 E.70053
G1 X155.775 Y109.263 E.74981
G1 X156.145 Y110.032 E.81834
G1 X156.429 Y110.824 E.88591
G1 X156.552 Y111.321 E.92703
G1 X156.673 Y111.965 E.97965
G1 X156.747 Y112.574 E1.02892
G1 X156.773 Y113.141 E1.0745
G1 X156.736 Y113.92 E1.13713
G1 X156.611 Y114.763 E1.20557
G1 X156.399 Y115.582 E1.27351
G1 X156.101 Y116.379 E1.34184
G1 X155.719 Y117.143 E1.41044
G1 X155.395 Y117.665 E1.45978
G1 X154.908 Y118.316 E1.52507
G1 X154.339 Y118.933 E1.59247
G1 X153.697 Y119.496 E1.66104
G1 X153.2 Y119.858 E1.71042
G1 X152.498 Y120.28 E1.7762
G1 X151.724 Y120.642 E1.84482
G1 X150.938 Y120.914 E1.91162
G1 X150.341 Y121.062 E1.96102
G1 X149.524 Y121.189 E2.02742
G1 X148.694 Y121.232 E2.09417
G1 X147.842 Y121.187 E2.16269
G1 X147.024 Y121.058 E2.22919
G1 X146.446 Y120.913 E2.27705
G1 X145.64 Y120.633 E2.34557
G1 X144.868 Y120.269 E2.41411
G1 X144.338 Y119.957 E2.4635
G1 X143.685 Y119.492 E2.52788
G1 X143.046 Y118.93 E2.59622
G1 X142.469 Y118.302 E2.66471
G1 X142.095 Y117.814 E2.71409
G1 X141.663 Y117.133 E2.77886
G1 X141.284 Y116.372 E2.84713
G1 X140.984 Y115.566 E2.9162
G1 X140.774 Y114.749 E2.98394
G1 X140.65 Y113.907 E3.05229
G1 X140.615 Y113.148 E3.11331
G1 X140.66 Y112.298 E3.18167
G1 X140.795 Y111.457 E3.25007
G1 X141.018 Y110.634 E3.31855
G1 X141.232 Y110.058 E3.3679
G1 X141.575 Y109.333 E3.43231
G1 X142.017 Y108.605 E3.50071
G1 X142.532 Y107.928 E3.56902
G1 X143.116 Y107.309 E3.63736
G1 X143.764 Y106.753 E3.70593
G1 X144.265 Y106.397 E3.75529
G1 X144.967 Y105.985 E3.82066
G1 X145.744 Y105.632 E3.8892
G1 X146.554 Y105.363 E3.95774
G1 X147.354 Y105.186 E4.02354
G1 X147.962 Y105.107 E4.07278
G1 X148.803 Y105.075 E4.14037
G1 X149.654 Y105.132 E4.20887
G1 X150.455 Y105.269 E4.27413
G1 X151.065 Y105.43 E4.3248
G1 X151.846 Y105.715 E4.39157
G1 X152.587 Y106.075 E4.45773
G1 X153.115 Y106.391 E4.50715
G1 X153.721 Y106.834 E4.56743
G1 X154.172 Y107.23 F9000
G1 X153.422 Y107.36
;TYPE:Perimeter
G1 F900
G1 X153.981 Y107.865 E4.62793
G1 X154.51 Y108.453 E4.69145
G1 X154.958 Y109.069 E4.75262
G1 X155.246 Y109.549 E4.79757
G1 X155.591 Y110.264 E4.86133
G1 X155.821 Y110.904 E4.91595
G1 X155.97 Y111.464 E4.96249
G1 X156.079 Y112.048 E5.0102
G1 X156.148 Y112.601 E5.05495
G1 X156.172 Y113.141 E5.09836
G1 X156.138 Y113.862 E5.15633
G1 X156.022 Y114.644 E5.21982
G1 X155.826 Y115.401 E5.28262
G1 X155.55 Y116.139 E5.3459
G1 X155.195 Y116.85 E5.40972
G1 X154.899 Y117.327 E5.4548
G1 X154.446 Y117.932 E5.5155
G1 X153.919 Y118.503 E5.5779
G1 X153.322 Y119.027 E5.64169
G1 X152.868 Y119.358 E5.68681
G1 X152.215 Y119.75 E5.74797
G1 X151.499 Y120.085 E5.81145
G1 X150.767 Y120.338 E5.87365
G1 X150.222 Y120.474 E5.91876
G1 X149.462 Y120.592 E5.98053
G1 X148.695 Y120.631 E6.04221
G1 X147.905 Y120.59 E6.10574
G1 X147.144 Y120.469 E6.16762
G1 X146.618 Y120.338 E6.21115
G1 X145.867 Y120.076 E6.27503
G1 X145.149 Y119.738 E6.33876
G1 X144.665 Y119.453 E6.38387
G1 X144.058 Y119.021 E6.4437
G1 X143.466 Y118.501 E6.50698
G1 X142.929 Y117.916 E6.57075
G1 X142.588 Y117.47 E6.61584
G1 X142.187 Y116.838 E6.67595
G1 X141.835 Y116.133 E6.73923
G1 X141.557 Y115.386 E6.80324
G1 X141.363 Y114.631 E6.86584
G1 X141.248 Y113.849 E6.92932
G1 X141.216 Y113.151 E6.98543
G1 X141.258 Y112.361 E7.04896
G1 X141.382 Y111.583 E7.11223
G1 X141.59 Y110.817 E7.17597
G1 X141.785 Y110.291 E7.22102
G1 X142.104 Y109.618 E7.28083
G1 X142.514 Y108.943 E7.34425
G1 X142.99 Y108.317 E7.40741
G1 X143.53 Y107.744 E7.47064
G1 X144.134 Y107.226 E7.53454
G1 X144.591 Y106.901 E7.57958
G1 X145.244 Y106.518 E7.64038
G1 X145.964 Y106.191 E7.70389
G1 X146.714 Y105.942 E7.76735
G1 X147.457 Y105.778 E7.82846
G1 X148.012 Y105.706 E7.8734
G1 X148.795 Y105.676 E7.93633
G1 X149.584 Y105.728 E7.99983
G1 X150.327 Y105.856 E8.06038
G1 X150.885 Y106.003 E8.10672
G1 X151.612 Y106.268 E8.16886
G1 X152.301 Y106.603 E8.23039
G1 X152.783 Y106.892 E8.27552
G1 X153.35 Y107.306 E8.3319
G1 X153.35 Y107.306 F9000
G1 X153.051 Y107.833
G1 F900
G1 X153.556 Y108.289 E8.38654
G1 X154.043 Y108.831 E8.44506
G1 X154.458 Y109.4 E8.50162
G1 X154.718 Y109.834 E8.54225
G1 X155.037 Y110.497 E8.60134
G1 X155.257 Y111.107 E8.65342
G1 X155.387 Y111.608 E8.69499
G1 X155.485 Y112.132 E8.7378
G1 X155.549 Y112.628 E8.77796
G1 X155.572 Y113.14 E8.81912
G1 X155.541 Y113.803 E8.87242
G1 X155.433 Y114.524 E8.93097
G1 X155.253 Y115.221 E8.98878
G1 X154.999 Y115.899 E9.04692
G1 X154.67 Y116.557 E9.106
G1 X154.403 Y116.988 E9.14672
G1 X153.984 Y117.548 E9.20289
G1 X153.5 Y118.073 E9.26023
G1 X152.946 Y118.559 E9.31941
G1 X152.537 Y118.857 E9.36005
G1 X151.933 Y119.22 E9.41664
G1 X151.273 Y119.529 E9.47516
G1 X150.597 Y119.763 E9.53261
G1 X150.104 Y119.885 E9.5734
G1 X149.4 Y119.994 E9.63061
G1 X148.695 Y120.031 E9.68731
G1 X147.968 Y119.992 E9.74578
G1 X147.321 Y119.89 E9.79838
G1 X146.79 Y119.762 E9.84225
G1 X146.094 Y119.52 E9.90143
G1 X145.43 Y119.207 E9.96038
G1 X144.992 Y118.949 E10.0012
G1 X144.431 Y118.551 E10.05644
G1 X143.886 Y118.071 E10.11476
G1 X143.389 Y117.53 E10.17376
G1 X143.08 Y117.127 E10.21454
G1 X142.71 Y116.543 E10.27006
G1 X142.386 Y115.893 E10.32839
G1 X142.13 Y115.207 E10.38719
G1 X141.952 Y114.512 E10.44481
G1 X141.846 Y113.791 E10.50333
G1 X141.816 Y113.153 E10.55462
G1 X141.855 Y112.425 E10.61317
G1 X141.97 Y111.709 E10.67141
G1 X142.161 Y111.001 E10.7303
G1 X142.338 Y110.525 E10.77108
G1 X142.633 Y109.903 E10.82637
G1 X143.01 Y109.281 E10.88478
G1 X143.448 Y108.705 E10.94289
G1 X143.945 Y108.178 E11.00106
G1 X144.503 Y107.699 E11.06012
G1 X144.917 Y107.405 E11.1009
G1 X145.52 Y107.052 E11.15701
G1 X146.183 Y106.75 E11.21552
G1 X146.873 Y106.521 E11.2739
G1 X147.561 Y106.369 E11.33048
G1 X148.062 Y106.304 E11.37105
G1 X148.786 Y106.276 E11.42924
G1 X149.513 Y106.325 E11.48776
G1 X150.199 Y106.442 E11.54365
G1 X150.706 Y106.576 E11.58576
G1 X151.378 Y106.821 E11.6432
G1 X152.015 Y107.131 E11.70009
G1 X152.451 Y107.392 E11.7409
G1 X152.98 Y107.778 E11.79349
G1 E11.29349 F240
G92 E0
G1 X152.98 Y107.778 F9000
G1 X154.549 Y109.968
G1 E.5 F240
;TYPE:Solid infill
;WIDTH:0.68393
G1 F900
G1 X153.157 Y108.575 E.6605
G1 X152.729 Y108.189 E.70747
G1 X152.185 Y107.792 E.76236
G1 X151.787 Y107.553 E.8002
G1 X151.19 Y107.263 E.85429
G1 X150.866 Y107.145 E.88239
G1 X154.701 Y110.981 E1.32448
G1 X154.819 Y111.31 E1.35297
G1 X154.972 Y111.929 E1.40494
G1 X155.002 Y112.143 E1.42255
G1 X149.704 Y106.844 E2.03328
G1 X149.456 Y106.802 E2.05378
G1 X148.761 Y106.763 E2.11051
G1 X155.352 Y113.353 E2.87016
G1 E2.37016 F240
G92 E0
G1 X155.352 Y113.353 F9000
G1 X152.935 Y111.797
G1 E.5 F240
G1 F900
G1 X155.041 Y113.903 E.74275
G1 X154.962 Y114.429 E.7861
G1 X154.909 Y114.633 E.80328
G1 X153.422 Y113.146 E.97468
G1 X153.354 Y113.938 E1.03947
G1 X154.712 Y115.297 E1.19606
G1 X154.558 Y115.707 E1.23176
G1 X154.46 Y115.905 E1.24977
G1 X153.172 Y114.618 E1.39817
G1 X153.085 Y114.895 E1.42183
G1 X152.923 Y115.23 E1.45216
G1 X154.161 Y116.468 E1.59486
G1 X154.006 Y116.718 E1.61883
G1 X153.811 Y116.978 E1.64532
G1 X152.615 Y115.782 E1.78318
G1 X152.228 Y116.256 E1.83305
G1 X153.421 Y117.45 E1.97062
G1 X153.164 Y117.729 E2.00154
G1 X152.991 Y117.881 E2.02031
G1 X151.797 Y116.687 E2.15794
G1 X151.309 Y117.06 E2.208
G1 X152.523 Y118.273 E2.34787
G1 X152.271 Y118.457 E2.3733
G1 X152.005 Y118.617 E2.3986
G1 X150.749 Y117.361 E2.54337
G1 X150.229 Y117.602 E2.59008
