; generated by PrusaSlicer 2.8.1+MacOS-arm64 on 2024-10-09 at 08:49:08 UTC


;
;

;
;
; 

; external perimeters extrusion width = 0.68mm
; perimeters extrusion width = 0.68mm
; infill extrusion width = 0.68mm
; solid infill extrusion width = 0.68mm
; top infill extrusion width = 0.60mm


EXCLUDE_OBJECT_DEFINE NAME='CAPS_(Instance_1)' CENTER=125.001,113.154 POLYGON=[[125.380,104.314],[126.885,104.509],[128.613,105.077],[130.189,105.987],[131.545,107.200],[132.624,108.664],[133.381,110.318],[133.784,112.093],[133.836,113.609],[133.556,115.406],[132.914,117.108],[132.122,118.402],[130.898,119.748],[129.685,120.658],[128.050,121.458],[126.287,121.906],[124.470,121.984],[122.969,121.763],[121.251,121.166],[119.691,120.229],[118.560,119.218],[117.456,117.772],[116.777,116.416],[116.284,114.664],[116.159,112.849],[116.341,111.343],[116.894,109.610],[117.790,108.027],[118.991,106.661],[120.447,105.569],[122.094,104.797],[123.564,104.424]]
EXCLUDE_OBJECT_DEFINE NAME='CAPS_(Instance_2)' CENTER=148.694,136.847 POLYGON=[[149.073,128.008],[150.873,128.273],[152.306,128.771],[153.882,129.681],[155.238,130.893],[156.159,132.099],[156.972,133.726],[157.435,135.485],[157.539,136.999],[157.321,138.805],[156.860,140.250],[155.991,141.848],[154.814,143.235],[153.378,144.352],[151.743,145.152],[150.280,145.550],[148.466,145.691],[146.662,145.457],[144.943,144.860],[143.384,143.923],[142.253,142.912],[141.149,141.466],[140.470,140.109],[139.977,138.358],[139.852,136.543],[140.034,135.037],[140.587,133.304],[141.483,131.721],[142.684,130.354],[144.139,129.262],[145.787,128.491],[147.257,128.117]]
EXCLUDE_OBJECT_DEFINE NAME='CAPS_(Instance_3)' CENTER=125.001,136.846 POLYGON=[[125.380,128.008],[126.885,128.203],[128.613,128.771],[130.189,129.681],[131.545,130.893],[132.466,132.099],[133.279,133.726],[133.690,135.186],[133.846,136.999],[133.690,138.508],[133.167,140.250],[132.298,141.848],[131.121,143.235],[129.685,144.352],[128.050,145.152],[126.587,145.550],[124.773,145.691],[122.969,145.457],[121.251,144.860],[119.691,143.923],[118.560,142.912],[117.456,141.466],[116.670,139.825],[116.237,138.058],[116.159,136.543],[116.341,135.037],[116.894,133.304],[117.790,131.721],[118.991,130.354],[120.447,129.262],[122.094,128.491],[123.564,128.117]]
EXCLUDE_OBJECT_DEFINE NAME='CAPS_(Instance_4)' CENTER=148.694,113.154 POLYGON=[[149.073,104.314],[150.873,104.579],[152.581,105.206],[153.882,105.987],[155.238,107.200],[156.317,108.664],[157.074,110.318],[157.477,112.093],[157.529,113.609],[157.249,115.406],[156.607,117.108],[155.815,118.402],[154.591,119.748],[153.378,120.658],[151.743,121.458],[149.980,121.906],[148.163,121.984],[146.662,121.763],[144.943,121.166],[143.384,120.229],[142.049,118.993],[141.149,117.772],[140.363,116.131],[139.930,114.364],[139.852,112.849],[140.034,111.343],[140.587,109.610],[141.483,108.027],[142.684,106.661],[144.139,105.569],[145.787,104.797],[147.257,104.424]]
EXCLUDE_OBJECT_DEFINE NAME='CAPS_(Instance_5)' CENTER=101.308,113.154 POLYGON=[[101.688,104.314],[103.192,104.509],[104.920,105.077],[106.496,105.987],[107.852,107.200],[108.931,108.664],[109.688,110.318],[110.091,112.093],[110.143,113.609],[109.863,115.406],[109.221,117.108],[108.429,118.402],[107.205,119.748],[105.992,120.658],[104.358,121.458],[102.594,121.906],[100.777,121.984],[99.276,121.763],[97.558,121.166],[95.998,120.229],[94.867,119.218],[93.763,117.772],[92.977,116.131],[92.544,114.364],[92.466,112.849],[92.715,111.047],[93.201,109.610],[94.097,108.027],[95.298,106.661],[96.754,105.569],[98.401,104.797],[99.871,104.424]]
EXCLUDE_OBJECT_DEFINE NAME='CAPS_(Instance_6)' CENTER=101.308,136.846 POLYGON=[[101.688,128.008],[103.192,128.203],[104.920,128.771],[106.496,129.681],[107.852,130.893],[108.773,132.099],[109.586,133.726],[109.998,135.186],[110.154,136.999],[109.998,138.508],[109.474,140.250],[108.605,141.848],[107.428,143.235],[105.992,144.352],[104.358,145.152],[102.894,145.550],[101.080,145.691],[99.276,145.457],[97.558,144.860],[95.998,143.923],[94.867,142.912],[93.763,141.466],[92.977,139.825],[92.544,138.058],[92.466,136.543],[92.715,134.741],[93.201,133.304],[94.097,131.721],[95.298,130.354],[96.754,129.262],[98.401,128.491],[99.871,128.117]]

;TYPE:Custom
START_PRINT BED_TEMP=65 HOTEND_TEMP=215 FILAMENT_TYPE=PLA EXTRUSION_MULTIPLIER=0.95 PERIMETER_SPEED=80
G21 ; set units to millimeters
G90 ; use absolute coordinates
M82 ; use absolute distances for extrusion
G92 E0
; Filament gcode
M107
;LAYER_CHANGE
;Z:0.35
;HEIGHT:0.35
G1 E-.5 F240
G1 Z.35 F9000
EXCLUDE_OBJECT_START NAME='CAPS_(Instance_4)'
G92 E0
G1 X151.715 Y113.445
G1 E.5 F240
;TYPE:External perimeter
;WIDTH:0.675
G1 F1800
G1 X151.691 Y113.708 E.5219
G1 X151.518 Y114.288 E.57209
G1 X151.234 Y114.821 E.62217
G1 X150.85 Y115.288 E.67231
G1 X150.381 Y115.67 E.72247
G1 X149.711 Y116.001 E.78444
G1 X149.116 Y116.145 E.83521
G1 X148.512 Y116.166 E.88533
G1 X147.97 Y116.076 E.93089
G1 X147.35 Y115.851 E.98559
G1 X146.839 Y115.528 E1.03572
G1 X146.402 Y115.11 E1.08587
G1 X146.057 Y114.614 E1.13597
G1 X145.817 Y114.059 E1.18611
G1 X145.691 Y113.468 E1.23622
G1 X145.702 Y112.721 E1.29817
G1 X145.855 Y112.095 E1.35161
G1 X146.079 Y111.628 E1.39456
G1 X146.463 Y111.093 E1.44917
G1 X146.912 Y110.688 E1.49931
G1 X147.388 Y110.407 E1.54515
G1 X148.004 Y110.183 E1.59951
G1 X148.603 Y110.101 E1.64965
G1 X149.17 Y110.138 E1.69677
G1 X149.79 Y110.299 E1.74989
G1 X150.242 Y110.524 E1.79176
G1 X150.808 Y110.942 E1.85011
G1 X151.201 Y111.401 E1.90022
G1 X151.495 Y111.929 E1.95034
G1 X151.679 Y112.505 E2.00048
G1 X151.745 Y113.106 E2.05062
G1 X151.723 Y113.355 E2.07135
G1 X151.611 Y113.944 F9000
G1 X152.331 Y112.94
;TYPE:Perimeter
G1 F1800
G1 X152.342 Y113.046 E2.08019
G1 X152.288 Y113.768 E2.14023
G1 X152.156 Y114.256 E2.18215
G1 X152.022 Y114.63 E2.2151
G1 X151.761 Y115.108 E2.26026
G1 X151.31 Y115.674 E2.32028
G1 X150.913 Y116.013 E2.36357
G1 X150.584 Y116.246 E2.397
G1 X149.971 Y116.542 E2.45345
G1 X149.41 Y116.693 E2.50163
G1 X149.072 Y116.752 E2.53008
G1 X148.527 Y116.765 E2.57529
G1 X147.866 Y116.667 E2.6307
G1 X147.308 Y116.479 E2.67953
G1 X146.972 Y116.328 E2.71008
G1 X146.514 Y116.032 E2.7553
G1 X145.984 Y115.54 E2.81527
G1 X145.561 Y114.952 E2.87534
G1 X145.264 Y114.292 E2.93536
G1 X145.103 Y113.587 E2.99533
G1 X145.102 Y112.706 E3.06839
G1 X145.293 Y111.886 E3.13821
G1 X145.538 Y111.368 E3.18573
G1 X145.985 Y110.73 E3.25033
G1 X146.516 Y110.238 E3.31036
G1 X147.088 Y109.887 E3.36601
G1 X147.813 Y109.614 E3.43025
G1 X148.411 Y109.521 E3.48044
G1 X148.708 Y109.502 E3.50512
G1 X149.252 Y109.542 E3.55035
G1 X149.793 Y109.676 E3.59657
G1 X150.12 Y109.787 E3.62521
G1 X150.605 Y110.035 E3.67038
G1 X151.008 Y110.334 E3.71199
G1 X151.31 Y110.598 E3.74525
G1 X151.66 Y111.015 E3.7904
G1 X152.022 Y111.642 E3.85044
G1 X152.187 Y112.116 E3.89206
G1 X152.288 Y112.504 E3.92531
G1 X152.322 Y112.85 E3.95414
G1 X152.322 Y112.85 F9000
G1 X152.863 Y112.413
G1 F1800
G1 X152.922 Y112.818 E3.98808
G1 X152.939 Y113.285 E4.02683
G1 X152.885 Y113.828 E4.07208
G1 X152.729 Y114.433 E4.12389
G1 X152.549 Y114.916 E4.16663
G1 X152.288 Y115.395 E4.21187
G1 X151.948 Y115.846 E4.25871
G1 X151.61 Y116.222 E4.30064
G1 X151.129 Y116.608 E4.35178
G1 X150.729 Y116.843 E4.39025
G1 X150.231 Y117.082 E4.43606
G1 X149.544 Y117.278 E4.4953
G1 X149.087 Y117.351 E4.53368
G1 X148.542 Y117.365 E4.57889
G1 X147.762 Y117.258 E4.64418
G1 X147.42 Y117.167 E4.67353
G1 X146.912 Y116.968 E4.71877
G1 X146.446 Y116.702 E4.76327
G1 X146.012 Y116.402 E4.80702
G1 X145.565 Y115.969 E4.85863
G1 X145.066 Y115.29 E4.92851
G1 X144.711 Y114.525 E4.99845
G1 X144.571 Y113.984 E5.04479
G1 X144.487 Y113.478 E5.08733
G1 X144.503 Y112.691 E5.15261
G1 X144.559 Y112.316 E5.18405
G1 X144.731 Y111.676 E5.23901
G1 X144.998 Y111.108 E5.29106
G1 X145.178 Y110.803 E5.32043
G1 X145.51 Y110.364 E5.36607
G1 X146.119 Y109.789 E5.43553
G1 X146.788 Y109.368 E5.50108
G1 X147.105 Y109.219 E5.53013
G1 X147.627 Y109.044 E5.57579
G1 X148.337 Y108.926 E5.63548
G1 X148.753 Y108.904 E5.67003
G1 X149.296 Y108.944 E5.71518
G1 X149.955 Y109.099 E5.77132
G1 X150.393 Y109.253 E5.80982
G1 X150.878 Y109.502 E5.85503
G1 X151.382 Y109.865 E5.90654
G1 X151.769 Y110.212 E5.94964
G1 X152.12 Y110.63 E5.9949
G1 X152.404 Y111.089 E6.03966
G1 X152.643 Y111.566 E6.0839
G1 X152.825 Y112.151 E6.13471
G1 X152.85 Y112.324 E6.14921
G1 X152.85 Y112.324 F9000
G1 X153.369 Y111.9
G1 F1800
G1 X153.472 Y112.302 E6.18362
G1 X153.536 Y112.927 E6.23572
G1 X153.51 Y113.603 E6.29182
G1 X153.446 Y114.114 E6.33453
G1 X153.302 Y114.61 E6.37736
G1 X153.11 Y115.138 E6.42395
G1 X152.815 Y115.682 E6.47527
G1 X152.408 Y116.232 E6.53201
G1 X152.077 Y116.608 E6.57355
G1 X151.661 Y116.951 E6.61826
G1 X151.276 Y117.235 E6.65793
G1 X150.492 Y117.623 E6.73047
G1 X150.048 Y117.778 E6.76947
G1 X149.517 Y117.899 E6.81463
G1 X149.102 Y117.951 E6.84931
G1 X148.557 Y117.965 E6.89452
G1 X148.14 Y117.933 E6.9292
G1 X147.603 Y117.839 E6.97441
G1 X147.2 Y117.726 E7.00912
G1 X146.693 Y117.526 E7.05432
G1 X146.12 Y117.206 E7.10875
G1 X145.615 Y116.853 E7.15985
G1 X145.146 Y116.398 E7.21404
G1 X144.787 Y115.946 E7.26191
G1 X144.498 Y115.515 E7.30494
G1 X144.158 Y114.758 E7.37376
G1 X143.983 Y114.102 E7.43006
G1 X143.894 Y113.598 E7.4725
G1 X143.903 Y112.676 E7.54896
G1 X143.978 Y112.168 E7.59154
G1 X144.169 Y111.467 E7.65179
G1 X144.457 Y110.847 E7.70848
G1 X144.699 Y110.441 E7.74768
G1 X145.033 Y110 E7.79356
G1 X145.337 Y109.678 E7.83028
G1 X145.722 Y109.339 E7.87282
G1 X146.061 Y109.095 E7.90746
G1 X146.533 Y108.822 E7.95268
G1 X146.914 Y108.65 E7.98735
G1 X147.438 Y108.474 E8.03319
G1 X147.877 Y108.379 E8.07044
G1 X148.38 Y108.316 E8.11248
G1 X148.798 Y108.305 E8.14716
G1 X149.341 Y108.346 E8.19232
G1 X149.753 Y108.419 E8.22702
G1 X150.278 Y108.566 E8.27223
G1 X150.667 Y108.719 E8.30689
G1 X151.152 Y108.968 E8.3521
G1 X151.503 Y109.195 E8.38676
G1 X151.93 Y109.535 E8.43202
G1 X152.229 Y109.826 E8.46662
G1 X152.579 Y110.244 E8.51183
G1 X152.93 Y110.802 E8.5665
G1 X153.173 Y111.273 E8.61045
G1 X153.333 Y111.763 E8.6532
G1 X153.346 Y111.813 E8.65748
G1 E8.15748 F240
G92 E0
G1 X153.346 Y111.813 F9000
G1 X153.794 Y106.888
G1 E.5 F240
;TYPE:External perimeter
G1 F1800
G1 X154.406 Y107.44 E.56835
G1 X154.977 Y108.075 E.63917
G1 X155.459 Y108.737 E.70708
G1 X155.775 Y109.263 E.75797
G1 X156.145 Y110.032 E.82874
G1 X156.429 Y110.824 E.89851
G1 X156.552 Y111.321 E.94097
G1 X156.673 Y111.965 E.99531
G1 X156.747 Y112.574 E1.04618
G1 X156.773 Y113.141 E1.09325
G1 X156.736 Y113.92 E1.15792
G1 X156.611 Y114.763 E1.22859
G1 X156.399 Y115.582 E1.29875
G1 X156.101 Y116.379 E1.36931
G1 X155.719 Y117.143 E1.44014
G1 X155.395 Y117.665 E1.49109
G1 X154.908 Y118.316 E1.55851
G1 X154.339 Y118.933 E1.62811
G1 X153.697 Y119.496 E1.69892
G1 X153.2 Y119.858 E1.74991
G1 X152.498 Y120.28 E1.81783
G1 X151.724 Y120.642 E1.88869
G1 X150.938 Y120.914 E1.95766
G1 X150.341 Y121.062 E2.00867
G1 X149.524 Y121.189 E2.07724
G1 X148.694 Y121.232 E2.14616
G1 X147.842 Y121.187 E2.21691
G1 X147.024 Y121.058 E2.28558
G1 X146.446 Y120.913 E2.335
G1 X145.64 Y120.633 E2.40576
G1 X144.868 Y120.269 E2.47654
G1 X144.338 Y119.957 E2.52754
G1 X143.685 Y119.492 E2.59402
G1 X143.046 Y118.93 E2.66459
G1 X142.469 Y118.302 E2.73531
G1 X142.095 Y117.814 E2.7863
G1 X141.663 Y117.133 E2.85318
G1 X141.284 Y116.372 E2.92368
G1 X140.984 Y115.566 E2.995
G1 X140.774 Y114.749 E3.06495
G1 X140.65 Y113.907 E3.13553
G1 X140.615 Y113.148 E3.19854
G1 X140.66 Y112.298 E3.26913
G1 X140.795 Y111.457 E3.33976
G1 X141.018 Y110.634 E3.41047
G1 X141.232 Y110.058 E3.46143
G1 X141.575 Y109.333 E3.52794
G1 X142.017 Y108.605 E3.59857
G1 X142.532 Y107.928 E3.66911
G1 X143.116 Y107.309 E3.73968
G1 X143.764 Y106.753 E3.81049
G1 X144.265 Y106.397 E3.86146
G1 X144.967 Y105.985 E3.92896
G1 X145.744 Y105.632 E3.99973
G1 X146.554 Y105.363 E4.07051
G1 X147.354 Y105.186 E4.13846
G1 X147.962 Y105.107 E4.1893
G1 X148.803 Y105.075 E4.25909
G1 X149.654 Y105.132 E4.32982
G1 X150.455 Y105.269 E4.39721
G1 X151.065 Y105.43 E4.44953
G1 X151.846 Y105.715 E4.51847
G1 X152.587 Y106.075 E4.58679
G1 X153.115 Y106.391 E4.63782
G1 X153.721 Y106.834 E4.70007
G1 X154.172 Y107.23 F9000
G1 X153.869 Y107.764
;TYPE:Perimeter
G1 F1800
G1 X153.981 Y107.865 E4.71258
G1 X154.51 Y108.453 E4.77817
G1 X154.958 Y109.069 E4.84133
G1 X155.246 Y109.549 E4.88775
G1 X155.591 Y110.264 E4.95358
G1 X155.821 Y110.904 E5.00998
G1 X155.97 Y111.464 E5.05803
G1 X156.079 Y112.048 E5.1073
G1 X156.148 Y112.601 E5.15351
G1 X156.172 Y113.141 E5.19833
G1 X156.138 Y113.862 E5.25819
G1 X156.022 Y114.644 E5.32375
G1 X155.826 Y115.401 E5.3886
G1 X155.55 Y116.139 E5.45394
G1 X155.195 Y116.85 E5.51984
G1 X154.899 Y117.327 E5.56639
G1 X154.446 Y117.932 E5.62907
G1 X153.919 Y118.503 E5.69351
G1 X153.322 Y119.027 E5.75938
G1 X152.868 Y119.358 E5.80597
G1 X152.215 Y119.75 E5.86913
G1 X151.499 Y120.085 E5.93468
G1 X150.767 Y120.338 E5.99891
G1 X150.222 Y120.474 E6.04549
G1 X149.462 Y120.592 E6.10927
G1 X148.695 Y120.631 E6.17296
G1 X147.905 Y120.59 E6.23856
G1 X147.144 Y120.469 E6.30246
G1 X146.618 Y120.338 E6.34741
G1 X145.867 Y120.076 E6.41337
G1 X145.149 Y119.738 E6.47918
G1 X144.665 Y119.453 E6.52576
G1 X144.058 Y119.021 E6.58754
G1 X143.466 Y118.501 E6.65288
G1 X142.929 Y117.916 E6.71873
G1 X142.588 Y117.47 E6.76529
G1 X142.187 Y116.838 E6.82736
G1 X141.835 Y116.133 E6.89271
G1 X141.557 Y115.386 E6.95881
G1 X141.363 Y114.631 E7.02345
G1 X141.248 Y113.849 E7.089
G1 X141.216 Y113.151 E7.14694
G1 X141.258 Y112.361 E7.21254
G1 X141.382 Y111.583 E7.27787
G1 X141.59 Y110.817 E7.34369
G1 X141.785 Y110.291 E7.39021
G1 X142.104 Y109.618 E7.45197
G1 X142.514 Y108.943 E7.51746
G1 X142.99 Y108.317 E7.58268
G1 X143.53 Y107.744 E7.64797
G1 X144.134 Y107.226 E7.71396
G1 X144.591 Y106.901 E7.76046
G1 X145.244 Y106.518 E7.82324
G1 X145.964 Y106.191 E7.88882
G1 X146.714 Y105.942 E7.95435
G1 X147.457 Y105.778 E8.01745
G1 X148.012 Y105.706 E8.06386
G1 X148.795 Y105.676 E8.12884
G1 X149.584 Y105.728 E8.19441
G1 X150.327 Y105.856 E8.25693
G1 X150.885 Y106.003 E8.30478
G1 X151.612 Y106.268 E8.36895
G1 X152.301 Y106.603 E8.43248
G1 X152.783 Y106.892 E8.47909
G1 X153.411 Y107.35 E8.54355
G1 X153.802 Y107.703 E8.58723
G1 X153.802 Y107.703 F9000
G1 X153.906 Y108.678
G1 F1800
G1 X154.043 Y108.831 E8.60426
G1 X154.458 Y109.4 E8.66266
G1 X154.718 Y109.834 E8.70461
G1 X155.037 Y110.497 E8.76562
G1 X155.257 Y111.107 E8.81939
G1 X155.387 Y111.608 E8.86231
G1 X155.485 Y112.132 E8.90652
G1 X155.549 Y112.628 E8.94799
G1 X155.572 Y113.14 E8.99049
G1 X155.541 Y113.803 E9.04553
G1 X155.433 Y114.524 E9.10599
G1 X155.253 Y115.221 E9.16569
G1 X154.999 Y115.899 E9.22573
G1 X154.67 Y116.557 E9.28674
G1 X154.403 Y116.988 E9.32878
G1 X153.984 Y117.548 E9.38678
G1 X153.5 Y118.073 E9.44599
G1 X152.946 Y118.559 E9.5071
G1 X152.537 Y118.857 E9.54907
G1 X151.933 Y119.22 E9.60751
G1 X151.273 Y119.529 E9.66794
G1 X150.597 Y119.763 E9.72726
G1 X150.104 Y119.885 E9.76938
G1 X149.4 Y119.994 E9.82846
G1 X148.695 Y120.031 E9.887
G1 X147.968 Y119.992 E9.94737
G1 X147.321 Y119.89 E10.00169
G1 X146.79 Y119.762 E10.04699
G1 X146.094 Y119.52 E10.1081
G1 X145.43 Y119.207 E10.16897
G1 X144.992 Y118.949 E10.21113
G1 X144.431 Y118.551 E10.26817
G1 X143.886 Y118.071 E10.3284
G1 X143.389 Y117.53 E10.38932
G1 X143.08 Y117.127 E10.43143
G1 X142.71 Y116.543 E10.48876
G1 X142.386 Y115.893 E10.54899
G1 X142.13 Y115.207 E10.60971
G1 X141.952 Y114.512 E10.6692
G1 X141.846 Y113.791 E10.72963
G1 X141.816 Y113.153 E10.7826
G1 X141.855 Y112.425 E10.84306
G1 X141.97 Y111.709 E10.9032
G1 X142.161 Y111.001 E10.96401
G1 X142.338 Y110.525 E11.00612
G1 X142.633 Y109.903 E11.06321
G1 X143.01 Y109.281 E11.12353
G1 X143.448 Y108.705 E11.18354
G1 X143.945 Y108.178 E11.24361
G1 X144.503 Y107.699 E11.30459
G1 X144.917 Y107.405 E11.3467
G1 X145.52 Y107.052 E11.40464
G1 X146.183 Y106.75 E11.46506
G1 X146.873 Y106.521 E11.52535
G1 X147.561 Y106.369 E11.58378
G1 X148.062 Y106.304 E11.62567
G1 X148.786 Y106.276 E11.68575
G1 X149.513 Y106.325 E11.74617
G1 X150.199 Y106.442 E11.80388
G1 X150.706 Y106.576 E11.84737
G1 X151.378 Y106.821 E11.90669
