; generated by PrusaSlicer 2.8.1+MacOS-arm64 on 2024-10-14 at 08:26:30 UTC


;
;

;
;
; 

; external perimeters extrusion width = 0.68mm
; perimeters extrusion width = 0.68mm
; infill extrusion width = 0.68mm
; solid infill extrusion width = 0.68mm
; top infill extrusion width = 0.60mm

; external perimeters extrusion width = 0.68mm
; perimeters extrusion width = 0.68mm
; infill extrusion width = 0.68mm
; solid infill extrusion width = 0.68mm
; top infill extrusion width = 0.60mm


EXCLUDE_OBJECT_DEFINE NAME='y_block_pully_caps_r_(Instance_1)' CENTER=85.068,85.070 POLYGON=[[85.233,75.149],[86.266,75.220],[87.211,75.381],[89.033,75.973],[89.934,76.421],[90.793,76.964],[91.592,77.592],[92.323,78.298],[92.978,79.076],[93.549,79.916],[94.375,81.623],[94.850,83.386],[94.971,84.395],[94.988,85.411],[94.902,86.424],[94.712,87.423],[94.070,89.255],[93.099,90.906],[91.844,92.326],[90.306,93.504],[88.589,94.353],[86.740,94.856],[84.829,94.995],[82.928,94.764],[81.939,94.491],[80.962,94.108],[79.346,93.181],[78.547,92.553],[77.816,91.847],[76.639,90.311],[75.836,88.714],[75.514,87.756],[75.289,86.759],[75.167,85.750],[75.150,84.734],[75.237,83.721],[75.426,82.723],[76.020,80.996],[76.961,79.349],[78.235,77.875],[79.043,77.186],[79.832,76.642],[81.466,75.825],[83.383,75.292]]
EXCLUDE_OBJECT_DEFINE NAME='y_block_pully_caps_r_(Instance_2)' CENTER=85.068,164.923 POLYGON=[[85.233,155.003],[86.266,155.074],[87.211,155.235],[89.033,155.827],[89.934,156.275],[90.793,156.818],[91.592,157.446],[92.323,158.152],[92.978,158.929],[93.549,159.769],[94.375,161.476],[94.850,163.240],[94.971,164.249],[94.988,165.265],[94.902,166.278],[94.712,167.276],[94.070,169.109],[93.099,170.760],[91.844,172.180],[90.306,173.357],[88.589,174.206],[86.740,174.710],[84.829,174.848],[82.928,174.617],[81.939,174.345],[80.962,173.961],[79.346,173.035],[78.547,172.407],[77.816,171.701],[76.639,170.164],[75.836,168.567],[75.514,167.610],[75.289,166.613],[75.167,165.604],[75.150,164.587],[75.237,163.575],[75.426,162.576],[76.020,160.850],[76.961,159.203],[78.235,157.729],[79.043,157.040],[79.832,156.495],[81.466,155.678],[83.383,155.146]]
EXCLUDE_OBJECT_DEFINE NAME='y_block_pully_caps_l_(Instance_1)' CENTER=164.927,85.071 POLYGON=[[165.092,75.149],[167.070,75.381],[168.892,75.973],[169.792,76.421],[170.652,76.964],[171.451,77.592],[172.182,78.298],[172.836,79.076],[173.408,79.916],[174.234,81.623],[174.709,83.386],[174.830,84.395],[174.847,85.411],[174.761,86.424],[174.571,87.423],[173.929,89.255],[172.957,90.906],[171.702,92.326],[170.165,93.504],[168.447,94.353],[166.599,94.856],[164.688,94.995],[162.786,94.764],[161.798,94.491],[160.821,94.108],[159.204,93.181],[158.405,92.553],[157.674,91.847],[156.498,90.311],[155.695,88.714],[155.373,87.756],[155.147,86.759],[155.026,85.750],[155.009,84.734],[155.095,83.721],[155.285,82.723],[155.879,80.996],[156.820,79.349],[158.094,77.875],[158.902,77.186],[159.691,76.642],[161.325,75.825],[163.242,75.292]]
EXCLUDE_OBJECT_DEFINE NAME='y_block_pully_caps_l_(Instance_2)' CENTER=164.927,164.923 POLYGON=[[165.092,155.003],[166.124,155.074],[167.070,155.235],[168.892,155.827],[169.792,156.275],[170.652,156.818],[171.451,157.446],[172.182,158.152],[172.836,158.929],[173.408,159.769],[174.234,161.476],[174.709,163.240],[174.830,164.249],[174.847,165.265],[174.761,166.278],[174.571,167.276],[173.929,169.109],[172.957,170.760],[171.702,172.180],[170.165,173.357],[168.447,174.206],[166.599,174.710],[164.688,174.848],[162.786,174.617],[161.798,174.345],[160.821,173.961],[159.204,173.035],[158.405,172.407],[157.674,171.701],[156.498,170.164],[155.695,168.567],[155.373,167.610],[155.147,166.613],[155.026,165.604],[155.009,164.587],[155.095,163.575],[155.285,162.576],[155.879,160.850],[156.820,159.203],[158.094,157.729],[158.902,157.040],[159.691,156.495],[161.325,155.678],[163.242,155.146]]

;TYPE:Custom
START_PRINT BED_TEMP=80 HOTEND_TEMP=225 FILAMENT_TYPE=FLEX EXTRUSION_MULTIPLIER=0.92 PERIMETER_SPEED=20
G21 ; set units to millimeters
G90 ; use absolute coordinates
M82 ; use absolute distances for extrusion
G92 E0
; Filament gcode
; ########################### NOTE OFFSET CHANGES ####################################
; Prevents PETG buildup on nozzle.
; SET_GCODE_OFFSET Z=0
; ####################################################################################
M107
;LAYER_CHANGE
;Z:0.35
;HEIGHT:0.35
G1 E-.5 F240
G1 Z.35 F9000
EXCLUDE_OBJECT_START NAME='y_block_pully_caps_l_(Instance_1)'
G92 E0
G1 X166.916 Y82.321
G1 E.5 F240
;TYPE:External perimeter
;WIDTH:0.675
G1 F900
G1 X167.399 Y82.739 E.5513
G1 X167.812 Y83.275 E.60564
G1 X168.111 Y83.882 E.65998
G1 X168.284 Y84.537 E.71439
G1 X168.323 Y85.212 E.76869
G1 X168.247 Y85.757 E.81288
G1 X168.014 Y86.49 E.87465
G1 X167.655 Y87.101 E.93156
G1 X167.232 Y87.565 E.98198
G1 X166.601 Y88.03 E1.04493
G1 X166.039 Y88.284 E1.09446
G1 X165.404 Y88.435 E1.14688
G1 X164.644 Y88.459 E1.20794
G1 X164.036 Y88.352 E1.25752
G1 X163.404 Y88.11 E1.31187
G1 X162.833 Y87.748 E1.36616
G1 X162.344 Y87.28 E1.42052
G1 X161.958 Y86.724 E1.47488
G1 X161.69 Y86.103 E1.5292
G1 X161.55 Y85.441 E1.58354
G1 X161.544 Y84.764 E1.63791
G1 X161.672 Y84.1 E1.69222
G1 X161.781 Y83.825 E1.71598
G1 X161.958 Y83.421 E1.7514
G1 X162.306 Y82.911 E1.80098
G1 X162.914 Y82.336 E1.86818
G1 X163.478 Y82.002 E1.92082
G1 X164.143 Y81.766 E1.97749
G1 X164.703 Y81.69 E2.02287
G1 X165.468 Y81.719 E2.08435
G1 X166.291 Y81.961 E2.15324
G1 X166.842 Y82.271 E2.20401
G1 X167.302 Y82.657 F9000
G1 X167.274 Y81.849
;TYPE:Perimeter
G1 F900
G1 X167.796 Y82.29 E2.25889
G1 X168.29 Y82.913 E2.32274
G1 X168.652 Y83.622 E2.38667
G1 X168.865 Y84.389 E2.4506
G1 X168.923 Y85.182 E2.51445
G1 X168.84 Y85.847 E2.56827
G1 X168.777 Y86.145 E2.59273
G1 X168.566 Y86.725 E2.6423
G1 X168.167 Y87.413 E2.70617
G1 X167.672 Y87.973 E2.76619
G1 X167.147 Y88.384 E2.81974
G1 X166.848 Y88.577 E2.84832
G1 X166.285 Y88.831 E2.89792
G1 X165.537 Y89.02 E2.95988
G1 X164.878 Y89.059 E3.0129
G1 X164.54 Y89.05 E3.04005
G1 X163.932 Y88.943 E3.08963
G1 X163.375 Y88.743 E3.13716
G1 X163.026 Y88.587 E3.16786
G1 X162.507 Y88.252 E3.21747
G1 X162.111 Y87.891 E3.2605
G1 X161.81 Y87.572 E3.29572
G1 X161.462 Y87.062 E3.3453
G1 X161.212 Y86.515 E3.3936
G1 X161.084 Y86.165 E3.42353
G1 X160.962 Y85.56 E3.47309
G1 X160.944 Y84.764 E3.53703
G1 X161.036 Y84.219 E3.58142
G1 X161.137 Y83.809 E3.61533
G1 X161.229 Y83.592 E3.63426
G1 X161.437 Y83.122 E3.67554
G1 X161.81 Y82.573 E3.72884
G1 X162.555 Y81.855 E3.81193
G1 X163.178 Y81.482 E3.87024
G1 X163.952 Y81.198 E3.93645
G1 X164.628 Y81.095 E3.99137
G1 X164.918 Y81.077 E4.0147
G1 X165.534 Y81.123 E4.06431
G1 X166.079 Y81.267 E4.10958
G1 X166.6 Y81.44 E4.15367
G1 X167.187 Y81.777 E4.20803
G1 X167.205 Y81.791 E4.20986
G1 X167.205 Y81.791 F9000
G1 X167.632 Y81.377
G1 F900
G1 X168.193 Y81.84 E4.26828
G1 X168.768 Y82.551 E4.34171
G1 X169.192 Y83.362 E4.4152
G1 X169.446 Y84.241 E4.48868
G1 X169.522 Y85.152 E4.5621
G1 X169.434 Y85.936 E4.62546
G1 X169.341 Y86.35 E4.65954
G1 X169.13 Y86.93 E4.70911
G1 X168.679 Y87.726 E4.78258
G1 X168.112 Y88.381 E4.85215
G1 X167.834 Y88.629 E4.88207
G1 X167.353 Y88.975 E4.92965
G1 X166.621 Y89.338 E4.99527
G1 X166.249 Y89.473 E5.02705
G1 X165.647 Y89.61 E5.07663
G1 X164.893 Y89.659 E5.13731
G1 X164.436 Y89.641 E5.17404
G1 X163.828 Y89.533 E5.22363
G1 X163.156 Y89.302 E5.2807
G1 X162.7 Y89.091 E5.32105
G1 X162.182 Y88.756 E5.37059
G1 X161.693 Y88.32 E5.4232
G1 X161.314 Y87.91 E5.46804
G1 X160.967 Y87.4 E5.51758
G1 X160.659 Y86.748 E5.57549
G1 X160.496 Y86.283 E5.61506
G1 X160.374 Y85.678 E5.66462
G1 X160.344 Y85.079 E5.71279
G1 X160.363 Y84.528 E5.75707
G1 X160.496 Y83.862 E5.81161
G1 X160.676 Y83.359 E5.85451
G1 X160.881 Y82.887 E5.89584
G1 X161.314 Y82.235 E5.9587
G1 X161.765 Y81.766 E6.01095
G1 X162.144 Y81.415 E6.05243
G1 X162.878 Y80.963 E6.12166
G1 X163.195 Y80.819 E6.14962
G1 X163.769 Y80.626 E6.19825
G1 X164.554 Y80.5 E6.2621
G1 X164.963 Y80.478 E6.29499
G1 X165.579 Y80.525 E6.3446
G1 X166.256 Y80.694 E6.40064
G1 X166.767 Y80.857 E6.44371
G1 X167.487 Y81.257 E6.50986
G1 X167.563 Y81.319 E6.51774
G1 X167.563 Y81.319 F9000
G1 X167.998 Y80.893
G1 F900
G1 X168.178 Y81.027 E6.53576
G1 X168.59 Y81.39 E6.57986
G1 X168.97 Y81.824 E6.62619
G1 X169.282 Y82.236 E6.66769
G1 X169.732 Y83.101 E6.74599
G1 X169.898 Y83.584 E6.78701
G1 X170.028 Y84.093 E6.8292
G1 X170.099 Y84.684 E6.877
G1 X170.12 Y85.351 E6.93059
G1 X170.027 Y86.026 E6.98531
G1 X169.918 Y86.517 E7.0257
G1 X169.705 Y87.106 E7.076
G1 X169.504 Y87.526 E7.11339
G1 X169.185 Y88.048 E7.16252
G1 X168.864 Y88.452 E7.20396
G1 X168.518 Y88.825 E7.24482
G1 X168.185 Y89.116 E7.28034
G1 X167.704 Y89.462 E7.32792
G1 X167.341 Y89.671 E7.36156
G1 X166.779 Y89.925 E7.41109
G1 X166.382 Y90.058 E7.44471
G1 X165.781 Y90.195 E7.49421
G1 X165.319 Y90.248 E7.53156
G1 X164.749 Y90.263 E7.57735
G1 X164.332 Y90.231 E7.61094
G1 X163.724 Y90.124 E7.66052
G1 X163.321 Y90.011 E7.69413
G1 X162.747 Y89.785 E7.74367
G1 X162.167 Y89.46 E7.79706
G1 X161.685 Y89.137 E7.84366
G1 X161.274 Y88.75 E7.889
G1 X160.875 Y88.326 E7.93576
G1 X160.471 Y87.738 E7.99305
G1 X160.271 Y87.371 E8.02662
G1 X160.031 Y86.802 E8.07621
G1 X159.855 Y86.142 E8.13107
G1 X159.753 Y85.576 E8.17726
G1 X159.744 Y84.764 E8.24247
G1 X159.786 Y84.348 E8.27605
G1 X159.908 Y83.743 E8.32561
G1 X160.123 Y83.125 E8.37816
G1 X160.351 Y82.605 E8.42376
G1 X160.649 Y82.146 E8.46771
G1 X160.965 Y81.707 E8.51115
G1 X161.755 Y80.959 E8.59852
G1 X162.068 Y80.738 E8.62929
G1 X162.603 Y80.429 E8.67891
G1 X163.004 Y80.25 E8.71418
G1 X163.57 Y80.06 E8.76213
G1 X164.092 Y79.953 E8.80492
G1 X164.59 Y79.891 E8.84522
G1 X165.008 Y79.88 E8.8788
G1 X165.624 Y79.926 E8.92841
G1 X166.086 Y80.014 E8.96618
G1 X166.822 Y80.241 E9.02803
G1 X167.253 Y80.429 E9.06579
G1 X167.787 Y80.738 E9.11534
G1 X167.926 Y80.84 E9.12919
G1 X167.926 Y80.84 F9000
G1 X168.355 Y80.421
;WIDTH:0.659087
G1 F900
G1 X168.518 Y80.538 E9.14488
G1 X168.981 Y80.947 E9.19318
;WIDTH:0.656857
G1 X169.345 Y81.34 E9.2349
;WIDTH:0.656195
G1 X169.717 Y81.832 E9.28288
;WIDTH:0.659973
G1 X169.998 Y82.288 E9.32482
G1 X170.265 Y82.845 E9.37318
;WIDTH:0.65817
G1 X170.448 Y83.348 E9.41496
;WIDTH:0.657244
G1 X170.6 Y83.947 E9.46312
;WIDTH:0.656843
G1 X170.68 Y84.477 E9.50486
;WIDTH:0.659594
G1 X170.712 Y85.093 E9.55312
G1 X170.685 Y85.628 E9.59503
;WIDTH:0.657561
G1 X170.592 Y86.239 E9.64322
;WIDTH:0.657901
G1 X170.467 Y86.739 E9.68343
;WIDTH:0.660091
G1 X170.261 Y87.308 E9.73082
G1 X170.017 Y87.821 E9.77531
;WIDTH:0.658904
G1 X169.695 Y88.348 E9.82358
;WIDTH:0.658284
G1 X169.371 Y88.774 E9.86536
;WIDTH:0.660995
G1 X168.986 Y89.192 E9.90993
G1 X168.55 Y89.582 E9.95581
;WIDTH:0.659194
G1 X168.048 Y89.941 E10.00407
;WIDTH:0.656674
G1 X167.584 Y90.209 E10.04579
;WIDTH:0.661423
G1 X167.112 Y90.425 E10.08653
G1 X166.558 Y90.624 E10.13273
;WIDTH:0.659913
G1 X165.936 Y90.767 E10.1827
G1 X165.381 Y90.839 E10.22651
;WIDTH:0.658709
G1 X164.763 Y90.853 E10.27481
;WIDTH:0.657279
G1 X164.264 Y90.819 E10.31379
;WIDTH:0.66114
G1 X163.677 Y90.718 E10.36052
G1 X163.106 Y90.56 E10.407
;WIDTH:0.655657
G1 X162.531 Y90.335 E10.45499
;WIDTH:0.658748
G1 X162.054 Y90.092 E10.49682
G1 X161.536 Y89.755 E10.5451
;WIDTH:0.655096
G1 X161.117 Y89.421 E10.5867
;WIDTH:0.656406
G1 X160.675 Y88.991 E10.63469
G1 X160.331 Y88.58 E10.6764
;WIDTH:0.655186
G1 X159.983 Y88.07 E10.72435
;WIDTH:0.655583
G1 X159.727 Y87.6 E10.76594
;WIDTH:0.655784
G1 X159.487 Y87.031 E10.81395
;WIDTH:0.658632
G1 X159.328 Y86.52 E10.85576
G1 X159.207 Y85.914 E10.90403
;WIDTH:0.656053
G1 X159.154 Y85.381 E10.94569
G1 X159.154 Y84.764 E10.99368
;WIDTH:0.655328
G1 X159.207 Y84.231 E11.03528
G1 X159.33 Y83.626 E11.08323
;WIDTH:0.658132
G1 X159.486 Y83.114 E11.12501
;WIDTH:0.663542
G1 X159.576 Y82.895 E11.14366
G1 X159.83 Y82.328 E11.1926
;WIDTH:0.663245
G1 X160.158 Y81.811 E11.24081
G1 X160.519 Y81.321 E11.28873
;WIDTH:0.667347
G1 X160.951 Y80.889 E11.33717
G1 X161.371 Y80.51 E11.38202
;WIDTH:0.658341
G1 X161.772 Y80.226 E11.42039
;WIDTH:0.660057
G1 X162.282 Y79.93 E11.46657
G1 X162.796 Y79.696 E11.5108
;WIDTH:0.658792
G1 X163.381 Y79.5 E11.55901
;WIDTH:0.658187
G1 X163.904 Y79.381 E11.60088
;WIDTH:0.662306
G1 X164.405 Y79.315 E11.6406
G1 X165.014 Y79.288 E11.68852
;WIDTH:0.659867
G1 X165.647 Y79.334 E11.7382
;WIDTH:0.661309
G1 X166.238 Y79.44 E11.78532
G1 X166.996 Y79.676 E11.84762
;WIDTH:0.657405
G1 X167.548 Y79.918 E11.8946
;WIDTH:0.655499
G1 X168.082 Y80.227 E11.94254
;WIDTH:0.659087
G1 X168.282 Y80.369 E11.96172
G1 E11.46172 F240
G92 E0
G1 X168.282 Y80.369 F9000
G1 X162.331 Y76.714
G1 E.5 F240
;TYPE:External perimeter
;WIDTH:0.675
G1 F900
G1 X162.627 Y76.617 E.52502
G1 X163.53 Y76.421 E.59923
G1 X164.154 Y76.343 E.64973
G1 X165.078 Y76.31 E.72398
G1 X165.996 Y76.374 E.79788
G1 X166.906 Y76.535 E.8721
G1 X167.513 Y76.699 E.9226
G1 X168.381 Y77.018 E.99687
G1 X169.207 Y77.425 E1.07082
G1 X169.989 Y77.918 E1.14506
G1 X170.489 Y78.299 E1.19554
G1 X171.171 Y78.922 E1.26972
G1 X171.782 Y79.612 E1.34374
G1 X172.319 Y80.364 E1.41795
G1 X172.638 Y80.906 E1.46846
G1 X173.034 Y81.741 E1.54268
G1 X173.338 Y82.61 E1.61662
G1 X173.518 Y83.369 E1.67926
G1 X173.6 Y83.895 E1.72201
G1 X173.672 Y84.547 E1.77469
G1 X173.692 Y85.124 E1.82106
G1 X173.637 Y86.048 E1.8954
G1 X173.545 Y86.671 E1.94597
G1 X173.329 Y87.569 E2.02014
G1 X173.018 Y88.442 E2.09457
G1 X172.617 Y89.277 E2.16896
G1 X172.13 Y90.066 E2.24342
G1 X171.561 Y90.8 E2.318
G1 X171.075 Y91.319 E2.3751
G1 X170.392 Y91.924 E2.44838
G1 X169.866 Y92.312 E2.50087
G1 X169.092 Y92.784 E2.57367
G1 X168.253 Y93.181 E2.64821
G1 X167.378 Y93.487 E2.72265
G1 X166.476 Y93.698 E2.79704
G1 X165.554 Y93.814 E2.87167
G1 X164.901 Y93.836 E2.92414
G1 X163.973 Y93.784 E2.99878
G1 X163.077 Y93.638 E3.07169
G1 X162.445 Y93.477 E3.12407
G1 X161.585 Y93.173 E3.19732
G1 X160.745 Y92.774 E3.272
G1 X160.218 Y92.463 E3.32114
G1 X159.461 Y91.922 E3.39586
G1 X158.767 Y91.305 E3.47044
G1 X158.21 Y90.7 E3.53648
G1 X157.652 Y89.957 E3.6111
G1 X157.176 Y89.16 E3.68565
G1 X156.79 Y88.324 E3.7596
G1 X156.493 Y87.449 E3.83381
G1 X156.344 Y86.838 E3.88432
G1 X156.206 Y85.924 E3.95855
G1 X156.164 Y85.073 E4.02698
G1 X156.213 Y84.147 E4.10145
G1 X156.358 Y83.243 E4.17498
G1 X156.598 Y82.351 E4.24916
G1 X156.824 Y81.739 E4.30155
G1 X157.211 Y80.919 E4.37437
G1 X157.693 Y80.127 E4.44883
G1 X158.256 Y79.391 E4.52325
G1 X158.894 Y78.718 E4.59772
G1 X159.601 Y78.114 E4.6724
G1 X160.114 Y77.749 E4.72296
G1 X160.902 Y77.289 E4.79624
G1 X161.747 Y76.907 E4.87071
G1 X162.246 Y76.742 E4.91292
G1 X162.823 Y76.58 F9000
G1 X162.519 Y77.284
;TYPE:Perimeter
G1 F900
G1 X162.785 Y77.196 E4.93542
G1 X163.631 Y77.013 E5.00493
G1 X164.202 Y76.942 E5.05114
G1 X165.067 Y76.911 E5.12065
G1 X165.923 Y76.971 E5.18956
G1 X166.776 Y77.121 E5.25911
G1 X167.331 Y77.271 E5.30528
G1 X168.144 Y77.57 E5.37485
G1 X168.914 Y77.949 E5.44377
G1 X169.646 Y78.411 E5.51329
G1 X170.104 Y78.76 E5.55953
G1 X170.743 Y79.344 E5.62905
G1 X171.312 Y79.986 E5.69794
G1 X171.815 Y80.691 E5.76749
G1 X172.107 Y81.187 E5.81371
G1 X172.478 Y81.969 E5.88322
G1 X172.762 Y82.779 E5.95215
G1 X172.92 Y83.445 E6.00712
G1 X173.005 Y83.971 E6.04991
G1 X173.072 Y84.567 E6.09808
G1 X173.091 Y85.117 E6.14228
G1 X173.04 Y85.987 E6.21227
G1 X172.955 Y86.556 E6.25847
G1 X172.753 Y87.398 E6.32801
G1 X172.463 Y88.211 E6.39733
G1 X172.09 Y88.989 E6.46662
G1 X171.636 Y89.724 E6.536
G1 X171.104 Y90.411 E6.60578
G1 X170.656 Y90.888 E6.65833
G1 X170.014 Y91.457 E6.72722
G1 X169.531 Y91.814 E6.77545
G1 X168.806 Y92.255 E6.8436
G1 X168.025 Y92.625 E6.913
G1 X167.211 Y92.91 E6.98226
G1 X166.37 Y93.107 E7.05163
G1 X165.506 Y93.215 E7.12156
G1 X164.907 Y93.236 E7.16969
G1 X164.038 Y93.187 E7.23959
G1 X163.2 Y93.05 E7.30778
G1 X162.619 Y92.902 E7.35593
G1 X161.814 Y92.618 E7.42448
G1 X161.027 Y92.244 E7.49446
G1 X160.545 Y91.959 E7.53943
G1 X159.836 Y91.453 E7.60938
G1 X159.188 Y90.877 E7.67901
G1 X158.671 Y90.315 E7.74034
G1 X158.151 Y89.622 E7.80992
G1 X157.708 Y88.88 E7.87932
G1 X157.348 Y88.101 E7.94824
G1 X157.069 Y87.281 E8.0178
G1 X156.933 Y86.722 E8.064
G1 X156.804 Y85.864 E8.13368
