; generated by PrusaSlicer 2.8.1+MacOS-arm64 on 2024-10-15 at 08:34:50 UTC


;
;

;
;
; 

; external perimeters extrusion width = 0.68mm
; perimeters extrusion width = 0.68mm
; infill extrusion width = 0.68mm
; solid infill extrusion width = 0.68mm
; top infill extrusion width = 0.60mm

; external perimeters extrusion width = 0.68mm
; perimeters extrusion width = 0.68mm
; infill extrusion width = 0.68mm
; solid infill extrusion width = 0.68mm
; top infill extrusion width = 0.60mm


EXCLUDE_OBJECT_DEFINE NAME='y_block_pully_caps_r_(Instance_1)' CENTER=164.927,124.996 POLYGON=[[165.092,115.076],[166.124,115.147],[167.070,115.308],[168.892,115.900],[169.792,116.348],[170.652,116.891],[171.451,117.519],[172.182,118.225],[172.836,119.002],[173.408,119.843],[174.234,121.550],[174.709,123.313],[174.830,124.322],[174.847,125.338],[174.761,126.351],[174.571,127.349],[173.929,129.182],[172.958,130.833],[171.702,132.253],[170.165,133.430],[168.447,134.279],[166.599,134.783],[164.688,134.922],[162.786,134.691],[161.798,134.418],[160.821,134.035],[159.204,133.108],[158.405,132.480],[157.674,131.774],[156.498,130.238],[155.695,128.640],[155.373,127.683],[155.147,126.686],[155.026,125.677],[155.009,124.661],[155.095,123.648],[155.285,122.650],[155.879,120.923],[156.820,119.276],[158.094,117.802],[158.902,117.113],[159.691,116.568],[161.325,115.751],[163.242,115.219]]
EXCLUDE_OBJECT_DEFINE NAME='y_block_pully_caps_r_(Instance_2)' CENTER=85.068,45.143 POLYGON=[[85.233,35.222],[86.266,35.293],[87.211,35.455],[89.033,36.047],[89.934,36.495],[90.793,37.037],[91.592,37.665],[92.323,38.372],[92.978,39.149],[93.549,39.989],[94.375,41.696],[94.850,43.459],[94.971,44.469],[94.989,45.485],[94.902,46.497],[94.712,47.496],[94.070,49.328],[93.099,50.980],[91.844,52.399],[90.306,53.577],[88.589,54.426],[86.740,54.929],[84.829,55.068],[82.928,54.837],[81.939,54.564],[80.962,54.181],[79.346,53.254],[78.547,52.626],[77.816,51.920],[76.639,50.384],[75.836,48.787],[75.514,47.829],[75.289,46.832],[75.167,45.823],[75.150,44.807],[75.237,43.794],[75.426,42.796],[76.020,41.069],[76.961,39.422],[78.235,37.949],[79.043,37.260],[79.832,36.715],[81.466,35.898],[83.383,35.365]]
EXCLUDE_OBJECT_DEFINE NAME='y_block_pully_caps_r_(Instance_3)' CENTER=85.068,124.996 POLYGON=[[85.233,115.076],[86.266,115.147],[87.211,115.308],[89.033,115.900],[89.934,116.348],[90.793,116.891],[91.592,117.519],[92.323,118.225],[92.978,119.002],[93.549,119.843],[94.375,121.550],[94.850,123.313],[94.971,124.322],[94.989,125.338],[94.902,126.351],[94.712,127.349],[94.070,129.182],[93.099,130.833],[91.844,132.253],[90.306,133.430],[88.589,134.279],[86.740,134.783],[84.829,134.922],[82.928,134.691],[81.939,134.418],[80.962,134.035],[79.346,133.108],[78.547,132.480],[77.816,131.774],[76.639,130.238],[75.836,128.640],[75.514,127.683],[75.289,126.686],[75.167,125.677],[75.150,124.661],[75.237,123.648],[75.426,122.650],[76.020,120.923],[76.961,119.276],[78.235,117.802],[79.043,117.113],[79.832,116.568],[81.466,115.751],[83.383,115.219]]
EXCLUDE_OBJECT_DEFINE NAME='y_block_pully_caps_l_(Instance_1)' CENTER=164.927,204.850 POLYGON=[[165.092,194.929],[166.124,195.000],[167.070,195.162],[168.892,195.754],[169.792,196.202],[170.652,196.745],[171.451,197.372],[172.182,198.079],[172.836,198.856],[173.408,199.696],[174.234,201.403],[174.709,203.167],[174.830,204.176],[174.847,205.192],[174.761,206.204],[174.571,207.203],[173.929,209.035],[172.958,210.687],[171.702,212.107],[170.165,213.284],[168.447,214.133],[166.599,214.636],[164.688,214.775],[162.786,214.544],[161.798,214.271],[160.821,213.888],[159.204,212.961],[158.405,212.334],[157.674,211.627],[156.498,210.091],[155.695,208.494],[155.373,207.536],[155.147,206.539],[155.026,205.530],[155.009,204.514],[155.095,203.502],[155.285,202.503],[155.879,200.776],[156.820,199.129],[158.094,197.656],[158.902,196.967],[159.691,196.422],[161.325,195.605],[163.242,195.072]]
EXCLUDE_OBJECT_DEFINE NAME='y_block_pully_caps_l_(Instance_2)' CENTER=85.068,204.850 POLYGON=[[85.233,194.929],[86.266,195.000],[87.211,195.162],[89.033,195.754],[89.934,196.202],[90.793,196.745],[91.592,197.372],[92.323,198.079],[92.978,198.856],[93.549,199.696],[94.375,201.403],[94.850,203.167],[94.971,204.176],[94.989,205.192],[94.902,206.204],[94.712,207.203],[94.070,209.035],[93.099,210.687],[91.844,212.107],[90.306,213.284],[88.589,214.133],[86.740,214.636],[84.829,214.775],[82.928,214.544],[81.939,214.272],[80.962,213.888],[79.346,212.961],[78.547,212.334],[77.816,211.627],[76.639,210.091],[75.836,208.494],[75.514,207.536],[75.289,206.539],[75.167,205.530],[75.150,204.514],[75.237,203.502],[75.426,202.503],[76.020,200.776],[76.961,199.129],[78.235,197.656],[79.043,196.967],[79.832,196.422],[81.466,195.605],[83.383,195.072]]
EXCLUDE_OBJECT_DEFINE NAME='y_block_pully_caps_l_(Instance_3)' CENTER=164.927,45.144 POLYGON=[[165.092,35.222],[167.070,35.455],[168.892,36.047],[169.792,36.495],[170.652,37.037],[171.451,37.665],[172.182,38.372],[172.836,39.149],[173.408,39.989],[174.234,41.696],[174.709,43.459],[174.830,44.469],[174.847,45.485],[174.761,46.497],[174.571,47.496],[173.929,49.328],[172.958,50.980],[171.702,52.399],[170.165,53.577],[168.447,54.426],[166.599,54.929],[164.688,55.068],[162.786,54.837],[161.798,54.564],[160.821,54.181],[159.204,53.254],[158.405,52.626],[157.674,51.920],[156.498,50.384],[155.695,48.787],[155.373,47.829],[155.147,46.832],[155.026,45.823],[155.009,44.807],[155.095,43.794],[155.285,42.796],[155.879,41.069],[156.820,39.422],[158.094,37.949],[158.902,37.260],[159.691,36.715],[161.325,35.898],[163.242,35.365]]

;TYPE:Custom
START_PRINT BED_TEMP=80 HOTEND_TEMP=225 FILAMENT_TYPE=FLEX EXTRUSION_MULTIPLIER=0.92 PERIMETER_SPEED=20
G21 ; set units to millimeters
G90 ; use absolute coordinates
M82 ; use absolute distances for extrusion
G92 E0
; Filament gcode
; ########################### NOTE OFFSET CHANGES ####################################
; Prevents PETG buildup on nozzle.
; SET_GCODE_OFFSET Z=0
; ####################################################################################
M107
;LAYER_CHANGE
;Z:0.35
;HEIGHT:0.35
G1 E-.5 F240
G1 Z.35 F9000
EXCLUDE_OBJECT_START NAME='y_block_pully_caps_l_(Instance_1)'
G92 E0
G1 X166.916 Y202.102
G1 E.5 F240
;TYPE:External perimeter
;WIDTH:0.675
G1 F900
G1 X167.399 Y202.52 E.5513
G1 X167.812 Y203.056 E.60564
G1 X168.111 Y203.663 E.65998
G1 X168.284 Y204.317 E.71431
G1 X168.324 Y204.993 E.76869
G1 X168.247 Y205.538 E.81289
G1 X168.014 Y206.271 E.87466
G1 X167.655 Y206.881 E.9315
G1 X167.232 Y207.345 E.98192
G1 X166.601 Y207.811 E1.04492
G1 X166.039 Y208.065 E1.09445
G1 X165.404 Y208.216 E1.14687
G1 X164.644 Y208.239 E1.20793
G1 X164.036 Y208.132 E1.25751
G1 X163.404 Y207.891 E1.31183
G1 X162.833 Y207.528 E1.36617
G1 X162.344 Y207.06 E1.42053
G1 X161.958 Y206.504 E1.47489
G1 X161.69 Y205.883 E1.52921
G1 X161.55 Y205.221 E1.58355
G1 X161.544 Y204.544 E1.63792
G1 X161.672 Y203.88 E1.69223
G1 X161.781 Y203.605 E1.71599
G1 X161.958 Y203.202 E1.75134
G1 X162.306 Y202.692 E1.80092
G1 X162.914 Y202.117 E1.86812
G1 X163.478 Y201.782 E1.9208
G1 X164.143 Y201.547 E1.97744
G1 X164.703 Y201.47 E2.02284
G1 X165.468 Y201.5 E2.08432
G1 X166.291 Y201.741 E2.15319
G1 X166.842 Y202.051 E2.20396
G1 X167.302 Y202.437 F9000
G1 X167.274 Y201.63
;TYPE:Perimeter
G1 F900
G1 X167.796 Y202.07 E2.25879
G1 X168.29 Y202.693 E2.32264
G1 X168.652 Y203.402 E2.38657
G1 X168.865 Y204.169 E2.4505
G1 X168.923 Y204.963 E2.51443
G1 X168.841 Y205.627 E2.56816
G1 X168.777 Y205.926 E2.59272
G1 X168.566 Y206.506 E2.64229
G1 X168.167 Y207.194 E2.70616
G1 X167.672 Y207.753 E2.76612
G1 X167.147 Y208.164 E2.81967
G1 X166.848 Y208.358 E2.84829
G1 X166.285 Y208.612 E2.89789
G1 X165.537 Y208.801 E2.95985
G1 X164.878 Y208.84 E3.01287
G1 X164.54 Y208.83 E3.04003
G1 X163.932 Y208.723 E3.08961
G1 X163.375 Y208.523 E3.13714
G1 X163.026 Y208.367 E3.16784
G1 X162.507 Y208.032 E3.21745
G1 X162.111 Y207.671 E3.26048
G1 X161.81 Y207.352 E3.2957
G1 X161.462 Y206.842 E3.34528
G1 X161.212 Y206.295 E3.39358
G1 X161.084 Y205.945 E3.42351
G1 X160.962 Y205.34 E3.47307
G1 X160.944 Y204.544 E3.53701
G1 X161.036 Y204 E3.58132
G1 X161.137 Y203.59 E3.61523
G1 X161.229 Y203.372 E3.63423
G1 X161.437 Y202.903 E3.67543
G1 X161.81 Y202.354 E3.72873
G1 X162.555 Y201.635 E3.81188
G1 X163.178 Y201.263 E3.87015
G1 X163.952 Y200.978 E3.93639
G1 X164.628 Y200.875 E3.99131
G1 X164.918 Y200.857 E4.01464
G1 X165.534 Y200.903 E4.06425
G1 X166.079 Y201.048 E4.10954
G1 X166.6 Y201.22 E4.1536
G1 X167.187 Y201.557 E4.20796
G1 X167.205 Y201.572 E4.20984
G1 X167.205 Y201.572 F9000
G1 X167.632 Y201.157
G1 F900
G1 X168.193 Y201.62 E4.26826
G1 X168.768 Y202.331 E4.34169
G1 X169.192 Y203.142 E4.41518
G1 X169.446 Y204.021 E4.48866
G1 X169.522 Y204.933 E4.56216
G1 X169.434 Y205.717 E4.62552
G1 X169.341 Y206.131 E4.6596
G1 X169.13 Y206.711 E4.70917
G1 X168.679 Y207.507 E4.78264
G1 X168.112 Y208.161 E4.85215
G1 X167.834 Y208.409 E4.88207
G1 X167.353 Y208.755 E4.92965
G1 X166.621 Y209.118 E4.99527
G1 X166.249 Y209.253 E5.02705
G1 X165.647 Y209.391 E5.07665
G1 X164.893 Y209.439 E5.13733
G1 X164.436 Y209.421 E5.17406
G1 X163.828 Y209.314 E5.22364
G1 X163.156 Y209.082 E5.28073
G1 X162.7 Y208.871 E5.32108
G1 X162.182 Y208.536 E5.37062
G1 X161.693 Y208.101 E5.42318
G1 X161.314 Y207.69 E5.46808
G1 X160.967 Y207.18 E5.51762
G1 X160.659 Y206.528 E5.57553
G1 X160.496 Y206.064 E5.61503
G1 X160.374 Y205.459 E5.66459
G1 X160.344 Y204.859 E5.71284
G1 X160.363 Y204.308 E5.75712
G1 X160.496 Y203.642 E5.81166
G1 X160.676 Y203.139 E5.85456
G1 X160.881 Y202.667 E5.89589
G1 X161.314 Y202.016 E5.95868
G1 X161.765 Y201.546 E6.01099
G1 X162.144 Y201.196 E6.05242
G1 X162.878 Y200.743 E6.12169
G1 X163.195 Y200.599 E6.14965
G1 X163.769 Y200.407 E6.19826
G1 X164.554 Y200.28 E6.26212
G1 X164.963 Y200.259 E6.29501
G1 X165.579 Y200.305 E6.34462
G1 X166.256 Y200.474 E6.40066
G1 X166.767 Y200.638 E6.44376
G1 X167.487 Y201.037 E6.50987
G1 X167.563 Y201.1 E6.5178
G1 X167.563 Y201.1 F9000
G1 X167.998 Y200.674
G1 F900
G1 X168.178 Y200.808 E6.53582
G1 X168.59 Y201.17 E6.57986
G1 X168.97 Y201.604 E6.62619
G1 X169.282 Y202.016 E6.66769
G1 X169.732 Y202.882 E6.74607
G1 X169.898 Y203.365 E6.78709
G1 X170.028 Y203.873 E6.8292
G1 X170.099 Y204.464 E6.877
G1 X170.12 Y205.131 E6.93059
G1 X170.027 Y205.806 E6.98531
G1 X169.918 Y206.298 E7.02578
G1 X169.705 Y206.886 E7.076
G1 X169.504 Y207.307 E7.11347
G1 X169.185 Y207.828 E7.16253
G1 X168.864 Y208.233 E7.20403
G1 X168.518 Y208.605 E7.24483
G1 X168.185 Y208.896 E7.28035
G1 X167.704 Y209.242 E7.32793
G1 X167.341 Y209.451 E7.36157
G1 X166.779 Y209.705 E7.4111
G1 X166.382 Y209.838 E7.44472
G1 X165.781 Y209.976 E7.49424
G1 X165.319 Y210.029 E7.53159
G1 X164.749 Y210.043 E7.57738
G1 X164.332 Y210.012 E7.61096
G1 X163.724 Y209.905 E7.66054
G1 X163.321 Y209.791 E7.69417
G1 X162.747 Y209.566 E7.74368
G1 X162.167 Y209.241 E7.79707
G1 X161.685 Y208.917 E7.84371
G1 X161.274 Y208.53 E7.88905
G1 X160.875 Y208.106 E7.93581
G1 X160.471 Y207.518 E7.9931
G1 X160.271 Y207.151 E8.02667
G1 X160.031 Y206.582 E8.07626
G1 X159.855 Y205.922 E8.13112
G1 X159.753 Y205.356 E8.17731
G1 X159.744 Y204.544 E8.24252
G1 X159.786 Y204.128 E8.2761
G1 X159.908 Y203.523 E8.32566
G1 X160.123 Y202.906 E8.37813
G1 X160.351 Y202.386 E8.42373
G1 X160.649 Y201.926 E8.46775
G1 X160.965 Y201.487 E8.51119
G1 X161.755 Y200.74 E8.59851
G1 X162.068 Y200.518 E8.62933
G1 X162.603 Y200.209 E8.67895
G1 X163.004 Y200.031 E8.71418
G1 X163.57 Y199.841 E8.76213
G1 X164.092 Y199.733 E8.80494
G1 X164.59 Y199.671 E8.84524
G1 X165.008 Y199.66 E8.87882
G1 X165.624 Y199.707 E8.92843
G1 X166.086 Y199.794 E8.96618
G1 X166.822 Y200.021 E9.02803
G1 X167.253 Y200.209 E9.06579
G1 X167.787 Y200.518 E9.11534
G1 X167.926 Y200.62 E9.12919
G1 X167.926 Y200.62 F9000
G1 X168.355 Y200.202
;WIDTH:0.659087
G1 F900
G1 X168.518 Y200.318 E9.14483
G1 X168.981 Y200.727 E9.19313
;WIDTH:0.656857
G1 X169.345 Y201.12 E9.23485
;WIDTH:0.656195
G1 X169.717 Y201.612 E9.28283
;WIDTH:0.659973
G1 X169.998 Y202.069 E9.32483
G1 X170.265 Y202.625 E9.37312
;WIDTH:0.65817
G1 X170.448 Y203.129 E9.41497
;WIDTH:0.657244
G1 X170.6 Y203.727 E9.46305
;WIDTH:0.656843
G1 X170.68 Y204.257 E9.50479
;WIDTH:0.659594
G1 X170.712 Y204.873 E9.55305
G1 X170.685 Y205.409 E9.59504
;WIDTH:0.657561
G1 X170.592 Y206.019 E9.64315
;WIDTH:0.657901
G1 X170.467 Y206.52 E9.68344
;WIDTH:0.660091
G1 X170.261 Y207.089 E9.73083
G1 X170.017 Y207.601 E9.77525
;WIDTH:0.658904
G1 X169.695 Y208.128 E9.82352
;WIDTH:0.658284
G1 X169.371 Y208.555 E9.86537
;WIDTH:0.660995
G1 X168.986 Y208.973 E9.90994
G1 X168.55 Y209.363 E9.95582
;WIDTH:0.659194
G1 X168.048 Y209.722 E10.00408
;WIDTH:0.656674
G1 X167.584 Y209.99 E10.0458
;WIDTH:0.661423
G1 X167.112 Y210.206 E10.08654
G1 X166.558 Y210.405 E10.13274
;WIDTH:0.659913
G1 X165.936 Y210.548 E10.18271
G1 X165.381 Y210.619 E10.22651
;WIDTH:0.658709
G1 X164.763 Y210.633 E10.27481
;WIDTH:0.657279
G1 X164.264 Y210.6 E10.31379
;WIDTH:0.66114
G1 X163.677 Y210.498 E10.36053
G1 X163.106 Y210.341 E10.40699
;WIDTH:0.655657
G1 X162.531 Y210.115 E10.45501
;WIDTH:0.658748
G1 X162.054 Y209.872 E10.49684
G1 X161.536 Y209.536 E10.54508
;WIDTH:0.655096
G1 X161.117 Y209.202 E10.58668
;WIDTH:0.656406
G1 X160.675 Y208.771 E10.63472
G1 X160.331 Y208.361 E10.67637
;WIDTH:0.655186
G1 X159.983 Y207.851 E10.72432
;WIDTH:0.655583
G1 X159.727 Y207.38 E10.76598
;WIDTH:0.655784
G1 X159.487 Y206.811 E10.81399
;WIDTH:0.658632
G1 X159.328 Y206.3 E10.8558
G1 X159.207 Y205.695 E10.904
;WIDTH:0.656053
G1 X159.154 Y205.162 E10.94566
G1 X159.154 Y204.544 E10.99372
;WIDTH:0.655328
G1 X159.207 Y204.011 E11.03532
G1 X159.33 Y203.406 E11.08327
;WIDTH:0.658132
G1 X159.486 Y202.894 E11.12505
;WIDTH:0.663542
G1 X159.576 Y202.675 E11.1437
G1 X159.83 Y202.109 E11.19257
;WIDTH:0.663245
G1 X160.158 Y201.592 E11.24078
G1 X160.519 Y201.101 E11.28876
;WIDTH:0.667347
G1 X160.951 Y200.67 E11.33714
G1 X161.371 Y200.29 E11.38205
;WIDTH:0.658341
G1 X161.772 Y200.006 E11.42042
;WIDTH:0.660057
G1 X162.282 Y199.711 E11.46656
G1 X162.796 Y199.476 E11.51082
;WIDTH:0.658792
G1 X163.381 Y199.28 E11.55903
;WIDTH:0.658187
G1 X163.904 Y199.161 E11.6009
;WIDTH:0.662306
G1 X164.405 Y199.096 E11.64061
G1 X165.014 Y199.068 E11.68853
;WIDTH:0.659867
G1 X165.647 Y199.114 E11.73821
;WIDTH:0.661309
G1 X166.238 Y199.22 E11.78533
G1 X166.996 Y199.456 E11.84763
;WIDTH:0.657405
G1 X167.548 Y199.698 E11.89461
;WIDTH:0.655499
G1 X168.082 Y200.007 E11.94255
;WIDTH:0.659087
G1 X168.282 Y200.149 E11.96173
G1 E11.46173 F240
G92 E0
G1 X168.282 Y200.149 F9000
G1 X162.331 Y196.495
G1 E.5 F240
;TYPE:External perimeter
;WIDTH:0.675
G1 F900
G1 X162.627 Y196.397 E.52504
G1 X163.53 Y196.202 E.59923
G1 X164.154 Y196.124 E.64973
G1 X165.078 Y196.091 E.72398
G1 X165.996 Y196.155 E.79788
G1 X166.906 Y196.316 E.8721
G1 X167.513 Y196.479 E.92257
G1 X168.381 Y196.798 E.99684
G1 X169.207 Y197.205 E1.07079
G1 X169.989 Y197.698 E1.14503
G1 X170.489 Y198.079 E1.19551
G1 X171.171 Y198.703 E1.26975
G1 X171.782 Y199.392 E1.34371
G1 X172.319 Y200.144 E1.41792
G1 X172.638 Y200.686 E1.46843
G1 X173.034 Y201.521 E1.54265
G1 X173.338 Y202.39 E1.61659
G1 X173.518 Y203.15 E1.67931
G1 X173.6 Y203.675 E1.72198
G1 X173.672 Y204.327 E1.77466
G1 X173.692 Y204.905 E1.82111
G1 X173.637 Y205.829 E1.89545
G1 X173.545 Y206.451 E1.94595
G1 X173.329 Y207.349 E2.02012
G1 X173.018 Y208.222 E2.09455
G1 X172.617 Y209.058 E2.16901
G1 X172.13 Y209.847 E2.24347
G1 X171.561 Y210.581 E2.31805
G1 X171.075 Y211.099 E2.37509
G1 X170.392 Y211.704 E2.44837
G1 X169.866 Y212.093 E2.50091
G1 X169.092 Y212.564 E2.57367
G1 X168.253 Y212.961 E2.64821
G1 X167.378 Y213.267 E2.72265
G1 X166.476 Y213.479 E2.79706
G1 X165.554 Y213.594 E2.87168
G1 X164.901 Y213.617 E2.92415
G1 X163.973 Y213.564 E2.9988
G1 X163.077 Y213.419 E3.07169
G1 X162.445 Y213.257 E3.12409
G1 X161.585 Y212.954 E3.19732
G1 X160.745 Y212.554 E3.27204
G1 X160.218 Y212.243 E3.32118
G1 X159.461 Y211.703 E3.39586
G1 X158.767 Y211.086 E3.47044
G1 X158.21 Y210.48 E3.53654
G1 X157.652 Y209.738 E3.6111
G1 X157.176 Y208.941 E3.68565
G1 X156.79 Y208.104 E3.75967
