; generated by PrusaSlicer 2.8.1+MacOS-arm64 on 2024-10-15 at 08:35:18 UTC


;
;

;
;
; 

; external perimeters extrusion width = 0.68mm
; perimeters extrusion width = 0.68mm
; infill extrusion width = 0.68mm
; solid infill extrusion width = 0.68mm
; top infill extrusion width = 0.60mm


EXCLUDE_OBJECT_DEFINE NAME='y_block_pully_caps_r_(Instance_1)' CENTER=164.927,124.996 POLYGON=[[165.092,115.076],[166.124,115.147],[167.070,115.308],[168.892,115.900],[169.792,116.348],[170.652,116.891],[171.451,117.519],[172.182,118.225],[172.836,119.002],[173.408,119.843],[174.234,121.550],[174.709,123.313],[174.830,124.322],[174.847,125.338],[174.761,126.351],[174.571,127.349],[173.929,129.182],[172.958,130.833],[171.702,132.253],[170.165,133.430],[168.447,134.279],[166.599,134.783],[164.688,134.922],[162.786,134.691],[161.798,134.418],[160.821,134.035],[159.204,133.108],[158.405,132.480],[157.674,131.774],[156.498,130.238],[155.695,128.640],[155.373,127.683],[155.147,126.686],[155.026,125.677],[155.009,124.661],[155.095,123.648],[155.285,122.650],[155.879,120.923],[156.820,119.276],[158.094,117.802],[158.902,117.113],[159.691,116.568],[161.325,115.751],[163.242,115.219]]
EXCLUDE_OBJECT_DEFINE NAME='y_block_pully_caps_r_(Instance_2)' CENTER=85.068,124.996 POLYGON=[[85.233,115.076],[86.266,115.147],[87.211,115.308],[89.033,115.900],[89.934,116.348],[90.793,116.891],[91.592,117.519],[92.323,118.225],[92.978,119.002],[93.549,119.843],[94.375,121.550],[94.850,123.313],[94.971,124.322],[94.989,125.338],[94.902,126.351],[94.712,127.349],[94.070,129.182],[93.099,130.833],[91.844,132.253],[90.306,133.430],[88.589,134.279],[86.740,134.783],[84.829,134.922],[82.928,134.691],[81.939,134.418],[80.962,134.035],[79.346,133.108],[78.547,132.480],[77.816,131.774],[76.639,130.238],[75.836,128.640],[75.514,127.683],[75.289,126.686],[75.167,125.677],[75.150,124.661],[75.237,123.648],[75.426,122.650],[76.020,120.923],[76.961,119.276],[78.235,117.802],[79.043,117.113],[79.832,116.568],[81.466,115.751],[83.383,115.219]]

;TYPE:Custom
START_PRINT BED_TEMP=80 HOTEND_TEMP=225 FILAMENT_TYPE=FLEX EXTRUSION_MULTIPLIER=0.92 PERIMETER_SPEED=20
G21 ; set units to millimeters
G90 ; use absolute coordinates
M82 ; use absolute distances for extrusion
G92 E0
; Filament gcode
; ########################### NOTE OFFSET CHANGES ####################################
; Prevents PETG buildup on nozzle.
; SET_GCODE_OFFSET Z=0
; ####################################################################################
M107
;LAYER_CHANGE
;Z:0.35
;HEIGHT:0.35
G1 E-.5 F240
G1 Z.35 F9000
EXCLUDE_OBJECT_START NAME='y_block_pully_caps_r_(Instance_1)'
G92 E0
G1 X162.033 Y126.759
G1 E.5 F240
;TYPE:External perimeter
;WIDTH:0.675
G1 F900
G1 X161.958 Y126.651 E.51056
G1 X161.675 Y125.984 E.56875
G1 X161.55 Y125.367 E.61931
G1 X161.544 Y124.691 E.6736
G1 X161.672 Y124.026 E.72799
G1 X161.929 Y123.4 E.78233
G1 X162.306 Y122.838 E.83668
G1 X162.914 Y122.263 E.90388
G1 X163.478 Y121.929 E.95652
G1 X164.143 Y121.693 E1.01319
G1 X164.813 Y121.603 E1.06748
G1 X165.468 Y121.646 E1.1202
G1 X166.197 Y121.847 E1.18093
G1 X166.747 Y122.129 E1.23057
G1 X167.259 Y122.527 E1.28265
G1 X167.807 Y123.195 E1.35204
G1 X168.111 Y123.809 E1.40706
G1 X168.284 Y124.463 E1.46139
G1 X168.324 Y125.139 E1.51577
G1 X168.247 Y125.684 E1.55997
G1 X168.014 Y126.417 E1.62174
G1 X167.655 Y127.028 E1.67865
G1 X167.232 Y127.492 E1.72907
G1 X166.601 Y127.957 E1.79202
G1 X166.039 Y128.211 E1.84155
G1 X165.404 Y128.362 E1.89397
G1 X164.863 Y128.386 E1.93746
G1 X164.335 Y128.331 E1.98009
G1 X163.979 Y128.263 E2.0092
G1 X163.404 Y128.037 E2.05882
G1 X162.833 Y127.675 E2.11311
G1 X162.344 Y127.207 E2.16747
G1 X162.084 Y126.833 E2.20405
G1 X161.814 Y126.297 F9000
G1 X161.511 Y127.06
;TYPE:Perimeter
G1 F900
G1 X161.462 Y126.989 E2.21098
G1 X161.212 Y126.442 E2.25928
G1 X161.092 Y126.126 E2.28643
G1 X160.962 Y125.486 E2.33888
G1 X160.944 Y124.691 E2.40274
G1 X161.036 Y124.146 E2.44713
G1 X161.137 Y123.736 E2.48104
G1 X161.377 Y123.167 E2.53063
G1 X161.81 Y122.5 E2.59449
G1 X162.555 Y121.781 E2.67764
G1 X163.178 Y121.409 E2.73591
G1 X163.952 Y121.124 E2.80215
G1 X164.739 Y121.008 E2.86604
G1 X165.513 Y121.048 E2.92828
G1 X166.132 Y121.199 E2.97945
G1 X166.471 Y121.313 E3.00817
G1 X167.02 Y121.595 E3.05774
G1 X167.468 Y121.927 E3.10252
G1 X167.773 Y122.198 E3.13529
G1 X168.274 Y122.819 E3.19937
G1 X168.652 Y123.549 E3.26539
G1 X168.865 Y124.315 E3.32924
G1 X168.923 Y125.109 E3.39317
G1 X168.841 Y125.774 E3.44698
G1 X168.777 Y126.072 E3.47146
G1 X168.566 Y126.652 E3.52103
G1 X168.167 Y127.34 E3.5849
G1 X167.672 Y127.9 E3.64492
G1 X167.147 Y128.311 E3.69847
G1 X166.848 Y128.504 E3.72705
G1 X166.285 Y128.758 E3.77665
G1 X165.537 Y128.947 E3.83861
G1 X164.878 Y128.986 E3.89163
G1 X164.54 Y128.977 E3.91878
G1 X163.932 Y128.87 E3.96836
G1 X163.374 Y128.67 E4.01596
G1 X163.026 Y128.514 E4.04659
G1 X162.507 Y128.179 E4.0962
G1 X162.111 Y127.818 E4.13923
G1 X161.81 Y127.499 E4.17445
G1 X161.562 Y127.135 E4.20982
G1 X161.562 Y127.135 F9000
G1 X160.99 Y127.361
G1 F900
G1 X160.967 Y127.327 E4.21312
G1 X160.659 Y126.675 E4.27103
G1 X160.509 Y126.268 E4.30586
G1 X160.374 Y125.605 E4.3602
G1 X160.344 Y125.006 E4.40837
G1 X160.363 Y124.455 E4.45265
G1 X160.496 Y123.789 E4.50719
G1 X160.676 Y123.285 E4.55017
G1 X160.881 Y122.813 E4.5915
G1 X161.314 Y122.162 E4.65429
G1 X161.765 Y121.693 E4.70654
G1 X162.144 Y121.342 E4.74802
G1 X162.878 Y120.89 E4.81725
G1 X163.195 Y120.746 E4.84521
G1 X163.769 Y120.553 E4.89384
G1 X164.664 Y120.413 E4.96659
G1 X165.558 Y120.45 E5.03845
G1 X166.295 Y120.622 E5.09923
G1 X166.745 Y120.779 E5.13751
G1 X167.294 Y121.061 E5.18708
G1 X167.84 Y121.457 E5.24125
G1 X168.241 Y121.821 E5.28474
G1 X168.741 Y122.442 E5.34877
G1 X168.925 Y122.734 E5.37649
G1 X169.196 Y123.297 E5.42667
G1 X169.447 Y124.167 E5.49939
G1 X169.522 Y125.079 E5.57288
G1 X169.434 Y125.863 E5.63624
G1 X169.341 Y126.277 E5.67032
G1 X169.13 Y126.857 E5.71989
G1 X168.679 Y127.653 E5.79336
G1 X168.112 Y128.308 E5.86293
G1 X167.834 Y128.556 E5.89285
G1 X167.353 Y128.902 E5.94043
G1 X166.621 Y129.265 E6.00605
G1 X166.249 Y129.4 E6.03783
G1 X165.647 Y129.537 E6.08741
G1 X164.893 Y129.586 E6.14809
G1 X164.436 Y129.567 E6.18482
G1 X163.828 Y129.46 E6.2344
G1 X163.155 Y129.228 E6.29157
G1 X162.7 Y129.018 E6.33181
G1 X162.182 Y128.683 E6.38135
G1 X161.693 Y128.247 E6.43396
G1 X161.314 Y127.837 E6.4788
G1 X161.041 Y127.436 E6.51776
G1 X161.041 Y127.436 F9000
G1 X160.469 Y127.661
G1 F900
G1 X160.271 Y127.297 E6.55104
G1 X160.031 Y126.729 E6.60056
G1 X159.926 Y126.41 E6.62753
G1 X159.786 Y125.724 E6.68376
G1 X159.744 Y125.308 E6.71734
G1 X159.744 Y124.691 E6.76689
G1 X159.786 Y124.275 E6.80047
G1 X159.908 Y123.67 E6.85003
G1 X160.123 Y123.052 E6.90258
G1 X160.351 Y122.532 E6.94818
G1 X160.649 Y122.073 E6.99213
G1 X160.965 Y121.634 E7.03557
G1 X161.755 Y120.886 E7.12294
G1 X162.068 Y120.665 E7.15371
G1 X162.603 Y120.356 E7.20333
G1 X163.004 Y120.177 E7.2386
G1 X163.581 Y119.983 E7.28749
G1 X164.067 Y119.883 E7.32734
G1 X164.59 Y119.817 E7.36967
G1 X165.008 Y119.807 E7.40325
G1 X165.623 Y119.853 E7.45278
G1 X166.082 Y119.939 E7.49028
G1 X166.629 Y120.093 E7.53592
G1 X167.018 Y120.246 E7.56949
G1 X167.568 Y120.527 E7.61909
G1 X168.213 Y120.987 E7.68271
G1 X168.612 Y121.334 E7.72518
G1 X168.977 Y121.779 E7.7714
G1 X169.33 Y122.234 E7.81765
G1 X169.733 Y123.028 E7.88916
G1 X169.898 Y123.511 E7.93015
G1 X170.028 Y124.019 E7.97226
G1 X170.099 Y124.611 E8.02014
G1 X170.12 Y125.277 E8.07365
G1 X170.027 Y125.953 E8.12845
G1 X169.918 Y126.444 E8.16884
G1 X169.705 Y127.033 E8.21914
G1 X169.504 Y127.453 E8.25653
G1 X169.185 Y127.974 E8.30559
G1 X168.864 Y128.379 E8.34709
G1 X168.518 Y128.752 E8.38795
G1 X168.185 Y129.043 E8.42347
G1 X167.704 Y129.389 E8.47105
G1 X167.341 Y129.598 E8.50469
G1 X166.779 Y129.852 E8.55422
G1 X166.382 Y129.985 E8.58784
G1 X165.781 Y130.122 E8.63734
G1 X165.319 Y130.175 E8.67469
G1 X164.749 Y130.189 E8.72048
G1 X164.023 Y130.104 E8.77918
G1 X163.474 Y129.991 E8.82419
G1 X162.935 Y129.786 E8.8705
G1 X162.452 Y129.569 E8.91302
G1 X161.856 Y129.187 E8.96987
G1 X161.529 Y128.926 E9.00347
G1 X161.087 Y128.495 E9.05305
G1 X160.819 Y128.175 E9.08657
G1 X160.52 Y127.736 E9.12923
G1 X160.52 Y127.736 F9000
G1 X159.961 Y127.955
;WIDTH:0.655586
G1 F900
G1 X159.727 Y127.527 E9.16714
;WIDTH:0.655785
G1 X159.487 Y126.958 E9.21515
;WIDTH:0.65748
G1 X159.352 Y126.55 E9.24865
G1 X159.207 Y125.841 E9.30507
;WIDTH:0.656054
G1 X159.154 Y125.308 E9.34673
G1 X159.154 Y124.691 E9.39472
;WIDTH:0.655328
G1 X159.207 Y124.158 E9.43632
G1 X159.33 Y123.553 E9.48427
;WIDTH:0.658136
G1 X159.486 Y123.04 E9.52612
G1 X159.727 Y122.472 E9.57428
;WIDTH:0.655381
G1 X159.984 Y122.002 E9.61589
;WIDTH:0.655093
G1 X160.331 Y121.492 E9.66378
;WIDTH:0.657185
G1 X160.723 Y121.035 E9.7107
;WIDTH:0.657897
G1 X161.288 Y120.511 E9.77082
;WIDTH:0.658505
G1 X161.722 Y120.182 E9.81335
;WIDTH:0.660054
G1 X162.282 Y119.857 E9.86405
G1 X162.796 Y119.623 E9.90827
;WIDTH:0.65879
G1 X163.381 Y119.426 E9.9565
;WIDTH:0.658187
G1 X163.904 Y119.308 E9.99835
;WIDTH:0.657292
G1 X164.516 Y119.231 E10.04642
;WIDTH:0.65829
G1 X165.038 Y119.216 E10.08719
;WIDTH:0.659861
G1 X165.647 Y119.261 E10.13499
G1 X166.195 Y119.356 E10.17853
;WIDTH:0.658738
G1 X166.789 Y119.524 E10.22676
;WIDTH:0.656992
G1 X167.288 Y119.72 E10.26852
;WIDTH:0.661254
G1 X167.76 Y119.959 E10.31003
G1 X168.275 Y120.281 E10.35769
;WIDTH:0.65956
G1 X168.743 Y120.653 E10.40447
;WIDTH:0.658403
G1 X169.168 Y121.074 E10.45118
G1 X169.668 Y121.695 E10.51344
;WIDTH:0.659967
G1 X169.998 Y122.215 E10.56166
G1 X170.265 Y122.772 E10.61002
;WIDTH:0.658168
G1 X170.448 Y123.275 E10.6518
;WIDTH:0.657247
G1 X170.6 Y123.874 E10.69996
;WIDTH:0.656841
G1 X170.68 Y124.403 E10.74163
;WIDTH:0.659593
G1 X170.712 Y125.02 E10.78997
G1 X170.685 Y125.555 E10.83188
;WIDTH:0.657562
G1 X170.592 Y126.165 E10.87999
;WIDTH:0.657903
G1 X170.467 Y126.666 E10.92028
;WIDTH:0.660091
G1 X170.261 Y127.235 E10.96767
G1 X170.017 Y127.748 E11.01216
;WIDTH:0.658904
G1 X169.695 Y128.274 E11.06036
;WIDTH:0.658284
G1 X169.371 Y128.701 E11.10221
;WIDTH:0.660998
G1 X168.986 Y129.119 E11.14678
G1 X168.55 Y129.509 E11.19266
;WIDTH:0.659195
G1 X168.048 Y129.868 E11.24092
;WIDTH:0.65667
G1 X167.584 Y130.136 E11.28264
;WIDTH:0.661414
G1 X167.112 Y130.352 E11.32338
G1 X166.558 Y130.551 E11.36958
;WIDTH:0.659913
G1 X165.936 Y130.694 E11.41955
G1 X165.381 Y130.766 E11.46336
;WIDTH:0.658709
G1 X164.764 Y130.78 E11.51158
;WIDTH:0.659251
G1 X164.229 Y130.741 E11.55353
G1 X163.621 Y130.632 E11.60183
;WIDTH:0.65542
G1 X163.106 Y130.487 E11.64339
;WIDTH:0.655666
G1 X162.531 Y130.262 E11.69138
;WIDTH:0.658763
G1 X162.054 Y130.019 E11.73321
G1 X161.536 Y129.682 E11.7815
;WIDTH:0.655106
G1 X161.117 Y129.348 E11.8231
;WIDTH:0.656403
G1 X160.675 Y128.918 E11.87109
G1 X160.331 Y128.507 E11.9128
;WIDTH:0.655187
G1 X160.007 Y128.032 E11.95745
G1 E11.45745 F240
G92 E0
G1 X160.007 Y128.032 F9000
G1 X159.856 Y117.86
G1 E.5 F240
;TYPE:External perimeter
;WIDTH:0.675
G1 F900
G1 X160.115 Y117.676 E.52551
G1 X160.902 Y117.216 E.59872
G1 X161.747 Y116.834 E.67319
G1 X162.627 Y116.543 E.74763
G1 X163.527 Y116.349 E.82157
G1 X164.446 Y116.249 E.89581
G1 X165.075 Y116.237 E.94633
G1 X165.996 Y116.301 E1.02047
G1 X166.906 Y116.462 E1.09469
G1 X167.513 Y116.626 E1.14519
G1 X168.381 Y116.945 E1.21946
G1 X169.207 Y117.352 E1.29341
G1 X169.989 Y117.845 E1.36765
G1 X170.489 Y118.226 E1.41813
G1 X171.171 Y118.849 E1.49231
G1 X171.782 Y119.538 E1.56627
G1 X172.319 Y120.29 E1.64048
G1 X172.638 Y120.832 E1.69099
G1 X173.034 Y121.668 E1.76528
G1 X173.338 Y122.537 E1.83922
G1 X173.518 Y123.296 E1.90186
G1 X173.6 Y123.822 E1.94461
G1 X173.672 Y124.474 E1.99729
G1 X173.692 Y125.051 E2.04366
G1 X173.637 Y125.975 E2.118
G1 X173.545 Y126.598 E2.16857
G1 X173.329 Y127.496 E2.24274
G1 X173.018 Y128.369 E2.31717
G1 X172.617 Y129.204 E2.39156
G1 X172.13 Y129.993 E2.46602
G1 X171.561 Y130.727 E2.5406
G1 X171.075 Y131.246 E2.5977
G1 X170.392 Y131.851 E2.67098
G1 X169.866 Y132.239 E2.72347
G1 X169.092 Y132.711 E2.79627
G1 X168.253 Y133.108 E2.87081
G1 X167.379 Y133.413 E2.94515
G1 X166.476 Y133.625 E3.01964
G1 X165.554 Y133.741 E3.09427
G1 X164.901 Y133.763 E3.14674
G1 X163.97 Y133.711 E3.22162
G1 X163.364 Y133.622 E3.27081
G1 X162.46 Y133.408 E3.34542
G1 X161.585 Y133.1 E3.41992
G1 X160.745 Y132.701 E3.4946
G1 X160.218 Y132.39 E3.54374
G1 X159.461 Y131.849 E3.61846
G1 X158.767 Y131.232 E3.69304
G1 X158.21 Y130.626 E3.75914
G1 X157.652 Y129.884 E3.8337
G1 X157.176 Y129.087 E3.90825
G1 X156.79 Y128.251 E3.9822
G1 X156.493 Y127.376 E4.05641
G1 X156.344 Y126.765 E4.10692
G1 X156.206 Y125.851 E4.18115
G1 X156.164 Y125 E4.24958
G1 X156.213 Y124.074 E4.32405
G1 X156.358 Y123.17 E4.39758
G1 X156.598 Y122.278 E4.47176
G1 X156.824 Y121.666 E4.52415
G1 X157.211 Y120.846 E4.59697
G1 X157.694 Y120.054 E4.67147
G1 X158.256 Y119.317 E4.7459
G1 X158.894 Y118.644 E4.82037
G1 X159.601 Y118.04 E4.89505
G1 X159.782 Y117.912 E4.91285
G1 X160.284 Y117.583 F9000
G1 X160.212 Y118.343
;TYPE:Perimeter
G1 F900
G1 X160.44 Y118.181 E4.93531
G1 X161.178 Y117.749 E5.00399
G1 X161.965 Y117.393 E5.07336
G1 X162.785 Y117.123 E5.14269
G1 X163.623 Y116.942 E5.21154
G1 X164.484 Y116.848 E5.2811
G1 X165.06 Y116.837 E5.32737
G1 X165.923 Y116.897 E5.39684
G1 X166.776 Y117.048 E5.46641
G1 X167.331 Y117.198 E5.51258
G1 X168.144 Y117.497 E5.58215
G1 X168.914 Y117.876 E5.65107
G1 X169.646 Y118.338 E5.72059
G1 X170.104 Y118.687 E5.76683
G1 X170.743 Y119.271 E5.83635
G1 X171.312 Y119.913 E5.90524
G1 X171.815 Y120.617 E5.97473
G1 X172.107 Y121.113 E6.02095
G1 X172.478 Y121.896 E6.09053
G1 X172.762 Y122.705 E6.15939
G1 X172.92 Y123.372 E6.21444
G1 X173.005 Y123.898 E6.25723
G1 X173.072 Y124.494 E6.3054
G1 X173.091 Y125.044 E6.3496
G1 X173.04 Y125.913 E6.41951
G1 X172.955 Y126.483 E6.46579
G1 X172.753 Y127.324 E6.53525
G1 X172.463 Y128.138 E6.60465
G1 X172.09 Y128.916 E6.67394
G1 X171.636 Y129.651 E6.74332
G1 X171.104 Y130.338 E6.8131
G1 X170.657 Y130.815 E6.8656
G1 X170.014 Y131.384 E6.93455
G1 X169.531 Y131.741 E6.98278
G1 X168.806 Y132.182 E7.05093
G1 X168.025 Y132.552 E7.12033
G1 X167.211 Y132.837 E7.18959
G1 X166.37 Y133.034 E7.25896
G1 X165.506 Y133.142 E7.32889
G1 X164.907 Y133.163 E7.37702
G1 X164.03 Y133.113 E7.44756
G1 X163.476 Y133.033 E7.49251
G1 X162.629 Y132.832 E7.56242
G1 X161.814 Y132.545 E7.63181
G1 X161.027 Y132.17 E7.70182
G1 X160.545 Y131.886 E7.74675
G1 X159.836 Y131.379 E7.81675
G1 X159.188 Y130.804 E7.88632
G1 X158.671 Y130.242 E7.94765
G1 X158.151 Y129.549 E8.01723
G1 X157.708 Y128.807 E8.08663
G1 X157.348 Y128.028 E8.15555
G1 X157.069 Y127.208 E8.22511
G1 X156.933 Y126.649 E8.27131
G1 X156.804 Y125.791 E8.34099
G1 X156.765 Y125.001 E8.40451
G1 X156.811 Y124.138 E8.47391
G1 X156.945 Y123.295 E8.54246
G1 X157.17 Y122.46 E8.61191
G1 X157.377 Y121.898 E8.66001
G1 X157.74 Y121.131 E8.72816
G1 X158.189 Y120.393 E8.79753
G1 X158.713 Y119.707 E8.86685
G1 X159.307 Y119.08 E8.93621
G1 X159.97 Y118.514 E9.00622
G1 X160.139 Y118.395 E9.02282
G1 X160.139 Y118.395 F9000
G1 X160.568 Y118.825
G1 F900
G1 X160.766 Y118.685 E9.04229
G1 X161.453 Y118.283 E9.10621
G1 X162.183 Y117.953 E9.17055
G1 X162.943 Y117.703 E9.2348
G1 X163.719 Y117.535 E9.29856
G1 X164.522 Y117.448 E9.36342
G1 X165.045 Y117.438 E9.40543
G1 X165.85 Y117.494 E9.47023
G1 X166.645 Y117.634 E9.53506
G1 X167.149 Y117.77 E9.57698
G1 X167.908 Y118.049 E9.64192
G1 X168.62 Y118.4 E9.70567
G1 X169.304 Y118.831 E9.7706
G1 X169.719 Y119.148 E9.81254
G1 X170.315 Y119.692 E9.87734
G1 X170.842 Y120.287 E9.94117
G1 X171.312 Y120.944 E10.00604
G1 X171.576 Y121.394 E10.04794
G1 X171.922 Y122.125 E10.11289
G1 X172.185 Y122.874 E10.17664
G1 X172.324 Y123.461 E10.22508
G1 X172.41 Y123.974 E10.26685
G1 X172.473 Y124.515 E10.31059
G1 X172.491 Y125.037 E10.35254
G1 X172.443 Y125.852 E10.4181
G1 X172.366 Y126.369 E10.46008
G1 X172.177 Y127.153 E10.52485
G1 X171.909 Y127.907 E10.58911
G1 X171.563 Y128.628 E10.65333
G1 X171.142 Y129.308 E10.71756
G1 X170.647 Y129.948 E10.78254
G1 X170.238 Y130.385 E10.83061
