; generated by PrusaSlicer 2.8.0+MacOS-arm64 on 2024-09-05 at 15:26:10 UTC


;
;

;
;
; 

; external perimeters extrusion width = 0.68mm
; perimeters extrusion width = 0.68mm
; infill extrusion width = 0.68mm
; solid infill extrusion width = 0.68mm
; top infill extrusion width = 0.60mm


EXCLUDE_OBJECT_DEFINE NAME='controller_base' CENTER=124.965,126.895 POLYGON=[[129.844,27.772],[130.379,27.978],[130.583,28.215],[130.696,28.506],[130.713,32.212],[226.247,32.216],[226.828,32.302],[227.275,32.501],[227.729,32.873],[228.011,33.273],[228.187,33.730],[228.247,34.216],[228.259,220.216],[228.199,220.702],[228.023,221.159],[227.674,221.630],[227.288,221.932],[226.840,222.130],[226.259,222.216],[23.741,222.229],[23.255,222.170],[22.798,221.993],[22.398,221.711],[22.025,221.258],[21.801,220.715],[21.741,220.229],[21.741,34.208],[21.801,33.722],[21.977,33.265],[22.259,32.865],[22.713,32.493],[23.160,32.294],[23.741,32.208],[101.086,32.211],[101.103,28.506],[101.353,28.038],[101.866,27.780]]

;TYPE:Custom
START_PRINT BED_TEMP=75 HOTEND_TEMP=240 FILAMENT_TYPE=PET EXTRUSION_MULTIPLIER=0.88 PERIMETER_SPEED=70
G21 ; set units to millimeters
G90 ; use absolute coordinates
M82 ; use absolute distances for extrusion
G92 E0
; Filament gcode
; ########################### NOTE OFFSET CHANGES ####################################
; Prevents PETG buildup on nozzle.
; SET_GCODE_OFFSET Z=0.06
; ####################################################################################
M107
;LAYER_CHANGE
;Z:0.35
;HEIGHT:0.35
G1 E-.5 F240
G1 Z.35 F9000
EXCLUDE_OBJECT_START NAME='controller_base'
G92 E0
G1 X159.742 Y127.985
G1 E.5 F240
G92 E0
;TYPE:External perimeter
;WIDTH:0.675
G1 F1800
G1 X159.172 Y128.116 E.04493
G1 X138.667 Y128.116 E1.62006
G1 X138.112 Y128.01 E1.66346
G1 X137.589 Y127.796 E1.70687
G1 X137.119 Y127.482 E1.75029
G1 X136.72 Y127.082 E1.79369
G1 X136.409 Y126.611 E1.83705
G1 X136.201 Y126.099 E1.8795
G1 X136.107 Y125.666 E1.91354
G1 X136.089 Y125.108 E1.95643
G1 X136.181 Y124.551 E1.9998
G1 X136.382 Y124.024 E2.04313
G1 X136.634 Y123.61 E2.08036
G1 X136.968 Y123.232 E2.11911
G1 X137.45 Y122.874 E2.16523
G1 X137.845 Y122.665 E2.19956
G1 X138.328 Y122.517 E2.23837
G1 X138.918 Y122.453 E2.28396
G1 X159.172 Y122.465 E3.83981
G1 X159.727 Y122.572 E3.88323
G1 X160.249 Y122.785 E3.92654
G1 X160.719 Y123.099 E3.96996
G1 X161.118 Y123.499 E4.01336
G1 X161.429 Y123.97 E4.05672
G1 X161.641 Y124.494 E4.10014
G1 X161.745 Y125.049 E4.14352
G1 X161.737 Y125.614 E4.18693
G1 X161.617 Y126.165 E4.23025
G1 X161.433 Y126.605 E4.26689
G1 X161.205 Y126.97 E4.29995
G1 X160.864 Y127.357 E4.33957
G1 X160.499 Y127.647 E4.37538
G1 X159.884 Y127.952 E4.42811
G1 X159.83 Y127.965 E4.43238
G1 X159.244 Y128.096 F9000
G1 X159.907 Y128.573
;TYPE:Perimeter
G1 F1800
G1 X159.35 Y128.698 E4.47623
G1 X159.172 Y128.716 E4.48997
G1 X138.667 Y128.716 E6.0651
G1 X137.993 Y128.598 E6.11766
G1 X137.483 Y128.402 E6.15963
G1 X137.199 Y128.263 E6.18392
G1 X136.781 Y127.978 E6.22278
G1 X136.291 Y127.501 E6.27531
G1 X135.905 Y126.937 E6.32781
G1 X135.643 Y126.319 E6.37937
G1 X135.52 Y125.786 E6.42139
G1 X135.489 Y125.123 E6.47238
G1 X135.59 Y124.447 E6.52488
G1 X135.823 Y123.805 E6.57734
G1 X136.091 Y123.34 E6.61857
G1 X136.518 Y122.835 E6.66937
G1 X136.929 Y122.49 E6.71059
G1 X137.503 Y122.162 E6.76137
G1 X138.151 Y121.943 E6.81391
G1 X138.918 Y121.853 E6.87323
G1 X159.172 Y121.866 E8.42908
G1 X159.846 Y121.984 E8.48164
G1 X160.482 Y122.233 E8.53411
G1 X161.057 Y122.603 E8.58663
G1 X161.547 Y123.08 E8.63916
G1 X161.868 Y123.544 E8.6825
G1 X162.015 Y123.804 E8.70544
G1 X162.2 Y124.274 E8.74424
G1 X162.336 Y124.945 E8.79683
G1 X162.337 Y125.629 E8.84937
G1 X162.202 Y126.299 E8.90187
G1 X162.007 Y126.798 E8.94302
G1 X161.747 Y127.241 E8.98248
G1 X161.329 Y127.737 E9.03231
G1 X160.912 Y128.089 E9.07423
G1 X160.47 Y128.356 E9.1139
G1 X159.996 Y128.553 E9.15333
G1 E8.65333 F240
G92 E0
G1 X159.996 Y128.553 F9000
G1 X161.743 Y138.657
G1 E.5 F240
;TYPE:External perimeter
G1 F1800
G1 X161.737 Y139.042 E.52958
G1 X161.617 Y139.594 E.57297
G1 X161.433 Y140.033 E.60953
G1 X161.205 Y140.399 E.64265
G1 X160.864 Y140.785 E.68221
G1 X160.499 Y141.076 E.71807
G1 X159.986 Y141.337 E.76228
G1 X159.598 Y141.474 E.79389
G1 X159.171 Y141.544 E.82713
G1 X138.667 Y141.544 E2.40218
G1 X138.19 Y141.46 E2.43939
G1 X137.716 Y141.287 E2.47815
G1 X137.231 Y140.998 E2.52152
G1 X136.812 Y140.618 E2.56497
G1 X136.478 Y140.163 E2.60833
G1 X136.24 Y139.651 E2.6517
G1 X136.109 Y139.101 E2.69513
G1 X136.089 Y138.537 E2.73848
G1 X136.181 Y137.98 E2.78185
G1 X136.389 Y137.435 E2.82666
G1 X136.669 Y136.999 E2.86646
G1 X137.012 Y136.62 E2.90573
G1 X137.415 Y136.315 E2.94455
G1 X137.921 Y136.064 E2.98794
G1 X138.387 Y135.933 E3.02512
G1 X138.888 Y135.883 E3.0638
G1 X159.172 Y135.894 E4.62195
G1 X159.726 Y136 E4.66528
G1 X160.249 Y136.214 E4.70869
G1 X160.719 Y136.527 E4.75207
G1 X161.118 Y136.927 E4.79547
G1 X161.429 Y137.399 E4.83889
G1 X161.641 Y137.922 E4.88224
G1 X161.745 Y138.477 E4.92562
G1 X161.744 Y138.567 E4.93253
G1 X161.698 Y139.165 F9000
G1 X162.336 Y138.657
;TYPE:Perimeter
G1 F1800
G1 X162.337 Y139.057 E4.96326
G1 X162.237 Y139.577 E5.00394
G1 X162.154 Y139.876 E5.02778
G1 X161.945 Y140.346 E5.06729
G1 X161.655 Y140.795 E5.10835
G1 X161.284 Y141.213 E5.15128
G1 X160.887 Y141.537 E5.19064
G1 X160.432 Y141.806 E5.23124
G1 X159.854 Y142.024 E5.27869
G1 X159.328 Y142.13 E5.31991
G1 X159.171 Y142.144 E5.33202
G1 X138.667 Y142.144 E6.90707
G1 X138.136 Y142.064 E6.94832
G1 X137.51 Y141.851 E6.99911
G1 X136.918 Y141.51 E7.05159
G1 X136.404 Y141.058 E7.10417
G1 X135.991 Y140.513 E7.1567
G1 X135.693 Y139.897 E7.20927
G1 X135.524 Y139.235 E7.26175
G1 X135.489 Y138.552 E7.31428
G1 X135.59 Y137.876 E7.36678
G1 X135.854 Y137.163 E7.42518
G1 X136.124 Y136.719 E7.4651
G1 X136.518 Y136.263 E7.51139
G1 X137.053 Y135.836 E7.56397
G1 X137.536 Y135.584 E7.60582
G1 X138.173 Y135.365 E7.65756
G1 X138.828 Y135.286 E7.70824
G1 X159.172 Y135.294 E9.271
G1 X159.845 Y135.412 E9.32349
G1 X160.482 Y135.661 E9.37603
G1 X161.057 Y136.032 E9.4286
G1 X161.547 Y136.509 E9.48113
G1 X161.869 Y136.973 E9.52451
G1 X162.015 Y137.233 E9.54742
G1 X162.2 Y137.703 E9.58622
G1 X162.336 Y138.373 E9.63874
G1 X162.336 Y138.567 E9.65364
G1 E9.15364 F240
G92 E0
G1 X162.336 Y138.567 F9000
G1 X158.927 Y149.322
G1 E.5 F240
;TYPE:External perimeter
G1 F1800
G1 X159.172 Y149.323 E.51882
G1 X159.727 Y149.429 E.56222
G1 X160.249 Y149.643 E.60556
G1 X160.719 Y149.956 E.64894
G1 X161.118 Y150.356 E.69234
G1 X161.429 Y150.827 E.7357
G1 X161.641 Y151.351 E.77912
G1 X161.745 Y151.906 E.8225
G1 X161.737 Y152.471 E.86591
G1 X161.617 Y153.022 E.90923
G1 X161.433 Y153.462 E.94587
G1 X161.204 Y153.828 E.97903
G1 X160.871 Y154.206 E1.01773
G1 X160.492 Y154.508 E1.05496
G1 X160.049 Y154.749 E1.0937
G1 X159.598 Y154.902 E1.13028
G1 X159.171 Y154.973 E1.16353
G1 X138.667 Y154.973 E2.73858
G1 X138.112 Y154.867 E2.78198
G1 X137.661 Y154.69 E2.8192
G1 X137.231 Y154.427 E2.85792
G1 X136.812 Y154.047 E2.90137
G1 X136.478 Y153.592 E2.94473
G1 X136.24 Y153.079 E2.98817
G1 X136.109 Y152.53 E3.03153
G1 X136.089 Y151.966 E3.07488
G1 X136.181 Y151.408 E3.11832
G1 X136.382 Y150.881 E3.16165
G1 X136.634 Y150.467 E3.19888
G1 X136.968 Y150.089 E3.23763
G1 X137.414 Y149.743 E3.28099
G1 X137.846 Y149.522 E3.31827
G1 X138.328 Y149.374 E3.357
G1 X138.918 Y149.31 E3.40259
G1 X158.837 Y149.322 E4.9327
G1 X159.434 Y149.381 F9000
G1 X158.942 Y148.723
;TYPE:Perimeter
G1 F1800
G1 X159.172 Y148.723 E4.95037
G1 X159.846 Y148.841 E5.00293
G1 X160.482 Y149.09 E5.0554
G1 X161.057 Y149.46 E5.10792
G1 X161.547 Y149.937 E5.16045
G1 X161.866 Y150.397 E5.20345
G1 X162.067 Y150.793 E5.23756
G1 X162.248 Y151.304 E5.2792
G1 X162.336 Y151.803 E5.31812
G1 X162.337 Y152.486 E5.37059
G1 X162.202 Y153.156 E5.42309
G1 X162.007 Y153.655 E5.46424
G1 X161.747 Y154.099 E5.50376
G1 X161.329 Y154.593 E5.55347
G1 X160.909 Y154.948 E5.59571
G1 X160.336 Y155.276 E5.64643
G1 X159.832 Y155.46 E5.68765
G1 X159.328 Y155.559 E5.72711
G1 X159.171 Y155.573 E5.73922
G1 X138.667 Y155.573 E7.31427
G1 X137.993 Y155.455 E7.36683
G1 X137.489 Y155.272 E7.40802
G1 X136.918 Y154.938 E7.45884
G1 X136.404 Y154.487 E7.51137
G1 X135.991 Y153.942 E7.5639
G1 X135.693 Y153.326 E7.61647
G1 X135.524 Y152.664 E7.66895
G1 X135.489 Y151.98 E7.72156
G1 X135.59 Y151.304 E7.77406
G1 X135.823 Y150.662 E7.82652
G1 X136.091 Y150.197 E7.86775
G1 X136.518 Y149.692 E7.91855
G1 X137.052 Y149.265 E7.97107
G1 X137.523 Y149.008 E8.01229
G1 X138.151 Y148.8 E8.06311
G1 X138.918 Y148.71 E8.12243
G1 X158.852 Y148.723 E9.65369
G1 E9.15369 F240
G92 E0
G1 X158.852 Y148.723 F9000
G1 X136.245 Y164.669
G1 E.5 F240
;TYPE:External perimeter
G1 F1800
G1 X136.382 Y164.309 E.52959
G1 X136.634 Y163.896 E.56675
G1 X136.968 Y163.518 E.6055
G1 X137.414 Y163.172 E.64886
G1 X137.846 Y162.951 E.68614
G1 X138.328 Y162.802 E.72489
G1 X138.918 Y162.739 E.77047
G1 X159.172 Y162.751 E2.32632
G1 X159.727 Y162.857 E2.36972
G1 X160.249 Y163.071 E2.41306
G1 X160.719 Y163.384 E2.45644
G1 X161.109 Y163.775 E2.49886
G1 X161.429 Y164.256 E2.54324
G1 X161.641 Y164.779 E2.58659
G1 X161.745 Y165.335 E2.63004
G1 X161.737 Y165.899 E2.67337
G1 X161.617 Y166.451 E2.71676
G1 X161.429 Y166.897 E2.75394
G1 X161.156 Y167.321 E2.79268
G1 X160.832 Y167.671 E2.82932
G1 X160.492 Y167.937 E2.86248
G1 X160.049 Y168.178 E2.90122
G1 X159.598 Y168.331 E2.9378
G1 X159.171 Y168.401 E2.97104
G1 X138.667 Y168.401 E4.54609
G1 X138.19 Y168.317 E4.5833
G1 X137.716 Y168.145 E4.62203
G1 X137.231 Y167.855 E4.66544
G1 X136.812 Y167.475 E4.70889
G1 X136.478 Y167.02 E4.75225
G1 X136.24 Y166.508 E4.79562
G1 X136.109 Y165.959 E4.83898
G1 X136.089 Y165.394 E4.88241
G1 X136.181 Y164.837 E4.92578
G1 X136.213 Y164.753 E4.93268
G1 X136.458 Y164.206 F9000
G1 X135.687 Y164.466
;TYPE:Perimeter
G1 F1800
G1 X135.823 Y164.09 E4.96339
G1 X136.091 Y163.625 E5.00462
G1 X136.518 Y163.121 E5.05536
G1 X137.052 Y162.694 E5.10788
G1 X137.523 Y162.437 E5.1491
G1 X138.151 Y162.229 E5.19992
G1 X138.918 Y162.139 E5.25924
G1 X159.172 Y162.151 E6.81509
G1 X159.846 Y162.269 E6.86765
G1 X160.482 Y162.518 E6.92012
G1 X161.057 Y162.889 E6.97269
G1 X161.539 Y163.357 E7.0243
G1 X161.933 Y163.93 E7.07772
G1 X162.2 Y164.56 E7.13028
G1 X162.336 Y165.23 E7.1828
G1 X162.337 Y165.914 E7.23534
G1 X162.202 Y166.584 E7.28784
G1 X162.006 Y167.084 E7.32909
G1 X161.659 Y167.646 E7.37983
G1 X161.305 Y168.049 E7.42103
G1 X160.909 Y168.377 E7.46053
G1 X160.336 Y168.705 E7.51125
G1 X159.832 Y168.888 E7.55244
G1 X159.328 Y168.988 E7.59191
G1 X158.284 Y169.001 E7.67211
G1 X138.667 Y169.001 E9.17902
G1 X138.136 Y168.922 E9.22026
G1 X137.51 Y168.708 E9.27108
G1 X136.918 Y168.367 E9.32356
G1 X136.404 Y167.915 E9.37614
G1 X135.991 Y167.37 E9.42867
G1 X135.693 Y166.755 E9.48117
G1 X135.524 Y166.092 E9.53373
G1 X135.489 Y165.409 E9.58626
G1 X135.59 Y164.733 E9.63876
G1 X135.656 Y164.551 E9.65363
G1 E9.15363 F240
G92 E0
G1 X135.656 Y164.551 F9000
G1 X212.461 Y148.715
G1 E.5 F240
;TYPE:External perimeter
G1 F1800
G1 X212.55 Y149.392 E.55245
G1 X212.55 Y185.994 E3.36409
G1 X212.527 Y186.377 E3.39356
G1 X212.353 Y187.15 E3.45443
G1 X211.972 Y187.927 E3.52091
G1 X211.36 Y188.637 E3.59291
G1 X210.708 Y189.096 E3.65416
G1 X209.907 Y189.414 E3.72036
G1 X209.051 Y189.528 E3.7867
G1 X179.411 Y189.531 E6.06355
G1 X179.029 Y189.508 E6.09295
G1 X178.256 Y189.334 E6.15382
G1 X177.619 Y189.041 E6.20768
G1 X176.938 Y188.519 E6.27359
G1 X176.399 Y187.842 E6.34006
G1 X176.04 Y187.055 E6.40651
G1 X175.917 Y186.534 E6.44763
G1 X175.876 Y186.017 E6.48747
G1 X175.879 Y149.234 E9.31302
G1 X175.949 Y148.679 E9.35599
G1 X176.134 Y148.067 E9.4051
G1 X176.456 Y147.453 E9.45836
G1 X176.933 Y146.872 E9.51611
G1 X177.423 Y146.469 E9.56485
G1 X178.032 Y146.137 E9.61813
G1 X178.583 Y145.964 E9.66249
G1 X179.382 Y145.857 E9.72441
G1 X209.171 Y145.859 E12.0127
G1 X209.843 Y145.956 E12.06486
G1 X210.647 Y146.258 E12.13083
G1 X211.101 Y146.539 E12.17184
G1 X211.613 Y146.997 E12.22461
G1 X212.113 Y147.694 E12.2905
G1 X212.433 Y148.499 E12.35704
G1 X212.449 Y148.626 E12.36687
G1 X212.527 Y149.221 F9000
G1 E11.86687 F240
G92 E0
G1 X184.918 Y45.239 F9000
G1 E.5 F240
G1 F1800
G1 X199.921 Y45.239 E1.65248
G1 X200.431 Y45.279 E1.69178
G1 X200.909 Y45.39 E1.72948
G1 X201.379 Y45.577 E1.76834
G1 X202.007 Y45.975 E1.82545
G1 X202.554 Y46.536 E1.88564
G1 X202.852 Y46.984 E1.92697
G1 X203.138 Y47.71 E1.98691
G1 X203.237 Y48.397 E2.04023
G1 X203.257 Y49.13 E2.09656
G1 X203.254 Y122.539 E7.7356
;WIDTH:0.716807
G1 X203.275 Y122.745 E7.75261
;WIDTH:0.758614
G1 X203.296 Y122.951 E7.77073
;WIDTH:0.800422
G1 X203.317 Y123.158 E7.79005
G1 X203.311 Y123.334 E7.80641
;WIDTH:0.789501
G1 X203.311 Y124.779 E7.9386
;WIDTH:0.789035
G1 X203.299 Y125.348 E7.99063
;WIDTH:0.765763
G1 X203.276 Y125.689 E8.02086
;WIDTH:0.720381
G1 X203.254 Y126.03 E8.04909
;WIDTH:0.675
G1 X203.253 Y141.225 E9.21632
G1 X203.162 Y141.859 E9.26552
G1 X202.878 Y142.616 E9.32763
G1 X202.415 Y143.289 E9.39038
G1 X201.803 Y143.829 E9.45308
G1 X201.223 Y144.147 E9.50389
G1 X200.445 Y144.37 E9.56606
G1 X199.921 Y144.414 E9.60645
G1 X184.918 Y144.414 E10.75893
G1 X184.408 Y144.374 E10.79823
G1 X183.929 Y144.263 E10.836
G1 X183.46 Y144.076 E10.87479
G1 X182.832 Y143.678 E10.9319
G1 X182.359 Y143.215 E10.98274
G1 X181.92 Y142.536 E11.04485
G1 X181.733 Y142.066 E11.08371
G1 X181.618 Y141.569 E11.1229
G1 X181.582 Y140.215 E11.22695
G1 X181.582 Y127.909 E12.17226
G1 X181.585 Y48.427 E18.2778
G1 X181.624 Y48.058 E18.3063
G1 X181.768 Y47.48 E18.35206
G1 X182.043 Y46.886 E18.40234
G1 X182.428 Y46.358 E18.45254
G1 X183.035 Y45.824 E18.51464
G1 X183.615 Y45.505 E18.56549
G1 X184.24 Y45.31 E18.61578
G1 X184.829 Y45.248 E18.66128
G1 X185.429 Y45.24 F9000
G1 X184.918 Y44.639
;TYPE:Perimeter
G1 F1800
G1 X199.921 Y44.639 E19.81376
G1 X200.431 Y44.674 E19.85303
G1 X200.998 Y44.791 E19.8975
G1 X201.542 Y44.991 E19.94202
G1 X202.143 Y45.351 E19.99584
G1 X202.498 Y45.608 E20.02951
G1 X203.011 Y46.146 E20.08661
G1 X203.307 Y46.582 E20.12709
G1 X203.548 Y47.107 E20.17146
G1 X203.751 Y47.678 E20.21801
G1 X203.832 Y48.323 E20.26795
G1 X203.857 Y49.13 E20.32997
G1 X203.854 Y122.318 E25.95203
G1 X204.126 Y122.037 E25.98207
G1 X204.398 Y121.854 E26.00725
G1 X204.723 Y121.72 E26.03425
G1 X205.218 Y121.639 E26.07278
G1 X221.742 Y121.648 E27.3421
G1 X222.18 Y121.735 E27.3764
G1 X222.613 Y121.957 E27.41378
G1 X222.983 Y122.306 E27.45285
G1 X223.235 Y122.748 E27.49193
G1 X223.347 Y123.242 E27.53084
G1 X223.348 Y124.905 E27.65859
G1 X223.303 Y125.182 E27.68015
G1 X223.213 Y125.454 E27.70216
G1 X223.068 Y125.725 E27.72577
G1 X222.782 Y126.068 E27.76008
G1 X222.276 Y126.385 E27.80595
G1 X221.757 Y126.508 E27.84692
G1 X205.096 Y126.505 E29.12676
G1 X204.6 Y126.395 E29.16579
G1 X204.157 Y126.146 E29.20483
G1 X203.854 Y125.844 E29.23769
G1 X203.853 Y141.225 E30.41921
G1 X203.756 Y141.947 E30.47517
G1 X203.438 Y142.832 E30.54741
G1 X202.906 Y143.634 E30.62134
G1 X202.195 Y144.283 E30.69529
G1 X201.506 Y144.676 E30.75622
;WIDTH:0.723671
G1 X201.332 Y144.754 E30.77206
;WIDTH:0.772342
G1 X201.158 Y144.832 E30.78908
;WIDTH:0.821013
G1 X200.985 Y144.91 E30.80721
;WIDTH:0.869684
G1 X200.811 Y144.988 E30.82661
;WIDTH:0.918355
G1 X200.637 Y145.066 E30.8472
;WIDTH:0.968263
G1 X200.546 Y145.112 E30.85886
G1 X200.686 Y145.136 E30.87511
;WIDTH:0.919385
G1 X200.827 Y145.161 E30.89059
;WIDTH:0.870508
G1 X200.968 Y145.185 E30.90516
;WIDTH:0.821631
G1 X201.109 Y145.21 E30.91885
;WIDTH:0.772754
G1 X201.25 Y145.234 E30.93163
;WIDTH:0.723877
G1 X201.391 Y145.259 E30.94353
;WIDTH:0.675
G1 X209.171 Y145.26 E31.54116
G1 X209.931 Y145.362 E31.60006
G1 X210.862 Y145.698 E31.67609
G1 X211.422 Y146.032 E31.72618
G1 X212.016 Y146.552 E31.78682
G1 X212.603 Y147.349 E31.86286
G1 X212.993 Y148.283 E31.94061
G1 X213.15 Y149.392 E32.02665
G1 X213.15 Y185.994 E34.83829
G1 X213.112 Y186.508 E34.87788
G1 X212.939 Y187.282 E34.9388
G1 X212.508 Y188.196 E35.01643
G1 X212.036 Y188.785 E35.07441
G1 X211.705 Y189.127 E35.11097
G1 X211.057 Y189.584 E35.17188
G1 X210.123 Y189.973 E35.2496
G1 X209.124 Y190.124 E35.32721
