; generated by PrusaSlicer 2.8.0+MacOS-arm64 on 2024-09-05 at 15:23:55 UTC


;
;

;
;
; 

; external perimeters extrusion width = 0.68mm
; perimeters extrusion width = 0.68mm
; infill extrusion width = 0.68mm
; solid infill extrusion width = 0.68mm
; top infill extrusion width = 0.60mm


EXCLUDE_OBJECT_DEFINE NAME='main_controller_lid' CENTER=125.005,125.000 POLYGON=[[224.813,32.391],[225.229,32.495],[225.574,32.751],[225.795,33.119],[225.859,33.489],[225.859,216.511],[225.774,216.934],[225.494,217.329],[225.173,217.530],[224.759,217.611],[25.241,217.598],[24.817,217.513],[24.422,217.232],[24.222,216.911],[24.141,216.497],[24.153,33.497],[24.237,33.076],[24.514,32.682],[24.882,32.462],[25.253,32.397]]

;TYPE:Custom
START_PRINT BED_TEMP=75 HOTEND_TEMP=240 FILAMENT_TYPE=PET EXTRUSION_MULTIPLIER=0.88 PERIMETER_SPEED=70
G21 ; set units to millimeters
G90 ; use absolute coordinates
M82 ; use absolute distances for extrusion
G92 E0
; Filament gcode
; ########################### NOTE OFFSET CHANGES ####################################
; Prevents PETG buildup on nozzle.
; SET_GCODE_OFFSET Z=0.06
; ####################################################################################
M107
;LAYER_CHANGE
;Z:0.35
;HEIGHT:0.35
G1 E-.5 F240
G1 Z.35 F9000
EXCLUDE_OBJECT_START NAME='main_controller_lid'
G92 E0
G1 X125.576 Y125.815
G1 E.5 F240
G92 E0
;TYPE:External perimeter
;WIDTH:0.675
G1 F1800
G1 X125.418 Y125.807 E.01215
G1 X113.692 Y119.12 E1.04908
G1 X113.563 Y118.972 E1.06416
G1 X113.544 Y118.812 E1.07654
G1 X113.64 Y118.636 E1.09194
G1 X113.689 Y118.601 E1.09657
G1 X130.172 Y108.971 E2.563
G1 X130.339 Y108.931 E2.57619
G1 X130.527 Y109.01 E2.59185
G1 X130.62 Y109.187 E2.60721
G1 X130.761 Y110.153 E2.6822
G1 X130.852 Y111.084 E2.75406
G1 X130.899 Y112.019 E2.82597
G1 X130.9 Y112.955 E2.89787
G1 X130.875 Y113.504 E2.94009
G1 X130.768 Y114.822 E3.04167
G1 X130.635 Y115.748 E3.11353
G1 X130.458 Y116.667 E3.18542
G1 X130.237 Y117.577 E3.25736
G1 X129.973 Y118.475 E3.32926
G1 X129.666 Y119.359 E3.40114
G1 X129.403 Y120.013 E3.45529
G1 X128.927 Y121.078 E3.5449
G1 X128.496 Y121.909 E3.61681
G1 X128.026 Y122.719 E3.68875
G1 X127.518 Y123.505 E3.76064
G1 X127.085 Y124.109 E3.81773
G1 X126.392 Y124.999 E3.90438
G1 X125.681 Y125.789 E3.98602
G1 X125.662 Y125.797 E3.9876
G1 X125.092 Y125.608 F9000
G1 X125.693 Y126.5
;TYPE:Perimeter
;WIDTH:0.865298
G1 F1800
G1 X125.523 Y126.524 E4.00497
;WIDTH:0.864302
G1 X125.157 Y126.451 E4.04269
;WIDTH:0.863853
G1 X124.981 Y126.327 E4.06443
;WIDTH:0.819808
G1 X124.804 Y126.204 E4.08498
;WIDTH:0.775763
G1 X124.628 Y126.08 E4.1043
;WIDTH:0.731718
G1 X124.451 Y125.957 E4.12242
;WIDTH:0.687674
G1 X113.392 Y119.647 E5.12116
G1 X113.007 Y119.198 E5.16755
;WIDTH:0.675
G1 X112.952 Y118.717 E5.20474
G1 X113.077 Y118.384 E5.23206
G1 X113.239 Y118.19 E5.25148
G1 X113.387 Y118.083 E5.26551
G1 X118.15 Y115.3 E5.68927
;WIDTH:0.68767
G1 X129.867 Y108.448 E6.75396
G1 X130.371 Y108.332 E6.79453
;WIDTH:0.675
G1 X130.751 Y108.438 E6.82483
G1 X131.022 Y108.663 E6.85189
G1 X131.19 Y108.988 E6.87999
G1 X131.355 Y110.066 E6.96376
G1 X131.449 Y111.026 E7.03786
G1 X131.498 Y111.99 E7.11201
G1 X131.5 Y112.955 E7.18614
G1 X131.474 Y113.532 E7.23051
G1 X131.365 Y114.879 E7.33432
G1 X131.229 Y115.834 E7.40842
G1 X131.047 Y116.781 E7.4825
G1 X130.82 Y117.719 E7.55663
G1 X130.548 Y118.644 E7.63069
G1 X130.233 Y119.556 E7.70481
G1 X129.96 Y120.237 E7.76117
G1 X129.472 Y121.328 E7.85298
G1 X129.029 Y122.185 E7.92709
G1 X128.545 Y123.02 E8.00123
G1 X128.022 Y123.83 E8.07529
G1 X127.572 Y124.459 E8.1347
G1 X126.862 Y125.372 E8.22354
;WIDTH:0.7015
G1 X126.512 Y125.794 E8.26752
;WIDTH:0.749358
G1 X126.446 Y125.905 E8.27867
;WIDTH:0.797217
G1 X126.379 Y126.017 E8.29074
;WIDTH:0.845076
G1 X126.313 Y126.129 E8.30356
;WIDTH:0.892935
G1 X126.246 Y126.24 E8.31714
G1 X126.372 Y126.218 E8.33053
;WIDTH:0.845076
G1 X126.498 Y126.195 E8.34316
;WIDTH:0.797217
G1 X126.624 Y126.173 E8.35499
;WIDTH:0.749358
G1 X126.75 Y126.151 E8.36603
;WIDTH:0.7015
G1 X127.252 Y126.083 E8.40666
;WIDTH:0.675
G1 X127.894 Y126.135 E8.45614
G1 X128.355 Y126.283 E8.49333
G1 X128.779 Y126.52 E8.53064
G1 X129.146 Y126.836 E8.56784
G1 X129.444 Y127.219 E8.60512
G1 X129.674 Y127.703 E8.64628
G1 X129.796 Y128.238 E8.68843
G1 X129.802 Y128.789 E8.73076
G1 X129.694 Y129.285 E8.76975
G1 X129.472 Y129.772 E8.81086
G1 X129.149 Y130.195 E8.85174
G1 X128.756 Y130.528 E8.89131
G1 X128.302 Y130.77 E8.93083
G1 X127.837 Y130.907 E8.96807
G1 X127.354 Y130.95 E9.00532
G1 X126.872 Y130.896 E9.04258
G1 X126.411 Y130.748 E9.07977
G1 X125.988 Y130.511 E9.11702
G1 X125.62 Y130.195 E9.15428
G1 X125.284 Y129.742 E9.19761
G1 X125.106 Y129.378 E9.22874
G1 X124.977 Y128.843 E9.27101
G1 X124.963 Y128.309 E9.31204
G1 X125.077 Y127.77 E9.35436
;WIDTH:0.695804
G1 X125.131 Y127.609 E9.36786
;WIDTH:0.738988
G1 X125.185 Y127.448 E9.3823
;WIDTH:0.782172
G1 X125.24 Y127.286 E9.39779
;WIDTH:0.825356
G1 X125.294 Y127.125 E9.4141
;WIDTH:0.863853
G1 X125.463 Y126.869 E9.44508
;WIDTH:0.865298
G1 X125.827 Y126.521 E9.49604
;WIDTH:0.865721
G1 X125.932 Y126.44 E9.50947
G1 X125.807 Y126.485 E9.52292
;WIDTH:0.865298
G1 X125.783 Y126.488 E9.52537
G1 X125.783 Y126.488 F9000
G1 X125.932 Y126.44
;WIDTH:0.892935
G1 F1800
G1 X126.246 Y126.24 E9.56436
G1 E9.06436 F240
G92 E0
G1 X126.246 Y126.24 F9000
G1 X129.203 Y128.606
G1 E.5 F240
;TYPE:External perimeter
;WIDTH:0.675
G1 F1800
G1 X129.194 Y128.819 E.51638
G1 X129.098 Y129.171 E.54441
G1 X128.934 Y129.498 E.57251
G1 X128.709 Y129.786 E.60058
G1 X128.431 Y130.024 E.62869
G1 X128.111 Y130.201 E.65678
G1 X127.763 Y130.312 E.68484
G1 X127.399 Y130.352 E.71297
G1 X127.036 Y130.319 E.74097
G1 X126.685 Y130.214 E.76911
G1 X126.362 Y130.042 E.79722
G1 X126.08 Y129.809 E.82532
G1 X125.811 Y129.455 E.85947
G1 X125.68 Y129.201 E.88142
G1 X125.576 Y128.828 E.91117
G1 X125.563 Y128.294 E.9522
G1 X125.668 Y127.859 E.98657
G1 X125.877 Y127.473 E1.02029
G1 X126.058 Y127.245 E1.04265
G1 X126.372 Y126.986 E1.07392
G1 X126.655 Y126.829 E1.09878
G1 X127.004 Y126.719 E1.12689
G1 X127.367 Y126.679 E1.15494
G1 X127.841 Y126.743 E1.19168
G1 X128.082 Y126.817 E1.21105
G1 X128.405 Y126.989 E1.23916
G1 X128.687 Y127.222 E1.26726
G1 X128.987 Y127.633 E1.30635
G1 X129.092 Y127.851 E1.32494
G1 X129.211 Y128.372 E1.36599
G1 X129.206 Y128.516 E1.37706
G1 X129.103 Y129.108 F9000
G1 E.87706 F240
G92 E0
G1 X123.982 Y127.257 F9000
G1 E.5 F240
G1 F1800
G1 X123.972 Y127.399 E.51093
G1 X123.884 Y127.511 E.52187
G1 X123.114 Y128.119 E.59724
G1 X122.54 Y128.53 E.65147
G1 X121.879 Y128.969 E.71242
G1 X121.045 Y129.473 E.78727
G1 X119.927 Y130.068 E.88456
G1 X119.076 Y130.457 E.95644
G1 X118.54 Y130.672 E1.0008
G1 X117.322 Y131.112 E1.10028
G1 X116.423 Y131.375 E1.17223
G1 X115.513 Y131.595 E1.24415
G1 X114.593 Y131.771 E1.3161
G1 X113.666 Y131.903 E1.38803
G1 X112.734 Y131.99 E1.45993
G1 X111.799 Y132.033 E1.53183
G1 X110.862 Y132.03 E1.60381
G1 X109.927 Y131.983 E1.67572
G1 X108.995 Y131.891 E1.74766
G1 X108.069 Y131.754 E1.81957
G1 X107.121 Y131.567 E1.8938
G1 X106.952 Y131.468 E1.90885
G1 X106.879 Y131.274 E1.92477
G1 X106.82 Y117.818 E2.95843
G1 X106.883 Y117.632 E2.97352
G1 X107.013 Y117.536 E2.98593
G1 X107.213 Y117.532 E3.0013
G1 X107.268 Y117.556 E3.00591
G1 X123.847 Y127.015 E4.47216
G1 X123.971 Y127.172 E4.48753
G1 X123.653 Y127.681 F9000
G1 X124.604 Y127.216
;TYPE:Perimeter
;WIDTH:0.783196
G1 F1800
G1 X124.602 Y127.234 E4.48917
;WIDTH:0.742868
G1 X124.591 Y127.33 E4.49743
;WIDTH:0.70254
G1 X124.579 Y127.425 E4.50512
;WIDTH:0.664529
G1 X124.424 Y127.799 E4.53568
;WIDTH:0.675
G1 X124.256 Y127.982 E4.55476
G1 X123.49 Y128.587 E4.62974
G1 X122.889 Y129.018 E4.68655
G1 X122.204 Y129.473 E4.74972
G1 X121.345 Y129.992 E4.82681
G1 X120.203 Y130.601 E4.92623
G1 X119.325 Y131.003 E5.00041
G1 X118.763 Y131.229 E5.04694
G1 X117.518 Y131.679 E5.14863
G1 X116.592 Y131.951 E5.22277
G1 X115.654 Y132.178 E5.2969
G1 X114.706 Y132.361 E5.37107
G1 X113.751 Y132.497 E5.44517
G1 X112.79 Y132.588 E5.51932
G1 X111.826 Y132.632 E5.59345
G1 X110.861 Y132.63 E5.66758
G1 X109.897 Y132.582 E5.74172
G1 X108.936 Y132.487 E5.8159
G1 X107.981 Y132.347 E5.89004
G1 X107.005 Y132.155 E5.96645
G1 X106.692 Y132.029 E5.99237
G1 X106.496 Y131.858 E6.01235
G1 X106.372 Y131.67 E6.02965
;WIDTH:0.677403
G1 X106.278 Y131.277 E6.06081
;WIDTH:0.693348
G1 X106.272 Y130.553 E6.11813
;WIDTH:0.68858
G1 X106.213 Y117.821 E7.11831
G1 X106.41 Y117.263 E7.1648
;WIDTH:0.675
G1 X106.799 Y116.976 E7.20193
G1 X107.15 Y116.917 E7.22927
G1 X107.399 Y116.961 E7.24869
G1 X107.566 Y117.035 E7.26272
G1 X112.355 Y119.768 E7.68628
;WIDTH:0.687668
G1 X124.148 Y126.489 E8.75099
;WIDTH:0.723881
G1 X124.283 Y126.606 E8.76583
;WIDTH:0.760088
G1 X124.419 Y126.723 E8.78157
;WIDTH:0.796295
G1 X124.555 Y126.84 E8.79814
;WIDTH:0.830074
G1 X124.596 Y126.893 E8.80462
;WIDTH:0.863853
G1 X124.637 Y126.947 E8.81147
G1 X124.625 Y127.042 E8.82114
;WIDTH:0.823524
G1 X124.615 Y127.127 E8.82934
G1 E8.32934 F240
G92 E0
G1 X124.615 Y127.127 F9000
G1 X104.917 Y130.793
G1 E.5 F240
;TYPE:External perimeter
;WIDTH:0.675
G1 F1800
G1 X104.844 Y130.848 E.50702
G1 X104.647 Y130.84 E.52217
G1 X103.74 Y130.479 E.59716
G1 X102.888 Y130.092 E.66904
G1 X102.055 Y129.664 E.74098
G1 X100.933 Y128.998 E.84121
G1 X100.456 Y128.692 E.88474
G1 X99.713 Y128.164 E.95476
G1 X99.271 Y127.818 E.99788
G1 X98.25 Y126.959 E1.10038
G1 X97.504 Y126.241 E1.17992
G1 X96.927 Y125.635 E1.2442
G1 X96.128 Y124.689 E1.33932
G1 X95.787 Y124.254 E1.38178
G1 X95.309 Y123.585 E1.44494
G1 X94.867 Y122.913 E1.50673
G1 X94.351 Y122.047 E1.58417
G1 X93.799 Y120.994 E1.6755
G1 X93.413 Y120.141 E1.74742
G1 X93.068 Y119.271 E1.81931
G1 X92.755 Y118.357 E1.89352
G1 X92.758 Y118.158 E1.90881
G1 X92.888 Y118.002 E1.92441
G1 X104.509 Y111.213 E2.95827
G1 X104.702 Y111.174 E2.9734
G1 X104.85 Y111.239 E2.98582
G1 X104.954 Y111.41 E3.00119
G1 X104.96 Y111.47 E3.00582
G1 X105.058 Y130.56 E4.47227
G1 X105.01 Y130.724 E4.4854
G1 X104.989 Y130.739 E4.48738
G1 X104.39 Y130.725 F9000
G1 X105.262 Y131.293
;TYPE:Perimeter
;WIDTH:0.677403
G1 F1800
G1 X105.222 Y131.332 E4.49169
;WIDTH:0.675
G1 X104.89 Y131.451 E4.51878
G1 X104.53 Y131.431 E4.54648
G1 X103.615 Y131.075 E4.6219
G1 X102.64 Y130.638 E4.70398
G1 X101.743 Y130.177 E4.78145
G1 X100.945 Y129.717 E4.8522
G1 X99.711 Y128.899 E4.96593
G1 X98.586 Y128.043 E5.07452
G1 X98.001 Y127.537 E5.13394
;WIDTH:0.712977
G1 X97.793 Y127.372 E5.15563
;WIDTH:0.750955
G1 X97.586 Y127.208 E5.17849
;WIDTH:0.790819
G1 X97.425 Y127.081 E5.19728
G1 X97.489 Y127.251 E5.21393
;WIDTH:0.754962
G1 X97.554 Y127.421 E5.22977
;WIDTH:0.719106
G1 X97.619 Y127.59 E5.2447
;WIDTH:0.68325
G1 X97.763 Y128.002 E5.27869
;WIDTH:0.675
G1 X97.818 Y128.484 E5.31596
G1 X97.776 Y128.967 E5.3532
G1 X97.639 Y129.432 E5.39044
G1 X97.413 Y129.861 E5.42769
G1 X97.106 Y130.236 E5.46492
G1 X96.731 Y130.543 E5.50215
G1 X96.302 Y130.77 E5.53943
G1 X95.837 Y130.907 E5.57667
G1 X95.354 Y130.95 E5.61392
G1 X94.872 Y130.896 E5.65118
G1 X94.411 Y130.748 E5.68837
G1 X93.988 Y130.511 E5.72562
G1 X93.594 Y130.163 E5.766
G1 X93.323 Y129.813 E5.8
G1 X93.092 Y129.322 E5.84168
G1 X92.971 Y128.795 E5.88322
G1 X92.964 Y128.241 E5.92578
G1 X93.094 Y127.678 E5.97017
G1 X93.328 Y127.206 E6.01064
G1 X93.657 Y126.798 E6.0509
G1 X94.134 Y126.431 E6.09713
G1 X94.464 Y126.261 E6.12565
G1 X94.929 Y126.123 E6.16291
G1 X95.475 Y126.086 E6.20495
G1 X95.894 Y126.135 E6.23736
;WIDTH:0.687476
G1 X96.334 Y126.266 E6.27336
;WIDTH:0.722853
G1 X96.494 Y126.335 E6.28781
;WIDTH:0.758231
G1 X96.655 Y126.404 E6.30313
;WIDTH:0.793609
G1 X96.815 Y126.474 E6.3192
G1 X96.661 Y126.276 E6.34228
;WIDTH:0.743667
G1 X96.507 Y126.077 E6.36382
;WIDTH:0.693726
G1 X96.179 Y125.687 E6.40419
;WIDTH:0.675
G1 X95.835 Y125.287 E6.44472
G1 X95.315 Y124.624 E6.50945
G1 X94.821 Y123.934 E6.57464
G1 X94.361 Y123.236 E6.63885
G1 X93.831 Y122.345 E6.71849
G1 X93.265 Y121.267 E6.81202
G1 X92.866 Y120.389 E6.8861
G1 X92.51 Y119.492 E6.96023
G1 X92.188 Y118.551 E7.03663
G1 X92.141 Y118.21 E7.06307
G1 X92.194 Y117.952 E7.0833
G1 X92.297 Y117.752 E7.10058
;WIDTH:0.677759
G1 X92.585 Y117.482 E7.13104
;WIDTH:0.696859
G1 X93.209 Y117.112 E7.1888
;WIDTH:0.687673
G1 X104.203 Y110.689 E8.18755
G1 X104.784 Y110.58 E8.23392
;WIDTH:0.675
G1 X105.228 Y110.774 E8.27114
G1 X105.454 Y111.048 E8.29842
G1 X105.541 Y111.286 E8.31789
G1 X105.56 Y111.467 E8.33187
G1 X105.588 Y116.983 E8.7556
;WIDTH:0.68858
G1 X105.663 Y130.556 E9.82185
;WIDTH:0.693348
G1 X105.654 Y130.714 E9.83438
G1 X105.514 Y131.052 E9.86334
;WIDTH:0.677403
G1 X105.327 Y131.231 E9.8833
G1 E9.3833 F240
G92 E0
G1 X105.327 Y131.231 F9000
G1 X97.425 Y127.081
G1 E.5 F240
;WIDTH:0.790819
G1 F1800
G1 X97.042 Y126.681 E.55075
;WIDTH:0.793609
G1 X96.815 Y126.474 E.57901
G1 X96.815 Y126.474 F9000
G1 X96.67 Y127.208
;TYPE:External perimeter
;WIDTH:0.675
G1 F1800
G1 X96.687 Y127.222 E.5807
G1 X96.927 Y127.525 E.61039
G1 X97.147 Y128.012 E.65144
G1 X97.219 Y128.454 E.68584
G1 X97.194 Y128.819 E.71394
G1 X97.098 Y129.171 E.74197
G1 X96.934 Y129.498 E.77007
G1 X96.709 Y129.786 E.79814
G1 X96.431 Y130.024 E.82625
G1 X96.111 Y130.201 E.85434
G1 X95.632 Y130.329 E.89243
G1 X95.399 Y130.352 E.91042
G1 X95.035 Y130.318 E.9385
G1 X94.685 Y130.214 E.96655
G1 X94.362 Y130.042 E.99466
G1 X94.053 Y129.778 E1.02588
G1 X93.849 Y129.526 E1.05079
G1 X93.677 Y129.187 E1.07999
G1 X93.555 Y128.66 E1.12154
G1 X93.572 Y128.212 E1.15598
G1 X93.668 Y127.859 E1.18408
G1 X93.864 Y127.49 E1.21618
G1 X94.058 Y127.245 E1.24019
G1 X94.434 Y126.95 E1.2769
G1 X94.655 Y126.829 E1.29625
G1 X95.004 Y126.719 E1.32436
G1 X95.43 Y126.684 E1.35719
G1 X95.731 Y126.712 E1.38041
G1 X96.074 Y126.813 E1.40788
G1 X96.404 Y126.989 E1.43661
G1 X96.6 Y127.151 E1.45614
G1 X96.957 Y127.633 F9000
G1 E.95614 F240
G92 E0
G1 X97.189 Y99.225 F9000
G1 E.5 F240
G1 F1800
G1 X97.297 Y99.208 E.5084
G1 X98.015 Y99.601 E.57128
G1 X109.074 Y105.911 E1.54935
G1 X109.204 Y106.059 E1.56448
G1 X109.222 Y106.219 E1.57685
G1 X109.126 Y106.394 E1.59218
G1 X109.077 Y106.43 E1.59685
G1 X92.594 Y116.06 E3.06328
G1 X92.427 Y116.1 E3.07647
G1 X92.24 Y116.021 E3.09206
G1 X92.146 Y115.844 E3.10745
G1 X92.005 Y114.878 E3.18244
G1 X91.926 Y114.069 E3.24488
G1 X91.868 Y113.012 E3.3262
G1 X91.866 Y112.076 E3.3981
G1 X91.91 Y111.141 E3.47
G1 X91.998 Y110.209 E3.54191
G1 X92.131 Y109.282 E3.61385
G1 X92.25 Y108.667 E3.66197
G1 X92.437 Y107.833 E3.72763
G1 X92.793 Y106.556 E3.82947
G1 X93.008 Y105.938 E3.87973
G1 X93.449 Y104.803 E3.97327
G1 X93.765 Y104.115 E4.03143
G1 X94.249 Y103.163 E4.11347
G1 X94.503 Y102.721 E4.15263
G1 X94.828 Y102.176 E4.20137
G1 X95.248 Y101.526 E4.26082
G1 X95.802 Y100.754 E4.33381
G1 X96.375 Y100.032 E4.40462
G1 X97.086 Y99.242 E4.48626
G1 X97.1 Y99.24 E4.48735
G1 X97.671 Y99.425 F9000
G1 X97.073 Y98.532
;TYPE:Perimeter
;WIDTH:0.863169
G1 F1800
G1 X97.243 Y98.508 E4.50468
;WIDTH:0.863857
G1 X97.609 Y98.58 E4.54235
G1 X97.786 Y98.704 E4.56418
;WIDTH:0.819811
G1 X97.962 Y98.827 E4.58466
;WIDTH:0.775765
G1 X98.139 Y98.951 E4.60405
;WIDTH:0.731719
G1 X98.315 Y99.074 E4.6221
;WIDTH:0.687674
G1 X109.375 Y105.384 E5.6209
G1 X109.76 Y105.833 E5.66729
;WIDTH:0.675
G1 X109.814 Y106.314 E5.70447
G1 X109.69 Y106.647 E5.73177
G1 X109.527 Y106.841 E5.75123
G1 X109.38 Y106.948 E5.7652
G1 X104.616 Y109.731 E6.18902
;WIDTH:0.687661
G1 X92.9 Y116.583 E7.25362
;WIDTH:0.696859
G1 X92.759 Y116.655 E7.26622
G1 X92.395 Y116.701 E7.29543
;WIDTH:0.677759
G1 X92.016 Y116.593 E7.32584
;WIDTH:0.675
G1 X91.745 Y116.368 E7.3529
G1 X91.583 Y116.066 E7.37923
G1 X91.411 Y114.965 E7.46483
G1 X91.329 Y114.127 E7.52951
G1 X91.269 Y113.041 E7.61306
G1 X91.267 Y112.076 E7.68719
G1 X91.311 Y111.113 E7.76124
G1 X91.401 Y110.152 E7.83538
G1 X91.537 Y109.197 E7.90948
G1 X91.854 Y107.691 E8.0277
G1 X92.218 Y106.386 E8.13177
G1 X92.441 Y105.741 E8.18419
G1 X92.893 Y104.579 E8.27997
G1 X93.22 Y103.865 E8.3403
G1 X93.716 Y102.887 E8.42454
G1 X94.244 Y101.974 E8.50556
G1 X94.745 Y101.2 E8.57638
G1 X95.56 Y100.094 E8.68191
G1 X95.905 Y99.659 E8.72456
G1 X96.264 Y99.246 E8.7666
;WIDTH:0.716824
G1 X96.333 Y99.136 E8.77727
;WIDTH:0.758648
