; generated by PrusaSlicer 2.8.0+MacOS-arm64 on 2024-09-05 at 21:20:14 UTC


;
;

;
;
; 

; external perimeters extrusion width = 0.68mm
; perimeters extrusion width = 0.68mm
; infill extrusion width = 0.68mm
; solid infill extrusion width = 0.68mm
; top infill extrusion width = 0.60mm
; support material extrusion width = 0.60mm


EXCLUDE_OBJECT_DEFINE NAME='part_cooling_blower_duct' CENTER=126.519,116.050 POLYGON=[[107.903,77.600],[110.610,81.465],[109.011,83.071],[108.649,83.535],[108.209,84.409],[107.994,85.365],[107.975,103.720],[113.881,103.742],[114.955,103.983],[115.753,104.360],[116.621,105.038],[125.582,113.998],[127.325,113.998],[136.285,105.038],[137.346,104.251],[138.161,103.914],[139.246,103.725],[144.931,103.720],[144.912,85.365],[144.698,84.409],[144.257,83.534],[143.895,83.070],[142.297,81.465],[145.003,77.600],[148.721,77.624],[149.446,77.750],[150.145,77.981],[151.210,78.584],[151.936,79.242],[152.520,80.029],[152.939,80.916],[153.135,81.624],[153.231,82.600],[153.193,113.411],[153.009,113.636],[152.756,113.719],[143.809,113.744],[142.794,113.922],[141.814,114.275],[141.037,114.706],[140.332,115.248],[136.969,118.651],[136.501,119.281],[135.921,120.306],[135.393,121.782],[135.192,122.942],[135.153,123.726],[135.153,156.698],[118.103,156.698],[118.103,124.076],[117.949,122.515],[117.494,121.015],[116.755,119.631],[115.760,118.419],[112.575,115.248],[111.870,114.706],[110.953,114.213],[109.975,113.887],[108.870,113.727],[100.150,113.719],[99.877,113.621],[99.704,113.388],[99.675,82.600],[99.825,81.385],[100.265,80.243],[100.810,79.428],[101.503,78.735],[102.537,78.080],[103.460,77.750],[104.185,77.624]]

;TYPE:Custom
START_PRINT BED_TEMP=65 HOTEND_TEMP=220 FILAMENT_TYPE=PLA EXTRUSION_MULTIPLIER=0.95 PERIMETER_SPEED=80
G21 ; set units to millimeters
G90 ; use absolute coordinates
M82 ; use absolute distances for extrusion
G92 E0
; Filament gcode
M107
;LAYER_CHANGE
;Z:0.35
;HEIGHT:0.35
G1 E-.5 F240
G1 Z.35 F9000
EXCLUDE_OBJECT_START NAME='part_cooling_blower_duct'
G92 E0
G1 X127.426 Y134.857
G1 E.5 F240
G92 E0
;TYPE:External perimeter
;WIDTH:0.675
G1 F1800
G1 X127.666 Y135.054 E.02575
G1 X127.909 Y135.354 E.05777
G1 X128.088 Y135.695 E.08971
G1 X128.196 Y136.065 E.12167
G1 X128.23 Y136.418 E.15108
G1 X128.23 Y140.221 E.46645
G1 X128.154 Y140.747 E.51052
G1 X127.916 Y141.272 E.55832
G1 X127.533 Y141.704 E.6062
G1 X127.041 Y142.004 E.65399
G1 X126.393 Y142.151 E.70909
G1 X125.927 Y142.121 E.74781
G1 X125.557 Y142.011 E.77982
G1 X125.217 Y141.83 E.81176
G1 X124.919 Y141.585 E.84375
G1 X124.676 Y141.286 E.8757
G1 X124.497 Y140.944 E.90771
G1 X124.392 Y140.596 E.93785
G1 X124.355 Y140.222 E.96902
G1 X124.355 Y136.418 E1.28447
G1 X124.431 Y135.892 E1.32854
G1 X124.669 Y135.367 E1.37634
G1 X125.051 Y134.935 E1.42416
G1 X125.544 Y134.635 E1.47202
G1 X126.192 Y134.488 E1.52712
G1 X126.658 Y134.518 E1.56584
G1 X127.028 Y134.628 E1.59785
G1 X127.355 Y134.802 E1.62857
G1 X127.786 Y135.219 F9000
G1 X127.783 Y134.385
;TYPE:Perimeter
G1 F1800
G1 X127.997 Y134.544 E1.65068
G1 X128.335 Y134.919 E1.69255
G1 X128.592 Y135.353 E1.73438
G1 X128.758 Y135.83 E1.77626
G1 X128.825 Y136.328 E1.81793
G1 X128.83 Y140.221 E2.14077
G1 X128.747 Y140.837 E2.19231
G1 X128.668 Y141.093 E2.21453
G1 X128.387 Y141.652 E2.26641
G1 X127.973 Y142.112 E2.31773
G1 X127.763 Y142.279 E2.33998
G1 X127.201 Y142.589 E2.3932
G1 X126.512 Y142.739 E2.45168
G1 X125.941 Y142.73 E2.49904
G1 X125.45 Y142.61 E2.54096
G1 X124.993 Y142.396 E2.58281
G1 X124.588 Y142.096 E2.62461
G1 X124.25 Y141.721 E2.66648
G1 X123.993 Y141.286 E2.70838
G1 X123.801 Y140.7 E2.75952
G1 X123.755 Y140.222 E2.79934
G1 X123.755 Y136.418 E3.11479
G1 X123.838 Y135.803 E3.16625
G1 X123.917 Y135.547 E3.18847
G1 X124.129 Y135.107 E3.22897
G1 X124.28 Y134.885 E3.25123
G1 X124.714 Y134.433 E3.30319
G1 X125.244 Y134.116 E3.3544
G1 X125.516 Y134.013 E3.37852
G1 X126.073 Y133.9 E3.42565
G1 X126.644 Y133.909 E3.47301
G1 X127.134 Y134.029 E3.51485
G1 X127.592 Y134.243 E3.55677
G1 X127.711 Y134.332 E3.56909
G1 X127.711 Y134.332 F9000
G1 X128.15 Y133.901
G1 F1800
G1 X128.585 Y134.283 E3.6171
G1 X128.963 Y134.78 E3.66888
G1 X129.235 Y135.341 E3.72058
G1 X129.39 Y135.946 E3.77237
G1 X129.43 Y136.418 E3.81165
G1 X129.43 Y140.221 E4.12702
G1 X129.34 Y140.926 E4.18596
G1 X129.209 Y141.353 E4.223
G1 X128.882 Y141.991 E4.28245
G1 X128.413 Y142.52 E4.34108
G1 X128.063 Y142.799 E4.3782
G1 X127.409 Y143.152 E4.43983
G1 X126.631 Y143.327 E4.50596
G1 X126.12 Y143.345 E4.54836
G1 X125.602 Y143.276 E4.5917
G1 X125.01 Y143.079 E4.64344
G1 X124.469 Y142.768 E4.69519
G1 X124 Y142.356 E4.74696
G1 X123.622 Y141.859 E4.79874
G1 X123.35 Y141.298 E4.85044
G1 X123.21 Y140.803 E4.8931
G1 X123.155 Y140.222 E4.9415
G1 X123.155 Y136.418 E5.25695
G1 X123.245 Y135.713 E5.31589
G1 X123.376 Y135.286 E5.35293
G1 X123.588 Y134.846 E5.39343
G1 X123.84 Y134.477 E5.43049
G1 X124.343 Y133.962 E5.49019
G1 X124.944 Y133.596 E5.54854
G1 X125.397 Y133.425 E5.58869
G1 X125.954 Y133.312 E5.63582
G1 X126.364 Y133.287 E5.66988
G1 X126.983 Y133.363 E5.7216
G1 X127.575 Y133.561 E5.77337
G1 X128.077 Y133.849 E5.82136
G1 X128.077 Y133.849 F9000
G1 X128.503 Y133.434
G1 F1800
G1 X128.745 Y133.606 E5.84598
G1 X129.254 Y134.147 E5.90758
G1 X129.646 Y134.779 E5.96925
G1 X129.904 Y135.476 E6.03088
G1 X130.019 Y136.209 E6.09241
G1 X130.03 Y140.221 E6.42511
G1 X129.933 Y141.016 E6.49153
G1 X129.749 Y141.613 E6.54334
G1 X129.376 Y142.331 E6.61044
G1 X128.853 Y142.928 E6.67626
G1 X128.363 Y143.318 E6.72819
G1 X127.616 Y143.715 E6.79834
G1 X126.75 Y143.915 E6.87205
G1 X126.176 Y143.951 E6.91974
G1 X125.652 Y143.902 E6.96338
G1 X125.126 Y143.765 E7.00845
G1 X124.446 Y143.464 E7.07012
G1 X123.84 Y143.034 E7.13174
G1 X123.331 Y142.492 E7.1934
G1 X122.939 Y141.86 E7.25507
G1 X122.681 Y141.163 E7.3167
G1 X122.619 Y140.907 E7.33854
G1 X122.555 Y140.222 E7.39559
G1 X122.555 Y136.418 E7.71104
G1 X122.651 Y135.624 E7.77736
G1 X122.836 Y135.026 E7.82927
G1 X123.048 Y134.586 E7.86977
G1 X123.4 Y134.069 E7.92164
G1 X123.971 Y133.491 E7.98902
G1 X124.644 Y133.077 E8.05454
G1 X124.969 Y132.925 E8.08429
G1 X125.835 Y132.724 E8.15801
G1 X126.346 Y132.685 E8.20051
G1 X126.933 Y132.738 E8.24939
G1 X127.459 Y132.874 E8.29444
G1 X128.139 Y133.176 E8.35614
G1 X128.43 Y133.382 E8.38571
G1 E7.88571 F240
G92 E0
G1 X128.43 Y133.382 F9000
G1 X127.449 Y114.298
G1 E.5 F240
;TYPE:External perimeter
G1 F1800
G1 X127.552 Y114.248 E.50949
G1 X136.515 Y105.285 E1.56064
G1 X136.985 Y104.879 E1.61214
G1 X137.688 Y104.458 E1.68009
G1 X138.456 Y104.184 E1.74771
G1 X139.27 Y104.063 E1.81595
G1 X146.144 Y104.058 E2.38599
G1 X146.144 Y108.866 E2.7847
G1 X146.136 Y113.165 E3.1412
G1 X145.974 Y113.255 E3.15657
G1 X143.999 Y113.271 E3.32036
G1 X143.369 Y113.335 E3.37287
G1 X142.734 Y113.464 E3.4266
G1 X142.142 Y113.645 E3.47794
G1 X141.557 Y113.889 E3.5305
G1 X140.998 Y114.189 E3.58311
G1 X140.467 Y114.547 E3.63622
G1 X139.765 Y115.153 E3.71313
G1 X137.172 Y117.746 E4.01723
G1 X136.351 Y118.7 E4.1216
G1 X135.891 Y119.391 E4.19044
G1 X135.501 Y120.123 E4.25922
G1 X135.186 Y120.888 E4.32783
G1 X135.01 Y121.449 E4.37659
G1 X134.855 Y122.091 E4.43136
G1 X134.735 Y122.912 E4.50017
G1 X134.695 Y123.723 E4.56751
G1 X134.695 Y156.361 E7.27409
G1 X118.561 Y156.361 E8.61204
G1 X118.561 Y124.075 E11.28942
G1 X118.518 Y123.232 E11.35942
G1 X118.393 Y122.405 E11.42878
G1 X118.061 Y121.213 E11.53139
G1 X117.742 Y120.447 E11.6002
G1 X117.35 Y119.715 E11.66906
G1 X116.883 Y119.021 E11.73843
G1 X116.084 Y118.096 E11.83979
G1 X113.141 Y115.153 E12.18494
G1 X112.661 Y114.719 E12.2386
G1 X112.147 Y114.34 E12.29156
G1 X111.484 Y113.957 E12.35506
G1 X110.737 Y113.635 E12.42252
G1 X110.13 Y113.452 E12.47509
G1 X109.508 Y113.33 E12.52765
G1 X108.88 Y113.27 E12.57997
G1 X106.919 Y113.255 E12.74259
G1 X106.762 Y113.166 E12.75756
G1 X106.762 Y104.058 E13.51286
G1 X113.464 Y104.063 E14.06864
G1 X114.046 Y104.102 E14.11701
G1 X114.641 Y104.236 E14.16759
G1 X115.404 Y104.551 E14.23604
G1 X115.919 Y104.877 E14.28658
G1 X116.392 Y105.285 E14.33838
G1 X125.373 Y114.265 E15.39158
G1 X125.566 Y114.336 E15.40863
G1 X127.367 Y114.334 E15.55798
G1 X127.833 Y113.956 F9000
G1 X127.685 Y114.861
;TYPE:Perimeter
G1 F1800
G1 X127.977 Y114.672 E15.58682
G1 X136.923 Y105.725 E16.63604
G1 X137.338 Y105.367 E16.68149
G1 X137.946 Y105.003 E16.74025
G1 X138.602 Y104.768 E16.79804
G1 X139.315 Y104.663 E16.8578
G1 X145.545 Y104.658 E17.37444
G1 X145.545 Y108.866 E17.7234
G1 X145.545 Y112.658 E18.03786
G1 X143.94 Y112.674 E18.17096
G1 X143.252 Y112.746 E18.22833
G1 X142.56 Y112.89 E18.28694
G1 X141.912 Y113.091 E18.3432
G1 X141.274 Y113.36 E18.40062
G1 X140.665 Y113.69 E18.45806
G1 X140.075 Y114.092 E18.51726
G1 X139.341 Y114.729 E18.59785
G1 X136.748 Y117.322 E18.90195
G1 X135.919 Y118.279 E19.00695
G1 X135.362 Y119.108 E19.08977
G1 X134.947 Y119.894 E19.16348
G1 X134.614 Y120.708 E19.23641
G1 X134.427 Y121.307 E19.28845
G1 X134.262 Y122.003 E19.34777
G1 X134.136 Y122.882 E19.42141
G1 X134.096 Y123.719 E19.4909
G1 X134.096 Y155.761 E22.14805
G1 X119.161 Y155.761 E23.38657
G1 X119.161 Y124.075 E26.0142
G1 X119.112 Y123.144 E26.09151
G1 X118.972 Y122.245 E26.16696
G1 X118.615 Y120.983 E26.27572
G1 X118.271 Y120.164 E26.34939
G1 X117.849 Y119.382 E26.42308
G1 X117.337 Y118.629 E26.49859
G1 X116.509 Y117.672 E26.60353
G1 X113.565 Y114.729 E26.94873
G1 X113.018 Y114.237 E27.00974
G1 X112.449 Y113.822 E27.06814
G1 X111.723 Y113.406 E27.13753
G1 X110.912 Y113.061 E27.21062
G1 X110.247 Y112.864 E27.26814
G1 X109.567 Y112.733 E27.32557
G1 X108.885 Y112.67 E27.38237
G1 X107.362 Y112.658 E27.50867
G1 X107.362 Y104.658 E28.17209
G1 X113.425 Y104.663 E28.67488
G1 X113.951 Y104.696 E28.71859
G1 X114.46 Y104.81 E28.76185
G1 X115.127 Y105.086 E28.82171
G1 X115.56 Y105.36 E28.8642
G1 X115.983 Y105.725 E28.91053
G1 X124.93 Y114.672 E29.9598
G1 X125.22 Y114.866 E29.98873
G1 X125.566 Y114.935 E30.01799
G1 X127.34 Y114.935 E30.1651
G1 X127.601 Y114.887 E30.18711
G1 X127.601 Y114.887 F9000
G1 X127.909 Y115.41
G1 F1800
G1 X128.009 Y115.378 E30.19582
G1 X128.401 Y115.096 E30.23587
G1 X137.244 Y106.253 E31.27295
G1 X137.691 Y105.855 E31.32258
G1 X138.203 Y105.548 E31.37209
G1 X138.749 Y105.353 E31.42017
G1 X139.359 Y105.263 E31.4713
G1 X144.945 Y105.258 E31.93453
G1 X144.945 Y108.866 E32.23373
G1 X144.945 Y112.063 E32.49885
G1 X143.882 Y112.077 E32.58701
G1 X143.135 Y112.158 E32.64932
G1 X142.386 Y112.315 E32.71278
G1 X141.682 Y112.536 E32.77397
G1 X140.991 Y112.831 E32.83628
G1 X140.332 Y113.191 E32.89855
G1 X139.683 Y113.638 E32.9639
G1 X138.917 Y114.305 E33.04813
G1 X136.324 Y116.897 E33.35217
G1 X135.465 Y117.887 E33.46086
G1 X134.833 Y118.825 E33.55465
G1 X134.393 Y119.664 E33.63321
G1 X134.042 Y120.528 E33.71055
G1 X133.845 Y121.165 E33.76584
G1 X133.669 Y121.915 E33.82972
G1 X133.551 Y122.706 E33.89604
G1 X133.496 Y123.725 E33.98067
G1 X133.496 Y155.161 E36.58757
G1 X119.761 Y155.161 E37.72657
G1 X119.761 Y124.075 E40.30444
G1 X119.705 Y123.056 E40.38907
G1 X119.55 Y122.085 E40.47061
G1 X119.17 Y120.754 E40.5854
G1 X118.8 Y119.881 E40.66403
G1 X118.347 Y119.049 E40.74259
G1 X117.792 Y118.237 E40.82415
G1 X116.933 Y117.248 E40.93278
G1 X113.99 Y114.305 E41.27793
G1 X113.375 Y113.755 E41.34635
G1 X112.751 Y113.304 E41.4102
G1 X111.962 Y112.856 E41.48544
G1 X111.086 Y112.487 E41.56427
G1 X110.364 Y112.276 E41.62665
G1 X109.626 Y112.136 E41.68894
G1 X108.889 Y112.07 E41.7503
G1 X107.962 Y112.063 E41.82718
G1 X107.962 Y105.258 E42.3915
G1 X113.584 Y105.263 E42.85772
G1 X114.041 Y105.331 E42.89603
G1 X114.561 Y105.501 E42.9414
G1 X115.04 Y105.741 E42.98583
G1 X115.575 Y106.165 E43.04244
G1 X124.506 Y115.096 E44.08984
G1 X124.903 Y115.381 E44.13037
G1 X125.213 Y115.493 E44.1577
G1 X125.566 Y115.535 E44.18718
G1 X127.573 Y115.517 E44.35362
G1 X127.823 Y115.437 E44.37539
G1 X127.823 Y115.437 F9000
G1 X128.14 Y115.965
G1 F1800
G1 X128.357 Y115.873 E44.39494
G1 X128.825 Y115.52 E44.44355
G1 X137.668 Y106.677 E45.48063
G1 X138.044 Y106.343 E45.52234
G1 X138.461 Y106.093 E45.56266
G1 X138.895 Y105.938 E45.60088
G1 X139.404 Y105.862 E45.64356
G1 X144.345 Y105.859 E46.0533
G1 X144.345 Y108.866 E46.30266
G1 X144.345 Y111.467 E46.51835
G1 X143.823 Y111.48 E46.56165
G1 X143.018 Y111.569 E46.62881
G1 X142.212 Y111.741 E46.69715
G1 X141.453 Y111.982 E46.76319
G1 X140.708 Y112.302 E46.83043
G1 X139.999 Y112.692 E46.89753
G1 X139.291 Y113.184 E46.96903
G1 X138.493 Y113.881 E47.05689
G1 X135.9 Y116.473 E47.36093
G1 X135.011 Y117.495 E47.47326
G1 X134.855 Y117.7 E47.49462
G1 X134.304 Y118.542 E47.57807
G1 X133.839 Y119.435 E47.66156
G1 X133.469 Y120.348 E47.74325
G1 X133.262 Y121.023 E47.8018
G1 X133.075 Y121.827 E47.87025
G1 X132.957 Y122.625 E47.93715
G1 X132.896 Y123.725 E48.02851
G1 X132.896 Y154.561 E50.58565
G1 X120.361 Y154.561 E51.62514
G1 X120.361 Y124.075 E54.15326
G1 X120.299 Y122.968 E54.2452
G1 X120.128 Y121.925 E54.33285
G1 X119.724 Y120.524 E54.45376
G1 X119.376 Y119.691 E54.52862
G1 X118.846 Y118.716 E54.62065
G1 X118.246 Y117.845 E54.70836
G1 X117.357 Y116.824 E54.82063
G1 X114.339 Y113.809 E55.1744
G1 X113.733 Y113.273 E55.24149
G1 X113.053 Y112.785 E55.3109
G1 X112.421 Y112.417 E55.37155
G1 X111.773 Y112.12 E55.43066
G1 X111.26 Y111.913 E55.47653
G1 X110.481 Y111.687 E55.54379
G1 X109.685 Y111.539 E55.61093
G1 X109.084 Y111.48 E55.66101
G1 X108.562 Y111.467 E55.70431
G1 X108.562 Y105.859 E56.16937
G1 X113.554 Y105.862 E56.58334
G1 X114.096 Y105.958 E56.62899
G1 X114.719 Y106.248 E56.68598
G1 X115.166 Y106.605 E56.73342
G1 X124.214 Y115.642 E57.79389
G1 X124.638 Y115.919 E57.83589
G1 X125.071 Y116.076 E57.87408
G1 X125.566 Y116.135 E57.91542
G1 X127.573 Y116.122 E58.08186
G1 X127.962 Y116.041 E58.11481
G1 X128.057 Y116.001 E58.12336
G1 X128.057 Y116.001 F9000
G1 X127.585 Y116.567
;TYPE:Solid infill
;WIDTH:0.675
G1 F1800
G1 X126.541 Y117.611 E58.2458
G1 X125.514 Y116.585 E58.36618
G1 X125.514 Y116.585 F9000
G1 X126.363 Y116.585
G1 F1800
G1 X126.541 Y116.763 E58.38706
G1 X126.718 Y116.585 E58.40788
G1 E57.90788 F240
G92 E0
G1 X126.718 Y116.585 F9000
G1 X124.355 Y116.274
G1 E.5 F240
G1 F1800
G1 X126.541 Y118.459 E.75631
G1 X130.74 Y114.26 E1.24875
G1 X130.74 Y120.199 E1.74125
G1 X133.047 Y120.199 E1.93256
G1 X133.047 Y120.199 F9000
G1 X133.286 Y119.599
G1 F1800
G1 X131.34 Y119.599 E2.09394
G1 X131.34 Y113.632 E2.58877
G1 X131.34 Y113.632 F9000
G1 X131.94 Y113.033
G1 F1800
G1 X131.94 Y118.999 E3.08351
G1 X133.553 Y118.999 E3.21727
G1 X133.553 Y118.999 F9000
G1 X133.871 Y118.399
G1 F1800
G1 X132.54 Y118.399 E3.32765
G1 X132.54 Y112.434 E3.82231
G1 X132.54 Y112.434 F9000
G1 X133.139 Y111.835
G1 F1800
G1 X133.139 Y117.799 E4.31689
G1 X134.254 Y117.799 E4.40935
G1 X134.254 Y117.799 F9000
G1 X134.687 Y117.199
G1 F1800
G1 X133.739 Y117.199 E4.48796
G1 X133.739 Y111.236 E4.98245
G1 X133.739 Y111.236 F9000
G1 X134.339 Y110.637
G1 F1800
G1 X134.339 Y116.599 E5.47686
G1 X135.2 Y116.599 E5.54826
G1 X135.2 Y116.599 F9000
G1 X135.738 Y116
G1 F1800
G1 X134.939 Y116 E5.61452
G1 X134.939 Y110.038 E6.10893
G1 X134.939 Y110.038 F9000
G1 X135.539 Y109.439
G1 F1800
G1 X135.539 Y115.4 E6.60326
G1 X136.34 Y115.4 E6.66968
G1 X136.34 Y115.4 F9000
G1 X136.942 Y114.8
G1 F1800
G1 X136.139 Y114.8 E6.73627
G1 X136.139 Y108.84 E7.23052
G1 X136.139 Y108.84 F9000
G1 X136.739 Y108.241
G1 F1800
G1 X136.739 Y114.2 E7.72468
G1 X137.544 Y114.2 E7.79144
G1 X137.544 Y114.2 F9000
G1 X138.145 Y113.6
G1 F1800
G1 X137.339 Y113.6 E7.85828
G1 X137.339 Y107.642 E8.35236
G1 X137.339 Y107.642 F9000
G1 X137.939 Y107.043
G1 F1800
G1 X137.939 Y113 E8.84636
G1 X138.816 Y113 E8.91909
G1 X138.816 Y113 F9000
G1 X139.638 Y112.4
G1 F1800
G1 X138.538 Y112.4 E9.01031
G1 X138.538 Y106.571 E9.49369
G1 X138.538 Y106.571 F9000
G1 X139.138 Y106.357
G1 F1800
G1 X139.138 Y111.8 E9.94506
G1 X140.716 Y111.8 E10.07592
G1 X140.716 Y111.8 F9000
G1 X142.584 Y111.2
G1 F1800
G1 X139.738 Y111.2 E10.31193
G1 X139.738 Y106.312 E10.71728
G1 X139.738 Y106.312 F9000
G1 X140.338 Y106.312
G1 F1800
G1 X140.338 Y110.601 E11.07295
G1 X143.895 Y110.601 E11.36792
G1 X143.895 Y110.601 F9000
G1 X143.895 Y110.001
G1 F1800
