; generated by PrusaSlicer 2.8.0+MacOS-arm64 on 2024-08-21 at 08:07:14 UTC


;
;

;
;
; 

; external perimeters extrusion width = 0.68mm
; perimeters extrusion width = 0.68mm
; infill extrusion width = 0.68mm
; solid infill extrusion width = 0.68mm
; top infill extrusion width = 0.60mm


EXCLUDE_OBJECT_DEFINE NAME='probe_bracket_(Instance_1)' CENTER=172.237,70.074 POLYGON=[[167.322,52.647],[168.223,52.850],[168.690,53.099],[169.099,53.435],[183.968,68.304],[184.270,68.671],[184.540,69.199],[184.686,69.895],[184.668,92.358],[184.404,93.411],[183.958,94.199],[183.190,94.967],[182.232,95.479],[181.529,95.655],[180.886,95.695],[180.164,95.624],[179.470,95.414],[178.830,95.072],[178.270,94.611],[177.810,94.051],[177.541,93.577],[177.297,92.894],[177.190,92.177],[177.175,84.234],[177.019,83.607],[176.687,83.054],[162.814,69.166],[161.710,68.894],[160.808,68.510],[159.972,67.996],[159.221,67.364],[155.813,63.124],[155.301,62.278],[154.920,61.365],[154.679,60.406],[154.583,59.421],[154.636,58.433],[154.932,57.149],[155.318,56.238],[155.836,55.395],[156.710,54.408],[157.484,53.792],[158.949,53.042],[160.554,52.677]]
EXCLUDE_OBJECT_DEFINE NAME='probe_bracket_(Instance_2)' CENTER=82.970,171.729 POLYGON=[[78.055,154.302],[78.956,154.505],[79.422,154.754],[79.831,155.090],[94.701,169.959],[95.003,170.326],[95.272,170.854],[95.418,171.550],[95.401,194.013],[95.202,194.897],[94.690,195.854],[93.922,196.622],[92.965,197.134],[92.261,197.310],[91.618,197.350],[90.897,197.279],[90.202,197.069],[89.716,196.824],[89.134,196.392],[88.647,195.854],[88.274,195.232],[88.029,194.549],[87.923,193.832],[87.908,185.889],[87.751,185.262],[87.419,184.709],[73.547,170.821],[72.443,170.549],[71.540,170.165],[70.704,169.651],[69.953,169.019],[66.546,164.779],[66.033,163.933],[65.652,163.020],[65.411,162.061],[65.316,161.076],[65.368,160.088],[65.665,158.804],[66.051,157.893],[66.568,157.050],[67.442,156.063],[68.216,155.447],[69.682,154.697],[71.287,154.332]]
EXCLUDE_OBJECT_DEFINE NAME='probe_bracket_(Instance_3)' CENTER=82.970,70.074 POLYGON=[[78.055,52.647],[78.956,52.850],[79.422,53.099],[79.831,53.435],[94.701,68.304],[95.003,68.671],[95.272,69.199],[95.418,69.895],[95.401,92.358],[95.202,93.242],[94.690,94.199],[93.922,94.967],[92.965,95.479],[92.261,95.655],[91.618,95.695],[90.897,95.624],[90.202,95.414],[89.716,95.169],[89.134,94.737],[88.647,94.199],[88.274,93.577],[88.029,92.894],[87.923,92.177],[87.908,84.234],[87.751,83.607],[87.419,83.054],[73.547,69.166],[72.443,68.894],[71.540,68.510],[70.704,67.996],[69.953,67.364],[66.546,63.124],[66.033,62.278],[65.652,61.365],[65.411,60.406],[65.316,59.421],[65.368,58.433],[65.665,57.149],[66.209,55.948],[66.768,55.132],[67.442,54.408],[68.216,53.792],[69.682,53.042],[71.287,52.677]]
EXCLUDE_OBJECT_DEFINE NAME='probe_bracket_(Instance_4)' CENTER=172.237,171.729 POLYGON=[[167.322,154.302],[168.223,154.505],[168.690,154.754],[169.099,155.090],[183.968,169.959],[184.270,170.326],[184.540,170.854],[184.686,171.550],[184.668,194.013],[184.404,195.066],[183.958,195.854],[183.190,196.622],[182.232,197.134],[181.529,197.310],[180.886,197.350],[180.164,197.279],[179.470,197.069],[178.830,196.727],[178.270,196.266],[177.810,195.706],[177.541,195.232],[177.297,194.549],[177.190,193.832],[177.175,185.889],[177.019,185.262],[176.687,184.709],[162.814,170.821],[161.710,170.549],[160.808,170.165],[159.972,169.651],[159.221,169.019],[155.813,164.779],[155.301,163.933],[154.920,163.020],[154.679,162.061],[154.583,161.076],[154.636,160.088],[154.932,158.804],[155.318,157.893],[155.836,157.050],[156.710,156.063],[157.484,155.447],[158.949,154.697],[160.554,154.332]]

;TYPE:Custom
START_PRINT BED_TEMP=75 HOTEND_TEMP=240 FILAMENT_TYPE=PET EXTRUSION_MULTIPLIER=0.88 PERIMETER_SPEED=70
G21 ; set units to millimeters
G90 ; use absolute coordinates
M82 ; use absolute distances for extrusion
G92 E0
; Filament gcode
; ########################### NOTE OFFSET CHANGES ####################################
; Prevents PETG buildup on nozzle.
; SET_GCODE_OFFSET Z=0.06
; ####################################################################################
M107
;LAYER_CHANGE
;Z:0.35
;HEIGHT:0.35
G1 E-.5 F240
G1 Z.35 F9000
EXCLUDE_OBJECT_START NAME='probe_bracket_(Instance_1)'
G92 E0
G1 X181.63 Y78.897
G1 E.5 F240
G92 E0
;TYPE:External perimeter
;WIDTH:0.675
G1 F1800
G1 X181.611 Y78.907 E.00165
G1 X181.24 Y79.015 E.03133
G1 X180.856 Y79.047 E.06093
G1 X180.473 Y79.003 E.09054
G1 X180.106 Y78.884 E.12018
G1 X179.771 Y78.694 E.14976
G1 X179.479 Y78.442 E.17939
G1 X179.243 Y78.136 E.20907
G1 X179.073 Y77.79 E.23868
G1 X178.973 Y77.396 E.26991
G1 X178.973 Y76.827 E.31362
G1 X179.095 Y76.376 E.34951
G1 X179.276 Y76.035 E.37917
G1 X179.521 Y75.738 E.40875
G1 X179.82 Y75.494 E.4384
G1 X180.161 Y75.315 E.46798
G1 X180.473 Y75.219 E.49306
G1 X180.932 Y75.178 E.52846
G1 X181.498 Y75.276 E.57259
G1 X181.921 Y75.474 E.60847
G1 X182.225 Y75.712 E.63813
G1 X182.475 Y76.005 E.66772
G1 X182.663 Y76.342 E.69736
G1 X182.78 Y76.709 E.72695
G1 X182.822 Y77.093 E.75662
G1 X182.788 Y77.477 E.78623
G1 X182.677 Y77.846 E.81583
G1 X182.496 Y78.187 E.84549
G1 X182.251 Y78.484 E.87507
G1 X181.952 Y78.728 E.90472
G1 X181.71 Y78.855 E.92571
G1 X181.13 Y79.009 F9000
G1 X181.847 Y79.45
;TYPE:Perimeter
G1 F1800
G1 X181.787 Y79.48 E.93086
G1 X181.3 Y79.612 E.96962
G1 X180.796 Y79.644 E1.00841
G1 X180.296 Y79.576 E1.04717
G1 X179.819 Y79.41 E1.08597
G1 X179.385 Y79.153 E1.12472
G1 X179.01 Y78.816 E1.16345
G1 X178.709 Y78.41 E1.20227
G1 X178.495 Y77.953 E1.24103
G1 X178.373 Y77.396 E1.28483
G1 X178.373 Y76.827 E1.32854
G1 X178.495 Y76.269 E1.37242
G1 X178.709 Y75.812 E1.41118
G1 X179.01 Y75.406 E1.45
G1 X179.385 Y75.068 E1.48878
G1 X179.819 Y74.812 E1.52749
G1 X180.296 Y74.646 E1.56629
G1 X180.79 Y74.578 E1.6046
G1 X181.601 Y74.686 E1.66745
G1 X182.13 Y74.903 E1.71137
G1 X182.543 Y75.193 E1.75014
G1 X182.89 Y75.56 E1.78894
G1 X183.158 Y75.987 E1.82767
G1 X183.23 Y76.229 E1.84706
;WIDTH:0.639349
G1 X183.302 Y76.471 E1.8653
;WIDTH:0.603698
G1 X183.328 Y76.771 E1.88568
;WIDTH:0.570763
G1 X183.354 Y77.07 E1.90473
;WIDTH:0.579599
G1 X183.319 Y77.626 E1.94072
;WIDTH:0.627299
G1 X183.265 Y77.873 E1.9586
;WIDTH:0.675
G1 X183.211 Y78.12 E1.97802
G1 X182.965 Y78.561 E2.01681
G1 X182.637 Y78.944 E2.05555
G1 X182.239 Y79.254 E2.0943
G1 X181.928 Y79.41 E2.12103
G1 E1.62103 F240
G92 E0
G1 X181.928 Y79.41 F9000
G1 X163.51 Y58.188
G1 E.5 F240
;TYPE:External perimeter
G1 F1800
G1 X163.805 Y58.16 E.52276
G1 X164.589 Y58.223 E.58318
G1 X165.447 Y58.459 E.65154
G1 X166.245 Y58.861 E.72018
G1 X166.947 Y59.414 E.78883
G1 X167.526 Y60.094 E.85744
G1 X167.981 Y60.931 E.93062
G1 X168.227 Y61.728 E.99469
G1 X168.322 Y62.616 E1.06329
G1 X168.239 Y63.506 E1.13195
G1 X167.981 Y64.361 E1.20055
G1 X167.559 Y65.148 E1.26915
G1 X166.989 Y65.837 E1.33784
G1 X166.474 Y66.276 E1.38982
G1 X165.708 Y66.723 E1.45795
G1 X164.863 Y67.013 E1.52658
G1 X163.978 Y67.13 E1.59515
G1 X163.194 Y67.077 E1.65551
G1 X162.342 Y66.866 E1.72293
G1 X161.771 Y66.607 E1.77109
G1 X161.377 Y66.398 E1.80535
G1 X160.725 Y65.878 E1.86941
G1 X160.113 Y65.148 E1.94259
G1 X159.714 Y64.416 E2.00663
G1 X159.445 Y63.564 E2.07526
G1 X159.35 Y62.676 E2.14386
G1 X159.445 Y61.728 E2.21705
G1 X159.691 Y60.931 E2.28112
G1 X159.944 Y60.453 E2.32266
G1 X160.195 Y60.036 E2.36005
G1 X160.682 Y59.455 E2.41829
G1 X161.427 Y58.861 E2.49148
G1 X162.172 Y58.48 E2.55576
G1 X163.028 Y58.233 E2.6242
G1 X163.42 Y58.196 E2.65445
G1 X164.02 Y58.186 F9000
G1 X163.48 Y57.591
;TYPE:Perimeter
G1 F1800
G1 X163.752 Y57.562 E2.67546
G1 X164.64 Y57.625 E2.74384
G1 X165.61 Y57.882 E2.82092
G1 X166.518 Y58.328 E2.89863
G1 X167.321 Y58.945 E2.97642
G1 X167.985 Y59.709 E3.05418
G1 X168.485 Y60.589 E3.13193
G1 X168.555 Y60.754 E3.1457
G1 X168.8 Y61.551 E3.20975
G1 X168.919 Y62.556 E3.28749
G1 X168.836 Y63.565 E3.36526
G1 X168.555 Y64.538 E3.44306
G1 X168.086 Y65.435 E3.52081
G1 X167.449 Y66.222 E3.59859
G1 X166.859 Y66.735 E3.65865
G1 X166.008 Y67.242 E3.73474
G1 X165.054 Y67.582 E3.81254
G1 X164.052 Y67.725 E3.89029
G1 X163.15 Y67.674 E3.95969
;WIDTH:0.672128
G1 X162.18 Y67.439 E4.03599
;WIDTH:0.671893
G1 X161.498 Y67.139 E4.09293
G1 X161.024 Y66.874 E4.13443
;WIDTH:0.667856
G1 X160.466 Y66.434 E4.18837
;WIDTH:0.672352
G1 X159.935 Y65.877 E4.24722
;WIDTH:0.674699
G1 X159.586 Y65.435 E4.29046
;WIDTH:0.709979
G1 X159.371 Y65.077 E4.32441
;WIDTH:0.74526
G1 X159.156 Y64.72 E4.36017
G1 X159.014 Y64.23 E4.40395
;WIDTH:0.71013
G1 X158.872 Y63.741 E4.44536
;WIDTH:0.675
G1 X158.753 Y62.736 E4.5231
G1 X158.807 Y62.013 E4.57879
G1 X158.872 Y61.551 E4.61463
G1 X159.117 Y60.754 E4.67868
G1 X159.417 Y60.166 E4.72939
G1 X159.687 Y59.709 E4.77016
G1 X160.223 Y59.07 E4.83423
G1 X160.751 Y58.626 E4.88722
G1 X161.153 Y58.328 E4.92566
G1 X161.896 Y57.947 E4.9898
G1 X162.865 Y57.656 E5.06752
G1 X163.391 Y57.6 E5.10815
G1 E4.60815 F240
G92 E0
G1 X163.391 Y57.6 F9000
G1 X181.965 Y93.708
G1 E.5 F240
;TYPE:External perimeter
G1 F1800
G1 X181.916 Y93.747 E.50481
G1 X181.611 Y93.907 E.53127
G1 X181.24 Y94.015 E.56095
G1 X180.856 Y94.047 E.59055
G1 X180.473 Y94.003 E.62016
G1 X180.106 Y93.883 E.64982
G1 X179.771 Y93.694 E.67937
G1 X179.479 Y93.441 E.70905
G1 X179.272 Y93.181 E.73458
G1 X179.073 Y92.791 E.76821
G1 X178.973 Y92.396 E.79951
G1 X178.973 Y91.827 E.84322
G1 X179.095 Y91.376 E.87911
G1 X179.276 Y91.035 E.90877
G1 X179.521 Y90.738 E.93835
G1 X179.82 Y90.494 E.968
G1 X180.161 Y90.315 E.99758
G1 X180.531 Y90.207 E1.02719
G1 X180.932 Y90.178 E1.05807
G1 X181.498 Y90.276 E1.1022
G1 X181.921 Y90.474 E1.13808
G1 X182.225 Y90.712 E1.16774
G1 X182.475 Y91.005 E1.19733
G1 X182.663 Y91.342 E1.22697
G1 X182.78 Y91.709 E1.25656
G1 X182.822 Y92.093 E1.28623
G1 X182.788 Y92.477 E1.31584
G1 X182.65 Y92.899 E1.34995
G1 X182.496 Y93.187 E1.37504
G1 X182.251 Y93.484 E1.40462
G1 X182.036 Y93.653 E1.42563
G1 X181.5 Y93.923 F9000
G1 E.92563 F240
G92 E0
G1 X162.963 Y68.878 F9000
G1 E.5 F240
G1 F1800
G1 X162.907 Y68.841 E.50516
G1 X161.817 Y68.573 E.59138
G1 X160.959 Y68.208 E.663
G1 X160.432 Y67.902 E.70981
G1 X159.688 Y67.337 E.78157
G1 X159.031 Y66.662 E.85393
G1 X156.09 Y62.931 E1.21887
G1 X155.6 Y62.122 E1.29152
G1 X155.35 Y61.561 E1.3387
G1 X155.074 Y60.659 E1.41116
G1 X154.936 Y59.723 E1.48384
G1 X154.922 Y59.1 E1.53171
G1 X154.97 Y58.48 E1.57948
G1 X155.081 Y57.86 E1.62786
G1 X155.252 Y57.257 E1.67601
G1 X155.482 Y56.675 E1.72408
G1 X155.765 Y56.125 E1.77159
G1 X156.3 Y55.343 E1.84437
G1 X156.942 Y54.654 E1.91671
G1 X157.417 Y54.256 E1.96431
G1 X158.212 Y53.744 E2.03695
G1 X158.769 Y53.476 E2.08443
G1 X159.361 Y53.261 E2.13281
G1 X159.964 Y53.107 E2.18062
G1 X160.588 Y53.013 E2.22909
G1 X161.222 Y52.982 E2.27785
G1 X167.122 Y52.982 E2.73107
G1 X167.768 Y53.055 E2.78101
G1 X168.199 Y53.21 E2.81619
G1 X168.776 Y53.594 E2.86943
G1 X183.713 Y68.526 E4.49184
G1 X184.1 Y69.045 E4.54157
G1 X184.307 Y69.611 E4.58786
G1 X184.348 Y70.055 E4.62211
G1 X184.348 Y91.98 E6.30632
G1 X184.288 Y92.59 E6.3534
G1 X184.151 Y93.128 E6.39605
G1 X183.922 Y93.625 E6.43809
G1 X183.598 Y94.1 E6.48226
G1 X183.157 Y94.549 E6.5306
G1 X182.613 Y94.933 E6.58175
G1 X182.121 Y95.159 E6.62334
G1 X181.477 Y95.32 E6.67433
G1 X180.892 Y95.357 E6.71936
G1 X180.23 Y95.292 E6.77046
G1 X179.651 Y95.116 E6.81695
G1 X179.161 Y94.88 E6.85873
G1 X178.629 Y94.486 E6.90958
G1 X178.186 Y93.997 E6.96027
G1 X177.848 Y93.432 E7.01084
G1 X177.626 Y92.812 E7.06143
G1 X177.528 Y92.152 E7.11268
G1 X177.513 Y84.23 E7.72122
G1 X177.311 Y83.439 E7.78393
G1 X176.928 Y82.817 E7.84004
G1 X163.081 Y68.955 E9.34513
G1 X163.039 Y68.928 E9.34897
G1 X162.469 Y68.74 F9000
G1 X163.228 Y68.365
;TYPE:Perimeter
G1 F1800
G1 X163.054 Y68.261 E9.36454
;WIDTH:0.672128
G1 X162.72 Y68.188 E9.39068
;WIDTH:0.667036
G1 X162.03 Y68.012 E9.44465
G1 X161.731 Y67.896 E9.46896
;WIDTH:0.671893
G1 X161.212 Y67.663 E9.51243
G1 X160.649 Y67.322 E9.56273
;WIDTH:0.667856
G1 X160.102 Y66.902 E9.61508
G1 X159.86 Y66.668 E9.64063
;WIDTH:0.672352
G1 X159.472 Y66.254 E9.68402
;WIDTH:0.674699
G1 X159.087 Y65.764 E9.73186
;WIDTH:0.714967
G1 X158.428 Y64.895 E9.82122
G1 X157.896 Y64.253 E9.88954
;WIDTH:0.675
G1 X156.584 Y62.589 E10.05232
G1 X156.133 Y61.843 E10.11928
G1 X155.913 Y61.35 E10.16075
G1 X155.661 Y60.527 E10.22687
G1 X155.535 Y59.672 E10.29326
G1 X155.523 Y59.117 E10.3359
G1 X155.566 Y58.556 E10.37912
G1 X155.666 Y57.995 E10.42289
G1 X155.821 Y57.45 E10.46642
G1 X156.029 Y56.923 E10.50994
G1 X156.282 Y56.433 E10.5523
G1 X156.77 Y55.719 E10.61873
G1 X157.356 Y55.09 E10.68477
G1 X157.773 Y54.74 E10.72659
G1 X158.506 Y54.268 E10.79356
G1 X159.002 Y54.03 E10.83582
G1 X159.538 Y53.835 E10.87963
G1 X160.083 Y53.696 E10.92284
G1 X160.648 Y53.611 E10.96673
G1 X161.237 Y53.581 E11.01203
G1 X167.088 Y53.581 E11.46148
G1 X167.631 Y53.644 E11.50347
G1 X167.942 Y53.755 E11.52884
G1 X168.373 Y54.039 E11.56849
G1 X183.258 Y68.92 E13.18531
G1 X183.58 Y69.351 E13.22664
G1 X183.678 Y69.595 E13.24684
G1 X183.749 Y70.055 E13.28259
G1 X183.753 Y76.066 E13.74434
;WIDTH:0.665759
G1 X183.77 Y76.248 E13.75817
;WIDTH:0.631279
G1 X183.788 Y76.43 E13.77119
;WIDTH:0.596799
G1 X183.805 Y76.611 E13.78333
;WIDTH:0.56232
G1 X183.816 Y77.15 E13.81696
;WIDTH:0.579599
G1 X183.796 Y77.692 E13.852
;WIDTH:0.627299
G1 X183.772 Y77.971 E13.8718
;WIDTH:0.675
G1 X183.749 Y78.25 E13.8933
G1 X183.749 Y90.829 E14.85958
G1 X183.766 Y91.111 E14.88128
;WIDTH:0.639347
G1 X183.784 Y91.392 E14.90162
;WIDTH:0.603695
G1 X183.802 Y91.964 E14.94036
;WIDTH:0.614082
G1 X183.772 Y92.027 E14.94518
;WIDTH:0.66195
G1 X183.741 Y92.091 E14.95052
;WIDTH:0.709819
G1 X183.711 Y92.155 E14.95626
;WIDTH:0.757688
G1 X183.681 Y92.219 E14.96244
;WIDTH:0.805557
G1 X183.65 Y92.283 E14.96909
;WIDTH:0.853426
G1 X183.62 Y92.347 E14.97613
;WIDTH:0.901295
G1 X183.59 Y92.411 E14.98361
;WIDTH:0.949164
G1 X183.559 Y92.475 E14.99157
G1 X183.533 Y92.473 E14.99449
G1 X183.512 Y92.41 E15.00192
;WIDTH:0.901295
G1 X183.49 Y92.347 E15.00898
;WIDTH:0.853426
G1 X183.469 Y92.284 E15.0156
;WIDTH:0.805557
G1 X183.448 Y92.221 E15.02181
;WIDTH:0.757688
G1 X183.426 Y92.158 E15.02764
;WIDTH:0.709819
G1 X183.405 Y92.095 E15.03304
;WIDTH:0.66195
G1 X183.384 Y92.032 E15.03803
;WIDTH:0.614082
G1 X183.363 Y91.968 E15.04268
;WIDTH:0.603695
G1 X183.302 Y91.471 E15.07657
;WIDTH:0.639347
G1 X183.23 Y91.229 E15.09481
;WIDTH:0.675
G1 X183.158 Y90.987 E15.1142
G1 X182.89 Y90.56 E15.15293
G1 X182.543 Y90.193 E15.19173
G1 X182.13 Y89.903 E15.2305
G1 X181.601 Y89.686 E15.27442
G1 X181.035 Y89.587 E15.31856
G1 X180.471 Y89.61 E15.36192
G1 X179.985 Y89.742 E15.40061
G1 X179.533 Y89.968 E15.43943
G1 X179.135 Y90.278 E15.47818
G1 X178.807 Y90.661 E15.51692
;WIDTH:0.696836
G1 X178.551 Y91.097 E15.55717
;WIDTH:0.740801
G1 X178.504 Y91.172 E15.56471
;WIDTH:0.784766
G1 X178.457 Y91.246 E15.57268
;WIDTH:0.828731
G1 X178.41 Y91.321 E15.58122
;WIDTH:0.872696
G1 X178.363 Y91.395 E15.59017
;WIDTH:0.916661
G1 X178.316 Y91.47 E15.59971
;WIDTH:0.960627
G1 X178.269 Y91.544 E15.60965
G1 X178.247 Y91.453 E15.62027
;WIDTH:0.916661
G1 X178.225 Y91.362 E15.63036
;WIDTH:0.872696
G1 X178.203 Y91.271 E15.63992
;WIDTH:0.828731
G1 X178.181 Y91.18 E15.64895
;WIDTH:0.784766
G1 X178.159 Y91.089 E15.65746
;WIDTH:0.740801
G1 X178.136 Y90.997 E15.66554
;WIDTH:0.696836
G1 X178.125 Y90.671 E15.69151
;WIDTH:0.675
G1 X178.113 Y84.229 E16.18636
G1 X178.086 Y84.012 E16.20316
G1 X177.923 Y83.364 E16.25449
G1 X177.688 Y82.902 E16.29431
G1 X177.352 Y82.393 E16.34116
G1 X163.505 Y68.531 E17.84625
G1 X163.305 Y68.412 E17.86413
G1 E17.36413 F240
G92 E0
G1 X163.305 Y68.412 F9000
G1 X183.542 Y92.516
G1 E.5 F240
;WIDTH:0.975475
G1 F1800
G1 X183.352 Y93.127 E.57377
;WIDTH:0.936007
G1 X183.107 Y93.568 E.62938
;WIDTH:0.913009
G1 X182.711 Y94.011 E.69313
;WIDTH:0.873719
G1 X182.28 Y94.331 E.74803
;WIDTH:0.848761
G1 X181.808 Y94.547 E.79945
;WIDTH:0.815001
G1 X181.306 Y94.671 E.84844
;WIDTH:0.793469
G1 X180.793 Y94.694 E.89568
;WIDTH:0.778923
G1 X180.285 Y94.627 E.94186
;WIDTH:0.790801
G1 X179.792 Y94.461 E.98953
;WIDTH:0.792391
G1 X179.347 Y94.198 E1.03701
;WIDTH:0.807617
G1 X178.958 Y93.857 E1.08553
;WIDTH:0.825859
