; generated by PrusaSlicer 2.8.0+MacOS-arm64 on 2024-09-05 at 10:39:57 UTC


;
;

;
;
; 

; external perimeters extrusion width = 0.68mm
; perimeters extrusion width = 0.68mm
; infill extrusion width = 0.68mm
; solid infill extrusion width = 0.68mm
; top infill extrusion width = 0.60mm


EXCLUDE_OBJECT_DEFINE NAME='probe_bracket_(Instance_1)' CENTER=93.819,142.415 POLYGON=[[88.905,124.989],[89.805,125.191],[90.272,125.441],[90.681,125.777],[105.551,140.646],[105.917,141.113],[106.122,141.541],[106.268,142.237],[106.250,164.700],[105.987,165.753],[105.540,166.541],[104.772,167.309],[103.815,167.821],[103.111,167.997],[102.468,168.037],[101.746,167.966],[101.052,167.755],[100.413,167.413],[99.984,167.078],[99.496,166.541],[99.124,165.919],[98.879,165.236],[98.773,164.518],[98.758,156.575],[98.601,155.949],[98.269,155.395],[84.397,141.508],[83.314,141.243],[82.405,140.860],[81.563,140.345],[80.756,139.660],[77.395,135.466],[76.883,134.620],[76.502,133.707],[76.261,132.747],[76.166,131.763],[76.218,130.775],[76.515,129.490],[76.901,128.580],[77.418,127.737],[78.055,126.980],[79.066,126.134],[80.532,125.384],[82.137,125.019]]
EXCLUDE_OBJECT_DEFINE NAME='probe_bracket_(Instance_2)' CENTER=161.387,99.387 POLYGON=[[156.472,81.961],[157.373,82.163],[157.840,82.412],[158.249,82.748],[173.118,97.617],[173.484,98.084],[173.690,98.512],[173.836,99.208],[173.818,121.671],[173.555,122.724],[173.108,123.512],[172.340,124.280],[171.383,124.792],[170.679,124.968],[170.036,125.008],[169.314,124.937],[168.620,124.727],[167.981,124.385],[167.551,124.050],[167.064,123.512],[166.691,122.890],[166.447,122.207],[166.341,121.490],[166.326,113.547],[166.169,112.921],[165.837,112.367],[151.965,98.480],[150.882,98.215],[149.973,97.831],[149.131,97.316],[148.324,96.631],[144.963,92.438],[144.451,91.591],[144.070,90.678],[143.829,89.719],[143.734,88.734],[143.786,87.746],[144.082,86.462],[144.469,85.551],[144.986,84.708],[145.860,83.721],[146.634,83.105],[148.100,82.356],[149.705,81.990]]

;TYPE:Custom
START_PRINT BED_TEMP=75 HOTEND_TEMP=240 FILAMENT_TYPE=PET EXTRUSION_MULTIPLIER=0.88 PERIMETER_SPEED=80
G21 ; set units to millimeters
G90 ; use absolute coordinates
M82 ; use absolute distances for extrusion
G92 E0
; Filament gcode
; ########################### NOTE OFFSET CHANGES ####################################
; Prevents PETG buildup on nozzle.
; SET_GCODE_OFFSET Z=0.06
; ####################################################################################
M107
;LAYER_CHANGE
;Z:0.35
;HEIGHT:0.35
G1 E-.5 F240
G1 Z.35 F9000
EXCLUDE_OBJECT_START NAME='probe_bracket_(Instance_1)'
G92 E0
G1 X103.298 Y151.194
G1 E.5 F240
G92 E0
;TYPE:External perimeter
;WIDTH:0.675
G1 F1800
G1 X103.193 Y151.248 E.00907
G1 X102.823 Y151.356 E.03868
G1 X102.438 Y151.389 E.06836
G1 X102.055 Y151.345 E.09797
G1 X101.689 Y151.225 E.12756
G1 X101.353 Y151.036 E.15717
G1 X101.061 Y150.783 E.18685
G1 X100.826 Y150.478 E.21643
G1 X100.655 Y150.132 E.24608
G1 X100.556 Y149.738 E.27729
G1 X100.555 Y149.168 E.32108
G1 X100.677 Y148.718 E.3569
G1 X100.858 Y148.377 E.38656
G1 X101.103 Y148.079 E.41619
G1 X101.402 Y147.836 E.44579
G1 X101.744 Y147.657 E.47544
G1 X102.114 Y147.549 E.50505
G1 X102.515 Y147.52 E.53593
G1 X103.08 Y147.618 E.57998
G1 X103.503 Y147.816 E.61586
G1 X103.807 Y148.054 E.64552
G1 X104.058 Y148.347 E.67516
G1 X104.245 Y148.684 E.70477
G1 X104.363 Y149.051 E.73438
G1 X104.405 Y149.434 E.76398
G1 X104.37 Y149.818 E.7936
G1 X104.26 Y150.188 E.82325
G1 X104.079 Y150.528 E.85284
G1 X103.834 Y150.826 E.88247
G1 X103.534 Y151.069 E.91213
G1 X103.377 Y151.152 E.92577
G1 X102.807 Y151.338 F9000
G1 X103.547 Y151.745
;TYPE:Perimeter
G1 F1800
G1 X103.535 Y151.752 E.92684
G1 X103.058 Y151.918 E.96564
G1 X102.558 Y151.986 E1.0044
G1 X102.054 Y151.953 E1.0432
G1 X101.567 Y151.822 E1.08194
G1 X101.115 Y151.596 E1.12076
G1 X100.717 Y151.286 E1.15951
G1 X100.389 Y150.902 E1.1983
G1 X100.143 Y150.462 E1.23702
G1 X99.989 Y149.981 E1.27582
G1 X99.956 Y149.169 E1.33825
G1 X100.078 Y148.611 E1.38213
G1 X100.292 Y148.154 E1.42089
G1 X100.592 Y147.748 E1.45967
G1 X100.967 Y147.41 E1.49845
G1 X101.402 Y147.153 E1.53726
G1 X101.879 Y146.988 E1.57603
G1 X102.373 Y146.92 E1.61434
G1 X103.183 Y147.027 E1.6771
G1 X103.713 Y147.245 E1.72112
G1 X103.866 Y147.338 E1.73487
G1 X104.257 Y147.657 E1.77363
G1 X104.577 Y148.047 E1.81238
G1 X104.81 Y148.494 E1.8511
;WIDTH:0.665758
G1 X104.84 Y148.657 E1.86364
;WIDTH:0.631278
G1 X104.871 Y148.82 E1.87546
;WIDTH:0.596798
G1 X104.902 Y148.983 E1.88654
;WIDTH:0.562319
G1 X104.935 Y149.474 E1.91724
;WIDTH:0.574124
G1 X104.905 Y149.746 E1.93473
;WIDTH:0.608932
G1 X104.874 Y150.018 E1.95344
;WIDTH:0.64374
G1 X104.844 Y150.291 E1.97344
;WIDTH:0.675
G1 X104.645 Y150.752 E2.01201
G1 X104.344 Y151.157 E2.05077
G1 X103.969 Y151.495 E2.08955
G1 X103.625 Y151.699 E2.12027
G1 E1.62027 F240
G92 E0
G1 X103.625 Y151.699 F9000
G1 X101.893 Y166.292
G1 E.5 F240
;TYPE:External perimeter
G1 F1800
G1 X101.689 Y166.225 E.51649
G1 X101.353 Y166.036 E.5461
G1 X101.061 Y165.783 E.57578
G1 X100.826 Y165.478 E.60536
G1 X100.655 Y165.132 E.63501
G1 X100.556 Y164.738 E.66622
G1 X100.555 Y164.168 E.71001
G1 X100.677 Y163.718 E.74583
G1 X100.858 Y163.377 E.77549
G1 X101.103 Y163.079 E.80512
G1 X101.402 Y162.836 E.83472
G1 X101.744 Y162.657 E.86437
G1 X102.114 Y162.549 E.89398
G1 X102.515 Y162.52 E.92486
G1 X103.08 Y162.618 E.96891
G1 X103.503 Y162.816 E1.00479
G1 X103.807 Y163.054 E1.03445
G1 X104.058 Y163.347 E1.06409
G1 X104.245 Y163.684 E1.0937
G1 X104.363 Y164.051 E1.12331
G1 X104.398 Y164.521 E1.15951
G1 X104.37 Y164.818 E1.18243
G1 X104.26 Y165.188 E1.21208
G1 X104.079 Y165.528 E1.24167
G1 X103.834 Y165.826 E1.2713
G1 X103.499 Y166.089 E1.30402
G1 X103.193 Y166.248 E1.33051
G1 X102.823 Y166.356 E1.36012
G1 X102.438 Y166.389 E1.3898
G1 X102.055 Y166.345 E1.41941
G1 X101.978 Y166.319 E1.42565
G1 X101.432 Y166.071 F9000
G1 E.92565 F240
G92 E0
G1 X81.083 Y136.083 F9000
G1 E.5 F240
G1 F1800
G1 X81.027 Y135.906 E.51426
G1 X80.932 Y135.018 E.58286
G1 X81.027 Y134.07 E.65605
G1 X81.283 Y133.246 E.72233
G1 X81.752 Y132.408 E.7961
G1 X82.265 Y131.797 E.85738
G1 X82.899 Y131.284 E.92003
G1 X83.368 Y131.019 E.96141
G1 X83.807 Y130.801 E.99906
G1 X84.61 Y130.575 E1.06314
G1 X85.387 Y130.501 E1.1231
G1 X86.171 Y130.565 E1.18352
G1 X87.029 Y130.801 E1.25188
G1 X87.827 Y131.203 E1.32052
G1 X88.529 Y131.755 E1.38912
G1 X89.108 Y132.436 E1.45778
G1 X89.541 Y133.218 E1.52644
G1 X89.809 Y134.07 E1.59505
G1 X89.904 Y134.958 E1.66365
G1 X89.821 Y135.847 E1.73224
G1 X89.564 Y136.703 E1.80089
G1 X89.259 Y137.308 E1.85294
G1 X88.727 Y138.017 E1.92103
G1 X88.061 Y138.613 E1.98968
G1 X87.291 Y139.065 E2.05827
G1 X86.446 Y139.355 E2.1269
G1 X85.56 Y139.472 E2.19555
G1 X84.777 Y139.419 E2.25584
G1 X83.943 Y139.213 E2.32183
G1 X83.378 Y138.961 E2.36935
G1 X82.959 Y138.74 E2.40574
G1 X82.307 Y138.22 E2.4698
G1 X81.695 Y137.49 E2.54298
G1 X81.296 Y136.758 E2.60702
G1 X81.11 Y136.169 E2.65447
G1 X80.999 Y135.58 F9000
G1 X80.493 Y136.218
;TYPE:Perimeter
;WIDTH:0.710125
G1 F1800
G1 X80.454 Y136.083 E2.6659
;WIDTH:0.675
G1 X80.335 Y135.077 E2.74372
G1 X80.39 Y134.355 E2.79934
G1 X80.454 Y133.893 E2.83517
G1 X80.729 Y133.016 E2.90577
G1 X81.066 Y132.386 E2.96065
G1 X81.293 Y132.022 E2.9936
G1 X81.805 Y131.412 E3.05478
G1 X82.525 Y130.815 E3.12663
G1 X83.095 Y130.485 E3.17722
G1 X83.606 Y130.235 E3.22092
G1 X84.447 Y129.998 E3.28804
G1 X85.334 Y129.904 E3.35656
G1 X86.223 Y129.967 E3.42502
G1 X87.192 Y130.223 E3.50201
G1 X88.101 Y130.669 E3.57979
G1 X88.903 Y131.286 E3.65752
G1 X89.568 Y132.05 E3.73533
G1 X90.067 Y132.931 E3.81311
G1 X90.383 Y133.893 E3.89089
G1 X90.501 Y134.898 E3.96862
G1 X90.418 Y135.907 E4.04639
G1 X90.137 Y136.88 E4.12419
G1 X89.793 Y137.581 E4.18417
G1 X89.205 Y138.379 E4.26031
G1 X88.458 Y139.062 E4.33806
G1 X87.591 Y139.584 E4.4158
G1 X86.637 Y139.923 E4.49357
G1 X85.635 Y140.067 E4.57133
G1 X84.732 Y140.016 E4.64081
;WIDTH:0.672116
G1 X83.781 Y139.787 E4.71559
;WIDTH:0.67136
G1 X83.105 Y139.493 E4.77187
G1 X82.59 Y139.203 E4.817
;WIDTH:0.668935
G1 X82.064 Y138.789 E4.8679
;WIDTH:0.672346
G1 X81.518 Y138.219 E4.92826
;WIDTH:0.674687
G1 X81.168 Y137.777 E4.97155
;WIDTH:0.709969
G1 X80.953 Y137.419 E5.0055
;WIDTH:0.745251
G1 X80.738 Y137.061 E5.04134
G1 X80.596 Y136.572 E5.08504
;WIDTH:0.710125
G1 X80.518 Y136.305 E5.10766
G1 E4.60766 F240
G92 E0
G1 X80.518 Y136.305 F9000
G1 X84.545 Y141.22
G1 E.5 F240
;TYPE:External perimeter
;WIDTH:0.675
G1 F1800
G1 X84.489 Y141.183 E.50516
G1 X83.42 Y140.922 E.58969
G1 X82.559 Y140.558 E.6615
G1 X81.757 Y140.068 E.7337
G1 X81.278 Y139.685 E.78081
G1 X80.614 Y139.004 E.85387
G1 X77.673 Y135.273 E1.21881
G1 X77.183 Y134.463 E1.29153
G1 X76.929 Y133.895 E1.33933
G1 X76.732 Y133.301 E1.3874
G1 X76.595 Y132.693 E1.43528
G1 X76.504 Y131.752 E1.5079
G1 X76.521 Y131.137 E1.55516
G1 X76.665 Y130.198 E1.62813
G1 X76.834 Y129.602 E1.67572
G1 X77.202 Y128.734 E1.74814
G1 X77.695 Y127.931 E1.82052
G1 X78.084 Y127.445 E1.86834
G1 X78.516 Y127.003 E1.91582
G1 X79.26 Y126.411 E1.98886
G1 X79.791 Y126.087 E2.03664
G1 X80.348 Y125.819 E2.08412
G1 X81.249 Y125.517 E2.15712
G1 X81.851 Y125.395 E2.2043
G1 X82.808 Y125.323 E2.27802
G1 X88.704 Y125.323 E2.73093
G1 X89.351 Y125.397 E2.78095
G1 X89.782 Y125.551 E2.81611
G1 X90.358 Y125.936 E2.86933
G1 X105.191 Y140.763 E4.48039
G1 X105.485 Y141.109 E4.51527
G1 X105.726 Y141.494 E4.55016
G1 X105.889 Y141.953 E4.58758
G1 X105.931 Y142.401 E4.62214
G1 X105.931 Y163.953 E6.27769
G1 X105.921 Y164.528 E6.32187
G1 X105.848 Y165.044 E6.3619
G1 X105.694 Y165.564 E6.40356
G1 X105.474 Y166.022 E6.44259
G1 X105.18 Y166.442 E6.48197
G1 X104.74 Y166.891 E6.53026
G1 X104.196 Y167.274 E6.58137
G1 X103.704 Y167.501 E6.62299
G1 X103.06 Y167.662 E6.67398
G1 X102.474 Y167.698 E6.71908
G1 X101.813 Y167.633 E6.7701
G1 X101.182 Y167.442 E6.82074
G1 X100.649 Y167.157 E6.86717
G1 X100.213 Y166.83 E6.90904
G1 X99.769 Y166.339 E6.95989
G1 X99.43 Y165.774 E7.0105
G1 X99.208 Y165.154 E7.06109
G1 X99.11 Y164.494 E7.11234
G1 X99.095 Y156.572 E7.72088
G1 X98.893 Y155.78 E7.78367
G1 X98.51 Y155.159 E7.83972
G1 X84.663 Y141.297 E9.34481
G1 X84.621 Y141.269 E9.34869
G1 X84.05 Y141.082 F9000
G1 X84.809 Y140.707
;TYPE:Perimeter
G1 F1800
G1 X84.636 Y140.603 E9.3642
;WIDTH:0.672116
G1 X84.303 Y140.53 E9.39026
;WIDTH:0.667574
G1 X83.631 Y140.36 E9.44285
G1 X83.317 Y140.239 E9.46838
;WIDTH:0.67136
G1 X82.814 Y140.013 E9.51048
G1 X82.086 Y139.567 E9.57566
;WIDTH:0.669028
G1 X81.443 Y139.01 E9.64036
;WIDTH:0.672346
G1 X81.054 Y138.596 E9.68381
;WIDTH:0.674687
G1 X80.669 Y138.106 E9.73165
;WIDTH:0.714963
G1 X80.01 Y137.237 E9.82101
G1 X79.479 Y136.595 E9.88927
;WIDTH:0.675
G1 X78.167 Y134.93 E10.05211
G1 X77.715 Y134.185 E10.11905
G1 X77.489 Y133.677 E10.16176
G1 X77.31 Y133.141 E10.20517
G1 X77.188 Y132.598 E10.24792
G1 X77.104 Y131.731 E10.31483
G1 X77.119 Y131.191 E10.35633
G1 X77.252 Y130.325 E10.42363
G1 X77.401 Y129.802 E10.4654
G1 X77.737 Y129.01 E10.53149
G1 X78.186 Y128.277 E10.59752
G1 X78.533 Y127.843 E10.6402
G1 X78.919 Y127.45 E10.68252
G1 X79.604 Y126.904 E10.74981
G1 X80.078 Y126.615 E10.79246
G1 X80.574 Y126.376 E10.83475
G1 X81.405 Y126.097 E10.90209
G1 X81.934 Y125.991 E10.94353
G1 X82.83 Y125.923 E11.01256
G1 X88.67 Y125.923 E11.46117
G1 X89.214 Y125.985 E11.50323
G1 X89.524 Y126.096 E11.52852
G1 X89.955 Y126.381 E11.56821
G1 X104.767 Y141.188 E13.17704
G1 X105.116 Y141.61 E13.21911
G1 X105.274 Y141.984 E13.2503
G1 X105.331 Y142.401 E13.28263
G1 X105.336 Y148.408 E13.74407
;WIDTH:0.665758
G1 X105.353 Y148.59 E13.7579
;WIDTH:0.631278
G1 X105.37 Y148.771 E13.77085
;WIDTH:0.596798
G1 X105.387 Y148.953 E13.78306
;WIDTH:0.562319
G1 X105.399 Y149.491 E13.81663
;WIDTH:0.57962
G1 X105.379 Y150.034 E13.85173
;WIDTH:0.62731
G1 X105.355 Y150.313 E13.87153
;WIDTH:0.675
G1 X105.331 Y150.591 E13.89296
G1 X105.331 Y163.171 E14.85931
G1 X105.349 Y163.453 E14.88102
;WIDTH:0.639348
G1 X105.367 Y163.734 E14.90136
;WIDTH:0.603697
G1 X105.382 Y164.007 E14.91987
;WIDTH:0.572832
G1 X105.397 Y164.279 E14.93723
;WIDTH:0.582467
G1 X105.368 Y164.501 E14.95178
;WIDTH:0.630502
G1 X105.333 Y164.566 E14.95703
;WIDTH:0.678537
G1 X105.298 Y164.631 E14.96273
;WIDTH:0.726572
G1 X105.263 Y164.696 E14.96889
;WIDTH:0.774608
G1 X105.228 Y164.761 E14.9755
;WIDTH:0.822643
G1 X105.193 Y164.826 E14.98257
;WIDTH:0.870678
G1 X105.158 Y164.891 E14.99009
;WIDTH:0.918713
G1 X105.123 Y164.955 E14.99797
;WIDTH:0.966749
G1 X105.088 Y165.02 E15.0064
G1 X105.08 Y164.965 E15.01275
;WIDTH:0.926871
G1 X105.072 Y164.909 E15.01892
;WIDTH:0.886994
G1 X105.052 Y164.827 E15.02769
;WIDTH:0.837463
G1 X105.033 Y164.744 E15.036
;WIDTH:0.787933
G1 X105.013 Y164.662 E15.0437
;WIDTH:0.738402
G1 X104.993 Y164.579 E15.05095
;WIDTH:0.688871
G1 X104.974 Y164.497 E15.05757
;WIDTH:0.639341
G1 X104.954 Y164.415 E15.06367
;WIDTH:0.58981
G1 X104.934 Y164.332 E15.0693
;WIDTH:0.571988
G1 X104.909 Y164.073 E15.08586
;WIDTH:0.603697
G1 X104.884 Y163.813 E15.10354
;WIDTH:0.639348
G1 X104.812 Y163.571 E15.12178
;WIDTH:0.675
G1 X104.74 Y163.329 E15.14117
G1 X104.473 Y162.901 E15.17992
G1 X104.126 Y162.535 E15.21866
G1 X103.713 Y162.245 E15.25743
G1 X103.183 Y162.027 E15.30145
G1 X102.619 Y161.929 E15.34542
G1 X102.053 Y161.952 E15.38893
G1 X101.567 Y162.084 E15.42762
G1 X101.115 Y162.309 E15.46641
G1 X100.717 Y162.62 E15.50521
G1 X100.389 Y163.003 E15.54395
;WIDTH:0.696874
G1 X100.133 Y163.439 E15.5842
;WIDTH:0.740831
G1 X100.086 Y163.513 E15.59167
;WIDTH:0.784789
G1 X100.039 Y163.588 E15.59971
;WIDTH:0.828747
G1 X99.993 Y163.662 E15.60812
;WIDTH:0.872705
G1 X99.946 Y163.737 E15.61716
;WIDTH:0.916663
G1 X99.899 Y163.811 E15.62661
;WIDTH:0.960621
G1 X99.852 Y163.886 E15.63665
G1 X99.83 Y163.795 E15.64727
;WIDTH:0.916663
G1 X99.807 Y163.704 E15.65738
;WIDTH:0.872705
G1 X99.785 Y163.613 E15.66694
;WIDTH:0.828747
G1 X99.763 Y163.521 E15.67607
;WIDTH:0.784789
G1 X99.741 Y163.43 E15.68458
;WIDTH:0.740831
G1 X99.719 Y163.339 E15.69256
;WIDTH:0.696874
G1 X99.707 Y163.013 E15.71853
;WIDTH:0.675
G1 X99.695 Y156.57 E16.21346
G1 X99.668 Y156.353 E16.23026
G1 X99.506 Y155.705 E16.28157
G1 X99.271 Y155.244 E16.32132
G1 X98.934 Y154.735 E16.36821
G1 X85.087 Y140.873 E17.8733
G1 X84.887 Y140.753 E17.89122
G1 X84.887 Y140.753 F9000
G1 X85.723 Y140.66
G1 F1800
G1 X86.828 Y140.492 E17.97708
G1 X87.89 Y140.104 E18.06393
G1 X88.855 Y139.512 E18.1509
G1 X89.684 Y138.742 E18.23781
G1 X90.326 Y137.855 E18.32192
G1 X90.71 Y137.057 E18.38995
G1 X91.015 Y135.967 E18.4769
G1 X91.098 Y134.838 E18.56386
G1 X90.956 Y133.716 E18.65074
G1 X90.594 Y132.644 E18.73766
G1 X90.027 Y131.665 E18.82457
G1 X89.277 Y130.817 E18.91153
G1 X88.374 Y130.135 E18.99846
G1 X87.354 Y129.646 E19.08535
G1 X86.275 Y129.37 E19.1709
G1 X85.282 Y129.306 E19.24734
G1 X84.285 Y129.42 E19.32443
G1 X83.204 Y129.755 E19.41136
G1 X82.462 Y130.135 E19.4754
G1 X82.151 Y130.346 E19.50427
G1 X81.527 Y130.844 E19.5656
G1 X81.182 Y131.221 E19.60486
G1 X80.641 Y131.911 E19.67221
G1 X80.242 Y132.644 E19.73632
G1 X80.098 Y133.011 E19.7666
G1 X79.873 Y133.741 E19.82528
G1 X79.793 Y134.295 E19.86828
G1 X79.738 Y135.137 E19.9331
G1 X79.847 Y136.093 E20.00701
G1 X78.685 Y134.618 E20.15125
G1 X78.208 Y133.817 E20.22286
G1 X77.907 Y133.034 E20.2873
G1 X77.782 Y132.503 E20.3292
G1 X77.714 Y131.799 E20.38353
G1 X77.718 Y131.245 E20.42609
G1 X77.824 Y130.554 E20.47979
G1 X77.967 Y130.002 E20.52359
G1 X78.271 Y129.285 E20.58341
G1 X78.619 Y128.718 E20.63451
G1 X78.926 Y128.312 E20.67361
G1 X79.321 Y127.896 E20.71768
G1 X79.858 Y127.468 E20.77043
G1 X80.287 Y127.19 E20.8097
G1 X80.801 Y126.933 E20.85384
G1 X81.456 Y126.713 E20.90692
G1 X82.016 Y126.586 E20.95103
G1 X82.853 Y126.523 E21.01551
G1 X88.636 Y126.523 E21.45974
G1 X89.179 Y126.61 E21.50198
G1 X89.552 Y126.826 E21.53509
G1 X103.825 Y141.094 E23.08537
G1 X104.449 Y141.731 E23.15387
G1 X104.68 Y142.089 E23.1866
G1 X104.731 Y142.401 E23.21088
G1 X104.731 Y147.287 E23.58621
G1 X104.228 Y146.86 E23.63689
G1 X103.679 Y146.563 E23.68484
G1 X103.286 Y146.436 E23.71657
G1 X102.722 Y146.338 E23.76054
G1 X102.313 Y146.323 E23.79198
