; generated by PrusaSlicer 2.8.0+MacOS-arm64 on 2024-09-06 at 20:35:46 UTC


;
;

;
;
; 

; external perimeters extrusion width = 0.68mm
; perimeters extrusion width = 0.68mm
; infill extrusion width = 0.68mm
; solid infill extrusion width = 0.68mm
; top infill extrusion width = 0.60mm

; external perimeters extrusion width = 0.68mm
; perimeters extrusion width = 0.68mm
; infill extrusion width = 0.68mm
; solid infill extrusion width = 0.68mm
; top infill extrusion width = 0.60mm

; external perimeters extrusion width = 0.68mm
; perimeters extrusion width = 0.68mm
; infill extrusion width = 0.68mm
; solid infill extrusion width = 0.68mm
; top infill extrusion width = 0.60mm


EXCLUDE_OBJECT_DEFINE NAME='terminal_block_cover' CENTER=84.815,73.018 POLYGON=[[92.199,103.006],[77.543,103.005],[77.227,102.942],[76.900,102.757],[76.684,102.519],[76.532,102.176],[76.499,80.601],[77.632,80.364],[78.362,80.113],[79.401,79.604],[80.047,79.181],[81.197,78.154],[81.914,77.246],[82.487,76.241],[82.952,75.038],[83.161,74.757],[83.633,74.534],[85.302,74.524],[85.972,74.337],[86.334,74.092],[86.673,73.692],[86.855,73.295],[86.936,72.778],[86.886,72.344],[86.687,71.859],[86.418,71.515],[85.996,71.204],[85.328,71.006],[83.539,70.993],[83.063,70.765],[82.855,70.478],[82.383,69.362],[81.800,68.403],[80.819,67.275],[79.951,66.563],[78.990,65.985],[78.307,65.679],[77.236,65.346],[76.499,65.212],[76.500,44.022],[76.581,43.666],[76.742,43.397],[76.974,43.186],[77.308,43.038],[92.199,43.006]]
EXCLUDE_OBJECT_DEFINE NAME='terminal_box' CENTER=163.881,73.019 POLYGON=[[172.293,67.388],[173.501,67.388],[173.501,78.629],[172.293,78.629],[172.293,102.985],[157.661,102.985],[157.248,102.903],[156.794,102.549],[156.583,101.959],[156.582,88.054],[153.140,88.047],[152.661,87.920],[152.199,87.593],[152.200,78.845],[152.348,78.335],[152.664,78.005],[153.090,77.842],[153.446,77.852],[154.597,78.150],[155.632,78.202],[156.656,78.048],[157.860,77.576],[158.910,76.821],[159.742,75.830],[160.303,74.665],[160.534,73.655],[160.572,72.879],[160.495,72.105],[160.114,70.869],[159.439,69.766],[158.513,68.863],[157.393,68.216],[156.148,67.866],[154.855,67.834],[153.396,68.173],[152.990,68.155],[152.470,67.846],[152.207,67.274],[152.199,58.516],[152.492,58.273],[152.856,58.162],[156.582,58.158],[156.583,44.057],[156.735,43.555],[157.106,43.184],[157.661,43.030],[172.293,43.030]]
EXCLUDE_OBJECT_DEFINE NAME='terminal_base_bracket' CENTER=122.844,184.887 POLYGON=[[129.920,207.004],[126.920,207.004],[126.901,191.871],[126.748,191.102],[126.448,190.378],[126.133,189.880],[125.606,189.299],[124.732,188.698],[123.017,190.413],[110.841,190.413],[110.841,188.385],[110.723,188.385],[110.723,181.224],[110.841,181.224],[110.841,179.172],[123.017,179.172],[124.729,180.885],[125.606,180.283],[126.351,179.375],[126.748,178.480],[126.915,177.515],[126.920,163.006],[129.920,163.006]]

;TYPE:Custom
START_PRINT BED_TEMP=65 HOTEND_TEMP=220 FILAMENT_TYPE=PLA EXTRUSION_MULTIPLIER=0.95 PERIMETER_SPEED=80
G21 ; set units to millimeters
G90 ; use absolute coordinates
M82 ; use absolute distances for extrusion
G92 E0
; Filament gcode
M107
;LAYER_CHANGE
;Z:0.35
;HEIGHT:0.35
G1 E-.5 F240
G1 Z.35 F9000
G1 X124.353 Y161.08
G1 E0 F240
;TYPE:Skirt/Brim
;WIDTH:0.675
G1 F1800
G1 X124.957 Y160.72 E.05831
G1 X125.685 Y160.446 E.12282
G1 X126.395 Y160.332 E.18245
G1 X130.534 Y160.338 E.52569
G1 X131.288 Y160.486 E.58941
G1 X132.06 Y160.809 E.65881
G1 X132.598 Y161.166 E.71235
G1 X133.475 Y162.022 E.81398
G1 X134.013 Y162.825 E.89413
G1 X134.274 Y163.489 E.95329
G1 X134.415 Y164.236 E1.01633
G1 X134.419 Y205.724 E4.45681
G1 X134.233 Y206.653 E4.53538
G1 X133.978 Y207.253 E4.58944
G1 X133.595 Y207.843 E4.64777
G1 X132.601 Y208.842 E4.76464
G1 X131.913 Y209.277 E4.83214
G1 X131.209 Y209.548 E4.8947
G1 X130.464 Y209.678 E4.95741
G1 X126.376 Y209.678 E5.29642
G1 X125.631 Y209.548 E5.35913
G1 X124.913 Y209.271 E5.42295
G1 X124.207 Y208.813 E5.49274
G1 X123.127 Y207.691 E5.62189
G1 X122.823 Y207.174 E5.67163
G1 X122.563 Y206.509 E5.73084
G1 X122.434 Y205.863 E5.78547
G1 X122.421 Y192.754 E6.87256
G1 X121.519 Y192.7 E6.94749
G1 X120.924 Y192.529 E6.99883
G1 X120.234 Y192.203 E7.06211
G1 X119.689 Y191.799 E7.11837
G1 X118.793 Y190.856 E7.22624
G1 X118.425 Y190.257 E7.28454
G1 X118.151 Y189.55 E7.34742
G1 X118.021 Y188.785 E7.41177
G1 X118.021 Y180.782 E8.07544
G1 X118.183 Y179.928 E8.14752
G1 X118.431 Y179.312 E8.20259
G1 X118.75 Y178.782 E8.25389
G1 X119.834 Y177.659 E8.38333
G1 X120.371 Y177.303 E8.43676
G1 X121 Y177.025 E8.49379
G1 X121.591 Y176.87 E8.54446
G1 X122.421 Y176.822 E8.6134
G1 X122.421 Y164.286 E9.65297
G1 X122.619 Y163.325 E9.73434
G1 X123.01 Y162.494 E9.8105
G1 X123.379 Y162.009 E9.86104
G1 X124.288 Y161.142 E9.96521
G1 X124.694 Y161.575 F9000
G1 F1800
G1 X125.196 Y161.271 E10.01388
G1 X125.867 Y161.018 E10.07335
G1 X126.417 Y160.932 E10.11951
G1 X130.502 Y160.938 E10.45827
G1 X131.138 Y161.067 E10.51209
G1 X131.756 Y161.326 E10.56766
G1 X132.2 Y161.617 E10.61168
G1 X133.034 Y162.43 E10.70827
G1 X133.467 Y163.075 E10.77269
G1 X133.705 Y163.68 E10.8266
G1 X133.82 Y164.315 E10.88012
G1 X133.82 Y205.694 E14.31156
G1 X133.669 Y206.446 E14.37517
G1 X133.437 Y206.993 E14.42444
G1 X133.112 Y207.486 E14.47341
G1 X132.202 Y208.392 E14.5799
G1 X131.667 Y208.729 E14.63233
G1 X131.071 Y208.964 E14.68546
G1 X130.437 Y209.078 E14.73888
G1 X126.404 Y209.078 E15.07333
G1 X125.769 Y208.964 E15.12683
G1 X125.163 Y208.725 E15.18085
G1 X124.565 Y208.331 E15.24024
G1 X123.624 Y207.354 E15.35273
G1 X123.371 Y206.928 E15.39382
G1 X123.144 Y206.359 E15.44462
G1 X123.034 Y205.831 E15.48935
G1 X123.021 Y192.178 E16.62156
G1 X121.646 Y192.113 E16.73571
G1 X121.157 Y191.975 E16.77785
G1 X120.52 Y191.674 E16.83628
G1 X120.07 Y191.335 E16.883
G1 X119.285 Y190.512 E16.97732
G1 X118.974 Y190.012 E17.02615
G1 X118.721 Y189.362 E17.08399
G1 X118.621 Y188.76 E17.1346
G1 X118.621 Y180.812 E17.79371
G1 X118.765 Y180.074 E17.85606
G1 X119.208 Y179.171 E17.93947
G1 X120.241 Y178.101 E18.06281
G1 X120.674 Y177.821 E18.10557
G1 X121.708 Y177.459 E18.19642
G1 X123.021 Y177.397 E18.30542
G1 X123.021 Y164.316 E19.39019
G1 X123.179 Y163.544 E19.45554
G1 X123.51 Y162.827 E19.52103
G1 X123.814 Y162.423 E19.56296
G1 X124.629 Y161.637 E19.65686
G1 X124.629 Y161.637 F9000
G1 X125.064 Y162.052
G1 F1800
G1 X125.085 Y162.031 E19.65932
G1 X126.048 Y161.591 E19.74712
G1 X126.438 Y161.532 E19.77983
G1 X130.471 Y161.538 E20.11428
G1 X131.458 Y161.848 E20.20007
G1 X131.805 Y162.069 E20.23419
G1 X132.592 Y162.837 E20.32538
G1 X132.923 Y163.329 E20.37455
G1 X133.121 Y163.823 E20.41868
G1 X133.22 Y164.344 E20.46266
G1 X133.22 Y205.665 E23.88929
G1 X133.105 Y206.24 E23.93792
G1 X132.632 Y207.126 E24.02121
G1 X131.805 Y207.941 E24.1175
G1 X131.418 Y208.183 E24.15535
G1 X130.929 Y208.38 E24.19907
G1 X130.407 Y208.479 E24.24313
G1 X126.433 Y208.479 E24.57268
G1 X125.912 Y208.38 E24.61666
G1 X125.418 Y208.182 E24.66079
G1 X124.927 Y207.852 E24.70985
G1 X124.12 Y207.015 E24.80627
G1 X123.723 Y206.203 E24.88122
G1 X123.634 Y205.796 E24.91577
G1 X123.585 Y192.056 E26.0552
G1 X123.417 Y191.772 E26.08256
G1 X123.204 Y191.634 E26.10361
G1 X121.769 Y191.525 E26.22295
G1 X120.85 Y191.172 E26.30459
G1 X120.485 Y190.902 E26.34224
G1 X119.743 Y190.123 E26.43146
G1 X119.502 Y189.726 E26.46997
G1 X119.293 Y189.178 E26.51861
G1 X119.221 Y188.737 E26.55567
G1 X119.221 Y180.841 E27.21046
G1 X119.332 Y180.273 E27.25845
G1 X119.705 Y179.509 E27.32895
G1 X120.643 Y178.548 E27.44031
G1 X121.395 Y178.158 E27.51056
G1 X121.77 Y178.057 E27.54277
G1 X123.086 Y177.995 E27.65202
G1 X123.421 Y177.8 E27.68416
G1 X123.582 Y177.534 E27.70994
G1 X123.621 Y164.346 E28.80359
G1 X123.74 Y163.759 E28.85326
G1 X124.012 Y163.157 E28.90804
G1 X125.002 Y162.117 E29.02711
G1 X125.002 Y162.117 F9000
G1 X125.413 Y162.538
G1 F1800
G1 X125.429 Y162.523 E29.02893
G1 X126.177 Y162.177 E29.09727
G1 X126.462 Y162.132 E29.1212
G1 X130.437 Y162.138 E29.45084
G1 X130.781 Y162.212 E29.48002
G1 X131.411 Y162.523 E29.53828
G1 X132.151 Y163.245 E29.62402
G1 X132.38 Y163.587 E29.65815
G1 X132.62 Y164.375 E29.72646
G1 X132.62 Y205.635 E33.14803
G1 X132.38 Y206.423 E33.21634
G1 X132.151 Y206.766 E33.25054
G1 X131.411 Y207.488 E33.33628
G1 X130.78 Y207.798 E33.39458
G1 X130.377 Y207.879 E33.42867
G1 X126.464 Y207.879 E33.75316
G1 X126.06 Y207.798 E33.78733
G1 X125.334 Y207.41 E33.85559
G1 X124.461 Y206.425 E33.96474
G1 X124.234 Y205.758 E34.02317
G1 X124.177 Y191.957 E35.16766
G1 X123.843 Y191.356 E35.22468
G1 X123.429 Y191.073 E35.26627
G1 X123.064 Y190.977 E35.29757
G1 X121.887 Y190.936 E35.39523
G1 X121.131 Y190.641 E35.46253
G1 X120.2 Y189.733 E35.57037
G1 X119.865 Y188.995 E35.63758
G1 X119.821 Y188.714 E35.66117
G1 X119.821 Y180.87 E36.31165
G1 X119.899 Y180.472 E36.34528
G1 X120.2 Y179.85 E36.40258
G1 X120.995 Y179.035 E36.497
G1 X121.886 Y178.646 E36.57762
G1 X123.073 Y178.605 E36.67611
G1 X123.522 Y178.464 E36.71514
G1 X123.867 Y178.2 E36.75117
G1 X124.159 Y177.694 E36.79962
G1 X124.221 Y177.252 E36.83663
G1 X124.221 Y164.375 E37.90448
G1 X124.302 Y163.97 E37.93873
G1 X124.688 Y163.246 E38.00677
G1 X125.349 Y162.601 E38.08336
G1 X125.349 Y162.601 F9000
G1 X125.78 Y163.011
G1 F1800
G1 X126.314 Y162.762 E38.13222
G1 X130.402 Y162.737 E38.47123
G1 X131.061 Y163.011 E38.53041
G1 X131.707 Y163.649 E38.6057
G1 X132.02 Y164.404 E38.67348
G1 X132.02 Y205.606 E42.09025
G1 X131.707 Y206.361 E42.15803
G1 X131.061 Y207 E42.23338
G1 X130.578 Y207.233 E42.27785
G1 X126.493 Y207.279 E42.61663
G1 X125.738 Y206.966 E42.68441
G1 X125.1 Y206.32 E42.7597
G1 X124.826 Y205.661 E42.81888
G1 X124.821 Y192.315 E43.92563
G1 X124.758 Y191.804 E43.96833
G1 X124.498 Y191.21 E44.0221
G1 X124.045 Y190.738 E44.07635
G1 X123.66 Y190.514 E44.11329
G1 X123.15 Y190.379 E44.15704
G1 X121.828 Y190.304 E44.26685
G1 X121.314 Y190.033 E44.31504
G1 X120.6 Y189.24 E44.40353
G1 X120.421 Y188.687 E44.45173
G1 X120.421 Y180.899 E45.09757
G1 X120.691 Y180.195 E45.1601
G1 X121.353 Y179.517 E45.23868
G1 X121.996 Y179.237 E45.29684
G1 X123.141 Y179.203 E45.39183
G1 X123.798 Y178.999 E45.44888
G1 X124.316 Y178.602 E45.503
G1 X124.735 Y177.869 E45.57302
G1 X124.821 Y177.267 E45.62345
G1 X124.821 Y164.404 E46.69014
G1 X125.028 Y163.797 E46.74332
G1 X125.717 Y163.076 E46.82602
G1 X125.717 Y163.076 F9000
G1 X126.141 Y163.49
G1 F1800
G1 X126.523 Y163.332 E46.8603
G1 X130.318 Y163.332 E47.17501
G1 X130.7 Y163.49 E47.20929
G1 X131.262 Y164.052 E47.2752
G1 X131.42 Y164.434 E47.30948
G1 X131.42 Y205.577 E50.72135
G1 X131.262 Y205.959 E50.75563
G1 X130.7 Y206.521 E50.82154
G1 X130.376 Y206.667 E50.85101
G1 X126.523 Y206.679 E51.17053
G1 X126.141 Y206.521 E51.20481
G1 X125.579 Y205.959 E51.27072
G1 X125.421 Y205.577 E51.305
G1 X125.421 Y192.3 E52.40602
G1 X125.342 Y191.657 E52.45974
G1 X124.999 Y190.875 E52.53055
G1 X124.407 Y190.258 E52.60146
G1 X123.869 Y189.952 E52.65279
G1 X123.415 Y189.814 E52.69214
G1 X122.093 Y189.753 E52.80189
G1 X121.768 Y189.623 E52.83092
G1 X121.174 Y189.031 E52.90047
G1 X121.032 Y188.711 E52.9295
G1 X121.021 Y180.928 E53.57492
G1 X121.174 Y180.551 E53.60866
G1 X121.768 Y179.959 E53.67821
G1 X122.093 Y179.829 E53.70724
G1 X123.408 Y179.769 E53.8164
G1 X124.075 Y179.534 E53.87505
G1 X124.429 Y179.31 E53.90979
G1 X125.008 Y178.689 E53.9802
G1 X125.312 Y178.044 E54.03933
G1 X125.421 Y177.282 E54.10316
G1 X125.421 Y164.434 E55.16861
G1 X125.546 Y164.101 E55.19811
G1 X126.078 Y163.554 E55.26139
G1 X126.078 Y163.554 F9000
G1 X126.499 Y164.031
G1 F1800
G1 X126.612 Y163.931 E55.2739
G1 X130.339 Y163.977 E55.58299
G1 X130.82 Y164.523 E55.64333
G1 X130.82 Y205.487 E59.04036
G1 X130.228 Y206.079 E59.10979
G1 X126.612 Y206.079 E59.40965
G1 X126.02 Y205.487 E59.47908
G1 X126.02 Y192.285 E60.57388
G1 X125.925 Y191.511 E60.63855
G1 X125.497 Y190.542 E60.7264
G1 X124.766 Y189.775 E60.81427
G1 X124.106 Y189.4 E60.87722
G1 X123.525 Y189.224 E60.92756
G1 X122.196 Y189.155 E61.03792
G1 X121.665 Y188.675 E61.09728
G1 X121.62 Y181.016 E61.73243
G1 X122.196 Y180.426 E61.80081
G1 X123.525 Y180.358 E61.91116
G1 X124.107 Y180.182 E61.96158
G1 X124.775 Y179.801 E62.02535
G1 X125.504 Y179.029 E62.1134
G1 X125.886 Y178.218 E62.18774
G1 X126.02 Y177.297 E62.26492
G1 X126.066 Y164.413 E63.33336
G1 X126.431 Y164.091 E63.37372
G1 X126.431 Y164.091 F9000
G1 X126.796 Y164.531
G1 F1800
G1 X130.044 Y164.531 E63.64307
G1 X130.22 Y164.707 E63.66371
G1 X130.22 Y205.303 E67.03022
G1 X130.044 Y205.479 E67.05086
G1 X126.796 Y205.479 E67.32021
G1 X126.62 Y205.303 E67.34085
G1 X126.62 Y192.271 E68.42156
G1 X126.509 Y191.365 E68.49725
G1 X126.335 Y190.841 E68.54304
G1 X125.997 Y190.208 E68.60255
G1 X125.54 Y189.651 E68.6623
G1 X125.124 Y189.292 E68.70787
G1 X124.661 Y188.999 E68.75331
G1 X123.994 Y188.723 E68.81317
G1 X123.287 Y188.582 E68.87295
G1 X122.391 Y188.56 E68.94728
G1 X122.22 Y188.385 E68.96757
G1 X122.22 Y181.197 E69.56365
G1 X122.391 Y181.022 E69.58394
G1 X123.287 Y181 E69.65827
G1 X123.994 Y180.859 E69.71805
G1 X124.661 Y180.583 E69.77791
G1 X125.127 Y180.288 E69.82365
G1 X125.659 Y179.806 E69.88318
G1 X126 Y179.369 E69.92915
G1 X126.461 Y178.393 E70.01866
G1 X126.62 Y177.311 E70.10935
G1 X126.62 Y164.707 E71.15456
G1 X126.732 Y164.595 E71.16769
G1 E70.66769 F240
G92 E0
G1 X126.732 Y164.595 F9000
EXCLUDE_OBJECT_START NAME='terminal_base_bracket'
G92 E0
G1 X122.858 Y187.93
G1 E.5 F240
;TYPE:External perimeter
;WIDTH:0.675
G1 F1800
G1 X122.858 Y181.648 E1.02095
G1 X123.374 Y181.631 E1.06376
G1 X124.207 Y181.459 E1.1343
G1 X124.985 Y181.132 E1.20428
G1 X125.527 Y180.784 E1.25769
G1 X126.149 Y180.214 E1.32765
G1 X126.543 Y179.702 E1.38123
G1 X126.938 Y178.951 E1.4516
G1 X127.179 Y178.136 E1.52208
G1 X127.258 Y177.32 E1.59006
G1 X127.258 Y165.169 E2.59771
G1 X129.583 Y165.169 E2.79052
G1 X129.583 Y166.331 E2.88688
G1 X129.583 Y204.842 E6.08049
G1 X127.258 Y204.842 E6.2733
G1 X127.258 Y192.262 E7.31652
G1 X127.234 Y191.816 E7.35356
G1 X127.122 Y191.188 E7.40646
G1 X126.914 Y190.574 E7.46022
G1 X126.509 Y189.83 E7.53047
G1 X125.972 Y189.182 E7.60026
G1 X125.487 Y188.767 E7.65319
G1 X124.933 Y188.423 E7.70727
G1 X124.151 Y188.105 E7.77728
G1 X123.374 Y187.951 E7.84297
G1 X122.944 Y187.937 E7.87865
G1 X122.86 Y187.343 F9000
G1 X123.458 Y187.342
;TYPE:Perimeter
G1 F1800
G1 X123.458 Y182.26 E8.30009
G1 X123.491 Y182.219 E8.30445
G1 X124.437 Y182.014 E8.38472
G1 X125.306 Y181.639 E8.46321
G1 X125.93 Y181.228 E8.52517
G1 X126.622 Y180.583 E8.60362
G1 X127.072 Y179.984 E8.66575
G1 X127.512 Y179.125 E8.74579
G1 X127.741 Y178.368 E8.81138
;WIDTH:0.709701
G1 X127.771 Y178.318 E8.8165
;WIDTH:0.744403
G1 X127.801 Y178.268 E8.82189
;WIDTH:0.78807
G1 X127.831 Y178.186 E8.8305
;WIDTH:0.831738
G1 X127.862 Y178.104 E8.83967
;WIDTH:0.875405
G1 X127.892 Y178.022 E8.84933
;WIDTH:0.919073
G1 X127.923 Y177.94 E8.85956
;WIDTH:0.962741
G1 X127.953 Y177.858 E8.87027
G1 X127.989 Y177.32 E8.93643
;WIDTH:0.937667
G1 X127.989 Y165.9 E10.29812
G1 X128.852 Y165.9 E10.40102
G1 X128.852 Y166.331 E10.45241
G1 X128.852 Y177.32 E11.76271
;WIDTH:0.962741
G1 X128.839 Y177.902 E11.83414
G1 X128.863 Y178.001 E11.84664
;WIDTH:0.914784
G1 X128.887 Y178.101 E11.85858
;WIDTH:0.866827
G1 X128.911 Y178.201 E11.86984
;WIDTH:0.81887
G1 X128.935 Y178.3 E11.88031
;WIDTH:0.770913
G1 X128.959 Y178.4 E11.8902
;WIDTH:0.722956
G1 X128.983 Y178.5 E11.89941
;WIDTH:0.675
G1 X128.983 Y191.02 E12.93766
;WIDTH:0.722214
G1 X128.959 Y191.119 E12.94677
;WIDTH:0.769428
G1 X128.936 Y191.218 E12.95653
;WIDTH:0.816643
G1 X128.912 Y191.317 E12.96697
;WIDTH:0.863857
G1 X128.888 Y191.416 E12.97808
;WIDTH:0.911071
G1 X128.865 Y191.515 E12.98983
;WIDTH:0.958286
G1 X128.841 Y191.614 E13.00227
G1 X128.852 Y192.262 E13.08139
;WIDTH:0.937667
G1 X128.852 Y204.11 E14.49412
G1 X127.989 Y204.11 E14.59702
G1 X127.989 Y192.262 E16.00975
;WIDTH:0.938548
G1 X127.988 Y192.212 E16.01572
;WIDTH:0.958286
G1 X127.965 Y191.689 E16.07963
G1 X127.919 Y191.574 E16.09475
;WIDTH:0.911071
G1 X127.873 Y191.459 E16.10906
;WIDTH:0.863857
G1 X127.828 Y191.344 E16.12252
;WIDTH:0.816643
G1 X127.782 Y191.229 E16.13522
;WIDTH:0.769428
