; generated by PrusaSlicer 2.8.1+MacOS-arm64 on 2024-11-27 at 05:56:45 UTC


;
;

;
;
; 

; external perimeters extrusion width = 0.55mm
; perimeters extrusion width = 0.60mm
; infill extrusion width = 0.60mm
; solid infill extrusion width = 0.60mm
; top infill extrusion width = 0.55mm
; first layer extrusion width = 0.60mm

M73 P0 R80

EXCLUDE_OBJECT_DEFINE NAME='center_bed_level_press' CENTER=125.000,125.000 POLYGON=[[126.013,95.017],[129.041,95.273],[132.028,95.835],[134.812,96.650],[137.462,97.711],[140.000,99.019],[142.402,100.563],[144.646,102.328],[146.744,104.331],[148.723,106.637],[150.459,109.131],[151.934,111.788],[153.133,114.581],[154.042,117.480],[154.654,120.457],[154.961,123.481],[154.966,126.427],[154.695,129.269],[154.154,132.073],[153.350,134.812],[152.289,137.462],[150.981,140.000],[149.330,142.551],[147.429,144.923],[145.299,147.090],[143.545,148.582],[141.219,150.238],[138.665,151.707],[135.893,152.953],[133.009,153.911],[130.043,154.573],[127.025,154.932],[123.987,154.983],[120.959,154.727],[117.972,154.165],[115.188,153.350],[112.538,152.289],[110.000,150.981],[107.598,149.437],[105.354,147.672],[103.256,145.669],[101.277,143.363],[99.541,140.869],[98.066,138.212],[96.867,135.419],[95.958,132.520],[95.346,129.543],[95.039,126.519],[95.034,123.573],[95.305,120.731],[95.846,117.927],[96.650,115.188],[97.711,112.538],[99.019,110.000],[100.670,107.449],[102.571,105.077],[104.701,102.910],[107.040,100.970],[109.563,99.276],[112.245,97.847],[115.057,96.695],[117.927,95.846],[120.731,95.305],[123.573,95.034]]

M190 S70 ; set bed temperature and wait for it to be reached
M104 S245 ; set temperature
;TYPE:Custom
START_PRINT BED_TEMP=70 HOTEND_TEMP=245 FILAMENT_TYPE=PET EXTRUSION_MULTIPLIER=0.96
M109 S245 ; set temperature and wait for it to be reached
G21 ; set units to millimeters
G90 ; use absolute coordinates
M82 ; use absolute distances for extrusion
G92 E0
; Filament gcode
; ########################### NOTE OFFSET CHANGES ####################################
; Prevents PETG buildup on nozzle.
; PETG does not like to be touching the nozzle, this causes buildup on nozzle
; Once the bed z distance is finaly chuned a small offset for PETG works perfectly
SET_GCODE_OFFSET Z=0.06
; ####################################################################################
M107
;LAYER_CHANGE
;Z:0.3
;HEIGHT:0.3
G1 E-.55 F600
G1 Z.8 F9000
EXCLUDE_OBJECT_START NAME='center_bed_level_press'
G92 E0
G1 X147.401 Y127.396
G1 Z.3
G1 E.6 F1200
;TYPE:Perimeter
;WIDTH:0.6
G1 F1800
G3 X146.867 Y128.454 I-6.089 J-2.414 E.67611
G3 X146.074 Y129.47 I-7.447 J-4.996 E.75884
G3 X135.036 Y126.189 I-4.676 J-4.479 E1.66886
G3 X134.926 Y125.114 I20.273 J-2.618 E1.73817
G3 X135.557 Y122.222 I6.681 J-.058 E1.92959
G3 X140.631 Y118.577 I5.871 J2.819 E2.34747
G3 X141.708 Y118.536 I1.198 J17.286 E2.4166
G3 X147.507 Y122.876 I-.335 J6.493 E2.9093
G3 X147.807 Y124.129 I-8.877 J2.785 E2.992
G3 X147.429 Y127.326 I-6.495 J.853 E3.2006
G1 X147.429 Y127.326 F9000
G1 X146.908 Y127.188
G1 F1800
G3 X136.432 Y128.253 I-5.515 J-2.192 E4.0312
G3 X135.488 Y125.43 I4.913 J-3.211 E4.22421
G1 X135.462 Y125.117 E4.24435
G3 X140.711 Y119.107 I5.957 J-.094 E4.80506
G1 X141.632 Y119.071 E4.86417
G3 X144.947 Y120.245 I-.265 J6.016 E5.09304
G3 X146.191 Y121.503 I-3.986 J5.185 E5.20685
G3 X146.935 Y127.118 I-4.798 J3.493 E5.58553
G1 X146.935 Y127.118 F9000
G1 X146.415 Y126.98
;TYPE:External perimeter
G1 F1800
G3 X136.867 Y127.941 I-5.022 J-1.981 E6.34357
G3 X136.021 Y125.377 I4.459 J-2.893 E6.51865
G1 X135.997 Y125.12 E6.5352
G3 X140.845 Y119.628 I5.411 J-.109 E7.05126
G1 X141.645 Y119.606 E7.10259
G3 X146.442 Y126.91 I-.252 J5.393 E7.75559
G1 X146.24 Y127.368 F9000
G1 E7.20559 F600
G92 E0
G1 X126.819 Y106.312 Z.8 F9000
G1 X123.129 Y102.311
G1 Z.3
G1 E.6 F1200
;TYPE:Perimeter
G1 F1800
G3 X124.192 Y102.084 I1.88 J6.202 E.66979
G1 X125.114 Y102.038 E.72899
G1 X125.898 Y102.093 E.77939
G3 X128.246 Y102.906 I-.968 J6.587 E.93969
G1 X128.853 Y103.303 E.98621
G3 X131.081 Y110.699 I-3.87 J5.199 E1.51691
G3 X119.378 Y111.692 I-6.081 J-2.207 E2.46115
G3 X118.537 Y108.754 I5.903 J-3.279 E2.65885
G3 X118.617 Y107.442 I8.473 J-.14 E2.74323
G3 X123.057 Y102.333 I6.392 J1.071 E3.19996
G1 X123.057 Y102.333 F9000
G1 X123.274 Y102.824
G1 F1800
G3 X124.369 Y102.599 I1.742 J5.693 E3.27176
G3 X125.845 Y102.626 I.584 J8.495 E3.36656
G3 X127.99 Y103.377 I-.906 J6.024 E3.51317
G3 X119.162 Y109.57 I-2.994 J5.121 E5.03544
G1 X119.07 Y108.701 E5.09148
G3 X119.149 Y107.509 I8.049 J-.067 E5.16816
G3 X123.202 Y102.847 I5.867 J1.008 E5.58469
G1 X123.202 Y102.847 F9000
G1 X123.418 Y103.337
;TYPE:External perimeter
G1 F1800
G3 X125.141 Y103.109 I1.58 J5.309 E5.69662
G3 X127.734 Y103.847 I-.121 J5.349 E5.87141
G3 X119.685 Y109.451 I-2.736 J4.653 E7.25728
G1 X119.603 Y108.648 E7.30905
G3 X123.346 Y103.36 I5.413 J-.137 E7.75445
G1 X123.831 Y103.235 F9000
G1 E7.20445 F600
G92 E0
G1 X108.766 Y127.599 Z.8 F9000
G1 X106.559 Y131.169
G1 Z.3
G1 E.6 F1200
;TYPE:Perimeter
G1 F1800
G3 X102.14 Y126.189 I1.958 J-6.188 E1.04836
G1 X102.037 Y125.254 E1.10869
G3 X103.363 Y121.071 I6.505 J-.24 E1.39574
G3 X107.789 Y118.569 I5.163 J3.969 E1.73071
G1 X108.723 Y118.536 E1.79065
G3 X114.745 Y123.326 I-.248 J6.491 E2.3188
G3 X114.957 Y125.417 I-6.891 J1.753 E2.45409
G3 X114.547 Y127.301 I-6.957 J-.526 E2.57814
G3 X110.419 Y131.18 I-6.088 J-2.343 E2.95393
M73 P0 R79
G1 X109.847 Y131.328 E2.99182
G3 X107.922 Y131.444 I-1.385 J-6.962 E3.11588
G3 X106.63 Y131.191 I.595 J-6.463 E3.20046
G1 X106.63 Y131.191 F9000
G1 X106.73 Y130.66
G1 F1800
G3 X102.662 Y126.07 I1.776 J-5.671 E3.61376
G1 X102.57 Y125.201 E3.6698
G3 X107.869 Y119.099 I5.942 J-.191 E4.23968
G1 X108.736 Y119.071 E4.29531
G3 X110.257 Y130.67 I-.241 J5.931 E5.3611
G3 X108.624 Y130.931 I-1.799 J-6.023 E5.46747
G3 X106.801 Y130.682 I-.118 J-5.942 E5.58595
G1 X106.801 Y130.682 F9000
G1 X106.9 Y130.153
;TYPE:External perimeter
G1 F1800
G3 X103.185 Y125.951 I1.607 J-5.164 E5.96411
G1 X103.103 Y125.148 E6.01588
G3 X107.949 Y119.628 I5.408 J-.139 E6.53369
G1 X108.75 Y119.606 E6.58508
G3 X110.094 Y130.159 I-.255 J5.395 E7.55272
G3 X106.972 Y130.175 I-1.587 J-5.17 E7.75584
G1 X106.501 Y130.008 F9000
G1 E7.20584 F600
G92 E0
G1 X123.061 Y147.663 Z.723 F9000
G1 Z.3
G1 E.6 F1200
;TYPE:Perimeter
G1 F1800
G3 X122.548 Y147.488 I2.692 J-8.698 E.63477
G3 X120.79 Y146.413 I2.678 J-6.358 E.76742
G3 X118.64 Y142.689 I4.288 J-4.958 E1.0484
G1 X118.537 Y141.754 E1.10873
G3 X118.617 Y140.442 I8.725 J-.125 E1.19311
G3 X124.289 Y135.069 I6.4 J1.076 E1.73079
G3 X125.898 Y135.093 I.67 J9.247 E1.83412
G3 X129.678 Y145.97 I-.907 J6.41 E2.7441
G3 X123.783 Y147.855 I-4.692 J-4.514 E3.15773
G3 X123.132 Y147.685 I1.97 J-8.89 E3.20089
G1 X123.132 Y147.685 F9000
G1 X123.228 Y147.164
G1 F1800
G3 X121.155 Y146.021 I1.771 J-5.66 E3.35373
G3 X119.162 Y142.57 I3.915 J-4.561 E3.61424
G1 X119.07 Y141.701 E3.67028
G3 X123.785 Y135.691 I5.944 J-.192 E4.20227
G3 X125.115 Y135.574 I1.244 J6.534 E4.28804
G3 X123.3 Y147.186 I-.116 J5.93 E5.58622
G1 X123.3 Y147.186 F9000
G1 X123.399 Y146.657
;TYPE:External perimeter
G1 F1800
G3 X121.519 Y145.628 I1.6 J-5.153 E5.72459
G3 X119.685 Y142.451 I3.543 J-4.164 E5.96451
G1 X119.603 Y141.648 E6.01628
G3 X125.128 Y136.109 I5.392 J-.146 E6.57761
G3 X123.47 Y146.679 I-.129 J5.395 E7.75568
G1 X122.999 Y146.512 F9000
G1 E7.20568 F600
G92 E0
G1 X104.32 Y144.648 Z.628 F9000
G1 Z.3
G1 E.6 F1200
;TYPE:Perimeter
G1 F1800
G3 X96.601 Y122.288 I20.719 J-19.665 E2.16414
G3 X153.527 Y125.067 I28.398 J2.716 E7.74153
G3 X140.467 Y148.971 I-28.554 J-.081 E9.56257
G3 X107.365 Y147.425 I-15.467 J-23.996 E11.82996
G3 X104.372 Y144.703 I17.674 J-22.442 E12.08964
G1 X104.372 Y144.703 F9000
G1 X103.93 Y145.019
G1 F1800
G3 X96.232 Y120.863 I21.114 J-20.034 E13.77196
G3 X123.617 Y95.969 I28.784 J4.154 E16.3446
G3 X134.507 Y97.535 I1.338 J29.344 E17.05438
G3 X146.003 Y104.911 I-9.601 J27.609 E17.93853
G3 X154.031 Y123.617 I-21.071 J20.119 E19.27215
G1 X154.062 Y125.08 E19.366
G3 X140.757 Y149.421 I-29.088 J-.093 E21.22047
G3 X115.494 Y152.466 I-15.764 J-24.466 E22.90942
G3 X103.997 Y145.089 I9.606 J-27.619 E23.79366
G3 X103.982 Y145.073 I21.047 J-20.104 E23.79507
G1 X103.544 Y145.386 F9000
;TYPE:External perimeter
G1 F1800
G3 X95.701 Y129.213 I21.52 J-20.423 E24.96622
G3 X111.436 Y98.691 I29.325 J-4.2 E27.31531
G3 X145.426 Y103.578 I13.56 J26.338 E29.66442
G3 X154.566 Y123.592 I-20.493 J21.453 E31.11001
G1 X154.598 Y125.093 E31.2063
G3 X141.047 Y149.872 I-29.624 J-.106 E33.0943
G3 X122.186 Y154.466 I-16.069 J-24.955 E34.36261
G3 X105.659 Y147.405 I2.856 J-29.56 E35.53358
G3 X103.595 Y145.441 I19.405 J-22.442 E35.71637
G1 X103.254 Y145.075 F9000
G1 E35.16637 F600
G92 E0
G1 X122.599 Y123.949 Z.8 F9000
G1 X142.251 Y102.488
G1 Z.3
G1 E.6 F1200
;TYPE:Solid infill
;WIDTH:0.60508
G1 F1800
G1 X145.362 Y105.6 E.88488
G3 X148.389 Y109.392 I-20.232 J19.256 E1.1994
G1 X140.608 Y101.611 E1.91181
G2 X138.648 Y100.415 I-12.985 J19.086 E2.06052
G1 X149.585 Y111.352 E3.06189
G3 X150.396 Y112.928 I-19.689 J11.133 E3.17667
G1 X137.074 Y99.605 E4.39645
G2 X135.696 Y98.992 I-9.546 J19.588 E4.49411
G1 X151.008 Y114.304 E5.89605
G3 X151.484 Y115.545 I-22.806 J9.464 E5.98211
G1 X134.455 Y98.516 E7.54125
G2 X133.311 Y98.136 I-6.994 J19.179 E7.6193
G1 X151.864 Y116.689 E9.31798
G3 X152.171 Y117.761 I-14.261 J4.667 E9.39019
G1 X132.241 Y97.831 E11.21494
G2 X131.223 Y97.578 I-3.981 J13.833 E11.28287
G1 X152.423 Y118.777 E13.22386
G1 X152.631 Y119.75 E13.28828
G1 X130.25 Y97.369 E15.33744
G1 X129.331 Y97.215 E15.39777
G1 X152.785 Y120.669 E17.54518
G3 X152.907 Y121.556 I-11.79 J2.073 E17.60316
M73 P1 R79
G1 X128.444 Y97.093 E19.84295
G1 X127.583 Y96.997 E19.89904
G1 X153.006 Y122.419 E22.22668
G1 X153.065 Y123.243 E22.28016
G1 X126.758 Y96.936 E24.68878
G2 X125.953 Y96.896 I-.899 J9.944 E24.74098
G1 X153.104 Y124.047 E27.22688
G1 X153.122 Y124.83 E27.27759
G1 X125.17 Y96.877 E29.83687
G1 X124.418 Y96.89 E29.88556
G1 X153.113 Y125.585 E32.51282
G1 X153.095 Y126.332 E32.5612
G1 X123.668 Y96.905 E35.25548
G1 X122.954 Y96.956 E35.30182
G1 X153.044 Y127.046 E38.05681
G1 X152.989 Y127.755 E38.10285
G1 X147.821 Y122.587 E38.57602
G3 X148.132 Y123.663 I-5.695 J2.233 E38.64863
G1 X152.908 Y128.438 E39.08587
G1 X152.821 Y129.117 E39.13019
G1 X148.244 Y124.54 E39.54925
G3 X148.251 Y125.311 I-4.434 J.423 E39.59923
G1 X152.711 Y129.771 E40.00758
G1 X152.597 Y130.422 E40.05037
G1 X148.185 Y126.009 E40.45437
G3 X148.06 Y126.649 I-4.293 J-.502 E40.49663
G1 X152.46 Y131.05 E40.89953
G1 X152.322 Y131.676 E40.94103
G1 X147.884 Y127.238 E41.34737
G3 X147.668 Y127.787 I-3.374 J-1.009 E41.38561
G1 X152.16 Y132.279 E41.79689
G1 X151.999 Y132.882 E41.8373
G1 X147.417 Y128.301 E42.25677
G1 X147.133 Y128.781 E42.29288
G1 X151.815 Y133.463 E42.72156
G1 X151.63 Y134.042 E42.76091
G1 X146.81 Y129.222 E43.20222
G3 X146.461 Y129.638 I-3.488 J-2.572 E43.2374
G1 X151.428 Y134.606 E43.69222
G1 X151.22 Y135.162 E43.73065
G1 X146.077 Y130.019 E44.20153
G3 X145.668 Y130.375 I-2.365 J-2.305 E44.23667
G1 X151.002 Y135.709 E44.72504
G1 X150.773 Y136.245 E44.76278
G1 X145.231 Y130.702 E45.27024
G1 X144.755 Y130.991 E45.30629
G1 X150.54 Y136.776 E45.83595
G1 X150.29 Y137.291 E45.87301
G1 X144.245 Y131.246 E46.42648
G3 X143.701 Y131.466 I-1.685 J-3.382 E46.46451
G1 X150.04 Y137.805 E47.0449
G1 X149.773 Y138.303 E47.08148
G1 X143.116 Y131.646 E47.69098
G3 X142.484 Y131.778 I-1.157 J-3.958 E47.73282
G1 X149.503 Y138.798 E48.37551
G1 X149.224 Y139.283 E48.41173
G1 X141.793 Y131.852 E49.0921
G3 X141.028 Y131.852 I-.381 J-4.619 E49.14168
G1 X148.935 Y139.759 E49.86563
G1 X148.644 Y140.233 E49.90164
G1 X140.17 Y131.759 E50.6775
G3 X139.125 Y131.478 I1.027 J-5.916 E50.74765
G1 X148.509 Y140.862 E51.60683
G1 E51.05683 F600
G92 E0
G1 X148.509 Y140.862 F9000
G1 X144.257 Y119.023 Z.688
G1 Z.3
G1 E.6 F1200
G1 F1800
G1 X131.488 Y106.255 E1.76906
G3 X131.758 Y107.288 I-5.512 J1.987 E1.83828
G1 X142.738 Y118.269 E2.84363
G2 X141.853 Y118.148 I-1.271 J6.036 E2.90151
G1 X131.854 Y108.149 E3.817
G3 X131.853 Y108.913 I-4.874 J.373 E3.86651
G1 X141.088 Y118.148 E4.71205
G2 X140.385 Y118.21 I-.018 J3.792 E4.75781
G1 X131.78 Y109.605 E5.54567
G1 X131.645 Y110.235 E5.58738
G1 X139.747 Y118.336 E6.32914
G2 X139.156 Y118.51 I.815 J3.861 E6.36907
G1 X131.463 Y110.817 E7.07343
G3 X131.241 Y111.36 I-3.595 J-1.157 E7.11145
G1 X138.606 Y118.725 E7.78578
G1 X138.091 Y118.975 E7.82284
M73 P1 R78
G1 X130.983 Y111.866 E8.47368
G3 X130.693 Y112.341 I-3.898 J-2.053 E8.50973
G1 X137.616 Y119.264 E9.14359
G2 X137.174 Y119.586 I2.819 J4.341 E9.17901
G1 X130.373 Y112.786 E9.80165
G1 X130.014 Y113.192 E9.83674
G1 X136.76 Y119.937 E10.45435
G2 X136.374 Y120.316 I2.413 J2.842 E10.4894
G1 X129.628 Y113.57 E11.10705
G3 X129.213 Y113.92 I-2.348 J-2.36 E11.14224
G1 X136.016 Y120.723 E11.76511
G1 X135.696 Y121.168 E11.8006
G1 X128.77 Y114.241 E12.43478
G1 X128.295 Y114.531 E12.47081
G1 X135.407 Y121.643 E13.12197
G2 X135.15 Y122.151 I2.981 J1.827 E13.15887
G1 X127.78 Y114.78 E13.8337
G3 X127.229 Y114.994 I-2.071 J-4.522 E13.87199
G1 X134.929 Y122.694 E14.57699
G2 X134.748 Y123.278 I4.461 J1.705 E14.6166
G1 X126.637 Y115.167 E15.35923
G3 X125.997 Y115.292 I-1.092 J-3.888 E15.40149
G1 X134.614 Y123.909 E16.19045
G2 X134.539 Y124.598 I7.204 J1.133 E16.23534
G1 X125.297 Y115.357 E17.08147
G3 X124.527 Y115.351 I-.346 J-4.839 E17.13137
G1 X134.543 Y125.367 E18.04842
G1 X134.632 Y126.221 E18.10401
G1 X123.65 Y115.239 E19.1095
G3 X122.566 Y114.919 I1.451 J-6.919 E19.18275
G1 X135.348 Y127.701 E20.35305
G1 E19.80305 F600
G92 E0
G1 X135.348 Y127.701 F9000
G1 X124.011 Y101.395 Z.8
G1 X122.028 Y96.794
G1 Z.3
G1 E.6 F1200
G1 F1800
G1 X127.248 Y102.015 E1.07798
G2 X126.208 Y101.739 I-2.126 J5.925 E1.14773
G1 X121.561 Y97.092 E1.5732
G1 X120.883 Y97.179 E1.61745
G1 X125.343 Y101.639 E2.0258
G1 X124.589 Y101.649 E2.07462
G1 X120.229 Y97.289 E2.47381
G1 X119.578 Y97.403 E2.5166
G1 X123.897 Y101.722 E2.91204
G2 X123.27 Y101.859 I.752 J4.953 E2.95362
G1 X118.95 Y97.54 E3.34911
G1 X118.324 Y97.678 E3.39061
G1 X122.684 Y102.038 E3.7898
G2 X122.14 Y102.258 I1.15 J3.618 E3.82783
G1 X117.721 Y97.84 E4.23238
G1 X117.118 Y98.001 E4.27279
G1 X121.634 Y102.517 E4.68627
G1 X121.158 Y102.806 E4.72232
G1 X116.537 Y98.185 E5.14541
G1 X115.958 Y98.37 E5.18476
G1 X120.718 Y103.131 E5.62062
G1 X120.31 Y103.488 E5.65572
G1 X115.394 Y98.572 E6.10582
G1 X114.838 Y98.78 E6.14425
G1 X119.931 Y103.873 E6.61056
G2 X119.579 Y104.286 I2.662 J2.623 E6.64572
G1 X114.291 Y98.998 E7.12988
G1 X113.756 Y99.227 E7.16756
G1 X119.256 Y104.727 E7.67113
G1 X118.973 Y105.209 E7.70732
G1 X113.224 Y99.46 E8.23369
G1 X112.709 Y99.71 E8.27075
G1 X118.722 Y105.723 E8.82129
G2 X118.507 Y106.272 I3.285 J1.603 E8.8595
G1 X112.195 Y99.96 E9.43742
G1 X111.697 Y100.227 E9.474
G1 X118.333 Y106.863 E10.08158
G2 X118.209 Y107.504 I4.054 J1.12 E10.12389
G1 X111.202 Y100.497 E10.76544
G1 X110.717 Y100.776 E10.80166
G1 X118.143 Y108.202 E11.48157
G2 X118.157 Y108.981 I3.844 J.322 E11.5321
G1 X110.241 Y101.065 E12.25687
G1 X109.767 Y101.356 E12.29288
G1 X118.268 Y109.857 E13.07122
G2 X118.575 Y110.928 I6.69 J-1.335 E13.14343
G1 X109.311 Y101.665 E13.99158
G1 X108.855 Y101.973 E14.02721
G1 X148.027 Y141.145 E17.61373
G1 X147.706 Y141.589 E17.6492
G1 X108.411 Y102.294 E21.24698
G1 X107.974 Y102.621 E21.28232
G1 X147.379 Y142.026 E24.89017
G1 X147.048 Y142.46 E24.92551
G1 X107.54 Y102.952 E28.54279
G1 X107.121 Y103.298 E28.57797
M73 P2 R78
G1 X146.702 Y142.879 E32.20193
G1 X146.357 Y143.298 E32.23707
G1 X106.702 Y103.643 E35.86781
G1 X106.296 Y104.002 E35.9029
G1 X145.997 Y143.703 E39.53785
G1 X145.633 Y144.103 E39.57286
G1 X105.896 Y104.367 E43.21106
G1 X105.499 Y104.735 E43.24611
G1 X145.265 Y144.501 E46.88701
G1 X144.883 Y144.883 E46.92199
G1 X105.117 Y105.117 E50.56289
G1 X104.735 Y105.5 E50.59791
G1 X144.501 Y145.265 E54.23877
G1 X144.104 Y145.633 E54.27382
G1 X104.367 Y105.896 E57.91207
G1 X104.003 Y106.297 E57.94713
G1 X143.703 Y145.997 E61.58199
G1 X143.298 Y146.357 E61.61707
G1 X103.643 Y106.702 E65.24781
G1 X103.297 Y107.121 E65.28299
