; generated by PrusaSlicer 2.8.1+MacOS-arm64 on 2024-11-27 at 05:55:40 UTC


;
;

;
;
; 

; external perimeters extrusion width = 0.50mm
; perimeters extrusion width = 0.55mm
; infill extrusion width = 0.60mm
; solid infill extrusion width = 0.60mm
; top infill extrusion width = 0.55mm
; first layer extrusion width = 0.60mm

M73 P0 R40

EXCLUDE_OBJECT_DEFINE NAME='center_adjust_knob_(Instance_1)' CENTER=165.002,165.004 POLYGON=[[165.172,155.002],[166.188,155.071],[167.192,155.243],[168.173,155.517],[169.122,155.888],[170.842,156.882],[172.163,158.020],[172.836,158.785],[173.428,159.614],[174.320,161.369],[174.841,163.212],[175.002,165.121],[174.796,167.025],[174.230,168.855],[173.326,170.544],[172.729,171.349],[172.044,172.102],[171.285,172.781],[170.461,173.380],[169.580,173.891],[168.652,174.311],[167.686,174.634],[166.693,174.857],[164.763,174.998],[162.861,174.769],[161.038,174.181],[160.126,173.731],[159.263,173.190],[158.460,172.563],[157.725,171.859],[157.065,171.083],[156.487,170.244],[155.998,169.351],[155.602,168.412],[155.124,166.553],[155.006,164.746],[155.084,163.731],[155.261,162.742],[155.870,160.926],[156.815,159.260],[158.083,157.781],[159.560,156.612],[161.259,155.728],[163.145,155.175],[164.155,155.037]]
EXCLUDE_OBJECT_DEFINE NAME='center_adjust_knob_(Instance_2)' CENTER=165.002,85.001 POLYGON=[[165.172,74.999],[166.188,75.068],[167.192,75.240],[168.173,75.513],[169.122,75.885],[170.842,76.879],[172.163,78.017],[172.836,78.781],[173.428,79.610],[174.320,81.365],[174.841,83.208],[175.002,85.117],[174.796,87.022],[174.230,88.852],[173.326,90.541],[172.729,91.345],[172.044,92.098],[171.285,92.778],[170.461,93.376],[169.580,93.888],[168.652,94.308],[167.686,94.630],[166.693,94.853],[164.763,94.994],[162.861,94.765],[161.038,94.178],[160.126,93.727],[159.263,93.186],[158.460,92.560],[157.725,91.855],[157.065,91.079],[156.487,90.240],[155.998,89.347],[155.602,88.409],[155.124,86.550],[155.006,84.743],[155.084,83.727],[155.261,82.739],[155.870,80.923],[156.815,79.256],[158.083,77.778],[159.560,76.608],[161.259,75.724],[163.145,75.171],[164.155,75.033]]
EXCLUDE_OBJECT_DEFINE NAME='center_adjust_knob_(Instance_3)' CENTER=84.995,165.004 POLYGON=[[85.165,155.002],[86.181,155.071],[87.185,155.243],[88.166,155.517],[89.114,155.889],[90.834,156.883],[92.156,158.020],[92.829,158.785],[93.421,159.614],[94.313,161.369],[94.834,163.212],[94.995,165.121],[94.788,167.025],[94.223,168.855],[93.319,170.544],[92.722,171.349],[92.036,172.102],[91.278,172.781],[90.454,173.380],[89.573,173.892],[88.645,174.311],[87.679,174.634],[86.686,174.857],[84.756,174.998],[82.854,174.769],[81.031,174.181],[80.119,173.731],[79.256,173.190],[78.453,172.563],[77.717,171.859],[77.058,171.083],[76.480,170.244],[75.991,169.351],[75.595,168.412],[75.117,166.553],[74.999,164.746],[75.076,163.731],[75.254,162.742],[75.863,160.926],[76.808,159.260],[78.076,157.781],[79.552,156.612],[81.252,155.728],[83.138,155.175],[84.147,155.037]]
EXCLUDE_OBJECT_DEFINE NAME='center_adjust_knob_(Instance_4)' CENTER=84.995,85.001 POLYGON=[[85.165,74.999],[86.902,75.181],[88.803,75.750],[89.723,76.186],[90.595,76.712],[91.409,77.325],[92.156,78.017],[92.829,78.781],[93.421,79.610],[94.313,81.365],[94.834,83.208],[94.995,85.117],[94.788,87.022],[94.223,88.852],[93.319,90.541],[92.722,91.345],[92.036,92.098],[91.278,92.778],[90.454,93.376],[89.573,93.888],[88.645,94.308],[87.679,94.630],[86.686,94.853],[84.756,94.994],[82.854,94.765],[81.031,94.178],[80.119,93.727],[79.256,93.186],[78.453,92.560],[77.717,91.855],[77.058,91.079],[76.480,90.240],[75.991,89.347],[75.595,88.409],[75.117,86.550],[74.999,84.743],[75.076,83.727],[75.254,82.739],[75.863,80.923],[76.808,79.256],[78.076,77.778],[79.552,76.608],[81.252,75.724],[83.138,75.171],[84.147,75.033]]

M190 S55 ; set bed temperature and wait for it to be reached
M104 S230 ; set temperature
;TYPE:Custom
START_PRINT BED_TEMP=55 HOTEND_TEMP=230 FILAMENT_TYPE=PLA EXTRUSION_MULTIPLIER=0.98
M109 S230 ; set temperature and wait for it to be reached
G21 ; set units to millimeters
G90 ; use absolute coordinates
M82 ; use absolute distances for extrusion
G92 E0
; Filament gcode
SET_GCODE_OFFSET Z=0.01
M107
;LAYER_CHANGE
;Z:0.25
;HEIGHT:0.25
G1 E-.53 F600
G1 Z.55 F9000
EXCLUDE_OBJECT_START NAME='center_adjust_knob_(Instance_1)'
G92 E0
G1 X163.678 Y162.554
G1 Z.25
G1 E.53 F1200
;TYPE:External perimeter
;WIDTH:0.599999
G1 F1800
G1 X163.874 Y162.441 E.54259
G1 X164.421 Y162.263 E.5746
G1 X164.972 Y162.202 E.60545
G1 X165.66 Y162.281 E.64399
G1 X166.192 Y162.467 E.67535
G1 X166.671 Y162.753 E.7064
G1 X167.083 Y163.129 E.73744
G1 X167.413 Y163.578 E.76845
G1 X167.639 Y164.067 E.79843
G1 X167.776 Y164.626 E.83046
G1 X167.795 Y165.183 E.86148
G1 X167.704 Y165.733 E.8925
G1 X167.505 Y166.253 E.92349
G1 X167.208 Y166.724 E.95448
G1 X166.822 Y167.127 E.98554
G1 X166.365 Y167.446 E1.01656
G1 X165.853 Y167.667 E1.04759
G1 X165.308 Y167.783 E1.0786
G1 X164.796 Y167.788 E1.10709
G1 X164.143 Y167.657 E1.14415
G1 X163.566 Y167.403 E1.17923
G1 X163.119 Y167.071 E1.21022
G1 X162.746 Y166.657 E1.24123
G1 X162.463 Y166.177 E1.27224
G1 X162.288 Y165.673 E1.30193
G1 X162.205 Y165.098 E1.33426
G1 X162.244 Y164.523 E1.36633
G1 X162.387 Y164.004 E1.39629
G1 X162.637 Y163.505 E1.42735
G1 X162.98 Y163.066 E1.45835
G1 X163.37 Y162.732 E1.48693
G1 X163.613 Y162.592 E1.50254
G1 X164.069 Y162.386 F9000
G1 X162.982 Y162.346
;TYPE:Perimeter
G1 F1800
G1 X163.019 Y162.313 E1.5053
G1 X163.613 Y161.961 E1.54372
G1 X164.26 Y161.741 E1.58175
G3 X165.728 Y161.739 I.739 J3.867 E1.66393
G1 X166.379 Y161.954 E1.70208
G1 X166.956 Y162.287 E1.73915
G1 X167.455 Y162.728 E1.77621
G1 X167.856 Y163.259 E1.81324
G1 X168.137 Y163.842 E1.84926
G1 X168.309 Y164.504 E1.88732
G1 X168.342 Y165.169 E1.92437
G1 X168.242 Y165.827 E1.96141
G1 X168.014 Y166.453 E1.99849
G1 X167.667 Y167.021 E2.03553
G1 X167.214 Y167.509 E2.07258
G1 X166.673 Y167.897 E2.10963
G3 X165.765 Y168.248 I-2.003 J-3.832 E2.16392
G3 X164.751 Y168.335 I-.81 J-3.505 E2.22075
G1 X164.022 Y168.189 E2.26212
G1 X163.594 Y168.023 E2.28767
G3 X162.789 Y167.506 I1.501 J-3.226 E2.34107
G1 X162.336 Y167.018 E2.37812
G1 X162.04 Y166.537 E2.40955
G3 X161.686 Y164.644 I2.964 J-1.533 E2.51827
G1 X161.703 Y164.446 E2.52933
G1 X161.861 Y163.856 E2.56332
G1 X162.151 Y163.256 E2.60041
G1 X162.553 Y162.725 E2.63747
G1 X162.926 Y162.395 E2.66519
G1 X162.926 Y162.395 F9000
G1 X162.312 Y162.216
G1 F1800
G1 X162.668 Y161.895 E2.69187
G3 X163.368 Y161.473 I2.684 J3.661 E2.73742
G3 X164.365 Y161.165 I2.297 J5.673 E2.79556
G3 X166.638 Y161.469 I.607 J4.107 E2.92486
G1 X167.241 Y161.821 E2.96372
G1 X167.826 Y162.327 E3.00676
G1 X168.3 Y162.94 E3.04988
G1 X168.635 Y163.617 E3.09192
G1 X168.841 Y164.383 E3.13606
G1 X168.888 Y165.156 E3.17916
G1 X168.78 Y165.922 E3.22221
G1 X168.523 Y166.653 E3.26533
G1 X168.126 Y167.317 E3.30838
G1 X167.768 Y167.723 E3.3385
G3 X166.976 Y168.352 I-3 J-2.965 E3.39492
G1 X166.374 Y168.633 E3.43189
G3 X165.325 Y168.879 I-1.783 J-5.252 E3.49195
G1 X164.796 Y168.881 E3.52139
G3 X163.835 Y168.707 I.4 J-4.955 E3.57583
G3 X162.901 Y168.275 I2.107 J-5.784 E3.63317
G3 X161.516 Y166.723 I2.346 J-3.486 E3.75015
G1 X161.252 Y166.021 E3.79189
G1 X161.121 Y165.234 E3.83629
G3 X161.162 Y164.368 I11.136 J.091 E3.88455
G1 X161.336 Y163.708 E3.92253
G1 X161.665 Y163.007 E3.96562
G1 X162.126 Y162.385 E4.00871
G1 X162.257 Y162.266 E4.01856
G1 X162.257 Y162.266 F9000
G1 X161.66 Y162.093
G1 F1800
G1 X161.699 Y162.044 E4.02205
G3 X163.107 Y160.993 I3.418 J3.11 E4.12043
G3 X164.227 Y160.632 I2.742 J6.587 E4.18599
G3 X166.854 Y160.967 I.733 J4.712 E4.33533
G1 X167.525 Y161.355 E4.37846
G3 X168.326 Y162.057 I-4.441 J5.865 E4.43778
G1 X168.744 Y162.621 E4.47685
G3 X169.211 Y163.59 I-5.329 J3.171 E4.53679
G1 X169.374 Y164.261 E4.57522
G3 X169.299 Y166.111 I-4.753 J.734 E4.67891
G1 X169.031 Y166.852 E4.72276
G3 X168.496 Y167.739 I-5.819 J-2.905 E4.78047
G1 X167.996 Y168.272 E4.82114
G3 X167.282 Y168.804 I-3.637 J-4.131 E4.87075
G1 X166.587 Y169.137 E4.91364
G3 X164.751 Y169.427 I-1.605 J-4.192 E5.01784
G3 X163.713 Y169.24 I.519 J-5.834 E5.07661
G3 X162.855 Y168.88 I1.521 J-4.828 E5.12846
G3 X161.903 Y168.176 I3.636 J-5.915 E5.19443
G3 X161.295 Y167.432 I4.227 J-4.076 E5.24796
G3 X160.677 Y165.998 I4.411 J-2.751 E5.33519
G1 X160.579 Y165.301 E5.37436
G3 X160.621 Y164.29 I10.911 J-.051 E5.43069
G1 X160.81 Y163.56 E5.47265
G3 X161.308 Y162.542 I6.699 J2.645 E5.53578
G1 X161.614 Y162.152 E5.56337
G1 E5.03337 F600
G92 E0
G1 X161.614 Y162.152 F9000
G1 X168.638 Y156.971 Z.402
G1 Z.25
G1 E.53 F1200
;TYPE:External perimeter
G1 F1800
G3 X169.939 Y157.698 I-4.706 J9.948 E.613
G3 X171.826 Y159.422 I-5.129 J7.506 E.75571
G1 X172.43 Y160.254 E.81293
G3 X173.188 Y161.734 I-8.971 J5.53 E.90556
G1 X173.514 Y162.709 E.96277
G3 X173.795 Y164.512 I-10.377 J2.538 E1.06444
G1 X173.809 Y165.376 E1.11253
G1 X173.726 Y166.269 E1.16244
G1 X173.551 Y167.149 E1.21237
G1 X173.288 Y168.008 E1.26236
G3 X172.177 Y170.122 I-8.975 J-3.369 E1.39561
G3 X170.306 Y172.042 I-7.521 J-5.459 E1.54532
G1 X169.56 Y172.546 E1.59542
G3 X168.22 Y173.208 I-5.531 J-9.514 E1.67866
G3 X165.603 Y173.795 I-3.324 J-8.681 E1.82844
G3 X163.218 Y173.633 I-.547 J-9.579 E1.96182
G3 X160.191 Y172.387 I1.883 J-8.873 E2.14499
G3 X156.532 Y167.44 I4.862 J-7.423 E2.49468
G1 X156.328 Y166.564 E2.54473
G1 X156.214 Y165.674 E2.59466
G3 X156.226 Y164.178 I10.991 J-.656 E2.67798
G3 X157.131 Y161.034 I9.026 J.895 E2.86105
G3 X158.902 Y158.638 I8.283 J4.271 E3.02757
G1 X159.582 Y158.05 E3.0776
G1 X160.318 Y157.534 E3.12762
G1 X161.101 Y157.096 E3.17755
G3 X162.492 Y156.551 I4.702 J9.942 E3.26075
G1 X163.239 Y156.366 E3.30358
G1 X164.259 Y156.218 E3.36094
G3 X167.796 Y156.64 I.709 J9.073 E3.56046
G1 X168.568 Y156.943 E3.60661
G1 X169.018 Y157.162 F9000
G1 X168.911 Y157.72
;TYPE:Perimeter
G1 F1800
G3 X170.518 Y158.841 I-3.998 J7.447 E3.7159
G3 X171.4 Y159.765 I-6.704 J7.278 E3.78704
G1 X171.97 Y160.55 E3.84103
G3 X172.679 Y161.933 I-8.381 J5.169 E3.92761
G1 X172.987 Y162.855 E3.98171
G3 X173.248 Y164.522 I-9.751 J2.384 E4.07572
G1 X173.262 Y165.355 E4.12208
G3 X172.446 Y168.599 I-8.596 J-.438 E4.30943
G3 X169.981 Y171.602 I-7.572 J-3.703 E4.5276
G3 X168.02 Y172.699 I-5.378 J-7.314 E4.65297
G3 X165.57 Y173.249 I-3.119 J-8.155 E4.79319
G3 X163.326 Y173.097 I-.517 J-9.004 E4.91868
G3 X160.489 Y171.928 I1.771 J-8.326 E5.09038
G3 X157.059 Y167.294 I4.56 J-6.961 E5.41801
G3 X156.77 Y164.229 I8.37 J-2.334 E5.59024
G3 X157.618 Y161.282 I8.47 J.841 E5.76183
G3 X159.277 Y159.036 I7.783 J4.013 E5.91789
G3 X161.344 Y157.587 I6.112 J6.517 E6.05884
G3 X162.644 Y157.076 I4.413 J9.329 E6.13663
G3 X164.855 Y156.734 I2.516 J8.946 E6.26144
G3 X167.086 Y156.999 I.052 J9.079 E6.38679
G3 X168.844 Y157.685 I-2.173 J8.168 E6.49203
G1 X168.844 Y157.685 F9000
G1 X169.164 Y158.502
G1 F1800
G3 X170.526 Y159.606 I-4.223 J6.604 E6.5898
G3 X171.898 Y161.528 I-6.2 J5.875 E6.72164
G3 X172.613 Y163.734 I-7.834 J3.759 E6.85108
G1 X172.702 Y164.531 E6.89571
G3 X172.49 Y166.883 I-7.991 J.466 E7.02761
G3 X170.973 Y169.896 I-7.702 J-1.989 E7.21677
G3 X169.655 Y171.162 I-6.504 J-5.451 E7.31867
G3 X167.821 Y172.19 I-5.046 J-6.861 E7.43597
G3 X165.538 Y172.703 I-2.916 J-7.628 E7.56664
G3 X162.941 Y172.442 I-.496 J-8.095 E7.71253
G3 X161.237 Y171.742 I2.3 J-8.025 E7.81526
G3 X157.586 Y167.147 I3.8 J-6.768 E8.1502
G3 X157.315 Y164.28 I7.837 J-2.187 E8.31131
G3 X158.105 Y161.531 I7.913 J.786 E8.47136
G3 X159.652 Y159.434 I7.284 J3.755 E8.617
G3 X162.318 Y157.761 I5.541 J5.87 E8.79329
G3 X163.45 Y157.439 I3.063 J8.61 E8.85883
G3 X164.86 Y157.281 I1.944 J10.967 E8.93784
G3 X166.948 Y157.528 I.05 J8.518 E9.05515
G3 X169.101 Y158.462 I-2.007 J7.578 E9.18625
G1 X169.389 Y159.33 F9000
G1 F1800
G3 X170.169 Y160.026 I-4.525 J5.861 E9.24447
G3 X171.088 Y161.209 I-8.006 J7.165 E9.3279
G1 X171.438 Y161.836 E9.36786
G3 X171.948 Y163.218 I-12.442 J5.381 E9.44988
G3 X172.156 Y164.54 I-8.501 J2.013 E9.52443
G3 X169.33 Y170.723 I-7.173 J.459 E9.9185
G3 X167.119 Y171.853 I-4.468 J-6.011 E10.05732
G3 X165.277 Y172.161 I-2.115 J-6.993 E10.16154
G3 X163.802 Y172.067 I-.166 J-9.011 E10.24388
G3 X159.827 Y169.964 I1.202 J-7.081 E10.49842
G3 X158.244 Y167.404 I5.258 J-5.021 E10.66714
G3 X157.835 Y164.737 I7.354 J-2.492 E10.81806
G3 X158.375 Y162.256 I7.73 J.384 E10.96
G3 X161.19 Y158.924 I6.704 J2.81 E11.20654
G3 X163.555 Y157.976 I3.918 J6.347 E11.34903
G3 X164.864 Y157.828 I1.795 J10 E11.42239
G3 X167.958 Y158.464 I.09 J7.4 E11.59954
G3 X169.329 Y159.285 I-3.094 J6.727 E11.68864
G1 E11.15864 F600
G92 E0
G1 X169.329 Y159.285 F9000
G1 X171.076 Y161.52 Z.3
G1 Z.25
G1 E.53 F1200
;TYPE:Solid infill
;WIDTH:0.616666
G1 F1800
G1 X169.558 Y160.002 E.65311
G2 X168.418 Y159.162 I-4.675 J5.152 E.73446
G2 X167.475 Y158.715 I-3.398 J5.951 E.79437
G1 X171.296 Y162.536 E1.10426
G3 X171.627 Y163.663 I-6.769 J2.599 E1.1717
G1 X166.334 Y158.37 E1.60098
G2 X165.424 Y158.257 I-1.359 J7.186 E1.6536
G1 X171.747 Y164.579 E2.16637
G1 X171.759 Y165.298 E2.20761
G1 X171.751 Y165.38 E2.21233
G1 X169.429 Y163.058 E2.40065
G2 X169.078 Y162.385 I-3.553 J1.422 E2.44425
G2 X168.63 Y161.783 I-7.774 J5.32 E2.4873
G2 X167.894 Y161.109 I-6.948 J6.845 E2.54456
G1 X167.749 Y161.011 E2.5546
G2 X166.948 Y160.563 I-3.297 J4.95 E2.60729
G1 X166.926 Y160.555 E2.60863
G1 X164.623 Y158.252 E2.79541
G2 X163.913 Y158.338 I.318 J5.588 E2.83645
G1 X165.81 Y160.236 E2.99034
G2 X164.933 Y160.154 I-1.061 J6.664 E3.04089
G1 X163.252 Y158.473 E3.17722
G2 X162.644 Y158.662 I1.196 J4.929 E3.21376
G1 X164.206 Y160.223 E3.3404
G2 X163.571 Y160.385 I.533 J3.436 E3.37804
G1 X162.088 Y158.902 E3.49832
G1 X161.571 Y159.181 E3.53201
G1 X162.989 Y160.599 E3.64701
G1 X162.468 Y160.874 E3.6808
G1 X161.089 Y159.495 E3.79264
G2 X160.641 Y159.843 I1.847 J2.846 E3.82521
G1 X162.006 Y161.208 E3.93592
G1 X161.575 Y161.574 E3.96835
G1 X160.221 Y160.22 E4.07816
G2 X159.842 Y160.637 I3.117 J3.212 E4.1105
G1 X161.209 Y162.004 E4.22137
G2 X160.876 Y162.467 I2.28 J1.996 E4.25413
G1 X159.497 Y161.089 E4.36593
G2 X159.181 Y161.568 I3.857 J2.889 E4.39886
G1 X160.6 Y162.987 E4.51394
G2 X160.386 Y163.57 I2.363 J1.198 E4.54964
G1 X158.902 Y162.086 E4.67
G2 X158.665 Y162.645 I4.885 J2.397 E4.70484
G1 X160.222 Y164.202 E4.83112
G1 X160.16 Y164.936 E4.87336
G1 X158.471 Y163.247 E5.01034
G1 X158.33 Y163.902 E5.04876
G1 X160.539 Y166.112 E5.22796
G1 E4.69796 F600
G92 E0
G1 X160.539 Y166.112 F9000
G1 X169.448 Y163.873 Z.41
G1 Z.25
G1 E.53 F1200
G1 F1800
G1 X171.671 Y166.096 E.71029
G3 X171.53 Y166.752 I-6.802 J-1.118 E.74878
G1 X169.842 Y165.063 E.88572
G3 X169.771 Y165.789 I-2.952 J.079 E.92766
G1 X171.339 Y167.357 E1.05483
G1 X171.103 Y167.917 E1.08968
G1 X169.627 Y166.441 E1.20939
G1 X169.406 Y167.016 E1.24472
G1 X170.826 Y168.436 E1.35989
G1 X170.514 Y168.921 E1.39296
G1 X169.123 Y167.529 E1.50581
G3 X168.804 Y168.007 I-4.446 J-2.619 E1.53878
G1 X170.164 Y169.366 E1.64904
G1 X169.831 Y169.736 E1.67759
G1 X169.783 Y169.782 E1.6814
G1 X168.421 Y168.42 E1.79186
G3 X168.005 Y168.8 I-1.984 J-1.756 E1.82423
G1 X169.369 Y170.164 E1.93485
G3 X168.917 Y170.508 I-2.817 J-3.245 E1.96745
G1 X167.536 Y169.127 E2.07945
G3 X167.01 Y169.397 I-1.416 J-2.106 E2.11343
G1 X168.436 Y170.824 E2.22912
G1 X167.918 Y171.102 E2.26283
G1 X166.442 Y169.626 E2.38254
G3 X165.794 Y169.774 I-1.606 J-5.561 E2.42068
G1 X167.359 Y171.339 E2.54761
G3 X166.751 Y171.527 I-1.746 J-4.551 E2.58413
G1 X165.059 Y169.836 E2.72132
G3 X164.191 Y169.763 I-.184 J-3.03 E2.77145
G1 X166.098 Y171.67 E2.92611
G3 X165.381 Y171.75 I-.857 J-4.449 E2.96753
G1 X163.067 Y169.435 E3.15524
G3 X162.285 Y169.009 I1.909 J-4.436 E3.20638
G1 X161.706 Y168.557 E3.2485
G3 X161.059 Y167.823 I8.082 J-7.769 E3.30463
G3 X160.565 Y166.956 I8.318 J-5.313 E3.36188
G1 X160.554 Y166.922 E3.36393
G1 X158.252 Y164.621 E3.55059
G2 X158.257 Y165.422 I7.413 J.359 E3.59655
G1 X164.581 Y171.745 E4.1094
G3 X163.67 Y171.631 I.406 J-6.9 E4.16209
G1 X158.379 Y166.34 E4.5912
G2 X158.706 Y167.463 I6.11 J-1.167 E4.65838
G1 X162.543 Y171.3 E4.96957
G3 X160.396 Y169.949 I2.423 J-6.233 E5.11593
G1 X158.919 Y168.473 E5.23568
