; generated by PrusaSlicer 2.8.1+MacOS-arm64 on 2024-10-11 at 09:32:48 UTC


;
;

;
;
; 

; external perimeters extrusion width = 0.68mm
; perimeters extrusion width = 0.68mm
; infill extrusion width = 0.68mm
; solid infill extrusion width = 0.68mm
; top infill extrusion width = 0.60mm


EXCLUDE_OBJECT_DEFINE NAME='8mm_rod_end_caps_2_(Instance_1)' CENTER=161.004,52.992 POLYGON=[[161.154,46.994],[162.339,47.143],[163.472,47.523],[164.506,48.121],[165.402,48.911],[166.124,49.864],[166.642,50.940],[166.937,52.098],[167.000,53.204],[166.868,54.262],[166.465,55.478],[165.813,56.580],[165.073,57.402],[164.044,58.165],[163.080,58.621],[162.046,58.901],[160.854,58.990],[159.669,58.842],[158.536,58.461],[157.501,57.864],[156.606,57.073],[155.884,56.121],[155.374,55.068],[155.071,53.886],[155.008,52.781],[155.140,51.722],[155.543,50.507],[156.195,49.404],[156.935,48.583],[157.964,47.819],[158.928,47.363],[159.962,47.083]]
EXCLUDE_OBJECT_DEFINE NAME='8mm_rod_end_caps_2_(Instance_2)' CENTER=161.004,125.000 POLYGON=[[161.154,119.002],[162.339,119.150],[163.472,119.531],[164.506,120.128],[165.402,120.919],[166.124,121.871],[166.642,122.948],[166.937,124.106],[167.000,125.212],[166.868,126.270],[166.465,127.486],[165.813,128.588],[165.073,129.410],[164.044,130.173],[163.080,130.629],[162.046,130.909],[160.854,130.998],[159.669,130.850],[158.536,130.469],[157.501,129.872],[156.606,129.081],[155.884,128.129],[155.374,127.076],[155.071,125.894],[155.008,124.788],[155.140,123.730],[155.543,122.514],[156.195,121.412],[156.935,120.591],[157.964,119.827],[158.928,119.371],[159.962,119.091]]
EXCLUDE_OBJECT_DEFINE NAME='8mm_rod_end_caps_2_(Instance_3)' CENTER=88.996,52.992 POLYGON=[[89.146,46.994],[90.331,47.143],[91.464,47.523],[92.499,48.121],[93.394,48.911],[94.116,49.864],[94.634,50.940],[94.929,52.098],[94.992,53.204],[94.860,54.262],[94.457,55.478],[93.805,56.580],[93.065,57.402],[92.036,58.165],[91.072,58.622],[90.038,58.901],[88.847,58.990],[87.661,58.842],[86.528,58.461],[85.494,57.864],[84.598,57.073],[83.876,56.121],[83.367,55.068],[83.063,53.887],[83.000,52.781],[83.182,51.512],[83.535,50.507],[84.187,49.404],[84.927,48.583],[85.956,47.819],[86.920,47.363],[87.954,47.083]]
EXCLUDE_OBJECT_DEFINE NAME='8mm_rod_end_caps_2_(Instance_4)' CENTER=88.996,197.008 POLYGON=[[89.146,191.010],[90.331,191.158],[91.464,191.539],[92.499,192.136],[93.394,192.927],[94.116,193.879],[94.634,194.956],[94.929,196.114],[94.992,197.219],[94.860,198.278],[94.457,199.493],[93.805,200.596],[93.065,201.417],[92.036,202.181],[91.072,202.637],[90.038,202.917],[88.847,203.006],[87.661,202.857],[86.528,202.477],[85.494,201.879],[84.598,201.089],[83.876,200.136],[83.367,199.084],[83.063,197.902],[83.000,196.796],[83.132,195.738],[83.535,194.522],[84.187,193.420],[84.927,192.598],[85.956,191.835],[86.920,191.379],[87.954,191.099]]
EXCLUDE_OBJECT_DEFINE NAME='8mm_rod_end_caps_2_(Instance_5)' CENTER=88.996,125.000 POLYGON=[[89.146,119.002],[90.331,119.150],[91.464,119.531],[92.499,120.128],[93.394,120.919],[94.116,121.871],[94.634,122.948],[94.929,124.106],[94.992,125.212],[94.860,126.270],[94.457,127.486],[93.805,128.588],[93.065,129.410],[92.036,130.173],[91.072,130.629],[90.038,130.909],[88.847,130.998],[87.661,130.850],[86.528,130.469],[85.494,129.872],[84.598,129.081],[83.876,128.129],[83.367,127.076],[83.063,125.894],[83.000,124.788],[83.132,123.730],[83.535,122.514],[84.187,121.412],[84.927,120.591],[85.956,119.827],[86.920,119.371],[87.954,119.091]]
EXCLUDE_OBJECT_DEFINE NAME='8mm_rod_end_caps_2_(Instance_6)' CENTER=161.004,197.008 POLYGON=[[161.154,191.010],[162.339,191.158],[163.472,191.539],[164.506,192.136],[165.402,192.927],[166.124,193.879],[166.642,194.956],[166.937,196.114],[167.000,197.219],[166.868,198.278],[166.465,199.493],[165.813,200.596],[165.073,201.417],[164.044,202.181],[163.080,202.637],[162.046,202.917],[160.854,203.006],[159.669,202.857],[158.536,202.477],[157.501,201.879],[156.606,201.089],[155.884,200.136],[155.374,199.084],[155.071,197.902],[155.008,196.796],[155.140,195.738],[155.543,194.522],[156.195,193.420],[156.935,192.598],[157.964,191.835],[158.928,191.379],[159.962,191.099]]

;TYPE:Custom
START_PRINT BED_TEMP=80 HOTEND_TEMP=225 FILAMENT_TYPE=FLEX EXTRUSION_MULTIPLIER=0.92 PERIMETER_SPEED=20
G21 ; set units to millimeters
G90 ; use absolute coordinates
M82 ; use absolute distances for extrusion
G92 E0
; Filament gcode
; ########################### NOTE OFFSET CHANGES ####################################
; Prevents PETG buildup on nozzle.
; SET_GCODE_OFFSET Z=0
; ####################################################################################
M107
;LAYER_CHANGE
;Z:0.35
;HEIGHT:0.35
G1 E-.5 F240
G1 Z.35 F9000
EXCLUDE_OBJECT_START NAME='8mm_rod_end_caps_2_(Instance_1)'
G92 E0
G1 X161.017 Y48.119
G1 E.5 F240
;TYPE:External perimeter
;WIDTH:0.675
G1 F600
G1 X161.025 Y48.118 E.50065
G1 X161.519 Y48.146 E.54039
G1 X162.031 Y48.228 E.58203
G1 X162.592 Y48.403 E.62922
G1 X163.141 Y48.619 E.6766
G1 X163.755 Y48.97 E.7334
G1 X164.447 Y49.544 E.8056
G1 X165.023 Y50.236 E.87791
G1 X165.291 Y50.673 E.91908
G1 X165.515 Y51.146 E.96111
G1 X165.68 Y51.618 E1.00126
G1 X165.797 Y52.217 E1.05027
G1 X165.867 Y52.782 E1.09599
G1 X165.878 Y52.992 E1.11288
G1 X165.851 Y53.504 E1.15406
G1 X165.77 Y54.01 E1.19521
G1 X165.506 Y54.859 E1.26661
G1 X165.286 Y55.32 E1.30763
G1 X165.018 Y55.757 E1.3488
G1 X164.456 Y56.432 E1.41934
G1 X163.747 Y57.02 E1.49331
G1 X163.321 Y57.28 E1.53339
G1 X162.851 Y57.503 E1.57517
G1 X162.368 Y57.671 E1.61624
G1 X161.502 Y57.84 E1.6871
G1 X161.004 Y57.866 E1.72715
G1 X160.489 Y57.839 E1.76857
G1 X159.977 Y57.757 E1.81021
G1 X159.416 Y57.582 E1.8574
G1 X158.867 Y57.365 E1.90481
G1 X158.253 Y57.015 E1.96157
G1 X157.561 Y56.441 E2.03377
G1 X156.985 Y55.749 E2.10608
G1 X156.716 Y55.309 E2.1475
G1 X156.493 Y54.838 E2.18935
G1 X156.328 Y54.366 E2.2295
G1 X156.156 Y53.49 E2.30119
G1 X156.13 Y52.992 E2.34124
G1 X156.157 Y52.481 E2.38233
G1 X156.238 Y51.974 E2.42356
G1 X156.502 Y51.126 E2.49489
G1 X156.722 Y50.664 E2.53598
G1 X156.99 Y50.228 E2.57708
G1 X157.552 Y49.552 E2.64768
G1 X158.261 Y48.964 E2.72165
G1 X158.687 Y48.704 E2.76173
G1 X159.157 Y48.481 E2.80351
G1 X159.645 Y48.312 E2.84498
G1 X160.15 Y48.194 E2.88663
G1 X160.927 Y48.127 E2.94926
G1 X161.526 Y48.157 F9000
G1 X161.009 Y48.742
;TYPE:Perimeter
G1 F600
G1 X161.275 Y48.733 E2.97063
G1 X161.893 Y48.813 E3.02067
G1 X162.413 Y48.976 E3.06443
G1 X162.883 Y49.161 E3.10499
G1 X163.405 Y49.459 E3.15326
G1 X164.022 Y49.97 E3.2176
G1 X164.534 Y50.586 E3.28193
G1 X164.881 Y51.209 E3.3392
G1 X165.099 Y51.775 E3.38791
G1 X165.199 Y52.284 E3.42957
G1 X165.268 Y52.813 E3.47241
G1 X165.264 Y53.255 E3.50791
G1 X165.184 Y53.873 E3.55795
G1 X165.021 Y54.4 E3.60225
G1 X164.838 Y54.866 E3.64246
G1 X164.529 Y55.406 E3.69242
G1 X164.03 Y56.006 E3.75509
G1 X163.397 Y56.531 E3.82113
G1 X162.793 Y56.867 E3.87664
G1 X162.211 Y57.091 E3.92672
G1 X161.429 Y57.244 E3.99071
G1 X160.742 Y57.252 E4.04589
G1 X160.115 Y57.171 E4.09666
G1 X159.595 Y57.009 E4.1404
G1 X159.125 Y56.824 E4.18096
G1 X158.603 Y56.526 E4.22923
G1 X157.986 Y56.015 E4.29357
G1 X157.474 Y55.398 E4.35796
G1 X157.127 Y54.775 E4.41523
G1 X156.908 Y54.209 E4.46397
G1 X156.753 Y53.416 E4.52886
G1 X156.744 Y52.73 E4.58396
G1 X156.823 Y52.111 E4.63407
G1 X156.987 Y51.585 E4.67832
G1 X157.17 Y51.118 E4.7186
G1 X157.479 Y50.578 E4.76856
G1 X157.978 Y49.979 E4.83117
G1 X158.37 Y49.653 E4.87211
G1 X158.819 Y49.326 E4.91672
G1 X159.385 Y49.037 E4.96776
G1 X159.997 Y48.846 E5.01925
G1 X160.64 Y48.754 E5.07141
G1 X160.919 Y48.745 E5.09383
G1 X160.919 Y48.745 F9000
G1 X161.002 Y49.325
G1 F600
G1 X161.044 Y49.321 E5.09722
G1 X161.549 Y49.366 E5.13794
G1 X162.09 Y49.503 E5.18276
G1 X162.617 Y49.698 E5.22789
G1 X163.055 Y49.948 E5.26839
G1 X163.596 Y50.396 E5.3248
G1 X163.912 Y50.776 E5.36449
G1 X164.234 Y51.245 E5.41018
G1 X164.453 Y51.743 E5.45387
G1 X164.589 Y52.291 E5.49921
G1 X164.669 Y52.844 E5.54408
G1 X164.677 Y52.991 E5.5559
G1 X164.632 Y53.53 E5.59934
G1 X164.49 Y54.085 E5.64535
G1 X164.297 Y54.608 E5.69012
G1 X164.04 Y55.056 E5.7316
G1 X163.604 Y55.58 E5.78634
G1 X163.048 Y56.041 E5.84434
G1 X162.536 Y56.325 E5.89136
G1 X162.054 Y56.51 E5.93282
G1 X161.552 Y56.608 E5.9739
G1 X161.005 Y56.665 E6.01807
G1 X160.461 Y56.619 E6.06191
G1 X159.918 Y56.481 E6.1069
G1 X159.391 Y56.286 E6.15203
G1 X158.953 Y56.037 E6.19249
G1 X158.412 Y55.588 E6.24895
G1 X157.963 Y55.048 E6.30535
G1 X157.669 Y54.518 E6.35402
G1 X157.489 Y54.051 E6.39421
G1 X157.388 Y53.54 E6.43604
G1 X157.331 Y52.993 E6.48021
G1 X157.376 Y52.455 E6.52357
G1 X157.518 Y51.899 E6.56965
G1 X157.711 Y51.377 E6.61434
G1 X157.968 Y50.929 E6.65582
G1 X158.403 Y50.405 E6.71051
G1 X158.805 Y50.072 E6.75243
G1 X159.257 Y49.761 E6.79649
G1 X159.83 Y49.517 E6.84651
G1 X160.338 Y49.382 E6.88872
G1 X160.912 Y49.333 E6.93498
G1 X160.912 Y49.333 F9000
G1 X162.277 Y49.782
;TYPE:Solid infill
;WIDTH:0.709239
G1 F600
G1 X163.367 Y50.871 E7.06578
G1 X163.654 Y51.216 E7.10388
G1 X163.811 Y51.474 E7.12952
G1 X163.959 Y51.784 E7.15868
G1 X164.055 Y52.059 E7.18341
G1 X164.152 Y52.553 E7.22615
G1 X161.44 Y49.841 E7.55174
G1 X161.052 Y49.802 E7.58484
G1 X160.548 Y49.846 E7.62779
G1 X164.158 Y53.456 E8.06119
G1 X164.13 Y53.626 E8.07582
G1 X163.965 Y54.159 E8.12319
G1 X159.831 Y50.025 E8.6195
G1 X159.486 Y50.184 E8.65175
G1 X159.242 Y50.333 E8.67602
G1 X163.662 Y54.754 E9.20672
G1 X163.256 Y55.245 E9.26081
G1 X158.751 Y50.74 E9.80166
G1 X158.345 Y51.231 E9.85575
G1 X162.766 Y55.651 E10.38645
G1 X162.522 Y55.8 E10.41072
G1 X162.177 Y55.959 E10.44297
G1 X158.043 Y51.825 E10.93928
G1 X157.877 Y52.358 E10.98667
G1 X157.85 Y52.529 E11.00137
G1 X161.459 Y56.137 E11.43459
G1 X161.296 Y56.169 E11.44869
G1 X161.005 Y56.184 E11.47343
G1 X160.576 Y56.152 E11.50995
G1 X157.856 Y53.432 E11.8365
G1 X157.953 Y53.925 E11.87915
G1 X158.049 Y54.2 E11.90388
G1 X158.195 Y54.509 E11.93289
G1 X158.354 Y54.768 E11.95869
G1 X158.642 Y55.114 E11.99691
G1 X159.731 Y56.203 E12.12765
;LAYER_CHANGE
;Z:0.65
;HEIGHT:0.3
G1 Z.65 F9000
G1 E11.62765 F240
G92 E0
G1 X159.731 Y56.203 Z.65 F9000
G1 X161.019 Y47.952
G1 E.5 F240
;TYPE:External perimeter
;WIDTH:0.675
G1 F600
G1 X161.544 Y47.962 E.53679
G1 X162.07 Y48.046 E.57411
G1 X162.941 Y48.318 E.63804
G1 X163.42 Y48.547 E.67524
G1 X163.882 Y48.831 E.71324
G1 X164.308 Y49.16 E.75095
G1 X164.796 Y49.668 E.80031
G1 X165.236 Y50.221 E.84983
G1 X165.573 Y50.861 E.90051
G1 X165.852 Y51.547 E.9524
G1 X165.98 Y52.191 E.99841
G1 X166.053 Y52.779 E1.03993
G1 X166.064 Y52.992 E1.05487
G1 X166.036 Y53.516 E1.09164
G1 X165.955 Y54.033 E1.12831
G1 X165.678 Y54.93 E1.19409
G1 X165.449 Y55.41 E1.23135
G1 X165.175 Y55.856 E1.26803
G1 X164.584 Y56.567 E1.33281
G1 X164.165 Y56.942 E1.37221
G1 X163.405 Y57.446 E1.43611
G1 X162.921 Y57.675 E1.47363
G1 X162.42 Y57.849 E1.51079
G1 X161.521 Y58.025 E1.57498
G1 X161.004 Y58.052 E1.61125
G1 X160.469 Y58.024 E1.64879
G1 X159.938 Y57.938 E1.68648
G1 X159.351 Y57.755 E1.72956
G1 X158.767 Y57.523 E1.77359
G1 X158.18 Y57.189 E1.82091
G1 X157.423 Y56.566 E1.8896
G1 X157.024 Y56.084 E1.93344
G1 X156.67 Y55.589 E1.97608
G1 X156.412 Y55.1 E2.01482
G1 X156.156 Y54.438 E2.06455
G1 X155.971 Y53.509 E2.13092
G1 X155.944 Y52.992 E2.16719
G1 X155.971 Y52.468 E2.20395
G1 X156.053 Y51.952 E2.24056
G1 X156.33 Y51.055 E2.30634
G1 X156.559 Y50.575 E2.3436
G1 X156.836 Y50.124 E2.38068
G1 X157.155 Y49.709 E2.41736
G1 X157.851 Y49.035 E2.48525
G1 X158.272 Y48.734 E2.52151
G1 X159.092 Y48.308 E2.58626
G1 X159.593 Y48.133 E2.62344
G1 X160.123 Y48.01 E2.66156
G1 X160.643 Y47.946 E2.69827
G1 X160.929 Y47.951 E2.71831
G1 X161.528 Y47.971 F9000
G1 X161.011 Y48.563
;TYPE:Perimeter
G1 F600
G1 X161.268 Y48.568 E2.73632
G1 X161.93 Y48.642 E2.78299
G1 X162.718 Y48.888 E2.84083
G1 X163.369 Y49.232 E2.89242
G1 X163.899 Y49.616 E2.93828
G1 X164.356 Y50.091 E2.98446
G1 X164.716 Y50.543 E3.02495
G1 X165.032 Y51.145 E3.07259
G1 X165.262 Y51.708 E3.1152
G1 X165.381 Y52.31 E3.1582
G1 X165.443 Y52.81 E3.1935
G1 X165.438 Y53.265 E3.22538
G1 X165.359 Y53.895 E3.26987
G1 X165.185 Y54.455 E3.31096
G1 X164.993 Y54.946 E3.3479
G1 X164.677 Y55.499 E3.39253
G1 X164.295 Y55.96 E3.43448
G1 X163.791 Y56.458 E3.48412
G1 X163.322 Y56.768 E3.52351
G1 X162.866 Y57.025 E3.56019
G1 X162.26 Y57.259 E3.60571
G1 X161.446 Y57.418 E3.66382
G1 X160.731 Y57.426 E3.71392
G1 X160.079 Y57.342 E3.75998
G1 X159.533 Y57.172 E3.80005
G1 X159.03 Y56.972 E3.83798
G1 X158.534 Y56.69 E3.87796
G1 X157.856 Y56.132 E3.93949
G1 X157.327 Y55.493 E3.99761
G1 X156.963 Y54.838 E4.05011
G1 X156.746 Y54.276 E4.09232
G1 X156.578 Y53.433 E4.15255
G1 X156.57 Y52.72 E4.20251
G1 X156.649 Y52.09 E4.247
G1 X156.9 Y51.277 E4.30662
G1 X157.243 Y50.629 E4.35799
G1 X157.611 Y50.117 E4.40217
G1 X158.087 Y49.657 E4.44855
G1 X158.592 Y49.256 E4.49373
G1 X159.335 Y48.87 E4.5524
G1 X160.043 Y48.656 E4.60422
G1 X160.675 Y48.557 E4.64904
G1 X160.921 Y48.561 E4.66628
G1 X160.921 Y48.561 F9000
G1 X161.003 Y49.174
G1 F600
G1 X161.257 Y49.178 E4.68408
G1 X161.789 Y49.238 E4.72159
G1 X162.288 Y49.394 E4.75822
G1 X162.836 Y49.621 E4.79978
G1 X163.315 Y49.936 E4.83995
G1 X163.75 Y50.342 E4.88164
G1 X164.108 Y50.744 E4.91936
G1 X164.382 Y51.22 E4.95784
G1 X164.619 Y51.722 E4.99674
G1 X164.747 Y52.254 E5.03508
G1 X164.833 Y52.842 E5.07672
G1 X164.828 Y53.233 E5.10412
G1 X164.762 Y53.756 E5.14106
G1 X164.537 Y54.484 E5.19445
G1 X164.292 Y54.96 E5.23196
G1 X163.939 Y55.433 E5.27331
G1 X163.558 Y55.846 E5.31268
G1 X163.11 Y56.176 E5.35167
G1 X162.604 Y56.474 E5.39282
G1 X162.1 Y56.668 E5.43066
G1 X161.372 Y56.81 E5.48263
G1 X160.763 Y56.816 E5.5253
G1 X160.219 Y56.746 E5.56373
G1 X159.514 Y56.526 E5.61548
G1 X158.889 Y56.191 E5.66517
G1 X158.289 Y55.697 E5.71963
G1 X157.825 Y55.137 E5.77059
G1 X157.542 Y54.634 E5.81103
G1 X157.336 Y54.115 E5.85015
G1 X157.186 Y53.357 E5.90429
G1 X157.18 Y52.752 E5.94668
G1 X157.246 Y52.228 E5.98369
G1 X157.471 Y51.5 E6.03708
G1 X157.763 Y50.948 E6.08084
G1 X158.068 Y50.524 E6.11744
G1 X158.512 Y50.096 E6.16065
G1 X158.912 Y49.778 E6.19645
G1 X159.577 Y49.432 E6.24897
G1 X160.181 Y49.25 E6.29317
G1 X160.707 Y49.168 E6.33047
G1 X160.913 Y49.172 E6.34491
G1 E5.84491 F240
G92 E0
G1 X160.913 Y49.172 F9000
G1 X159.072 Y50.039
G1 E.5 F240
;TYPE:Solid infill
;WIDTH:0.574381
G1 F600
G1 X158.847 Y50.229 E.51723
G1 X158.105 Y50.993 E.57956
G1 X158.105 Y50.993 F9000
G1 X157.458 Y52.622
G1 F600
G1 X157.571 Y52.081 E.6119
;WIDTH:0.60792
G1 X157.673 Y52 E.62002
;WIDTH:0.64146
G1 X157.775 Y51.919 E.62864
;WIDTH:0.675
G1 X157.878 Y51.838 E.63782
G1 X159.867 Y49.848 E.83496
G1 X159.948 Y49.748 E.84398
;WIDTH:0.64146
G1 X160.029 Y49.647 E.85255
;WIDTH:0.60792
G1 X160.11 Y49.547 E.86058
;WIDTH:0.574381
G1 X160.724 Y49.434 E.89712
;WIDTH:0.675
G1 X160.919 Y49.661 E.91809
G1 X157.66 Y52.919 E1.24097
G1 X157.751 Y53.692 E1.29551
G1 X161.716 Y49.727 E1.6884
G1 X162.367 Y49.939 E1.73637
G1 X157.951 Y54.355 E2.17395
G1 X158.266 Y54.904 E2.2183
G1 X162.921 Y50.249 E2.67956
G1 X163.376 Y50.658 E2.72243
G1 X158.662 Y55.371 E3.18949
G1 X159.135 Y55.761 E3.23244
G1 X163.777 Y51.12 E3.69236
G1 X164.075 Y51.686 E3.73718
G1 X159.691 Y56.07 E4.17159
G1 X160.351 Y56.273 E4.21997
G1 X164.269 Y52.355 E4.6082
G1 X164.344 Y53.144 E4.66373
G1 X161.155 Y56.332 E4.97968
G1 E4.47968 F240
G92 E0
G1 X161.155 Y56.332 F9000
G1 X163.041 Y55.486
G1 E.5 F240
;WIDTH:0.940637
G1 F600
G1 X163.472 Y55.046 E.56193
;WIDTH:0.910625
G1 X163.691 Y54.805 E.59355
;LAYER_CHANGE
;Z:0.95
;HEIGHT:0.3
G1 Z.95 F9000
G1 E.09355 F240
G92 E0
G1 X163.691 Y54.805 Z.95 F9000
G1 X161.021 Y47.782
G1 E.5 F240
;TYPE:External perimeter
;WIDTH:0.675
G1 F600
G1 X161.563 Y47.791 E.53798
G1 X162.106 Y47.879 E.57652
G1 X163.007 Y48.16 E.64265
G1 X163.502 Y48.396 E.68107
G1 X163.98 Y48.69 E.72039
G1 X164.42 Y49.031 E.75939
G1 X165.089 Y49.727 E.82703
G1 X165.431 Y50.241 E.87029
G1 X165.756 Y50.822 E.91694
G1 X166.011 Y51.481 E.96645
G1 X166.148 Y52.168 E1.01553
G1 X166.224 Y52.777 E1.05853
G1 X166.235 Y52.992 E1.07361
G1 X166.207 Y53.528 E1.11122
G1 X166.126 Y54.054 E1.14851
G1 X165.836 Y54.996 E1.21757
