; generated by PrusaSlicer 2.8.1+MacOS-arm64 on 2024-10-11 at 04:56:12 UTC


;
;

;
;
; 

; external perimeters extrusion width = 0.68mm
; perimeters extrusion width = 0.68mm
; infill extrusion width = 0.68mm
; solid infill extrusion width = 0.68mm
; top infill extrusion width = 0.60mm

; external perimeters extrusion width = 0.68mm
; perimeters extrusion width = 0.68mm
; infill extrusion width = 0.68mm
; solid infill extrusion width = 0.68mm
; top infill extrusion width = 0.60mm

; external perimeters extrusion width = 0.68mm
; perimeters extrusion width = 0.68mm
; infill extrusion width = 0.68mm
; solid infill extrusion width = 0.68mm
; top infill extrusion width = 0.60mm

; external perimeters extrusion width = 0.68mm
; perimeters extrusion width = 0.68mm
; infill extrusion width = 0.68mm
; solid infill extrusion width = 0.68mm
; top infill extrusion width = 0.60mm


EXCLUDE_OBJECT_DEFINE NAME='8mm_rod_end_caps_4_(Instance_1)' CENTER=125.000,97.999 POLYGON=[[125.150,92.001],[126.335,92.150],[127.468,92.530],[128.502,93.128],[129.398,93.918],[130.120,94.871],[130.638,95.947],[130.933,97.105],[130.996,98.211],[130.864,99.269],[130.461,100.485],[129.809,101.587],[129.069,102.409],[128.040,103.172],[127.076,103.629],[126.042,103.908],[124.850,103.997],[123.665,103.849],[122.532,103.468],[121.498,102.871],[120.602,102.080],[119.880,101.128],[119.371,100.075],[119.067,98.894],[119.004,97.788],[119.136,96.729],[119.539,95.514],[120.191,94.411],[120.931,93.590],[121.960,92.826],[122.924,92.370],[123.958,92.090]]
EXCLUDE_OBJECT_DEFINE NAME='8mm_rod_end_caps_4_(Instance_2)' CENTER=143.001,97.999 POLYGON=[[143.150,92.001],[144.336,92.150],[145.468,92.530],[146.503,93.128],[147.399,93.918],[148.121,94.871],[148.639,95.947],[148.934,97.105],[148.997,98.211],[148.865,99.269],[148.462,100.485],[147.810,101.587],[147.070,102.409],[146.041,103.172],[145.077,103.629],[144.043,103.908],[142.851,103.997],[141.666,103.849],[140.533,103.468],[139.498,102.871],[138.602,102.080],[137.881,101.128],[137.371,100.075],[137.068,98.894],[137.005,97.788],[137.137,96.729],[137.540,95.514],[138.192,94.411],[138.932,93.590],[139.961,92.826],[140.924,92.370],[141.959,92.090]]
EXCLUDE_OBJECT_DEFINE NAME='8mm_rod_end_caps_3_(Instance_1)' CENTER=106.999,134.000 POLYGON=[[107.149,128.002],[108.334,128.151],[109.467,128.531],[110.502,129.129],[111.398,129.919],[112.119,130.872],[112.629,131.924],[112.932,133.106],[112.996,134.212],[112.863,135.270],[112.460,136.486],[111.808,137.588],[111.068,138.410],[110.039,139.173],[109.076,139.630],[108.041,139.909],[106.850,139.998],[105.664,139.850],[104.532,139.469],[103.497,138.872],[102.601,138.081],[101.879,137.129],[101.361,136.052],[101.066,134.894],[101.003,133.789],[101.135,132.730],[101.538,131.515],[102.190,130.412],[102.930,129.591],[103.959,128.827],[104.923,128.371],[105.957,128.091]]
EXCLUDE_OBJECT_DEFINE NAME='8mm_rod_end_caps_3_(Instance_2)' CENTER=125.000,134.000 POLYGON=[[125.150,128.002],[126.335,128.151],[127.468,128.531],[128.502,129.129],[129.398,129.919],[130.120,130.872],[130.629,131.924],[130.933,133.106],[130.996,134.212],[130.864,135.270],[130.461,136.486],[129.809,137.588],[129.069,138.410],[128.040,139.173],[127.076,139.630],[126.042,139.909],[124.850,139.998],[123.665,139.850],[122.532,139.469],[121.498,138.872],[120.602,138.081],[119.880,137.129],[119.362,136.052],[119.067,134.894],[119.004,133.789],[119.136,132.730],[119.539,131.515],[120.191,130.412],[120.931,129.591],[121.960,128.827],[122.924,128.371],[123.958,128.091]]
EXCLUDE_OBJECT_DEFINE NAME='8mm_rod_end_caps_3_(Instance_3)' CENTER=106.999,152.001 POLYGON=[[107.149,146.003],[108.334,146.151],[109.467,146.532],[110.502,147.129],[111.398,147.920],[112.119,148.872],[112.629,149.925],[112.932,151.106],[112.996,152.212],[112.863,153.271],[112.460,154.486],[111.808,155.589],[111.068,156.410],[110.039,157.174],[109.076,157.630],[108.041,157.910],[106.850,157.999],[105.664,157.850],[104.532,157.470],[103.497,156.872],[102.601,156.082],[101.879,155.129],[101.361,154.053],[101.066,152.895],[101.003,151.789],[101.135,150.731],[101.538,149.515],[102.190,148.413],[102.930,147.591],[103.959,146.828],[104.923,146.371],[105.957,146.092]]
EXCLUDE_OBJECT_DEFINE NAME='8mm_rod_end_caps_3_(Instance_4)' CENTER=143.001,116.000 POLYGON=[[143.150,110.002],[144.336,110.150],[145.468,110.531],[146.503,111.128],[147.399,111.919],[148.121,112.871],[148.630,113.924],[148.934,115.105],[148.997,116.211],[148.865,117.270],[148.462,118.485],[147.810,119.588],[147.070,120.409],[146.041,121.173],[145.077,121.629],[144.043,121.909],[142.851,121.998],[141.666,121.849],[140.533,121.469],[139.498,120.871],[138.602,120.081],[137.881,119.128],[137.363,118.052],[137.068,116.894],[137.005,115.788],[137.137,114.730],[137.540,113.514],[138.192,112.412],[138.932,111.590],[139.961,110.827],[140.924,110.370],[141.959,110.091]]
EXCLUDE_OBJECT_DEFINE NAME='8mm_rod_end_caps_3_(Instance_5)' CENTER=106.999,97.999 POLYGON=[[107.149,92.001],[108.334,92.150],[109.467,92.530],[110.502,93.128],[111.398,93.918],[112.119,94.871],[112.629,95.923],[112.932,97.105],[112.996,98.211],[112.863,99.269],[112.460,100.485],[111.808,101.587],[111.068,102.409],[110.039,103.172],[109.076,103.629],[108.041,103.908],[106.850,103.997],[105.664,103.849],[104.532,103.468],[103.497,102.871],[102.601,102.080],[101.879,101.128],[101.361,100.051],[101.066,98.894],[101.003,97.788],[101.135,96.729],[101.538,95.514],[102.190,94.411],[102.930,93.590],[103.959,92.826],[104.923,92.370],[105.957,92.090]]
EXCLUDE_OBJECT_DEFINE NAME='8mm_rod_end_caps_3_(Instance_6)' CENTER=143.001,152.001 POLYGON=[[143.150,146.003],[144.336,146.151],[145.468,146.532],[146.503,147.129],[147.399,147.920],[148.121,148.872],[148.630,149.925],[148.934,151.106],[148.997,152.212],[148.865,153.271],[148.462,154.486],[147.810,155.589],[147.070,156.410],[146.041,157.174],[145.077,157.630],[144.043,157.910],[142.851,157.999],[141.666,157.850],[140.533,157.470],[139.498,156.872],[138.602,156.082],[137.881,155.129],[137.363,154.053],[137.068,152.895],[137.005,151.789],[137.137,150.731],[137.540,149.515],[138.192,148.413],[138.932,147.591],[139.961,146.828],[140.924,146.371],[141.959,146.092]]
EXCLUDE_OBJECT_DEFINE NAME='8mm_rod_end_caps_2_(Instance_1)' CENTER=143.001,134.000 POLYGON=[[143.150,128.002],[144.336,128.151],[145.469,128.531],[146.503,129.129],[147.399,129.919],[148.121,130.872],[148.639,131.948],[148.934,133.106],[148.997,134.212],[148.865,135.270],[148.462,136.486],[147.810,137.588],[147.070,138.410],[146.041,139.173],[145.077,139.630],[144.043,139.909],[142.851,139.998],[141.666,139.850],[140.533,139.469],[139.498,138.872],[138.602,138.081],[137.881,137.129],[137.371,136.076],[137.068,134.895],[137.005,133.789],[137.137,132.730],[137.540,131.515],[138.192,130.412],[138.932,129.591],[139.961,128.827],[140.924,128.371],[141.959,128.091]]
EXCLUDE_OBJECT_DEFINE NAME='8mm_rod_end_caps_2_(Instance_2)' CENTER=125.000,152.001 POLYGON=[[125.150,146.003],[126.335,146.151],[127.468,146.532],[128.502,147.129],[129.398,147.920],[130.120,148.872],[130.638,149.949],[130.933,151.106],[130.996,152.212],[130.864,153.271],[130.461,154.486],[129.809,155.589],[129.069,156.410],[128.040,157.174],[127.076,157.630],[126.042,157.910],[124.850,157.999],[123.665,157.850],[122.532,157.470],[121.498,156.872],[120.602,156.082],[119.880,155.129],[119.371,154.077],[119.067,152.895],[119.004,151.789],[119.136,150.731],[119.539,149.515],[120.191,148.413],[120.931,147.591],[121.960,146.828],[122.924,146.371],[123.958,146.092]]
EXCLUDE_OBJECT_DEFINE NAME='8mm_rod_end_caps_1_(Instance_1)' CENTER=125.000,116.000 POLYGON=[[125.150,110.002],[126.335,110.150],[127.468,110.531],[128.502,111.128],[129.398,111.919],[130.120,112.871],[130.630,113.924],[130.933,115.105],[130.996,116.211],[130.864,117.270],[130.461,118.485],[129.809,119.588],[129.069,120.409],[128.040,121.173],[127.076,121.629],[126.042,121.909],[124.850,121.998],[123.665,121.849],[122.532,121.469],[121.498,120.871],[120.602,120.081],[119.880,119.128],[119.362,118.052],[119.067,116.894],[119.004,115.788],[119.136,114.730],[119.539,113.514],[120.191,112.412],[120.931,111.590],[121.960,110.827],[122.924,110.370],[123.958,110.091]]
EXCLUDE_OBJECT_DEFINE NAME='8mm_rod_end_caps_1_(Instance_2)' CENTER=106.999,116.000 POLYGON=[[107.149,110.002],[108.334,110.150],[109.467,110.531],[110.502,111.128],[111.398,111.919],[112.119,112.871],[112.629,113.924],[112.932,115.105],[112.996,116.211],[112.863,117.270],[112.460,118.485],[111.808,119.588],[111.068,120.409],[110.039,121.173],[109.076,121.629],[108.041,121.909],[106.850,121.998],[105.664,121.849],[104.532,121.469],[103.497,120.871],[102.601,120.081],[101.879,119.128],[101.361,118.052],[101.066,116.894],[101.003,115.788],[101.185,114.519],[101.538,113.514],[102.190,112.412],[102.930,111.590],[103.959,110.827],[104.923,110.370],[105.957,110.091]]

;TYPE:Custom
START_PRINT BED_TEMP=80 HOTEND_TEMP=225 FILAMENT_TYPE=FLEX EXTRUSION_MULTIPLIER=0.92 PERIMETER_SPEED=20
G21 ; set units to millimeters
G90 ; use absolute coordinates
M82 ; use absolute distances for extrusion
G92 E0
; Filament gcode
; ########################### NOTE OFFSET CHANGES ####################################
; Prevents PETG buildup on nozzle.
; SET_GCODE_OFFSET Z=0
; ####################################################################################
M107
;LAYER_CHANGE
;Z:0.35
;HEIGHT:0.35
G1 E-.5 F240
G1 Z.35 F9000
EXCLUDE_OBJECT_START NAME='8mm_rod_end_caps_3_(Instance_3)'
G92 E0
G1 X107.012 Y147.145
G1 E.5 F240
;TYPE:External perimeter
;WIDTH:0.675
G1 F900
G1 X107.52 Y147.155 E.5408
G1 X108.026 Y147.236 E.58195
G1 X108.587 Y147.411 E.62914
G1 X109.136 Y147.627 E.67652
G1 X109.75 Y147.978 E.73332
G1 X110.443 Y148.552 E.80559
G1 X111.019 Y149.244 E.8779
G1 X111.287 Y149.684 E.91927
G1 X111.51 Y150.154 E.96105
G1 X111.675 Y150.627 E1.00128
G1 X111.792 Y151.222 E1.04998
G1 X111.862 Y151.789 E1.09586
G1 X111.873 Y152.001 E1.11291
G1 X111.846 Y152.512 E1.154
G1 X111.765 Y153.019 E1.19523
G1 X111.502 Y153.867 E1.26653
G1 X111.281 Y154.329 E1.30766
G1 X111.013 Y154.765 E1.34876
G1 X110.451 Y155.441 E1.41936
G1 X109.742 Y156.029 E1.49333
G1 X109.317 Y156.289 E1.53334
G1 X108.846 Y156.511 E1.57516
G1 X108.363 Y156.68 E1.61625
G1 X107.497 Y156.849 E1.68711
G1 X106.999 Y156.875 E1.72716
G1 X106.484 Y156.847 E1.76858
G1 X105.973 Y156.765 E1.81014
G1 X105.412 Y156.59 E1.85733
G1 X104.862 Y156.374 E1.90478
G1 X104.248 Y156.023 E1.96158
G1 X103.556 Y155.449 E2.03378
G1 X102.98 Y154.757 E2.10609
G1 X102.712 Y154.32 E2.14726
G1 X102.488 Y153.847 E2.18929
G1 X102.323 Y153.375 E2.22944
G1 X102.151 Y152.496 E2.30137
G1 X102.125 Y152.001 E2.34118
G1 X102.152 Y151.489 E2.38236
G1 X102.233 Y150.983 E2.42351
G1 X102.497 Y150.134 E2.49491
G1 X102.717 Y149.673 E2.53593
G1 X102.986 Y149.236 E2.57714
G1 X103.547 Y148.561 E2.64763
G1 X104.256 Y147.973 E2.7216
G1 X104.682 Y147.713 E2.76168
G1 X105.152 Y147.49 E2.80346
G1 X105.64 Y147.32 E2.84496
G1 X106.15 Y147.201 E2.88702
G1 X106.66 Y147.139 E2.92828
G1 X106.922 Y147.144 E2.94932
G1 X107.521 Y147.166 F9000
G1 X107.004 Y147.745
;TYPE:Perimeter
G1 F900
G1 X107.254 Y147.75 E2.9694
G1 X107.888 Y147.822 E3.02064
G1 X108.408 Y147.984 E3.06438
G1 X108.878 Y148.169 E3.10494
G1 X109.4 Y148.467 E3.15321
G1 X110.017 Y148.978 E3.21755
G1 X110.53 Y149.595 E3.28199
G1 X110.876 Y150.218 E3.33922
G1 X111.095 Y150.784 E3.38796
G1 X111.195 Y151.291 E3.42946
G1 X111.263 Y151.821 E3.47237
G1 X111.259 Y152.263 E3.50787
G1 X111.18 Y152.881 E3.5579
G1 X111.016 Y153.408 E3.60222
G1 X110.833 Y153.875 E3.6425
G1 X110.524 Y154.415 E3.69246
G1 X110.026 Y155.014 E3.75502
G1 X109.393 Y155.539 E3.82106
G1 X108.788 Y155.875 E3.87664
G1 X108.206 Y156.099 E3.92672
G1 X107.424 Y156.252 E3.99071
G1 X106.737 Y156.26 E4.04589
G1 X106.11 Y156.18 E4.09665
G1 X105.59 Y156.017 E4.14041
G1 X105.12 Y155.832 E4.18097
G1 X104.598 Y155.534 E4.22924
G1 X103.981 Y155.023 E4.29358
G1 X103.469 Y154.407 E4.35791
G1 X103.122 Y153.784 E4.41518
G1 X102.904 Y153.217 E4.46396
G1 X102.748 Y152.422 E4.52902
G1 X102.74 Y151.738 E4.58395
G1 X102.819 Y151.12 E4.63398
G1 X102.982 Y150.593 E4.67828
G1 X103.165 Y150.127 E4.71849
G1 X103.474 Y149.587 E4.76845
G1 X103.973 Y148.987 E4.83112
G1 X104.417 Y148.618 E4.87748
G1 X104.967 Y148.241 E4.93103
G1 X105.579 Y147.977 E4.98456
G1 X106.071 Y147.836 E5.02566
G1 X106.691 Y147.739 E5.07606
G1 X106.914 Y147.743 E5.09397
G1 X106.914 Y147.743 F9000
G1 X106.997 Y148.349
G1 F900
G1 X107.067 Y148.346 E5.0996
G1 X107.581 Y148.38 E5.14097
G1 X108.085 Y148.512 E5.18281
G1 X108.612 Y148.707 E5.22794
G1 X109.05 Y148.956 E5.2684
G1 X109.591 Y149.405 E5.32486
G1 X109.906 Y149.784 E5.36444
G1 X110.231 Y150.255 E5.4104
G1 X110.448 Y150.752 E5.45395
G1 X110.584 Y151.298 E5.49914
G1 X110.664 Y151.852 E5.54409
G1 X110.672 Y152 E5.55599
G1 X110.627 Y152.538 E5.59935
G1 X110.486 Y153.094 E5.64541
G1 X110.292 Y153.616 E5.69013
G1 X110.036 Y154.064 E5.73157
G1 X109.6 Y154.588 E5.78631
G1 X109.043 Y155.05 E5.84443
G1 X108.531 Y155.333 E5.89141
G1 X108.049 Y155.519 E5.9329
G1 X107.547 Y155.617 E5.97398
G1 X107 Y155.673 E6.01814
G1 X106.456 Y155.628 E6.06198
G1 X105.913 Y155.49 E6.10697
G1 X105.386 Y155.294 E6.15212
G1 X104.948 Y155.045 E6.19258
G1 X104.407 Y154.596 E6.24904
G1 X103.958 Y154.057 E6.30538
G1 X103.664 Y153.527 E6.35405
G1 X103.484 Y153.06 E6.39424
G1 X103.383 Y152.545 E6.43639
G1 X103.326 Y152.001 E6.48032
G1 X103.371 Y151.463 E6.52368
G1 X103.513 Y150.908 E6.56969
G1 X103.707 Y150.385 E6.61449
G1 X103.963 Y149.937 E6.65593
G1 X104.399 Y149.413 E6.71067
G1 X104.955 Y148.951 E6.76872
G1 X105.447 Y148.678 E6.81391
G1 X105.974 Y148.474 E6.85929
G1 X106.515 Y148.365 E6.90361
G1 X106.907 Y148.352 E6.93511
G1 X106.907 Y148.352 F9000
G1 X108.272 Y148.79
;TYPE:Solid infill
;WIDTH:0.709238
G1 F900
G1 X109.362 Y149.88 E7.06597
G1 X109.649 Y150.225 E7.10407
G1 X109.808 Y150.484 E7.12987
G1 X109.954 Y150.793 E7.15888
G1 X110.05 Y151.068 E7.18361
G1 X110.147 Y151.562 E7.22635
G1 X107.427 Y148.841 E7.55296
G1 X106.747 Y148.82 E7.61071
G1 X106.535 Y148.846 E7.62884
G1 X110.153 Y152.464 E8.0632
G1 X110.126 Y152.635 E8.0779
G1 X109.96 Y153.168 E8.12529
G1 X105.826 Y149.034 E8.6216
G1 X105.481 Y149.193 E8.65385
G1 X105.237 Y149.342 E8.67812
G1 X109.658 Y153.762 E9.20882
G1 X109.252 Y154.253 E9.26291
G1 X104.747 Y149.748 E9.80376
G1 X104.341 Y150.239 E9.85785
G1 X108.761 Y154.66 E10.38855
G1 X108.517 Y154.809 E10.41282
G1 X108.172 Y154.967 E10.44503
G1 X104.038 Y150.834 E10.94128
G1 X103.873 Y151.367 E10.98865
G1 X103.845 Y151.537 E11.00328
G1 X107.454 Y155.146 E11.43656
G1 X107.292 Y155.178 E11.45058
G1 X107.001 Y155.193 E11.47532
G1 X106.571 Y155.16 E11.51193
G1 X103.852 Y152.44 E11.83842
G1 X103.948 Y152.934 E11.88114
G1 X104.045 Y153.209 E11.90589
G1 X104.192 Y153.519 E11.93502
G1 X104.349 Y153.777 E11.96066
G1 X104.637 Y154.122 E11.99881
G1 X105.726 Y155.211 E12.12955
G1 E11.62955 F240
G92 E0
G1 X105.726 Y155.211 F9000
EXCLUDE_OBJECT_END NAME='8mm_rod_end_caps_3_(Instance_3)'
EXCLUDE_OBJECT_START NAME='8mm_rod_end_caps_3_(Instance_1)'
G92 E0
G1 X107.012 Y129.145
G1 E.5 F240
;TYPE:External perimeter
;WIDTH:0.675
G1 F900
G1 X107.52 Y129.154 E.5408
G1 X108.026 Y129.236 E.58197
G1 X108.587 Y129.411 E.62916
G1 X109.136 Y129.627 E.67654
G1 X109.75 Y129.977 E.7333
G1 X110.443 Y130.552 E.80562
G1 X111.019 Y131.244 E.87793
G1 X111.287 Y131.683 E.91924
G1 X111.51 Y132.154 E.96109
G1 X111.675 Y132.626 E1.00124
G1 X111.792 Y133.221 E1.04994
G1 X111.862 Y133.789 E1.0959
G1 X111.873 Y134 E1.11287
G1 X111.846 Y134.512 E1.15405
G1 X111.765 Y135.018 E1.1952
G1 X111.502 Y135.867 E1.26658
G1 X111.281 Y136.328 E1.30764
G1 X111.013 Y136.765 E1.34881
G1 X110.451 Y137.44 E1.41935
G1 X109.742 Y138.028 E1.49332
G1 X109.317 Y138.288 E1.53333
G1 X108.846 Y138.511 E1.57518
G1 X108.363 Y138.679 E1.61625
G1 X107.497 Y138.848 E1.68711
G1 X106.999 Y138.874 E1.72716
G1 X106.484 Y138.847 E1.76858
G1 X105.973 Y138.765 E1.81014
G1 X105.412 Y138.59 E1.85733
G1 X104.862 Y138.373 E1.90481
G1 X104.248 Y138.023 E1.96157
