; generated by PrusaSlicer 2.8.1+MacOS-arm64 on 2024-10-11 at 07:33:22 UTC


;
;

;
;
; 

; external perimeters extrusion width = 0.68mm
; perimeters extrusion width = 0.68mm
; infill extrusion width = 0.68mm
; solid infill extrusion width = 0.68mm
; top infill extrusion width = 0.60mm


EXCLUDE_OBJECT_DEFINE NAME='8mm_rod_end_caps_2_(Instance_1)' CENTER=88.996,88.996 POLYGON=[[89.146,82.998],[90.331,83.147],[91.464,83.527],[92.499,84.125],[93.394,84.915],[94.116,85.867],[94.634,86.944],[94.929,88.102],[94.992,89.208],[94.860,90.266],[94.457,91.482],[93.805,92.584],[93.065,93.406],[92.036,94.169],[91.072,94.625],[90.038,94.905],[88.847,94.994],[87.661,94.846],[86.528,94.465],[85.494,93.868],[84.598,93.077],[83.876,92.125],[83.367,91.072],[83.063,89.890],[83.000,88.785],[83.132,87.726],[83.535,86.511],[84.187,85.408],[84.927,84.587],[85.956,83.823],[86.920,83.367],[87.954,83.087]]
EXCLUDE_OBJECT_DEFINE NAME='8mm_rod_end_caps_2_(Instance_2)' CENTER=161.004,88.996 POLYGON=[[161.154,82.998],[162.339,83.147],[163.472,83.527],[164.506,84.125],[165.402,84.915],[166.124,85.868],[166.642,86.944],[166.937,88.102],[167.000,89.208],[166.868,90.266],[166.465,91.482],[165.813,92.584],[165.073,93.406],[164.044,94.169],[163.080,94.625],[162.046,94.905],[160.854,94.994],[159.669,94.846],[158.536,94.465],[157.501,93.868],[156.606,93.077],[155.884,92.125],[155.374,91.072],[155.071,89.890],[155.008,88.785],[155.140,87.726],[155.543,86.511],[156.195,85.408],[156.935,84.587],[157.964,83.823],[158.928,83.367],[159.962,83.087]]
EXCLUDE_OBJECT_DEFINE NAME='8mm_rod_end_caps_2_(Instance_3)' CENTER=88.996,161.004 POLYGON=[[89.146,155.006],[90.331,155.154],[91.464,155.535],[92.499,156.132],[93.394,156.923],[94.116,157.875],[94.634,158.952],[94.929,160.110],[94.992,161.215],[94.860,162.274],[94.457,163.490],[93.805,164.592],[93.065,165.413],[92.036,166.177],[91.072,166.633],[90.038,166.913],[88.847,167.002],[87.661,166.854],[86.528,166.473],[85.494,165.876],[84.598,165.085],[83.876,164.132],[83.367,163.080],[83.063,161.898],[83.000,160.792],[83.132,159.734],[83.535,158.518],[84.187,157.416],[84.927,156.594],[85.956,155.831],[86.920,155.375],[87.954,155.095]]
EXCLUDE_OBJECT_DEFINE NAME='8mm_rod_end_caps_2_(Instance_4)' CENTER=161.004,161.004 POLYGON=[[161.154,155.006],[162.339,155.154],[163.472,155.535],[164.506,156.132],[165.402,156.923],[166.124,157.875],[166.642,158.952],[166.937,160.110],[167.000,161.215],[166.868,162.274],[166.465,163.490],[165.813,164.592],[165.073,165.413],[164.044,166.177],[163.080,166.633],[162.046,166.913],[160.854,167.002],[159.669,166.854],[158.536,166.473],[157.501,165.876],[156.606,165.085],[155.884,164.132],[155.374,163.080],[155.071,161.898],[155.008,160.792],[155.140,159.734],[155.543,158.518],[156.195,157.416],[156.935,156.594],[157.964,155.831],[158.928,155.375],[159.962,155.095]]

;TYPE:Custom
START_PRINT BED_TEMP=80 HOTEND_TEMP=225 FILAMENT_TYPE=FLEX EXTRUSION_MULTIPLIER=0.92 PERIMETER_SPEED=20
G21 ; set units to millimeters
G90 ; use absolute coordinates
M82 ; use absolute distances for extrusion
G92 E0
; Filament gcode
; ########################### NOTE OFFSET CHANGES ####################################
; Prevents PETG buildup on nozzle.
; SET_GCODE_OFFSET Z=0
; ####################################################################################
M107
;LAYER_CHANGE
;Z:0.35
;HEIGHT:0.35
G1 E-.5 F240
G1 Z.35 F9000
EXCLUDE_OBJECT_START NAME='8mm_rod_end_caps_2_(Instance_1)'
G92 E0
G1 X89.009 Y84.123
G1 E.5 F240
;TYPE:External perimeter
;WIDTH:0.675
G1 F600
G1 X89.018 Y84.122 E.50073
G1 X89.511 Y84.149 E.54038
G1 X90.023 Y84.232 E.58203
G1 X90.584 Y84.407 E.62922
G1 X91.133 Y84.623 E.6766
G1 X91.747 Y84.973 E.73336
G1 X92.44 Y85.548 E.80568
G1 X93.015 Y86.239 E.87787
G1 X93.283 Y86.677 E.91911
G1 X93.507 Y87.15 E.96114
G1 X93.672 Y87.622 E1.00129
G1 X93.79 Y88.221 E1.05032
G1 X93.859 Y88.786 E1.09603
G1 X93.87 Y88.996 E1.11292
G1 X93.843 Y89.508 E1.1541
G1 X93.762 Y90.014 E1.19525
G1 X93.498 Y90.863 E1.26665
G1 X93.278 Y91.324 E1.30767
G1 X93.01 Y91.761 E1.34884
G1 X92.448 Y92.436 E1.41938
G1 X91.739 Y93.024 E1.49335
G1 X91.313 Y93.284 E1.53343
G1 X90.843 Y93.507 E1.57521
G1 X90.36 Y93.675 E1.61628
G1 X89.494 Y93.844 E1.68714
G1 X88.996 Y93.87 E1.72719
G1 X88.481 Y93.843 E1.76861
G1 X87.97 Y93.76 E1.81019
G1 X87.408 Y93.585 E1.85746
G1 X86.859 Y93.369 E1.90484
G1 X86.245 Y93.019 E1.9616
G1 X85.553 Y92.445 E2.0338
G1 X84.977 Y91.753 E2.10611
G1 X84.708 Y91.313 E2.14753
G1 X84.485 Y90.842 E2.18938
G1 X84.32 Y90.37 E2.22953
G1 X84.148 Y89.494 E2.30122
G1 X84.122 Y88.996 E2.34127
G1 X84.149 Y88.484 E2.38245
G1 X84.23 Y87.978 E2.4236
G1 X84.494 Y87.13 E2.49493
G1 X84.714 Y86.668 E2.53602
G1 X84.983 Y86.231 E2.57723
G1 X85.544 Y85.556 E2.64772
G1 X86.253 Y84.968 E2.72169
G1 X86.679 Y84.708 E2.76177
G1 X87.149 Y84.485 E2.80355
G1 X87.637 Y84.315 E2.84505
G1 X88.142 Y84.198 E2.88668
G1 X88.919 Y84.131 E2.94931
G1 X89.518 Y84.16 F9000
G1 X89.001 Y84.746
;TYPE:Perimeter
G1 F600
G1 X89.268 Y84.737 E2.97076
G1 X89.885 Y84.817 E3.02073
G1 X90.405 Y84.979 E3.06447
G1 X90.875 Y85.164 E3.10503
G1 X91.397 Y85.463 E3.15334
G1 X92.014 Y85.974 E3.21768
G1 X92.526 Y86.59 E3.28201
G1 X92.873 Y87.213 E3.33928
G1 X93.092 Y87.779 E3.38802
G1 X93.192 Y88.288 E3.42968
G1 X93.26 Y88.817 E3.47251
G1 X93.256 Y89.258 E3.50793
G1 X93.177 Y89.877 E3.55804
G1 X93.013 Y90.404 E3.60236
G1 X92.83 Y90.87 E3.64257
G1 X92.521 Y91.41 E3.69253
G1 X92.022 Y92.01 E3.7552
G1 X91.39 Y92.535 E3.82118
G1 X90.785 Y92.871 E3.87676
G1 X90.203 Y93.095 E3.92684
G1 X89.421 Y93.247 E3.99082
G1 X88.734 Y93.256 E4.046
G1 X88.107 Y93.175 E4.09677
G1 X87.587 Y93.013 E4.14051
G1 X87.117 Y92.828 E4.18107
G1 X86.595 Y92.53 E4.22934
G1 X85.978 Y92.018 E4.29373
G1 X85.466 Y91.402 E4.35806
G1 X85.119 Y90.779 E4.41533
G1 X84.901 Y90.213 E4.46404
G1 X84.745 Y89.42 E4.52895
G1 X84.737 Y88.734 E4.58405
G1 X84.816 Y88.115 E4.63416
G1 X84.979 Y87.589 E4.67838
G1 X85.162 Y87.122 E4.71866
G1 X85.471 Y86.582 E4.76862
G1 X85.97 Y85.982 E4.83129
G1 X86.362 Y85.657 E4.87218
G1 X86.812 Y85.33 E4.91685
G1 X87.377 Y85.041 E4.96782
G1 X87.989 Y84.849 E5.01933
G1 X88.632 Y84.758 E5.07148
G1 X88.911 Y84.749 E5.0939
G1 X88.911 Y84.749 F9000
G1 X88.994 Y85.329
G1 F600
G1 X89.036 Y85.325 E5.09729
G1 X89.542 Y85.37 E5.13809
G1 X90.082 Y85.507 E5.18283
G1 X90.609 Y85.702 E5.22796
G1 X91.047 Y85.952 E5.26846
G1 X91.588 Y86.4 E5.32487
G1 X91.904 Y86.78 E5.36456
G1 X92.226 Y87.249 E5.41025
G1 X92.445 Y87.747 E5.45394
G1 X92.581 Y88.295 E5.49928
G1 X92.661 Y88.848 E5.54415
G1 X92.669 Y88.995 E5.55597
G1 X92.624 Y89.533 E5.59933
G1 X92.483 Y90.089 E5.64539
G1 X92.289 Y90.612 E5.69019
G1 X92.033 Y91.059 E5.73156
G1 X91.597 Y91.584 E5.78637
G1 X91.04 Y92.045 E5.84444
G1 X90.528 Y92.329 E5.89146
G1 X90.046 Y92.514 E5.93292
G1 X89.544 Y92.612 E5.974
G1 X88.997 Y92.669 E6.01817
G1 X88.453 Y92.623 E6.06201
G1 X87.91 Y92.485 E6.107
G1 X87.383 Y92.29 E6.15213
G1 X86.945 Y92.041 E6.19259
G1 X86.404 Y91.592 E6.24905
G1 X85.955 Y91.052 E6.30545
G1 X85.661 Y90.522 E6.35412
G1 X85.481 Y90.055 E6.39431
G1 X85.38 Y89.543 E6.43622
G1 X85.323 Y88.997 E6.48031
G1 X85.368 Y88.459 E6.52367
G1 X85.51 Y87.903 E6.56975
G1 X85.703 Y87.381 E6.61444
G1 X85.96 Y86.933 E6.65592
G1 X86.396 Y86.409 E6.71066
G1 X86.797 Y86.076 E6.75252
G1 X87.25 Y85.765 E6.79665
G1 X87.822 Y85.521 E6.84659
G1 X88.33 Y85.386 E6.8888
G1 X88.904 Y85.336 E6.93507
G1 X88.904 Y85.336 F9000
G1 X90.269 Y85.785
;TYPE:Solid infill
;WIDTH:0.709239
G1 F600
G1 X91.359 Y86.875 E7.06593
G1 X91.646 Y87.22 E7.10403
G1 X91.804 Y87.478 E7.12971
G1 X91.951 Y87.788 E7.15884
G1 X92.047 Y88.063 E7.18357
G1 X92.144 Y88.557 E7.22631
G1 X89.432 Y85.845 E7.5519
G1 X89.044 Y85.806 E7.585
G1 X88.54 Y85.85 E7.62795
G1 X92.15 Y89.46 E8.06135
G1 X92.123 Y89.63 E8.07596
G1 X91.957 Y90.163 E8.12335
G1 X87.823 Y86.029 E8.61966
G1 X87.478 Y86.188 E8.65191
G1 X87.234 Y86.337 E8.67618
G1 X91.655 Y90.758 E9.20695
G1 X91.249 Y91.249 E9.26104
G1 X86.744 Y86.744 E9.80189
G1 X86.338 Y87.234 E9.85591
G1 X90.758 Y91.655 E10.38661
G1 X90.514 Y91.804 E10.41088
G1 X90.169 Y91.963 E10.44313
G1 X86.035 Y87.829 E10.93944
G1 X85.87 Y88.362 E10.98681
G1 X85.842 Y88.533 E11.00152
G1 X89.451 Y92.141 E11.43474
G1 X89.288 Y92.173 E11.44884
G1 X88.997 Y92.188 E11.47358
G1 X88.568 Y92.156 E11.5101
G1 X85.848 Y89.435 E11.83671
G1 X85.945 Y89.929 E11.87945
G1 X86.041 Y90.204 E11.90418
G1 X86.188 Y90.513 E11.93323
G1 X86.346 Y90.772 E11.95899
G1 X86.634 Y91.118 E11.99721
G1 X87.723 Y92.207 E12.12795
;LAYER_CHANGE
;Z:0.65
;HEIGHT:0.3
G1 Z.65 F9000
G1 E11.62795 F240
G92 E0
G1 X87.723 Y92.207 Z.65 F9000
G1 X89.011 Y83.956
G1 E.5 F240
;TYPE:External perimeter
;WIDTH:0.675
G1 F600
G1 X89.537 Y83.966 E.53686
G1 X90.062 Y84.05 E.57411
G1 X90.934 Y84.322 E.63811
G1 X91.412 Y84.551 E.67525
G1 X91.874 Y84.835 E.71325
G1 X92.3 Y85.164 E.75096
G1 X92.788 Y85.671 E.80027
G1 X93.228 Y86.225 E.84984
G1 X93.565 Y86.865 E.90052
G1 X93.844 Y87.55 E.95234
G1 X93.972 Y88.195 E.99841
G1 X94.045 Y88.783 E1.03993
G1 X94.056 Y88.996 E1.05487
G1 X94.029 Y89.52 E1.09163
G1 X93.947 Y90.037 E1.12831
G1 X93.67 Y90.934 E1.19409
G1 X93.441 Y91.414 E1.23135
G1 X93.167 Y91.859 E1.26797
G1 X92.576 Y92.571 E1.3328
G1 X92.157 Y92.946 E1.3722
G1 X91.397 Y93.45 E1.4361
G1 X90.913 Y93.679 E1.47362
G1 X90.412 Y93.853 E1.51078
G1 X89.513 Y94.029 E1.57497
G1 X88.996 Y94.056 E1.61124
G1 X88.461 Y94.027 E1.64878
G1 X87.93 Y93.942 E1.68646
G1 X87.344 Y93.759 E1.72947
G1 X86.76 Y93.527 E1.7735
G1 X86.172 Y93.193 E1.82088
G1 X85.416 Y92.57 E1.88952
G1 X85.016 Y92.088 E1.93341
G1 X84.662 Y91.593 E1.97605
G1 X84.404 Y91.104 E2.01479
G1 X84.148 Y90.441 E2.06459
G1 X83.963 Y89.513 E2.13089
G1 X83.936 Y88.996 E2.16716
G1 X83.964 Y88.472 E2.20393
G1 X84.045 Y87.955 E2.2406
G1 X84.322 Y87.058 E2.30638
G1 X84.551 Y86.578 E2.34364
G1 X84.828 Y86.128 E2.38066
G1 X85.147 Y85.713 E2.41734
G1 X85.844 Y85.039 E2.48528
G1 X86.264 Y84.738 E2.52149
G1 X87.084 Y84.312 E2.58624
G1 X87.585 Y84.137 E2.62342
G1 X88.115 Y84.014 E2.66154
G1 X88.635 Y83.95 E2.69825
G1 X88.921 Y83.955 E2.71829
G1 X89.52 Y83.975 F9000
G1 X89.003 Y84.567
;TYPE:Perimeter
G1 F600
G1 X89.26 Y84.571 E2.7363
G1 X89.922 Y84.646 E2.78298
G1 X90.71 Y84.892 E2.84082
G1 X91.361 Y85.236 E2.89241
G1 X91.891 Y85.62 E2.93827
G1 X92.348 Y86.095 E2.98445
G1 X92.708 Y86.547 E3.02494
G1 X93.024 Y87.149 E3.07258
G1 X93.254 Y87.712 E3.11519
G1 X93.373 Y88.314 E3.15819
G1 X93.435 Y88.814 E3.19349
G1 X93.43 Y89.269 E3.22537
G1 X93.351 Y89.898 E3.26979
G1 X93.177 Y90.459 E3.31094
G1 X92.986 Y90.95 E3.34785
G1 X92.67 Y91.503 E3.39248
G1 X92.287 Y91.964 E3.43447
G1 X91.783 Y92.462 E3.48411
G1 X91.314 Y92.772 E3.5235
G1 X90.858 Y93.029 E3.56018
G1 X90.252 Y93.262 E3.60567
G1 X89.439 Y93.421 E3.66371
G1 X88.723 Y93.43 E3.71388
G1 X88.071 Y93.346 E3.75994
G1 X87.526 Y93.176 E3.79994
G1 X87.022 Y92.976 E3.83793
G1 X86.527 Y92.694 E3.87785
G1 X85.849 Y92.135 E3.93942
G1 X85.319 Y91.497 E3.99754
G1 X84.956 Y90.842 E4.05001
G1 X84.738 Y90.28 E4.09225
G1 X84.571 Y89.437 E4.15246
G1 X84.562 Y88.724 E4.20242
G1 X84.641 Y88.094 E4.24691
G1 X84.893 Y87.281 E4.30655
G1 X85.235 Y86.633 E4.35789
G1 X85.604 Y86.121 E4.40211
G1 X86.079 Y85.661 E4.44844
G1 X86.584 Y85.26 E4.49362
G1 X87.327 Y84.874 E4.55229
G1 X88.035 Y84.659 E4.60413
G1 X88.667 Y84.561 E4.64894
G1 X88.913 Y84.565 E4.66618
G1 X88.913 Y84.565 F9000
G1 X88.995 Y85.177
G1 F600
G1 X89.25 Y85.182 E4.68405
G1 X89.781 Y85.242 E4.72149
G1 X90.28 Y85.398 E4.75812
G1 X90.828 Y85.625 E4.79968
G1 X91.307 Y85.94 E4.83985
G1 X91.742 Y86.346 E4.88154
G1 X92.1 Y86.748 E4.91926
G1 X92.374 Y87.224 E4.95774
G1 X92.612 Y87.726 E4.99667
G1 X92.74 Y88.258 E5.03501
G1 X92.825 Y88.846 E5.07664
G1 X92.82 Y89.237 E5.10404
G1 X92.754 Y89.76 E5.14098
G1 X92.529 Y90.488 E5.19437
G1 X92.284 Y90.964 E5.23188
G1 X91.931 Y91.437 E5.27323
G1 X91.551 Y91.85 E5.31255
G1 X91.102 Y92.18 E5.35159
G1 X90.596 Y92.477 E5.3927
G1 X90.092 Y92.671 E5.43054
G1 X89.364 Y92.814 E5.48252
G1 X88.755 Y92.82 E5.52519
G1 X88.211 Y92.75 E5.56362
G1 X87.506 Y92.53 E5.61537
G1 X86.881 Y92.195 E5.66506
G1 X86.282 Y91.701 E5.71946
G1 X85.817 Y91.141 E5.77046
G1 X85.534 Y90.637 E5.81096
G1 X85.329 Y90.118 E5.85006
G1 X85.178 Y89.361 E5.90415
G1 X85.172 Y88.756 E5.94654
G1 X85.238 Y88.232 E5.98355
G1 X85.463 Y87.504 E6.03694
G1 X85.755 Y86.952 E6.0807
G1 X86.06 Y86.528 E6.1173
G1 X86.504 Y86.1 E6.16051
G1 X86.904 Y85.782 E6.19631
G1 X87.569 Y85.436 E6.24883
G1 X88.173 Y85.254 E6.29303
G1 X88.7 Y85.172 E6.3304
G1 X88.905 Y85.176 E6.34477
G1 E5.84477 F240
G92 E0
G1 X88.905 Y85.176 F9000
G1 X87.064 Y86.043
G1 E.5 F240
;TYPE:Solid infill
;WIDTH:0.574381
G1 F600
G1 X86.84 Y86.233 E.51719
G1 X86.097 Y86.997 E.57956
G1 X86.097 Y86.997 F9000
G1 X85.45 Y88.626
G1 F600
G1 X85.563 Y88.085 E.6119
;WIDTH:0.60792
G1 X85.665 Y88.004 E.62002
;WIDTH:0.64146
G1 X85.767 Y87.923 E.62864
;WIDTH:0.675
G1 X85.87 Y87.842 E.63782
G1 X87.859 Y85.852 E.83496
G1 X87.94 Y85.752 E.84398
;WIDTH:0.64146
G1 X88.021 Y85.651 E.85255
;WIDTH:0.60792
G1 X88.102 Y85.551 E.86058
;WIDTH:0.574381
G1 X88.716 Y85.438 E.89712
;WIDTH:0.675
G1 X88.911 Y85.665 E.91809
G1 X85.652 Y88.923 E1.24097
G1 X85.743 Y89.696 E1.29551
G1 X89.708 Y85.731 E1.6884
G1 X90.36 Y85.943 E1.73644
G1 X85.943 Y90.359 E2.17407
G1 X86.258 Y90.908 E2.21842
G1 X90.913 Y86.253 E2.67968
G1 X91.368 Y86.662 E2.72255
G1 X86.654 Y91.375 E3.18961
G1 X87.128 Y91.765 E3.23262
G1 X91.769 Y87.124 E3.6925
G1 X92.067 Y87.69 E3.73732
G1 X87.683 Y92.073 E4.17168
G1 X88.343 Y92.277 E4.22008
G1 X92.261 Y88.359 E4.60831
G1 X92.336 Y89.148 E4.66384
G1 X89.148 Y92.336 E4.97974
G1 E4.47974 F240
G92 E0
G1 X89.148 Y92.336 F9000
G1 X91.033 Y91.49
G1 E.5 F240
;WIDTH:0.940637
G1 F600
G1 X91.464 Y91.049 E.562
;WIDTH:0.910625
G1 X91.683 Y90.809 E.59355
;LAYER_CHANGE
;Z:0.95
;HEIGHT:0.3
G1 Z.95 F9000
G1 E.09355 F240
G92 E0
G1 X91.683 Y90.809 Z.95 F9000
G1 X89.013 Y83.786
G1 E.5 F240
;TYPE:External perimeter
;WIDTH:0.675
G1 F600
G1 X89.555 Y83.795 E.53798
G1 X90.098 Y83.883 E.57652
G1 X90.999 Y84.164 E.64265
G1 X91.494 Y84.4 E.68107
G1 X91.972 Y84.694 E.72039
G1 X92.412 Y85.035 E.75939
G1 X93.082 Y85.731 E.82708
G1 X93.423 Y86.245 E.8703
G1 X93.748 Y86.826 E.91695
G1 X94.004 Y87.485 E.96649
G1 X94.14 Y88.172 E1.01556
G1 X94.216 Y88.78 E1.05849
G1 X94.227 Y88.996 E1.07364
G1 X94.2 Y89.531 E1.11117
G1 X94.118 Y90.058 E1.14854
G1 X93.828 Y90.999 E1.21753
G1 X93.591 Y91.497 E1.25617
G1 X93.312 Y91.951 E1.29351
G1 X92.697 Y92.692 E1.36098
G1 X92.263 Y93.081 E1.40182
G1 X91.478 Y93.6 E1.46776
G1 X90.978 Y93.837 E1.50653
G1 X90.46 Y94.018 E1.54498
G1 X89.531 Y94.199 E1.6113
G1 X88.996 Y94.227 E1.64884
G1 X88.443 Y94.198 E1.68764
G1 X87.894 Y94.109 E1.72661
G1 X86.993 Y93.828 E1.79274
G1 X86.498 Y93.592 E1.83116
G1 X86.021 Y93.298 E1.87042
G1 X85.579 Y92.956 E1.90958
G1 X85.213 Y92.587 E1.946
G1 X84.825 Y92.141 E1.98742
G1 X84.528 Y91.702 E2.02456
G1 X84.244 Y91.166 E2.06706
G1 X83.989 Y90.507 E2.11657
G1 X83.793 Y89.53 E2.18639
G1 X83.765 Y88.996 E2.22386
G1 X83.793 Y88.461 E2.2614
G1 X83.874 Y87.934 E2.29876
G1 X84.07 Y87.3 E2.34526
G1 X84.303 Y86.703 E2.39016
G1 X84.552 Y86.249 E2.42644
G1 X84.878 Y85.781 E2.4664
G1 X85.314 Y85.28 E2.51294
G1 X85.733 Y84.908 E2.5522
G1 X86.166 Y84.597 E2.58955
G1 X87.019 Y84.153 E2.65693
G1 X87.537 Y83.973 E2.69535
G1 X88.086 Y83.845 E2.73485
G1 X88.616 Y83.779 E2.77227
G1 X88.923 Y83.784 E2.79378
G1 X89.523 Y83.802 F9000
G1 X89.005 Y84.397
;TYPE:Perimeter
G1 F600
G1 X89.27 Y84.401 E2.81235
G1 X89.958 Y84.479 E2.86086
G1 X90.775 Y84.734 E2.92083
G1 X91.451 Y85.091 E2.97439
G1 X92.003 Y85.49 E3.02211
G1 X92.603 Y86.114 E3.08276
G1 X92.914 Y86.582 E3.12213
G1 X93.196 Y87.088 E3.16272
G1 X93.413 Y87.647 E3.20474
G1 X93.542 Y88.291 E3.25076
G1 X93.606 Y88.812 E3.28754
G1 X93.601 Y89.279 E3.32026
G1 X93.521 Y89.921 E3.36559
G1 X93.338 Y90.514 E3.40907
G1 X93.137 Y91.03 E3.44787
G1 X92.815 Y91.594 E3.49337
G1 X92.415 Y92.076 E3.53726
G1 X91.889 Y92.596 E3.58908
G1 X91.404 Y92.917 E3.62983
G1 X90.93 Y93.185 E3.66798
G1 X90.3 Y93.427 E3.71527
G1 X89.456 Y93.592 E3.77553
