; generated by PrusaSlicer 2.8.1+MacOS-arm64 on 2024-10-11 at 04:54:46 UTC


;
;

;
;
; 

; external perimeters extrusion width = 0.68mm
; perimeters extrusion width = 0.68mm
; infill extrusion width = 0.68mm
; solid infill extrusion width = 0.68mm
; top infill extrusion width = 0.60mm

; external perimeters extrusion width = 0.68mm
; perimeters extrusion width = 0.68mm
; infill extrusion width = 0.68mm
; solid infill extrusion width = 0.68mm
; top infill extrusion width = 0.60mm

; external perimeters extrusion width = 0.68mm
; perimeters extrusion width = 0.68mm
; infill extrusion width = 0.68mm
; solid infill extrusion width = 0.68mm
; top infill extrusion width = 0.60mm

; external perimeters extrusion width = 0.68mm
; perimeters extrusion width = 0.68mm
; infill extrusion width = 0.68mm
; solid infill extrusion width = 0.68mm
; top infill extrusion width = 0.60mm


EXCLUDE_OBJECT_DEFINE NAME='8mm_rod_end_caps_4' CENTER=116.000,117.000 POLYGON=[[116.150,111.002],[117.335,111.150],[118.468,111.531],[119.502,112.128],[120.398,112.919],[121.120,113.871],[121.638,114.948],[121.933,116.106],[121.996,117.212],[121.864,118.270],[121.461,119.486],[120.809,120.588],[120.069,121.410],[119.040,122.173],[118.076,122.629],[117.042,122.909],[115.850,122.998],[114.665,122.850],[113.532,122.469],[112.498,121.872],[111.602,121.081],[110.880,120.129],[110.371,119.076],[110.067,117.894],[110.004,116.788],[110.136,115.730],[110.539,114.514],[111.191,113.412],[111.931,112.591],[112.960,111.827],[113.924,111.371],[114.958,111.091]]
EXCLUDE_OBJECT_DEFINE NAME='8mm_rod_end_caps_3' CENTER=116.000,133.000 POLYGON=[[116.150,127.002],[117.335,127.150],[118.468,127.531],[119.502,128.128],[120.398,128.919],[121.120,129.871],[121.629,130.924],[121.933,132.106],[121.996,133.212],[121.864,134.270],[121.461,135.486],[120.809,136.588],[120.069,137.409],[119.040,138.173],[118.076,138.629],[117.042,138.909],[115.850,138.998],[114.665,138.850],[113.532,138.469],[112.498,137.872],[111.602,137.081],[110.880,136.129],[110.362,135.052],[110.067,133.894],[110.004,132.788],[110.136,131.730],[110.539,130.514],[111.191,129.412],[111.931,128.590],[112.960,127.827],[113.924,127.371],[114.958,127.091]]
EXCLUDE_OBJECT_DEFINE NAME='8mm_rod_end_caps_2' CENTER=134.000,133.000 POLYGON=[[134.150,127.002],[135.335,127.150],[136.468,127.531],[137.502,128.128],[138.398,128.919],[139.120,129.871],[139.638,130.948],[139.933,132.106],[139.996,133.212],[139.864,134.270],[139.461,135.486],[138.809,136.588],[138.069,137.410],[137.040,138.173],[136.076,138.629],[135.042,138.909],[133.850,138.998],[132.665,138.850],[131.532,138.469],[130.498,137.872],[129.602,137.081],[128.880,136.129],[128.371,135.076],[128.067,133.894],[128.004,132.788],[128.136,131.730],[128.539,130.514],[129.191,129.412],[129.931,128.591],[130.960,127.827],[131.924,127.371],[132.958,127.091]]
EXCLUDE_OBJECT_DEFINE NAME='8mm_rod_end_caps_1' CENTER=134.000,117.000 POLYGON=[[134.150,111.002],[135.335,111.150],[136.468,111.531],[137.502,112.128],[138.398,112.919],[139.120,113.871],[139.630,114.924],[139.933,116.106],[139.996,117.212],[139.864,118.270],[139.461,119.486],[138.809,120.588],[138.069,121.409],[137.040,122.173],[136.076,122.629],[135.042,122.909],[133.850,122.998],[132.665,122.850],[131.532,122.469],[130.498,121.872],[129.602,121.081],[128.880,120.129],[128.362,119.052],[128.067,117.894],[128.004,116.788],[128.136,115.730],[128.539,114.514],[129.191,113.412],[129.931,112.590],[130.960,111.827],[131.924,111.371],[132.958,111.091]]

;TYPE:Custom
START_PRINT BED_TEMP=80 HOTEND_TEMP=225 FILAMENT_TYPE=FLEX EXTRUSION_MULTIPLIER=0.92 PERIMETER_SPEED=20
G21 ; set units to millimeters
G90 ; use absolute coordinates
M82 ; use absolute distances for extrusion
G92 E0
; Filament gcode
; ########################### NOTE OFFSET CHANGES ####################################
; Prevents PETG buildup on nozzle.
; SET_GCODE_OFFSET Z=0
; ####################################################################################
M107
;LAYER_CHANGE
;Z:0.35
;HEIGHT:0.35
G1 E-.5 F240
G1 Z.35 F9000
EXCLUDE_OBJECT_START NAME='8mm_rod_end_caps_1'
G92 E0
G1 X134.012 Y112.145
G1 E.5 F240
;TYPE:External perimeter
;WIDTH:0.675
G1 F900
G1 X134.521 Y112.154 E.54088
G1 X135.027 Y112.236 E.58205
G1 X135.588 Y112.411 E.62924
G1 X136.137 Y112.627 E.67662
G1 X136.751 Y112.977 E.73338
G1 X137.443 Y113.551 E.80558
G1 X138.019 Y114.244 E.87795
G1 X138.288 Y114.683 E.9193
G1 X138.511 Y115.154 E.96115
G1 X138.676 Y115.626 E1.0013
G1 X138.793 Y116.221 E1.05
G1 X138.863 Y116.788 E1.09588
G1 X138.874 Y117 E1.11293
G1 X138.847 Y117.512 E1.15411
G1 X138.766 Y118.018 E1.19526
G1 X138.502 Y118.866 E1.26659
G1 X138.282 Y119.328 E1.30768
G1 X138.014 Y119.765 E1.34885
G1 X137.452 Y120.44 E1.41939
G1 X136.743 Y121.028 E1.49336
G1 X136.317 Y121.288 E1.53344
G1 X135.847 Y121.511 E1.57522
G1 X135.364 Y121.679 E1.61629
G1 X134.498 Y121.848 E1.68715
G1 X134 Y121.874 E1.7272
G1 X133.484 Y121.847 E1.7687
G1 X132.973 Y121.764 E1.81028
G1 X132.412 Y121.589 E1.85747
G1 X131.863 Y121.373 E1.90485
G1 X131.249 Y121.023 E1.96161
G1 X130.557 Y120.449 E2.03381
G1 X129.981 Y119.757 E2.10612
G1 X129.713 Y119.319 E2.14736
G1 X129.489 Y118.847 E2.18932
G1 X129.324 Y118.374 E2.22955
G1 X129.152 Y117.496 E2.3014
G1 X129.126 Y117 E2.34129
G1 X129.153 Y116.488 E2.38247
G1 X129.234 Y115.982 E2.42362
G1 X129.498 Y115.133 E2.49502
G1 X129.718 Y114.672 E2.53604
G1 X129.986 Y114.235 E2.57721
G1 X130.548 Y113.56 E2.64775
G1 X131.257 Y112.972 E2.72172
G1 X131.683 Y112.712 E2.7618
G1 X132.153 Y112.489 E2.80358
G1 X132.641 Y112.319 E2.84508
G1 X133.151 Y112.201 E2.88712
G1 X133.66 Y112.138 E2.92831
G1 X133.922 Y112.143 E2.94935
G1 X134.522 Y112.165 F9000
G1 X134.005 Y112.744
;TYPE:Perimeter
G1 F900
G1 X134.254 Y112.749 E2.96935
G1 X134.889 Y112.821 E3.02067
G1 X135.409 Y112.983 E3.06441
G1 X135.879 Y113.168 E3.10497
G1 X136.401 Y113.466 E3.15324
G1 X137.018 Y113.978 E3.21763
G1 X137.53 Y114.594 E3.28196
G1 X137.877 Y115.217 E3.33923
G1 X138.096 Y115.784 E3.38804
G1 X138.195 Y116.291 E3.42953
G1 X138.264 Y116.82 E3.47237
G1 X138.26 Y117.262 E3.50787
G1 X138.181 Y117.881 E3.55798
G1 X138.017 Y118.407 E3.60223
G1 X137.834 Y118.874 E3.64251
G1 X137.525 Y119.414 E3.69247
G1 X137.026 Y120.014 E3.75514
G1 X136.393 Y120.539 E3.82118
G1 X135.789 Y120.875 E3.87669
G1 X135.207 Y121.098 E3.92674
G1 X134.425 Y121.251 E3.99073
G1 X133.737 Y121.259 E4.04599
G1 X133.111 Y121.179 E4.09667
G1 X132.591 Y121.017 E4.14041
G1 X132.121 Y120.832 E4.18097
G1 X131.599 Y120.534 E4.22924
G1 X130.982 Y120.022 E4.29363
G1 X130.47 Y119.406 E4.35796
G1 X130.123 Y118.783 E4.41523
G1 X129.905 Y118.217 E4.46394
G1 X129.748 Y117.422 E4.52902
G1 X129.74 Y116.738 E4.58395
G1 X129.819 Y116.119 E4.63406
G1 X129.983 Y115.593 E4.67831
G1 X130.166 Y115.126 E4.71859
G1 X130.475 Y114.586 E4.76855
G1 X130.974 Y113.986 E4.83122
G1 X131.418 Y113.618 E4.87753
G1 X131.968 Y113.241 E4.93108
G1 X132.579 Y112.976 E4.98456
G1 X133.071 Y112.835 E5.02566
G1 X133.692 Y112.739 E5.07612
G1 X133.915 Y112.743 E5.09403
G1 X133.915 Y112.743 F9000
G1 X133.998 Y113.348
G1 F900
G1 X134.068 Y113.346 E5.09965
G1 X134.581 Y113.379 E5.14093
G1 X135.086 Y113.511 E5.18285
G1 X135.613 Y113.706 E5.22798
G1 X136.051 Y113.955 E5.26844
G1 X136.592 Y114.404 E5.3249
G1 X136.907 Y114.783 E5.36448
G1 X137.231 Y115.255 E5.41046
G1 X137.449 Y115.751 E5.45397
G1 X137.585 Y116.297 E5.49916
G1 X137.665 Y116.851 E5.54411
G1 X137.673 Y116.999 E5.55601
G1 X137.628 Y117.537 E5.59937
G1 X137.486 Y118.093 E5.64545
G1 X137.293 Y118.616 E5.69022
G1 X137.036 Y119.063 E5.73163
G1 X136.601 Y119.587 E5.78632
G1 X136.044 Y120.049 E5.84444
G1 X135.532 Y120.332 E5.89142
G1 X135.05 Y120.518 E5.93291
G1 X134.548 Y120.616 E5.97399
G1 X134.001 Y120.673 E6.01816
G1 X133.457 Y120.627 E6.062
G1 X132.914 Y120.489 E6.10699
G1 X132.387 Y120.294 E6.15212
G1 X131.949 Y120.045 E6.19258
G1 X131.408 Y119.596 E6.24904
G1 X130.959 Y119.056 E6.30544
G1 X130.665 Y118.526 E6.35411
G1 X130.485 Y118.059 E6.3943
G1 X130.384 Y117.544 E6.43645
G1 X130.327 Y117.001 E6.4803
G1 X130.372 Y116.463 E6.52366
G1 X130.514 Y115.907 E6.56974
G1 X130.707 Y115.384 E6.61451
G1 X130.964 Y114.937 E6.65592
G1 X131.399 Y114.413 E6.71061
G1 X131.956 Y113.951 E6.76873
G1 X132.448 Y113.677 E6.81396
G1 X132.975 Y113.473 E6.85934
G1 X133.516 Y113.365 E6.90364
G1 X133.908 Y113.351 E6.93514
G1 X133.908 Y113.351 F9000
G1 X135.273 Y113.789
;TYPE:Solid infill
;WIDTH:0.70924
G1 F900
G1 X136.363 Y114.879 E7.066
G1 X136.65 Y115.224 E7.1041
G1 X136.809 Y115.483 E7.1299
G1 X136.955 Y115.792 E7.15891
G1 X137.051 Y116.067 E7.18364
G1 X137.148 Y116.561 E7.22638
G1 X134.428 Y113.841 E7.55293
G1 X133.748 Y113.82 E7.61068
G1 X133.536 Y113.846 E7.62881
G1 X137.154 Y117.463 E8.06311
G1 X137.126 Y117.634 E8.07782
G1 X136.961 Y118.167 E8.12519
G1 X132.827 Y114.033 E8.6215
G1 X132.482 Y114.192 E8.65375
G1 X132.238 Y114.341 E8.67802
G1 X136.658 Y118.762 E9.20873
G1 X136.253 Y119.253 E9.26276
G1 X131.747 Y114.747 E9.80373
G1 X131.341 Y115.238 E9.85782
G1 X135.762 Y119.659 E10.38859
G1 X135.518 Y119.808 E10.41286
G1 X135.173 Y119.967 E10.44511
G1 X131.039 Y115.833 E10.94142
G1 X130.874 Y116.366 E10.98879
G1 X130.846 Y116.537 E11.0035
G1 X134.455 Y120.145 E11.43672
G1 X134.292 Y120.177 E11.45082
G1 X134.001 Y120.192 E11.47556
G1 X133.572 Y120.159 E11.51209
G1 X130.852 Y117.44 E11.83858
G1 X130.949 Y117.933 E11.88123
G1 X131.045 Y118.208 E11.90596
G1 X131.192 Y118.519 E11.93516
G1 X131.35 Y118.776 E11.96077
G1 X131.638 Y119.122 E11.99899
G1 X132.727 Y120.211 E12.12973
G1 E11.62973 F240
G92 E0
G1 X132.727 Y120.211 F9000
EXCLUDE_OBJECT_END NAME='8mm_rod_end_caps_1'
EXCLUDE_OBJECT_START NAME='8mm_rod_end_caps_2'
G92 E0
G1 X134.013 Y128.127
G1 E.5 F240
;TYPE:External perimeter
;WIDTH:0.675
G1 F900
G1 X134.021 Y128.126 E.50065
G1 X134.515 Y128.153 E.54038
G1 X135.027 Y128.236 E.58203
G1 X135.588 Y128.411 E.62922
G1 X136.137 Y128.627 E.6766
G1 X136.751 Y128.977 E.73336
G1 X137.443 Y129.551 E.80556
G1 X138.019 Y130.243 E.87787
G1 X138.287 Y130.681 E.91911
G1 X138.511 Y131.153 E.96107
G1 X138.676 Y131.626 E1.0013
G1 X138.793 Y132.224 E1.05023
G1 X138.863 Y132.79 E1.09603
G1 X138.874 Y133 E1.11292
G1 X138.847 Y133.512 E1.1541
G1 X138.766 Y134.018 E1.19525
G1 X138.502 Y134.867 E1.26665
G1 X138.282 Y135.328 E1.30767
G1 X138.014 Y135.765 E1.34884
G1 X137.452 Y136.44 E1.41938
G1 X136.743 Y137.028 E1.49335
G1 X136.317 Y137.288 E1.53343
G1 X135.847 Y137.511 E1.57521
G1 X135.364 Y137.679 E1.61628
G1 X134.498 Y137.848 E1.68714
G1 X134 Y137.874 E1.72719
G1 X133.485 Y137.847 E1.76861
G1 X132.974 Y137.764 E1.81019
G1 X132.412 Y137.589 E1.85746
G1 X131.863 Y137.373 E1.90484
G1 X131.249 Y137.023 E1.9616
G1 X130.557 Y136.449 E2.0338
G1 X129.981 Y135.756 E2.10617
G1 X129.712 Y135.317 E2.14752
G1 X129.489 Y134.846 E2.18937
G1 X129.324 Y134.374 E2.22952
G1 X129.152 Y133.498 E2.30121
G1 X129.126 Y133 E2.34126
G1 X129.153 Y132.488 E2.38244
G1 X129.234 Y131.982 E2.42359
G1 X129.498 Y131.133 E2.49499
G1 X129.718 Y130.672 E2.53601
G1 X129.986 Y130.235 E2.57718
G1 X130.548 Y129.56 E2.64772
G1 X131.257 Y128.972 E2.72169
G1 X131.683 Y128.712 E2.76177
G1 X132.153 Y128.489 E2.80355
G1 X132.641 Y128.319 E2.84505
G1 X133.146 Y128.202 E2.88668
G1 X133.923 Y128.135 E2.94931
G1 X134.522 Y128.164 F9000
G1 X134.005 Y128.75
;TYPE:Perimeter
G1 F900
G1 X134.271 Y128.741 E2.97068
G1 X134.889 Y128.821 E3.02072
G1 X135.409 Y128.983 E3.06446
G1 X135.879 Y129.168 E3.10502
G1 X136.401 Y129.466 E3.15329
G1 X137.018 Y129.978 E3.21768
G1 X137.53 Y130.594 E3.28201
G1 X137.877 Y131.217 E3.33928
G1 X138.095 Y131.783 E3.38799
G1 X138.195 Y132.292 E3.42965
G1 X138.264 Y132.821 E3.47249
G1 X138.26 Y133.262 E3.50791
G1 X138.181 Y133.881 E3.55802
G1 X138.017 Y134.407 E3.60227
G1 X137.834 Y134.874 E3.64255
G1 X137.525 Y135.414 E3.69251
G1 X137.026 Y136.014 E3.75518
G1 X136.393 Y136.539 E3.82122
G1 X135.789 Y136.875 E3.87673
G1 X135.207 Y137.098 E3.92678
G1 X134.425 Y137.251 E3.99077
G1 X133.738 Y137.259 E4.04595
G1 X133.111 Y137.179 E4.09671
G1 X132.591 Y137.017 E4.14045
G1 X132.121 Y136.832 E4.18101
G1 X131.599 Y136.534 E4.22928
G1 X130.982 Y136.022 E4.29367
G1 X130.47 Y135.406 E4.358
G1 X130.123 Y134.783 E4.41527
G1 X129.904 Y134.216 E4.46408
G1 X129.749 Y133.424 E4.52889
G1 X129.74 Y132.738 E4.58399
G1 X129.819 Y132.119 E4.6341
G1 X129.983 Y131.593 E4.67835
G1 X130.166 Y131.126 E4.71863
G1 X130.475 Y130.586 E4.76859
G1 X130.974 Y129.986 E4.83126
G1 X131.366 Y129.661 E4.87215
G1 X131.815 Y129.334 E4.91676
G1 X132.381 Y129.045 E4.9678
G1 X132.993 Y128.853 E5.01931
G1 X133.636 Y128.762 E5.07146
G1 X133.915 Y128.752 E5.09388
G1 X133.915 Y128.752 F9000
G1 X133.998 Y129.333
G1 F900
G1 X134.04 Y129.329 E5.09727
G1 X134.546 Y129.373 E5.13806
G1 X135.086 Y129.511 E5.18282
G1 X135.613 Y129.706 E5.22795
G1 X136.051 Y129.955 E5.26841
G1 X136.592 Y130.404 E5.32487
G1 X136.908 Y130.784 E5.36456
G1 X137.23 Y131.253 E5.41025
G1 X137.449 Y131.751 E5.45394
G1 X137.585 Y132.298 E5.49921
G1 X137.665 Y132.852 E5.54416
G1 X137.673 Y132.999 E5.55598
G1 X137.628 Y133.537 E5.59934
G1 X137.486 Y134.093 E5.64542
G1 X137.293 Y134.616 E5.69019
G1 X137.036 Y135.063 E5.7316
G1 X136.601 Y135.587 E5.78629
G1 X136.044 Y136.049 E5.84441
G1 X135.532 Y136.332 E5.89139
G1 X135.05 Y136.518 E5.93288
G1 X134.548 Y136.616 E5.97396
G1 X134.001 Y136.673 E6.01813
G1 X133.457 Y136.627 E6.06197
G1 X132.914 Y136.489 E6.10696
G1 X132.387 Y136.294 E6.15209
G1 X131.949 Y136.045 E6.19255
G1 X131.408 Y135.596 E6.24901
G1 X130.959 Y135.056 E6.30541
G1 X130.665 Y134.526 E6.35408
G1 X130.485 Y134.059 E6.39427
G1 X130.384 Y133.547 E6.43618
G1 X130.327 Y133.001 E6.48027
G1 X130.372 Y132.463 E6.52363
G1 X130.514 Y131.907 E6.56971
G1 X130.707 Y131.384 E6.61448
G1 X130.964 Y130.937 E6.65589
G1 X131.399 Y130.413 E6.71058
G1 X131.801 Y130.079 E6.75255
G1 X132.254 Y129.769 E6.79663
G1 X132.826 Y129.525 E6.84657
G1 X133.334 Y129.39 E6.88878
G1 X133.908 Y129.34 E6.93505
G1 X133.908 Y129.34 F9000
G1 X135.273 Y129.789
;TYPE:Solid infill
;WIDTH:0.709239
G1 F900
G1 X136.363 Y130.879 E7.06591
G1 X136.65 Y131.224 E7.10401
G1 X136.808 Y131.481 E7.12962
G1 X136.955 Y131.792 E7.15882
G1 X137.051 Y132.067 E7.18355
G1 X137.148 Y132.561 E7.22629
G1 X134.436 Y129.849 E7.55188
G1 X134.048 Y129.81 E7.58498
G1 X133.544 Y129.853 E7.62792
G1 X137.154 Y133.463 E8.06132
G1 X137.126 Y133.634 E8.07603
G1 X136.961 Y134.167 E8.1234
G1 X132.827 Y130.033 E8.61971
G1 X132.482 Y130.192 E8.65196
G1 X132.238 Y130.341 E8.67623
G1 X136.658 Y134.762 E9.20693
G1 X136.253 Y135.253 E9.26096
G1 X131.747 Y130.747 E9.80193
G1 X131.341 Y131.238 E9.85602
G1 X135.762 Y135.659 E10.38679
G1 X135.518 Y135.808 E10.41106
G1 X135.173 Y135.967 E10.44331
G1 X131.039 Y131.833 E10.93962
G1 X130.874 Y132.366 E10.98699
G1 X130.846 Y132.537 E11.0017
G1 X134.455 Y136.145 E11.43492
G1 X134.292 Y136.177 E11.44902
G1 X134.001 Y136.192 E11.47376
G1 X133.572 Y136.159 E11.51029
G1 X130.852 Y133.439 E11.83684
G1 X130.949 Y133.933 E11.87958
G1 X131.045 Y134.208 E11.90431
G1 X131.191 Y134.517 E11.93332
G1 X131.35 Y134.776 E11.95912
G1 X131.638 Y135.122 E11.99734
G1 X132.727 Y136.211 E12.12808
G1 E11.62808 F240
G92 E0
G1 X132.727 Y136.211 F9000
EXCLUDE_OBJECT_END NAME='8mm_rod_end_caps_2'
EXCLUDE_OBJECT_START NAME='8mm_rod_end_caps_3'
G92 E0
G1 X116.012 Y128.145
G1 E.5 F240
;TYPE:External perimeter
;WIDTH:0.675
G1 F900
G1 X116.521 Y128.154 E.54088
G1 X117.027 Y128.236 E.58205
G1 X117.588 Y128.411 E.62924
G1 X118.137 Y128.627 E.67662
G1 X118.751 Y128.977 E.73338
G1 X119.443 Y129.551 E.80558
G1 X120.019 Y130.244 E.87795
G1 X120.288 Y130.683 E.9193
G1 X120.511 Y131.154 E.96115
G1 X120.676 Y131.626 E1.0013
G1 X120.793 Y132.221 E1.05
G1 X120.863 Y132.789 E1.09596
G1 X120.874 Y133 E1.11293
G1 X120.847 Y133.512 E1.15411
G1 X120.766 Y134.018 E1.19526
G1 X120.502 Y134.867 E1.26666
G1 X120.282 Y135.328 E1.30768
G1 X120.014 Y135.765 E1.34885
G1 X119.452 Y136.44 E1.41939
G1 X118.743 Y137.028 E1.49336
G1 X118.317 Y137.288 E1.53344
G1 X117.847 Y137.511 E1.57522
G1 X117.364 Y137.679 E1.61629
G1 X116.498 Y137.848 E1.68715
