; generated by PrusaSlicer 2.8.1+MacOS-arm64 on 2024-10-11 at 07:32:44 UTC


;
;

;
;
; 

; external perimeters extrusion width = 0.68mm
; perimeters extrusion width = 0.68mm
; infill extrusion width = 0.68mm
; solid infill extrusion width = 0.68mm
; top infill extrusion width = 0.60mm

; external perimeters extrusion width = 0.68mm
; perimeters extrusion width = 0.68mm
; infill extrusion width = 0.68mm
; solid infill extrusion width = 0.68mm
; top infill extrusion width = 0.60mm


EXCLUDE_OBJECT_DEFINE NAME='8mm_rod_end_caps_4' CENTER=52.992,197.008 POLYGON=[[53.142,191.010],[54.327,191.158],[55.460,191.539],[56.495,192.136],[57.391,192.927],[58.112,193.879],[58.630,194.956],[58.925,196.114],[58.988,197.219],[58.856,198.278],[58.453,199.493],[57.801,200.596],[57.061,201.417],[56.032,202.181],[55.069,202.637],[54.034,202.917],[52.843,203.006],[51.657,202.857],[50.524,202.477],[49.490,201.879],[48.594,201.089],[47.872,200.136],[47.363,199.084],[47.059,197.902],[46.996,196.796],[47.128,195.738],[47.531,194.522],[48.183,193.420],[48.923,192.598],[49.952,191.835],[50.916,191.379],[51.950,191.099]]
EXCLUDE_OBJECT_DEFINE NAME='8mm_rod_end_caps_2_(Instance_1)' CENTER=52.992,52.992 POLYGON=[[53.142,46.994],[54.327,47.143],[55.460,47.523],[56.495,48.121],[57.391,48.911],[58.112,49.864],[58.630,50.940],[58.925,52.098],[58.988,53.204],[58.856,54.262],[58.453,55.478],[57.801,56.580],[57.061,57.402],[56.032,58.165],[55.069,58.621],[54.034,58.901],[52.843,58.990],[51.657,58.842],[50.524,58.461],[49.490,57.864],[48.594,57.073],[47.872,56.121],[47.363,55.068],[47.059,53.886],[46.996,52.781],[47.128,51.722],[47.531,50.507],[48.183,49.404],[48.923,48.583],[49.952,47.819],[50.916,47.363],[51.950,47.083]]
EXCLUDE_OBJECT_DEFINE NAME='8mm_rod_end_caps_2_(Instance_2)' CENTER=125.000,52.992 POLYGON=[[125.150,46.994],[126.335,47.143],[127.468,47.523],[128.502,48.121],[129.398,48.911],[130.120,49.864],[130.638,50.940],[130.933,52.098],[130.996,53.204],[130.864,54.262],[130.461,55.478],[129.809,56.580],[129.069,57.402],[128.040,58.165],[127.076,58.622],[126.042,58.901],[124.850,58.990],[123.665,58.842],[122.532,58.461],[121.498,57.864],[120.602,57.073],[119.880,56.121],[119.371,55.068],[119.067,53.887],[119.004,52.781],[119.136,51.722],[119.539,50.507],[120.191,49.404],[120.931,48.583],[121.960,47.819],[122.924,47.363],[123.958,47.083]]
EXCLUDE_OBJECT_DEFINE NAME='8mm_rod_end_caps_2_(Instance_3)' CENTER=125.000,197.008 POLYGON=[[125.150,191.010],[126.335,191.158],[127.468,191.539],[128.503,192.136],[129.398,192.927],[130.120,193.879],[130.638,194.956],[130.933,196.114],[130.996,197.219],[130.864,198.278],[130.461,199.493],[129.809,200.596],[129.069,201.417],[128.040,202.181],[127.076,202.637],[126.042,202.917],[124.850,203.006],[123.665,202.857],[122.532,202.477],[121.498,201.879],[120.602,201.089],[119.880,200.136],[119.371,199.084],[119.067,197.902],[119.004,196.796],[119.136,195.738],[119.539,194.522],[120.191,193.420],[120.931,192.598],[121.960,191.835],[122.924,191.378],[123.958,191.099]]
EXCLUDE_OBJECT_DEFINE NAME='8mm_rod_end_caps_2_(Instance_4)' CENTER=197.008,52.992 POLYGON=[[197.157,46.994],[198.343,47.143],[199.476,47.523],[200.510,48.121],[201.406,48.911],[202.128,49.864],[202.646,50.940],[202.941,52.098],[203.004,53.204],[202.872,54.262],[202.469,55.478],[201.817,56.580],[201.077,57.402],[200.048,58.165],[199.084,58.621],[198.050,58.901],[196.858,58.990],[195.673,58.842],[194.540,58.461],[193.505,57.864],[192.610,57.073],[191.888,56.121],[191.378,55.068],[191.075,53.886],[191.012,52.781],[191.144,51.722],[191.547,50.507],[192.199,49.404],[192.939,48.583],[193.968,47.819],[194.932,47.363],[195.966,47.083]]
EXCLUDE_OBJECT_DEFINE NAME='8mm_rod_end_caps_2_(Instance_5)' CENTER=197.008,125.000 POLYGON=[[197.157,119.002],[198.343,119.150],[199.476,119.531],[200.510,120.128],[201.406,120.919],[202.128,121.871],[202.646,122.948],[202.941,124.106],[203.004,125.212],[202.872,126.270],[202.469,127.486],[201.817,128.588],[201.077,129.410],[200.048,130.173],[199.084,130.629],[198.050,130.909],[196.858,130.998],[195.673,130.850],[194.540,130.469],[193.505,129.872],[192.609,129.081],[191.888,128.129],[191.378,127.076],[191.075,125.894],[191.012,124.788],[191.144,123.730],[191.547,122.514],[192.199,121.412],[192.939,120.591],[193.968,119.827],[194.932,119.371],[195.966,119.091]]
EXCLUDE_OBJECT_DEFINE NAME='8mm_rod_end_caps_2_(Instance_6)' CENTER=125.000,125.000 POLYGON=[[125.150,119.002],[126.335,119.150],[127.468,119.531],[128.503,120.128],[129.398,120.919],[130.120,121.871],[130.638,122.948],[130.933,124.106],[130.996,125.212],[130.864,126.270],[130.461,127.486],[129.809,128.588],[129.069,129.410],[128.040,130.173],[127.076,130.629],[126.042,130.909],[124.850,130.998],[123.665,130.850],[122.532,130.469],[121.498,129.872],[120.602,129.081],[119.880,128.129],[119.371,127.076],[119.067,125.894],[119.004,124.788],[119.136,123.730],[119.539,122.514],[120.191,121.412],[120.931,120.591],[121.960,119.827],[122.924,119.371],[123.958,119.091]]
EXCLUDE_OBJECT_DEFINE NAME='8mm_rod_end_caps_2_(Instance_7)' CENTER=52.992,125.000 POLYGON=[[53.142,119.002],[54.327,119.150],[55.460,119.531],[56.495,120.128],[57.391,120.919],[58.112,121.871],[58.630,122.948],[58.925,124.106],[58.988,125.212],[58.856,126.270],[58.453,127.486],[57.801,128.588],[57.061,129.410],[56.032,130.173],[55.069,130.629],[54.034,130.909],[52.843,130.998],[51.657,130.850],[50.524,130.469],[49.490,129.872],[48.594,129.081],[47.872,128.129],[47.363,127.076],[47.059,125.894],[46.996,124.788],[47.128,123.730],[47.531,122.514],[48.183,121.412],[48.923,120.591],[49.952,119.827],[50.916,119.371],[51.950,119.091]]
EXCLUDE_OBJECT_DEFINE NAME='8mm_rod_end_caps_2_(Instance_8)' CENTER=197.008,197.008 POLYGON=[[197.157,191.010],[198.343,191.158],[199.476,191.539],[200.510,192.136],[201.406,192.927],[202.128,193.879],[202.646,194.956],[202.941,196.114],[203.004,197.219],[202.872,198.278],[202.469,199.493],[201.817,200.596],[201.077,201.417],[200.048,202.181],[199.084,202.637],[198.050,202.917],[196.858,203.006],[195.673,202.857],[194.540,202.477],[193.505,201.879],[192.610,201.089],[191.888,200.136],[191.378,199.084],[191.075,197.902],[191.012,196.796],[191.144,195.738],[191.547,194.522],[192.199,193.420],[192.939,192.598],[193.968,191.835],[194.932,191.378],[195.966,191.099]]

;TYPE:Custom
START_PRINT BED_TEMP=80 HOTEND_TEMP=225 FILAMENT_TYPE=FLEX EXTRUSION_MULTIPLIER=0.92 PERIMETER_SPEED=20
G21 ; set units to millimeters
G90 ; use absolute coordinates
M82 ; use absolute distances for extrusion
G92 E0
; Filament gcode
; ########################### NOTE OFFSET CHANGES ####################################
; Prevents PETG buildup on nozzle.
; SET_GCODE_OFFSET Z=0
; ####################################################################################
M107
;LAYER_CHANGE
;Z:0.35
;HEIGHT:0.35
G1 E-.5 F240
G1 Z.35 F9000
EXCLUDE_OBJECT_START NAME='8mm_rod_end_caps_2_(Instance_1)'
G92 E0
G1 X53.005 Y48.119
G1 E.5 F240
;TYPE:External perimeter
;WIDTH:0.675
G1 F600
G1 X53.014 Y48.118 E.50073
G1 X53.508 Y48.146 E.54047
G1 X54.019 Y48.228 E.58203
G1 X54.58 Y48.403 E.62922
G1 X55.13 Y48.619 E.67667
G1 X55.743 Y48.97 E.7334
G1 X56.436 Y49.544 E.80567
G1 X57.011 Y50.236 E.87792
G1 X57.279 Y50.673 E.91909
G1 X57.503 Y51.146 E.96112
G1 X57.668 Y51.618 E1.00127
G1 X57.786 Y52.217 E1.0503
G1 X57.856 Y52.782 E1.09602
G1 X57.866 Y52.992 E1.1129
G1 X57.839 Y53.504 E1.15408
G1 X57.758 Y54.01 E1.19523
G1 X57.495 Y54.859 E1.26661
G1 X57.274 Y55.32 E1.30767
G1 X57.006 Y55.757 E1.34884
G1 X56.444 Y56.432 E1.41938
G1 X55.735 Y57.02 E1.49335
G1 X55.31 Y57.28 E1.53336
G1 X54.839 Y57.503 E1.57521
G1 X54.356 Y57.671 E1.61628
G1 X53.49 Y57.84 E1.68714
G1 X52.992 Y57.866 E1.72719
G1 X52.477 Y57.839 E1.76861
G1 X51.966 Y57.757 E1.81017
G1 X51.405 Y57.582 E1.85736
G1 X50.855 Y57.365 E1.90484
G1 X50.241 Y57.015 E1.9616
G1 X49.549 Y56.441 E2.0338
G1 X48.973 Y55.749 E2.10611
G1 X48.704 Y55.309 E2.14753
G1 X48.481 Y54.838 E2.18938
G1 X48.316 Y54.366 E2.22953
G1 X48.144 Y53.49 E2.30122
G1 X48.118 Y52.992 E2.34127
G1 X48.145 Y52.481 E2.38236
G1 X48.226 Y51.974 E2.42359
G1 X48.49 Y51.126 E2.49492
G1 X48.71 Y50.664 E2.53601
G1 X48.979 Y50.228 E2.57715
G1 X49.54 Y49.552 E2.6477
G1 X50.249 Y48.964 E2.72167
G1 X50.675 Y48.704 E2.76175
G1 X51.145 Y48.481 E2.80353
G1 X51.633 Y48.312 E2.845
G1 X52.138 Y48.194 E2.88665
G1 X52.915 Y48.127 E2.94928
G1 X53.514 Y48.157 F9000
G1 X52.997 Y48.742
;TYPE:Perimeter
G1 F600
G1 X53.264 Y48.733 E2.97073
G1 X53.881 Y48.813 E3.0207
G1 X54.401 Y48.976 E3.06446
G1 X54.871 Y49.161 E3.10502
G1 X55.393 Y49.459 E3.15329
G1 X56.01 Y49.97 E3.21763
G1 X56.522 Y50.586 E3.28196
G1 X56.869 Y51.209 E3.33923
G1 X57.088 Y51.775 E3.38797
G1 X57.188 Y52.284 E3.42963
G1 X57.256 Y52.813 E3.47246
G1 X57.252 Y53.255 E3.50796
G1 X57.173 Y53.873 E3.55799
G1 X57.009 Y54.4 E3.60231
G1 X56.826 Y54.866 E3.64252
G1 X56.517 Y55.406 E3.69248
G1 X56.018 Y56.006 E3.75515
G1 X55.386 Y56.531 E3.82113
G1 X54.781 Y56.867 E3.87671
G1 X54.199 Y57.091 E3.92679
G1 X53.417 Y57.244 E3.99078
G1 X52.73 Y57.252 E4.04596
G1 X52.103 Y57.171 E4.09673
G1 X51.583 Y57.009 E4.14047
G1 X51.113 Y56.824 E4.18103
G1 X50.591 Y56.526 E4.2293
G1 X49.975 Y56.015 E4.29358
G1 X49.462 Y55.398 E4.35802
G1 X49.115 Y54.775 E4.41529
G1 X48.897 Y54.209 E4.464
G1 X48.741 Y53.416 E4.52891
G1 X48.733 Y52.73 E4.58401
G1 X48.812 Y52.111 E4.63412
G1 X48.975 Y51.585 E4.67834
G1 X49.158 Y51.118 E4.71862
G1 X49.467 Y50.578 E4.76858
G1 X49.966 Y49.979 E4.83119
G1 X50.358 Y49.653 E4.87213
G1 X50.808 Y49.326 E4.9168
G1 X51.373 Y49.037 E4.96777
G1 X51.985 Y48.846 E5.01926
G1 X52.628 Y48.754 E5.07142
G1 X52.907 Y48.745 E5.09384
G1 X52.907 Y48.745 F9000
G1 X52.99 Y49.325
G1 F600
G1 X53.033 Y49.321 E5.09731
G1 X53.538 Y49.366 E5.13803
G1 X54.079 Y49.503 E5.18285
G1 X54.606 Y49.698 E5.22798
G1 X55.043 Y49.948 E5.26841
G1 X55.584 Y50.396 E5.32482
G1 X55.9 Y50.776 E5.36451
G1 X56.222 Y51.245 E5.4102
G1 X56.441 Y51.743 E5.45389
G1 X56.578 Y52.291 E5.49925
G1 X56.657 Y52.844 E5.54411
G1 X56.665 Y52.991 E5.55593
G1 X56.62 Y53.53 E5.59937
G1 X56.479 Y54.085 E5.64536
G1 X56.285 Y54.608 E5.69016
G1 X56.029 Y55.056 E5.7316
G1 X55.593 Y55.58 E5.78634
G1 X55.036 Y56.041 E5.84441
G1 X54.524 Y56.325 E5.89143
G1 X54.042 Y56.51 E5.93289
G1 X53.54 Y56.608 E5.97397
G1 X52.993 Y56.665 E6.01814
G1 X52.449 Y56.619 E6.06198
G1 X51.906 Y56.481 E6.10697
G1 X51.379 Y56.286 E6.1521
G1 X50.941 Y56.037 E6.19256
G1 X50.4 Y55.588 E6.24902
G1 X49.951 Y55.048 E6.30542
G1 X49.657 Y54.518 E6.35409
G1 X49.477 Y54.051 E6.39428
G1 X49.376 Y53.54 E6.43611
G1 X49.319 Y52.993 E6.48028
G1 X49.364 Y52.455 E6.52364
G1 X49.506 Y51.899 E6.56972
G1 X49.7 Y51.377 E6.61444
G1 X49.956 Y50.929 E6.65588
G1 X50.392 Y50.405 E6.71062
G1 X50.793 Y50.072 E6.75248
G1 X51.246 Y49.761 E6.79661
G1 X51.819 Y49.517 E6.84663
G1 X52.326 Y49.382 E6.88877
G1 X52.9 Y49.333 E6.93503
G1 X52.9 Y49.333 F9000
G1 X54.265 Y49.782
;TYPE:Solid infill
;WIDTH:0.709239
G1 F600
G1 X55.355 Y50.871 E7.06583
G1 X55.642 Y51.216 E7.10393
G1 X55.8 Y51.474 E7.12961
G1 X55.947 Y51.784 E7.15874
G1 X56.043 Y52.059 E7.18347
G1 X56.14 Y52.553 E7.22621
G1 X53.428 Y49.841 E7.5518
G1 X53.04 Y49.802 E7.5849
G1 X52.536 Y49.846 E7.62785
G1 X56.146 Y53.456 E8.06125
G1 X56.119 Y53.626 E8.07586
G1 X55.953 Y54.159 E8.12325
G1 X51.819 Y50.025 E8.61956
G1 X51.474 Y50.184 E8.65181
G1 X51.23 Y50.333 E8.67608
G1 X55.651 Y54.754 E9.20685
G1 X55.245 Y55.245 E9.26094
G1 X50.74 Y50.74 E9.80179
G1 X50.334 Y51.231 E9.85588
G1 X54.754 Y55.651 E10.38652
G1 X54.51 Y55.8 E10.41079
G1 X54.165 Y55.959 E10.44304
G1 X50.031 Y51.825 E10.93935
G1 X49.866 Y52.358 E10.98672
G1 X49.838 Y52.529 E11.00143
G1 X53.447 Y56.137 E11.43465
G1 X53.285 Y56.169 E11.44867
G1 X52.993 Y56.184 E11.47349
G1 X52.564 Y56.152 E11.51001
G1 X49.844 Y53.432 E11.83656
G1 X49.941 Y53.925 E11.87921
G1 X50.037 Y54.2 E11.90394
G1 X50.184 Y54.509 E11.93299
G1 X50.342 Y54.768 E11.95875
G1 X50.63 Y55.114 E11.99697
G1 X51.719 Y56.203 E12.12771
;LAYER_CHANGE
;Z:0.65
;HEIGHT:0.3
G1 Z.65 F9000
G1 E11.62771 F240
G92 E0
G1 X51.719 Y56.203 Z.65 F9000
G1 X53.007 Y47.952
G1 E.5 F240
;TYPE:External perimeter
;WIDTH:0.675
G1 F600
G1 X53.533 Y47.962 E.53686
G1 X54.058 Y48.046 E.57411
G1 X54.93 Y48.318 E.63811
G1 X55.408 Y48.547 E.67525
G1 X55.87 Y48.831 E.71325
G1 X56.296 Y49.16 E.75096
G1 X56.784 Y49.668 E.80032
G1 X57.224 Y50.221 E.84984
G1 X57.561 Y50.861 E.90052
G1 X57.84 Y51.547 E.95241
G1 X57.968 Y52.191 E.99842
G1 X58.041 Y52.779 E1.03994
G1 X58.052 Y52.992 E1.05488
G1 X58.025 Y53.516 E1.09164
G1 X57.943 Y54.033 E1.12832
G1 X57.666 Y54.93 E1.1941
G1 X57.437 Y55.41 E1.23136
G1 X57.163 Y55.856 E1.26804
G1 X56.572 Y56.567 E1.33282
G1 X56.154 Y56.942 E1.37217
G1 X55.393 Y57.446 E1.43612
G1 X54.909 Y57.675 E1.47364
G1 X54.408 Y57.849 E1.5108
G1 X53.51 Y58.025 E1.57492
G1 X52.992 Y58.052 E1.61126
G1 X52.457 Y58.024 E1.6488
G1 X51.927 Y57.938 E1.68642
G1 X51.34 Y57.755 E1.7295
G1 X50.756 Y57.523 E1.77353
G1 X50.168 Y57.189 E1.82091
G1 X49.412 Y56.566 E1.88955
G1 X49.012 Y56.084 E1.93344
G1 X48.658 Y55.589 E1.97608
G1 X48.4 Y55.1 E2.01482
G1 X48.144 Y54.438 E2.06455
G1 X47.959 Y53.509 E2.13092
G1 X47.932 Y52.992 E2.16719
G1 X47.96 Y52.468 E2.20396
G1 X48.041 Y51.952 E2.24056
G1 X48.318 Y51.055 E2.30634
G1 X48.548 Y50.575 E2.34363
G1 X48.824 Y50.124 E2.38068
G1 X49.143 Y49.709 E2.41736
G1 X49.84 Y49.035 E2.4853
G1 X50.26 Y48.734 E2.52151
G1 X51.08 Y48.308 E2.58626
G1 X51.581 Y48.133 E2.62344
G1 X52.111 Y48.01 E2.66156
G1 X52.631 Y47.946 E2.69827
G1 X52.917 Y47.951 E2.71831
G1 X53.517 Y47.971 F9000
G1 X52.999 Y48.563
;TYPE:Perimeter
G1 F600
G1 X53.257 Y48.568 E2.73639
G1 X53.918 Y48.642 E2.78299
G1 X54.706 Y48.888 E2.84083
G1 X55.357 Y49.232 E2.89242
G1 X55.887 Y49.616 E2.93828
G1 X56.344 Y50.091 E2.98446
G1 X56.704 Y50.543 E3.02495
G1 X57.02 Y51.145 E3.07259
G1 X57.25 Y51.708 E3.1152
G1 X57.369 Y52.31 E3.1582
G1 X57.431 Y52.81 E3.1935
G1 X57.426 Y53.265 E3.22538
G1 X57.347 Y53.895 E3.26987
G1 X57.173 Y54.455 E3.31096
G1 X56.982 Y54.946 E3.34787
G1 X56.666 Y55.499 E3.3925
G1 X56.283 Y55.96 E3.43449
G1 X55.779 Y56.458 E3.48413
G1 X55.31 Y56.768 E3.52352
G1 X54.854 Y57.025 E3.5602
G1 X54.248 Y57.259 E3.60572
G1 X53.435 Y57.418 E3.66376
G1 X52.719 Y57.426 E3.71393
G1 X52.067 Y57.342 E3.75999
G1 X51.522 Y57.172 E3.79999
G1 X51.019 Y56.972 E3.83792
G1 X50.523 Y56.69 E3.8779
G1 X49.845 Y56.132 E3.93943
G1 X49.315 Y55.493 E3.9976
G1 X48.952 Y54.838 E4.05007
G1 X48.734 Y54.276 E4.09231
G1 X48.567 Y53.433 E4.15252
G1 X48.558 Y52.72 E4.20248
G1 X48.638 Y52.09 E4.24698
G1 X48.889 Y51.277 E4.3066
G1 X49.231 Y50.629 E4.35794
G1 X49.6 Y50.117 E4.40216
G1 X50.075 Y49.657 E4.44849
G1 X50.58 Y49.256 E4.49367
G1 X51.323 Y48.87 E4.55234
G1 X52.031 Y48.656 E4.60416
G1 X52.664 Y48.557 E4.64905
G1 X52.909 Y48.561 E4.66622
G1 X52.909 Y48.561 F9000
G1 X52.991 Y49.174
G1 F600
G1 X53.246 Y49.178 E4.68409
G1 X53.778 Y49.238 E4.7216
G1 X54.276 Y49.394 E4.75817
G1 X54.824 Y49.621 E4.79973
G1 X55.303 Y49.936 E4.8399
G1 X55.738 Y50.342 E4.88159
G1 X56.096 Y50.744 E4.91931
G1 X56.37 Y51.22 E4.95779
G1 X56.608 Y51.722 E4.99672
G1 X56.736 Y52.254 E5.03506
G1 X56.821 Y52.842 E5.07669
G1 X56.817 Y53.233 E5.10409
G1 X56.751 Y53.756 E5.14103
G1 X56.525 Y54.484 E5.19444
G1 X56.28 Y54.96 E5.23195
G1 X55.927 Y55.433 E5.2733
G1 X55.547 Y55.846 E5.31262
G1 X55.099 Y56.176 E5.35161
G1 X54.593 Y56.474 E5.39276
G1 X54.088 Y56.668 E5.43066
G1 X53.36 Y56.81 E5.48263
G1 X52.751 Y56.816 E5.5253
G1 X52.207 Y56.746 E5.56373
G1 X51.502 Y56.526 E5.61548
G1 X50.877 Y56.191 E5.66517
G1 X50.278 Y55.697 E5.71957
G1 X49.813 Y55.137 E5.77057
G1 X49.53 Y54.634 E5.81101
G1 X49.325 Y54.115 E5.85011
G1 X49.174 Y53.357 E5.90426
G1 X49.168 Y52.752 E5.94665
G1 X49.234 Y52.228 E5.98366
G1 X49.459 Y51.5 E6.03705
G1 X49.751 Y50.948 E6.08081
G1 X50.057 Y50.524 E6.11745
G1 X50.5 Y50.096 E6.16061
G1 X50.9 Y49.778 E6.19641
G1 X51.565 Y49.432 E6.24893
G1 X52.169 Y49.25 E6.29313
G1 X52.696 Y49.168 E6.3305
G1 X52.901 Y49.172 E6.34487
G1 E5.84487 F240
G92 E0
G1 X52.901 Y49.172 F9000
G1 X51.06 Y50.039
G1 E.5 F240
