; generated by PrusaSlicer 2.8.1+MacOS-arm64 on 2024-10-16 at 07:41:44 UTC


;
;

;
;
; 

; external perimeters extrusion width = 0.68mm
; perimeters extrusion width = 0.68mm
; infill extrusion width = 0.68mm
; solid infill extrusion width = 0.68mm
; top infill extrusion width = 0.60mm

; external perimeters extrusion width = 0.68mm
; perimeters extrusion width = 0.68mm
; infill extrusion width = 0.68mm
; solid infill extrusion width = 0.68mm
; top infill extrusion width = 0.60mm

; external perimeters extrusion width = 0.68mm
; perimeters extrusion width = 0.68mm
; infill extrusion width = 0.68mm
; solid infill extrusion width = 0.68mm
; top infill extrusion width = 0.60mm

; external perimeters extrusion width = 0.68mm
; perimeters extrusion width = 0.68mm
; infill extrusion width = 0.68mm
; solid infill extrusion width = 0.68mm
; top infill extrusion width = 0.60mm


EXCLUDE_OBJECT_DEFINE NAME='8mm_rod_end_caps_1' CENTER=125.000,88.996 POLYGON=[[125.150,82.998],[126.335,83.147],[127.468,83.527],[128.503,84.124],[129.398,84.915],[130.120,85.868],[130.630,86.920],[130.933,88.102],[130.996,89.208],[130.864,90.266],[130.461,91.482],[129.809,92.584],[129.069,93.406],[128.040,94.169],[127.076,94.625],[126.042,94.905],[124.851,94.994],[123.665,94.846],[122.532,94.465],[121.498,93.868],[120.602,93.077],[119.880,92.125],[119.362,91.048],[119.067,89.890],[119.004,88.785],[119.186,87.516],[119.539,86.510],[120.191,85.408],[120.931,84.587],[121.960,83.823],[122.924,83.367],[123.958,83.087]]
EXCLUDE_OBJECT_DEFINE NAME='8mm_rod_end_caps_1_(1)' CENTER=125.000,161.004 POLYGON=[[125.150,155.006],[126.335,155.154],[127.468,155.535],[128.503,156.132],[129.398,156.923],[130.120,157.875],[130.638,158.952],[130.933,160.110],[130.996,161.215],[130.864,162.274],[130.461,163.490],[129.809,164.592],[129.069,165.413],[128.040,166.177],[127.076,166.633],[126.042,166.913],[124.850,167.002],[123.665,166.854],[122.532,166.473],[121.498,165.876],[120.602,165.085],[119.880,164.133],[119.371,163.080],[119.067,161.898],[119.004,160.792],[119.136,159.734],[119.539,158.518],[120.191,157.416],[120.931,156.594],[121.960,155.831],[122.924,155.375],[123.958,155.095]]
EXCLUDE_OBJECT_DEFINE NAME='8mm_rod_end_caps_1_(1)_(2)_(Instance_1)' CENTER=197.008,161.004 POLYGON=[[197.157,155.006],[198.343,155.154],[199.476,155.535],[200.510,156.132],[201.406,156.923],[202.128,157.875],[202.637,158.928],[202.941,160.110],[203.004,161.215],[202.872,162.274],[202.469,163.489],[201.817,164.592],[201.077,165.413],[200.048,166.177],[199.084,166.633],[198.050,166.913],[196.858,167.002],[195.673,166.853],[194.540,166.473],[193.505,165.875],[192.610,165.085],[191.888,164.132],[191.370,163.056],[191.075,161.898],[191.012,160.792],[191.144,159.734],[191.547,158.518],[192.199,157.416],[192.939,156.594],[193.968,155.831],[194.932,155.375],[195.966,155.095]]
EXCLUDE_OBJECT_DEFINE NAME='8mm_rod_end_caps_1_(1)_(2)_(Instance_2)' CENTER=197.008,88.996 POLYGON=[[197.157,82.998],[198.343,83.147],[199.476,83.527],[200.510,84.124],[201.406,84.915],[202.128,85.868],[202.637,86.920],[202.941,88.102],[203.004,89.208],[202.872,90.266],[202.469,91.482],[201.817,92.584],[201.077,93.406],[200.048,94.169],[199.084,94.625],[198.050,94.905],[196.858,94.994],[195.673,94.846],[194.540,94.465],[193.505,93.868],[192.610,93.077],[191.888,92.125],[191.370,91.048],[191.075,89.890],[191.012,88.785],[191.144,87.726],[191.547,86.510],[192.199,85.408],[192.939,84.587],[193.968,83.823],[194.932,83.367],[195.966,83.087]]
EXCLUDE_OBJECT_DEFINE NAME='8mm_rod_end_caps_1_(2)_(Instance_1)' CENTER=52.992,88.996 POLYGON=[[53.142,82.998],[54.327,83.147],[55.460,83.527],[56.495,84.125],[57.391,84.915],[58.112,85.868],[58.630,86.944],[58.925,88.102],[58.989,89.208],[58.856,90.266],[58.453,91.482],[57.801,92.584],[57.061,93.406],[56.032,94.169],[55.069,94.625],[54.034,94.905],[52.843,94.994],[51.657,94.846],[50.525,94.465],[49.490,93.868],[48.594,93.077],[47.873,92.125],[47.363,91.072],[47.059,89.890],[46.996,88.785],[47.128,87.726],[47.531,86.511],[48.183,85.408],[48.923,84.587],[49.952,83.823],[50.916,83.367],[51.950,83.087]]
EXCLUDE_OBJECT_DEFINE NAME='8mm_rod_end_caps_1_(2)_(Instance_2)' CENTER=52.992,161.004 POLYGON=[[53.142,155.006],[54.327,155.154],[55.460,155.535],[56.495,156.132],[57.391,156.923],[58.112,157.875],[58.630,158.952],[58.925,160.110],[58.988,161.215],[58.856,162.274],[58.453,163.490],[57.801,164.592],[57.061,165.413],[56.032,166.177],[55.069,166.633],[54.034,166.913],[52.843,167.002],[51.657,166.854],[50.524,166.473],[49.490,165.876],[48.594,165.085],[47.872,164.133],[47.363,163.080],[47.059,161.898],[46.996,160.792],[47.128,159.734],[47.531,158.518],[48.183,157.416],[48.923,156.594],[49.952,155.831],[50.916,155.375],[51.950,155.095]]

;TYPE:Custom
START_PRINT BED_TEMP=80 HOTEND_TEMP=225 FILAMENT_TYPE=FLEX EXTRUSION_MULTIPLIER=0.92 PERIMETER_SPEED=20
G21 ; set units to millimeters
G90 ; use absolute coordinates
M82 ; use absolute distances for extrusion
G92 E0
; Filament gcode
; ########################### NOTE OFFSET CHANGES ####################################
; Prevents PETG buildup on nozzle.
; SET_GCODE_OFFSET Z=0
; ####################################################################################
M107
;LAYER_CHANGE
;Z:0.35
;HEIGHT:0.35
G1 E-.6 F300
G1 Z.35 F9000
EXCLUDE_OBJECT_START NAME='8mm_rod_end_caps_1'
G92 E0
G1 X125.013 Y84.141
G1 E.72 F300
;TYPE:External perimeter
;WIDTH:0.675
G1 F600
G1 X125.521 Y84.15 E.7608
G1 X126.027 Y84.232 E.80197
G1 X126.866 Y84.494 E.87256
G1 X127.328 Y84.714 E.91365
G1 X127.773 Y84.988 E.95562
G1 X128.182 Y85.305 E.99718
G1 X128.639 Y85.779 E1.05006
G1 X129.097 Y86.357 E1.10928
G1 X129.398 Y86.934 E1.16154
G1 X129.676 Y87.622 E1.22113
G1 X129.793 Y88.218 E1.26991
G1 X129.863 Y88.785 E1.31579
G1 X129.874 Y88.996 E1.33276
G1 X129.847 Y89.508 E1.37394
G1 X129.766 Y90.014 E1.41509
G1 X129.502 Y90.863 E1.48649
G1 X129.282 Y91.324 E1.52751
G1 X129.014 Y91.761 E1.56868
G1 X128.452 Y92.436 E1.63922
G1 X127.743 Y93.024 E1.71319
G1 X127.317 Y93.284 E1.75327
G1 X126.847 Y93.507 E1.79505
G1 X126.364 Y93.675 E1.83612
G1 X125.498 Y93.844 E1.90698
G1 X125 Y93.87 E1.94703
G1 X124.485 Y93.843 E1.98845
G1 X123.973 Y93.76 E2.0301
G1 X123.412 Y93.585 E2.07729
G1 X122.863 Y93.369 E2.12467
G1 X122.249 Y93.019 E2.18143
G1 X121.557 Y92.445 E2.25363
G1 X120.981 Y91.753 E2.32594
G1 X120.713 Y91.315 E2.36718
G1 X120.489 Y90.843 E2.40914
G1 X120.324 Y90.371 E2.44929
G1 X120.152 Y89.492 E2.52122
G1 X120.126 Y88.996 E2.56111
G1 X120.153 Y88.484 E2.60229
G1 X120.234 Y87.978 E2.64344
G1 X120.498 Y87.13 E2.71477
G1 X120.718 Y86.668 E2.75586
G1 X120.986 Y86.231 E2.79703
G1 X121.548 Y85.556 E2.86757
G1 X122.257 Y84.968 E2.94154
G1 X122.683 Y84.708 E2.98162
G1 X123.153 Y84.485 E3.0234
G1 X123.641 Y84.315 E3.0649
G1 X124.151 Y84.197 E3.10694
G1 X124.661 Y84.134 E3.14821
G1 X124.923 Y84.139 E3.16925
G1 X125.522 Y84.161 F9000
G1 X125.005 Y84.741
;TYPE:Perimeter
G1 F600
G1 X125.254 Y84.745 E3.18925
G1 X125.889 Y84.817 E3.24057
G1 X126.647 Y85.054 E3.30435
G1 X127.272 Y85.384 E3.36111
G1 X127.781 Y85.752 E3.41155
G1 X128.207 Y86.195 E3.46091
G1 X128.585 Y86.672 E3.50979
G1 X128.866 Y87.211 E3.55861
G1 X129.096 Y87.78 E3.6079
G1 X129.195 Y88.287 E3.64939
G1 X129.264 Y88.816 E3.69223
G1 X129.26 Y89.258 E3.72773
G1 X129.181 Y89.877 E3.77784
G1 X129.017 Y90.403 E3.82209
G1 X128.834 Y90.87 E3.86237
G1 X128.525 Y91.41 E3.91233
G1 X128.026 Y92.01 E3.975
G1 X127.394 Y92.535 E4.04098
G1 X126.789 Y92.871 E4.09656
G1 X126.207 Y93.095 E4.14664
G1 X125.425 Y93.247 E4.21062
G1 X124.738 Y93.256 E4.2658
G1 X124.111 Y93.175 E4.31657
G1 X123.591 Y93.013 E4.36031
G1 X123.121 Y92.828 E4.40087
G1 X122.599 Y92.53 E4.44914
G1 X121.982 Y92.018 E4.51353
G1 X121.47 Y91.403 E4.5778
G1 X121.123 Y90.779 E4.63514
G1 X120.905 Y90.213 E4.68385
G1 X120.749 Y89.418 E4.74891
G1 X120.741 Y88.734 E4.80384
G1 X120.82 Y88.115 E4.85395
G1 X120.983 Y87.589 E4.89817
G1 X121.166 Y87.122 E4.93845
G1 X121.475 Y86.582 E4.98841
G1 X121.974 Y85.982 E5.05108
G1 X122.418 Y85.614 E5.09739
G1 X122.968 Y85.237 E5.15094
G1 X123.58 Y84.972 E5.2045
G1 X124.072 Y84.831 E5.2456
G1 X124.692 Y84.735 E5.29598
G1 X124.915 Y84.739 E5.31389
G1 X124.915 Y84.739 F9000
G1 X124.998 Y85.34
G1 F600
G1 X125.243 Y85.345 E5.33357
G1 X125.751 Y85.403 E5.37463
G1 X126.23 Y85.552 E5.41492
G1 X126.753 Y85.769 E5.46039
G1 X127.211 Y86.07 E5.5044
G1 X127.633 Y86.464 E5.55077
G1 X127.98 Y86.858 E5.59293
G1 X128.241 Y87.31 E5.63485
G1 X128.463 Y87.786 E5.67703
G1 X128.585 Y88.294 E5.71899
G1 X128.665 Y88.847 E5.76386
G1 X128.673 Y88.995 E5.77576
G1 X128.628 Y89.533 E5.81912
G1 X128.487 Y90.089 E5.86518
G1 X128.293 Y90.612 E5.90998
G1 X128.037 Y91.059 E5.95135
G1 X127.601 Y91.584 E6.00616
G1 X127.044 Y92.045 E6.06423
G1 X126.532 Y92.329 E6.11125
G1 X126.05 Y92.514 E6.15271
G1 X125.548 Y92.612 E6.19379
G1 X125.001 Y92.669 E6.23796
G1 X124.457 Y92.623 E6.2818
G1 X123.914 Y92.485 E6.32679
G1 X123.387 Y92.29 E6.37192
G1 X122.949 Y92.041 E6.41238
G1 X122.408 Y91.592 E6.46884
G1 X121.959 Y91.052 E6.52524
G1 X121.665 Y90.522 E6.57391
G1 X121.485 Y90.055 E6.6141
G1 X121.384 Y89.54 E6.65625
G1 X121.327 Y88.997 E6.7001
G1 X121.372 Y88.459 E6.74346
G1 X121.514 Y87.903 E6.78954
G1 X121.707 Y87.381 E6.83423
G1 X121.964 Y86.933 E6.87571
G1 X122.4 Y86.409 E6.93045
G1 X123.128 Y85.842 E7.00455
G1 X123.609 Y85.597 E7.0479
G1 X124.208 Y85.415 E7.09818
G1 X124.723 Y85.335 E7.14003
G1 X124.908 Y85.339 E7.15489
G1 X124.908 Y85.339 F9000
G1 X126.256 Y85.78
;TYPE:Solid infill
;WIDTH:0.708453
G1 F600
G1 X127.53 Y87.053 E7.30759
G1 X127.662 Y87.239 E7.32693
G1 X127.967 Y87.824 E7.38287
G1 X128.051 Y88.063 E7.40435
G1 X128.151 Y88.57 E7.44817
G1 X125.415 Y85.835 E7.77617
G1 X124.748 Y85.816 E7.83275
G1 X124.528 Y85.843 E7.85154
G1 X128.153 Y89.468 E8.2862
G1 X128.127 Y89.63 E8.30011
G1 X127.959 Y90.17 E8.34806
G1 X123.821 Y86.032 E8.84423
G1 X123.482 Y86.188 E8.87587
G1 X123.234 Y86.34 E8.90053
G1 X127.656 Y90.762 E9.43076
G1 X127.249 Y91.251 E9.4847
G1 X122.744 Y86.746 E10.02488
G1 X122.34 Y87.238 E10.07886
G1 X126.759 Y91.657 E10.60873
G1 X126.518 Y91.804 E10.63266
G1 X126.17 Y91.964 E10.66514
G1 X122.038 Y87.832 E11.16059
G1 X121.874 Y88.362 E11.20763
G1 X121.846 Y88.535 E11.22249
G1 X125.453 Y92.142 E11.65499
G1 X125.292 Y92.173 E11.66889
G1 X125.001 Y92.188 E11.6936
G1 X124.57 Y92.155 E11.73025
G1 X121.853 Y89.438 E12.05604
G1 X121.949 Y89.929 E12.09846
G1 X122.045 Y90.204 E12.12316
G1 X122.193 Y90.515 E12.15236
G1 X122.35 Y90.772 E12.17789
G1 X122.641 Y91.121 E12.21642
G1 X123.726 Y92.206 E12.34652
;LAYER_CHANGE
;Z:0.65
;HEIGHT:0.3
G1 Z.65 F9000
G1 E11.74652 F300
G92 E0
G1 X123.726 Y92.206 Z.65 F9000
G1 X125.015 Y83.956
G1 E.72 F300
;TYPE:External perimeter
;WIDTH:0.675
G1 F600
G1 X125.541 Y83.966 E.75686
G1 X126.066 Y84.05 E.79411
G1 X126.937 Y84.322 E.85804
G1 X127.416 Y84.551 E.89524
G1 X127.878 Y84.835 E.93324
G1 X128.304 Y85.164 E.97095
G1 X128.792 Y85.672 E1.02031
G1 X129.232 Y86.225 E1.06983
G1 X129.569 Y86.864 E1.12045
G1 X129.849 Y87.551 E1.17243
G1 X129.975 Y88.185 E1.21772
G1 X130.049 Y88.779 E1.25966
G1 X130.06 Y88.996 E1.27488
G1 X130.033 Y89.52 E1.31164
G1 X129.951 Y90.037 E1.34832
G1 X129.674 Y90.934 E1.4141
G1 X129.445 Y91.414 E1.45136
G1 X129.171 Y91.859 E1.48798
G1 X128.58 Y92.571 E1.55281
G1 X128.161 Y92.946 E1.59221
G1 X127.401 Y93.45 E1.65611
G1 X126.917 Y93.679 E1.69363
G1 X126.416 Y93.853 E1.73079
G1 X125.517 Y94.029 E1.79498
G1 X125 Y94.056 E1.83125
G1 X124.465 Y94.027 E1.86879
G1 X123.934 Y93.942 E1.90647
G1 X123.348 Y93.759 E1.94948
G1 X122.763 Y93.527 E1.99357
G1 X122.176 Y93.193 E2.04089
G1 X121.42 Y92.57 E2.10953
G1 X121.017 Y92.085 E2.15371
G1 X120.668 Y91.597 E2.19575
G1 X120.408 Y91.104 E2.2348
G1 X120.152 Y90.442 E2.28453
G1 X119.966 Y89.506 E2.3514
G1 X119.94 Y88.996 E2.38718
G1 X119.968 Y88.472 E2.42395
G1 X120.049 Y87.955 E2.46062
G1 X120.326 Y87.058 E2.5264
G1 X120.555 Y86.578 E2.56366
G1 X120.832 Y86.128 E2.60068
G1 X121.151 Y85.713 E2.63736
G1 X121.848 Y85.039 E2.7053
G1 X122.268 Y84.738 E2.74151
G1 X123.088 Y84.312 E2.80626
G1 X123.589 Y84.137 E2.84344
G1 X124.119 Y84.014 E2.88156
G1 X124.639 Y83.95 E2.91827
G1 X124.925 Y83.955 E2.93831
G1 X125.525 Y83.975 F9000
G1 X125.007 Y84.567
;TYPE:Perimeter
G1 F600
G1 X125.264 Y84.571 E2.95632
G1 X125.926 Y84.646 E3.003
G1 X126.714 Y84.892 E3.06084
G1 X127.365 Y85.236 E3.11243
G1 X127.895 Y85.62 E3.15829
G1 X128.352 Y86.095 E3.20447
G1 X128.712 Y86.547 E3.24496
G1 X129.028 Y87.149 E3.2926
G1 X129.258 Y87.712 E3.33521
G1 X129.376 Y88.304 E3.37751
G1 X129.439 Y88.811 E3.41331
G1 X129.434 Y89.269 E3.4454
G1 X129.355 Y89.898 E3.48982
G1 X129.181 Y90.459 E3.53097
G1 X128.99 Y90.95 E3.56788
G1 X128.674 Y91.503 E3.61251
G1 X128.291 Y91.964 E3.6545
G1 X127.787 Y92.462 E3.70414
G1 X127.318 Y92.772 E3.74353
G1 X126.862 Y93.029 E3.78021
G1 X126.256 Y93.262 E3.8257
G1 X125.443 Y93.421 E3.88374
G1 X124.727 Y93.43 E3.93391
G1 X124.075 Y93.346 E3.97997
G1 X123.529 Y93.176 E4.02004
G1 X123.026 Y92.976 E4.05797
G1 X122.53 Y92.694 E4.09795
G1 X121.853 Y92.136 E4.15942
G1 X121.323 Y91.497 E4.21759
G1 X120.96 Y90.842 E4.27006
G1 X120.742 Y90.281 E4.31223
G1 X120.574 Y89.43 E4.37301
G1 X120.566 Y88.724 E4.42248
G1 X120.645 Y88.094 E4.46697
G1 X120.897 Y87.281 E4.52661
G1 X121.239 Y86.632 E4.57801
G1 X121.608 Y86.121 E4.62217
G1 X122.083 Y85.661 E4.6685
G1 X122.588 Y85.26 E4.71368
G1 X123.331 Y84.874 E4.77235
G1 X124.039 Y84.659 E4.82419
G1 X124.671 Y84.561 E4.869
G1 X124.917 Y84.565 E4.88624
G1 X124.917 Y84.565 F9000
G1 X125 Y85.177
G1 F600
G1 X125.253 Y85.182 E4.90397
G1 X125.785 Y85.242 E4.94148
G1 X126.284 Y85.398 E4.97811
G1 X126.832 Y85.625 E5.01967
G1 X127.311 Y85.94 E5.05984
G1 X127.746 Y86.346 E5.10153
G1 X128.104 Y86.748 E5.13925
G1 X128.379 Y87.226 E5.17789
G1 X128.616 Y87.727 E5.21672
G1 X128.744 Y88.256 E5.25486
G1 X128.829 Y88.843 E5.29642
G1 X128.824 Y89.237 E5.32403
G1 X128.758 Y89.76 E5.36097
G1 X128.533 Y90.488 E5.41436
G1 X128.288 Y90.964 E5.45187
G1 X127.935 Y91.437 E5.49322
G1 X127.555 Y91.85 E5.53254
G1 X127.106 Y92.18 E5.57158
G1 X126.6 Y92.477 E5.61269
G1 X126.096 Y92.672 E5.65055
G1 X125.368 Y92.814 E5.70252
G1 X124.759 Y92.82 E5.74519
G1 X124.215 Y92.75 E5.78362
G1 X123.51 Y92.53 E5.83537
G1 X122.885 Y92.195 E5.88506
G1 X122.286 Y91.701 E5.93946
G1 X121.821 Y91.141 E5.99046
G1 X121.54 Y90.64 E6.03071
G1 X121.333 Y90.119 E6.06999
G1 X121.182 Y89.355 E6.12456
G1 X121.176 Y88.756 E6.16653
G1 X121.242 Y88.232 E6.20354
G1 X121.467 Y87.504 E6.25693
G1 X121.759 Y86.952 E6.30069
G1 X122.064 Y86.528 E6.33729
G1 X122.508 Y86.1 E6.3805
G1 X122.908 Y85.782 E6.4163
G1 X123.573 Y85.436 E6.46882
G1 X124.177 Y85.254 E6.51302
G1 X124.704 Y85.172 E6.55039
G1 X124.91 Y85.176 E6.56483
G1 E5.96483 F300
G92 E0
G1 X124.91 Y85.176 F9000
G1 X123.068 Y86.043
G1 E.72 F300
;TYPE:Solid infill
;WIDTH:0.574381
G1 F600
G1 X122.844 Y86.233 E.73719
G1 X122.101 Y86.997 E.79956
G1 X122.101 Y86.997 F9000
G1 X121.454 Y88.626
G1 F600
G1 X121.567 Y88.085 E.8319
;WIDTH:0.60792
G1 X121.669 Y88.004 E.84002
;WIDTH:0.64146
G1 X121.771 Y87.923 E.84864
;WIDTH:0.675
G1 X121.874 Y87.842 E.85782
G1 X123.863 Y85.852 E1.05496
G1 X123.944 Y85.752 E1.06398
;WIDTH:0.64146
G1 X124.025 Y85.651 E1.07255
;WIDTH:0.60792
G1 X124.106 Y85.551 E1.08058
;WIDTH:0.574381
G1 X124.72 Y85.438 E1.11712
;WIDTH:0.675
G1 X124.915 Y85.664 E1.13803
G1 X121.656 Y88.923 E1.46096
G1 X121.747 Y89.696 E1.5155
G1 X125.712 Y85.731 E1.90839
G1 X126.364 Y85.943 E1.95643
G1 X121.947 Y90.359 E2.39406
G1 X122.262 Y90.908 E2.43841
G1 X126.917 Y86.253 E2.89967
G1 X127.372 Y86.662 E2.94254
G1 X122.658 Y91.375 E3.4096
G1 X123.132 Y91.765 E3.45261
G1 X127.773 Y87.124 E3.91249
G1 X128.071 Y87.69 E3.95731
G1 X123.687 Y92.073 E4.39167
G1 X124.347 Y92.277 E4.44007
G1 X128.266 Y88.358 E4.8284
G1 X128.34 Y89.148 E4.884
G1 X125.151 Y92.336 E5.19995
G1 E4.59995 F300
G92 E0
G1 X125.151 Y92.336 F9000
G1 X127.037 Y91.49
G1 E.72 F300
;WIDTH:0.940695
G1 F600
G1 X127.468 Y91.049 E.78201
;WIDTH:0.910682
G1 X127.687 Y90.809 E.81356
;LAYER_CHANGE
;Z:0.95
;HEIGHT:0.3
G1 Z.95 F9000
G1 E.21356 F300
