; generated by PrusaSlicer 2.8.0+MacOS-arm64 on 2024-09-05 at 15:20:41 UTC


;
;

;
;
; 

; external perimeters extrusion width = 0.68mm
; perimeters extrusion width = 0.68mm
; infill extrusion width = 0.68mm
; solid infill extrusion width = 0.68mm
; top infill extrusion width = 0.60mm


EXCLUDE_OBJECT_DEFINE NAME='runout_sensor_bracket' CENTER=123.171,115.304 POLYGON=[[136.545,98.945],[141.232,96.283],[141.810,96.178],[142.298,96.222],[142.847,96.429],[143.242,96.718],[143.607,97.177],[152.807,113.112],[153.131,113.931],[153.203,114.808],[153.065,115.530],[152.757,116.196],[152.296,116.768],[151.835,117.134],[127.503,131.186],[136.953,147.554],[132.622,150.054],[113.873,117.578],[93.001,129.628],[85.601,116.811],[110.803,102.261],[112.503,105.205],[133.245,93.230]]

;TYPE:Custom
START_PRINT BED_TEMP=65 HOTEND_TEMP=220 FILAMENT_TYPE=PLA EXTRUSION_MULTIPLIER=0.95 PERIMETER_SPEED=70
G21 ; set units to millimeters
G90 ; use absolute coordinates
M82 ; use absolute distances for extrusion
G92 E0
; Filament gcode
M107
;LAYER_CHANGE
;Z:0.35
;HEIGHT:0.35
G1 E-.5 F240
G1 Z.35 F9000
EXCLUDE_OBJECT_START NAME='runout_sensor_bracket'
G92 E0
G1 X131.214 Y123.743
G1 E.5 F240
G92 E0
;TYPE:External perimeter
;WIDTH:0.675
G1 F1800
G1 X131.283 Y123.956 E.01857
G1 X131.327 Y124.359 E.05219
G1 X131.291 Y124.763 E.08583
G1 X131.175 Y125.152 E.11949
G1 X130.985 Y125.51 E.1531
G1 X130.728 Y125.823 E.18668
G1 X130.413 Y126.079 E.22034
G1 X130.054 Y126.268 E.25398
G1 X129.665 Y126.382 E.2876
G1 X129.261 Y126.416 E.32122
G1 X128.858 Y126.37 E.35486
G1 X128.479 Y126.249 E.38785
G1 X128.203 Y126.102 E.41378
G1 X127.884 Y125.853 E.44734
G1 X127.62 Y125.545 E.48098
G1 X127.422 Y125.19 E.51469
G1 X127.299 Y124.804 E.54829
G1 X127.254 Y124.401 E.58192
G1 X127.291 Y123.997 E.61556
G1 X127.384 Y123.664 E.64423
G1 X127.596 Y123.25 E.6828
G1 X127.854 Y122.937 E.71644
G1 X128.168 Y122.681 E.75004
G1 X128.527 Y122.492 E.78368
G1 X128.916 Y122.378 E.8173
G1 X129.308 Y122.343 E.84994
G1 X129.624 Y122.371 E.87625
G1 X130.015 Y122.477 E.90984
G1 X130.378 Y122.658 E.94348
G1 X130.698 Y122.908 E.97715
G1 X130.961 Y123.216 E1.01074
G1 X131.159 Y123.57 E1.04438
G1 X131.187 Y123.657 E1.05196
G1 X131.306 Y124.245 F9000
G1 X131.784 Y123.567
;TYPE:Perimeter
G1 F1800
G1 X131.878 Y123.882 E1.07922
G1 X131.925 Y124.404 E1.12268
G1 X131.868 Y124.926 E1.16623
G1 X131.709 Y125.426 E1.20974
G1 X131.454 Y125.884 E1.25321
G1 X131.113 Y126.283 E1.29674
G1 X130.72 Y126.595 E1.33835
G1 X130.231 Y126.841 E1.38374
G1 X129.725 Y126.979 E1.42723
G1 X129.201 Y127.013 E1.47078
G1 X128.681 Y126.943 E1.51429
G1 X128.206 Y126.782 E1.55588
G1 X127.841 Y126.58 E1.59047
G1 X127.434 Y126.249 E1.63397
G1 X127.101 Y125.845 E1.67739
G1 X126.854 Y125.382 E1.72091
G1 X126.704 Y124.879 E1.76444
G1 X126.656 Y124.356 E1.80799
G1 X126.713 Y123.835 E1.85145
G1 X126.807 Y123.502 E1.88014
G1 X127.03 Y123.027 E1.92366
G1 X127.343 Y122.606 E1.96716
G1 X127.733 Y122.255 E2.01067
G1 X128.185 Y121.989 E2.05416
G1 X128.681 Y121.817 E2.09769
G1 X129.195 Y121.747 E2.14071
G1 X129.729 Y121.78 E2.18508
G1 X130.217 Y121.911 E2.22698
G1 X130.687 Y122.143 E2.27045
G1 X131.147 Y122.511 E2.3193
G1 X131.481 Y122.916 E2.36283
G1 X131.728 Y123.379 E2.40635
G1 X131.758 Y123.481 E2.41517
G1 E1.91517 F240
G92 E0
G1 X131.758 Y123.481 F9000
G1 X145.898 Y112.61
G1 E.5 F240
;TYPE:External perimeter
G1 F1800
G1 X146.04 Y112.437 E.51856
G1 X146.355 Y112.181 E.55222
G1 X146.714 Y111.992 E.58586
G1 X147.103 Y111.878 E.61948
G1 X147.494 Y111.843 E.65203
G1 X147.811 Y111.871 E.67842
G1 X148.202 Y111.977 E.71201
G1 X148.564 Y112.158 E.74557
G1 X148.884 Y112.408 E.77924
G1 X149.148 Y112.716 E.81288
G1 X149.346 Y113.07 E.84652
G1 X149.469 Y113.456 E.88012
G1 X149.511 Y113.897 E.91686
G1 X149.468 Y114.297 E.95022
G1 X149.308 Y114.757 E.99061
G1 X149.172 Y115.01 E1.01443
G1 X148.914 Y115.323 E1.04807
G1 X148.667 Y115.531 E1.07485
G1 X148.241 Y115.768 E1.11528
G1 X147.851 Y115.882 E1.14897
G1 X147.447 Y115.916 E1.18259
G1 X147.044 Y115.87 E1.21623
G1 X146.666 Y115.749 E1.24914
G1 X146.39 Y115.602 E1.27507
G1 X146.07 Y115.353 E1.30869
G1 X145.807 Y115.045 E1.34228
G1 X145.609 Y114.69 E1.37599
G1 X145.485 Y114.304 E1.40961
G1 X145.441 Y113.901 E1.44323
G1 X145.477 Y113.497 E1.47687
G1 X145.593 Y113.108 E1.51053
G1 X145.783 Y112.75 E1.54414
G1 X145.841 Y112.68 E1.55168
G1 X146.27 Y112.26 F9000
G1 X145.441 Y112.227
;TYPE:Perimeter
G1 F1800
G1 X145.655 Y111.978 E1.57891
G1 X146.068 Y111.654 E1.62244
G1 X146.537 Y111.419 E1.66594
G1 X147.042 Y111.282 E1.70933
G1 X147.538 Y111.245 E1.75058
G1 X147.959 Y111.29 E1.78569
G1 X148.462 Y111.437 E1.82915
G1 X148.927 Y111.68 E1.87266
G1 X149.334 Y112.011 E1.91616
G1 X149.667 Y112.416 E1.95964
G1 X149.914 Y112.879 E2.00316
G1 X150.064 Y113.382 E2.04669
G1 X150.112 Y113.904 E2.09016
G1 X150.055 Y114.426 E2.13371
G1 X149.897 Y114.922 E2.17688
G1 X149.641 Y115.384 E2.22068
G1 X149.3 Y115.783 E2.26421
G1 X149.053 Y115.99 E2.29093
G1 X148.583 Y116.272 E2.33638
G1 X148.087 Y116.443 E2.37989
G1 X147.567 Y116.513 E2.4234
G1 X147.043 Y116.479 E2.46695
G1 X146.537 Y116.341 E2.51044
G1 X146.027 Y116.08 E2.55795
G1 X145.621 Y115.749 E2.60139
G1 X145.287 Y115.344 E2.64492
G1 X145.04 Y114.881 E2.68844
G1 X144.89 Y114.379 E2.73189
G1 X144.843 Y113.856 E2.77544
G1 X144.9 Y113.335 E2.8189
G1 X145.059 Y112.835 E2.86241
G1 X145.314 Y112.376 E2.90595
G1 X145.383 Y112.296 E2.91471
G1 E2.41471 F240
G92 E0
G1 X145.383 Y112.296 F9000
G1 X127.175 Y131.097
G1 E.5 F240
;TYPE:External perimeter
G1 F1800
G1 X127.153 Y131.139 E.50393
G1 X127.192 Y131.322 E.51945
G1 X135.076 Y144.979 E1.82715
G1 X131.331 Y147.142 E2.18579
G1 X113.122 Y115.611 E5.20526
G1 X112.939 Y115.507 E5.22272
G1 X112.741 Y115.543 E5.23941
G1 X92.13 Y127.443 E7.21305
G1 X86.654 Y117.959 E8.12122
G1 X111.271 Y103.747 E10.47842
G1 X112.229 Y105.407 E10.63736
G1 X112.284 Y105.476 E10.64468
G1 X112.464 Y105.556 E10.66101
G1 X112.639 Y105.516 E10.6759
G1 X133.122 Y93.691 E12.63723
G1 X136.272 Y99.147 E13.15967
G1 X136.308 Y99.197 E13.16478
G1 X136.481 Y99.292 E13.18115
G1 X136.681 Y99.256 E13.198
G1 X140.932 Y96.802 E13.60505
G1 X141.335 Y96.608 E13.64214
G1 X141.821 Y96.519 E13.68311
G1 X142.304 Y96.574 E13.72342
G1 X142.678 Y96.725 E13.75687
G1 X143.071 Y97.026 E13.79792
G1 X143.325 Y97.363 E13.83292
G1 X152.278 Y112.87 E15.31781
G1 X152.632 Y113.524 E15.37948
G1 X152.801 Y114.008 E15.42199
G1 X152.854 Y114.554 E15.46748
G1 X152.834 Y115.046 E15.50831
G1 X152.649 Y115.674 E15.5626
G1 X152.399 Y116.123 E15.60522
G1 X152.067 Y116.496 E15.64663
G1 X151.648 Y116.852 E15.69222
G1 X127.254 Y130.947 E18.02855
G1 X127.217 Y131.017 E18.03512
G1 X127.364 Y131.599 F9000
G1 X126.591 Y130.942
;TYPE:Perimeter
G1 F1800
G1 X126.557 Y131.072 E18.04626
G1 X126.569 Y131.349 E18.06925
G1 X126.672 Y131.622 E18.09345
G1 X134.257 Y144.76 E19.35148
G1 X131.55 Y146.322 E19.61065
G1 X113.67 Y115.353 E22.57612
G1 X113.631 Y115.291 E22.58219
G1 X113.374 Y115.044 E22.61175
G1 X113.036 Y114.915 E22.64175
G1 X112.778 Y114.91 E22.66315
G1 X112.441 Y115.024 E22.69265
G1 X92.349 Y126.624 E24.61657
G1 X87.473 Y118.179 E25.42524
G1 X111.051 Y104.566 E27.68298
G1 X111.71 Y105.707 E27.79225
G1 X111.875 Y105.915 E27.81427
G1 X112.027 Y106.029 E27.83003
G1 X112.275 Y106.131 E27.85227
G1 X112.601 Y106.149 E27.87935
G1 X112.939 Y106.036 E27.9089
G1 X132.902 Y94.51 E29.82049
G1 X135.752 Y99.447 E30.29322
G1 X135.806 Y99.529 E30.30136
G1 X136.018 Y99.736 E30.32593
G1 X136.352 Y99.878 E30.35603
G1 X136.704 Y99.88 E30.38522
G1 X136.981 Y99.776 E30.40976
G1 X141.39 Y97.241 E30.83151
G1 X141.841 Y97.125 E30.87013
G1 X142.266 Y97.206 E30.90601
G1 X142.641 Y97.452 E30.9432
G1 X142.824 Y97.695 E30.96843
G1 X151.994 Y113.584 E32.48975
G1 X152.216 Y114.144 E32.53971
G1 X152.255 Y114.53 E32.57188
G1 X152.243 Y114.809 E32.59504
G1 X152.127 Y115.322 E32.63866
G1 X151.967 Y115.667 E32.6702
G1 X151.619 Y116.097 E32.71607
G1 X151.316 Y116.351 E32.74886
G1 X127.326 Y130.205 E35.04619
G1 X126.859 Y130.495 E35.09178
G1 X126.62 Y130.828 E35.12577
G1 X126.613 Y130.855 E35.12808
G1 E34.62808 F240
G92 E0
G1 X126.613 Y130.855 F9000
G1 X149.52 Y116.548
G1 E.5 F240
;WIDTH:0.930511
G1 F1800
G1 X148.926 Y116.902 E.58177
;WIDTH:0.951551
G1 X148.635 Y117.047 E.62116
G1 E.12116 F240
G92 E0
G1 X148.635 Y117.047 F9000
G1 X150.609 Y112.645
G1 E.5 F240
;WIDTH:0.941261
G1 F1800
G1 X150.8 Y112.935 E.54158
;WIDTH:0.900132
G1 X151.154 Y113.519 E.61947
;WIDTH:0.870304
G1 X151.475 Y114.112 E.69359
G1 X151.558 Y114.501 E.73731
;WIDTH:0.891428
G1 X151.537 Y114.745 E.76495
;WIDTH:0.894046
G1 X151.412 Y115.205 E.81891
G1 X151.263 Y115.426 E.84908
;WIDTH:0.860062
G1 X151.115 Y115.648 E.87803
;WIDTH:0.826078
G1 X150.933 Y115.8 E.90265
;WIDTH:0.778006
G1 X150.751 Y115.953 E.92575
;WIDTH:0.729935
G1 X150.595 Y116.066 E.94319
;WIDTH:0.688435
G1 X150.439 Y116.179 E.95952
;WIDTH:0.646936
G1 X150.282 Y116.292 E.97481
;WIDTH:0.605437
G1 X150.126 Y116.405 E.98893
;WIDTH:0.609759
G1 X150.05 Y116.422 E.99469
;WIDTH:0.655581
G1 X149.975 Y116.44 E1.00088
;WIDTH:0.701402
G1 X149.899 Y116.458 E1.00764
;WIDTH:0.747224
G1 X149.823 Y116.476 E1.0149
;WIDTH:0.793046
G1 X149.747 Y116.494 E1.02265
;WIDTH:0.838867
G1 X149.672 Y116.512 E1.03079
;WIDTH:0.884689
G1 X149.596 Y116.53 E1.03953
;WIDTH:0.930511
G1 X149.52 Y116.548 E1.04877
G1 X149.562 Y116.479 E1.05832
;WIDTH:0.886351
G1 X149.604 Y116.41 E1.06738
;WIDTH:0.842191
G1 X149.646 Y116.342 E1.07586
;WIDTH:0.798031
G1 X149.688 Y116.273 E1.08393
;WIDTH:0.753871
G1 X149.73 Y116.204 E1.09151
;WIDTH:0.709711
G1 X149.772 Y116.136 E1.09852
;WIDTH:0.665551
G1 X149.814 Y116.067 E1.10511
;WIDTH:0.621391
G1 X149.856 Y115.998 E1.11121
;WIDTH:0.615407
G1 X149.966 Y115.879 E1.12331
;WIDTH:0.653583
G1 X150.076 Y115.759 E1.13633
;WIDTH:0.691759
G1 X150.186 Y115.639 E1.15021
;WIDTH:0.729935
G1 X150.296 Y115.52 E1.16488
;WIDTH:0.779653
G1 X150.404 Y115.349 E1.18458
;WIDTH:0.829372
G1 X150.512 Y115.178 E1.20567
;WIDTH:0.879161
G1 X150.619 Y115.007 E1.22809
G1 X150.754 Y114.523 E1.28394
G1 X150.807 Y113.956 E1.34724
;WIDTH:0.870304
G1 X150.756 Y113.295 E1.42012
;WIDTH:0.905782
G1 X150.683 Y112.97 E1.45837
;WIDTH:0.941261
G1 X150.629 Y112.733 E1.48747
G1 X150.629 Y112.733 F9000
G1 X150.137 Y111.82
;WIDTH:0.933387
G1 F1800
G1 X150.461 Y112.357 E1.56188
;WIDTH:0.941261
G1 X150.609 Y112.645 E1.60065
G1 E1.10065 F240
G92 E0
G1 X150.609 Y112.645 F9000
G1 X126.017 Y130.788
G1 E.5 F240
;WIDTH:0.675
G1 F1800
G1 X125.961 Y131.005 E.51858
G1 X125.981 Y131.467 E.55693
G1 X126.153 Y131.922 E.59727
G1 X133.437 Y144.54 E1.80548
G1 X131.77 Y145.503 E1.96513
G1 X114.19 Y115.053 E4.88089
G1 X114.044 Y114.844 E4.90203
G1 X113.696 Y114.538 E4.94046
G1 X113.351 Y114.376 E4.97207
G1 X112.894 Y114.303 E5.01045
G1 X112.425 Y114.377 E5.04982
G1 X112.141 Y114.504 E5.07562
G1 X92.569 Y125.804 E6.94976
G1 X88.293 Y118.398 E7.65893
G1 X110.832 Y105.386 E9.81714
G1 X111.19 Y106.006 E9.87651
G1 X111.466 Y106.353 E9.91328
G1 X111.929 Y106.648 E9.95881
G1 X112.363 Y106.751 E9.9958
G1 X112.842 Y106.714 E10.03564
G1 X113.239 Y106.555 E10.0711
G1 X132.682 Y95.33 E11.93287
G1 X135.233 Y99.746 E12.35579
G1 X135.322 Y99.883 E12.36934
G1 X135.593 Y100.166 E12.40183
G1 X135.983 Y100.393 E12.43925
G1 X136.393 Y100.49 E12.47419
G1 X136.82 Y100.468 E12.50965
G1 X137.281 Y100.295 E12.55048
G1 X141.555 Y97.828 E12.95972
G1 X141.861 Y97.731 E12.98634
G1 X142.078 Y97.777 E13.00474
G1 X142.323 Y98.027 E13.03377
G1 X149.886 Y111.127 E14.28816
;WIDTH:0.718064
G1 X149.928 Y111.243 E14.29913
;WIDTH:0.761129
G1 X149.97 Y111.358 E14.31074
;WIDTH:0.804193
G1 X150.012 Y111.473 E14.32308
;WIDTH:0.847258
G1 X150.053 Y111.589 E14.33621
;WIDTH:0.890322
G1 X150.095 Y111.704 E14.35001
;WIDTH:0.933387
G1 X150.137 Y111.82 E14.36465
G1 X150.057 Y111.761 E14.37644
;WIDTH:0.891395
G1 X149.977 Y111.702 E14.38766
;WIDTH:0.849403
G1 X149.897 Y111.643 E14.3983
;WIDTH:0.807411
G1 X149.818 Y111.584 E14.40828
;WIDTH:0.765419
G1 X149.553 Y111.393 E14.43945
;WIDTH:0.720209
G1 X149.289 Y111.202 E14.46851
;WIDTH:0.675
G1 X148.722 Y110.896 E14.52194
G1 X148.107 Y110.709 E14.57525
G1 X147.582 Y110.647 E14.61909
G1 X146.982 Y110.685 E14.66895
G1 X146.36 Y110.846 E14.72223
G1 X145.781 Y111.127 E14.7756
G1 X145.269 Y111.518 E14.82902
G1 X144.975 Y111.839 E14.86512
G1 X144.683 Y112.253 E14.90713
G1 X144.416 Y112.839 E14.96053
G1 X144.27 Y113.466 E15.01392
G1 X144.248 Y114.072 E15.06421
G1 X144.319 Y114.591 E15.10765
G1 X144.472 Y115.073 E15.14959
G1 X144.768 Y115.644 E15.20293
G1 X145.171 Y116.146 E15.25631
G1 X145.665 Y116.558 E15.30965
G1 X146.119 Y116.816 E15.35295
G1 X146.691 Y117.017 E15.40323
G1 X147.328 Y117.11 E15.45661
G1 X147.971 Y117.076 E15.51001
;WIDTH:0.721091
G1 X148.082 Y117.071 E15.51993
;WIDTH:0.767183
G1 X148.192 Y117.066 E15.53046
;WIDTH:0.813275
G1 X148.303 Y117.061 E15.5418
;WIDTH:0.859367
G1 X148.414 Y117.056 E15.55385
;WIDTH:0.905459
G1 X148.524 Y117.052 E15.56648
;WIDTH:0.951551
G1 X148.635 Y117.047 E15.57994
G1 X148.548 Y117.124 E15.59402
;WIDTH:0.905459
G1 X148.46 Y117.201 E15.60744
;WIDTH:0.859367
G1 X148.373 Y117.278 E15.62004
;WIDTH:0.813275
G1 X148.285 Y117.355 E15.63197
;WIDTH:0.767183
G1 X148.198 Y117.432 E15.64309
;WIDTH:0.721091
G1 X148.111 Y117.509 E15.65346
;WIDTH:0.675
G1 X132.268 Y126.659 E17.17065
;WIDTH:0.719948
G1 X132.172 Y126.688 E17.17959
;WIDTH:0.764897
G1 X132.077 Y126.717 E17.18906
;WIDTH:0.809846
G1 X131.982 Y126.746 E17.19915
;WIDTH:0.854795
G1 X131.886 Y126.775 E17.20996
;WIDTH:0.899743
G1 X131.791 Y126.805 E17.22132
;WIDTH:0.944692
G1 X131.695 Y126.834 E17.23338
;WIDTH:0.989641
G1 X131.6 Y126.863 E17.24594
G1 X131.64 Y126.79 E17.25646
;WIDTH:0.94537
G1 X131.68 Y126.717 E17.26647
;WIDTH:0.901099
G1 X131.721 Y126.644 E17.27603
;WIDTH:0.856828
G1 X131.761 Y126.572 E17.28493
;WIDTH:0.812557
G1 X131.869 Y126.383 E17.30712
;WIDTH:0.766704
G1 X131.977 Y126.195 E17.32785
;WIDTH:0.720852
G1 X132.085 Y126.007 E17.3472
;WIDTH:0.675
G1 X132.352 Y125.421 E17.4006
G1 X132.498 Y124.794 E17.45399
G1 X132.516 Y124.15 E17.50742
G1 X132.407 Y123.516 E17.56077
G1 X132.173 Y122.916 E17.61418
G1 X131.826 Y122.373 E17.66762
G1 X131.378 Y121.911 E17.72099
G1 X130.848 Y121.546 E17.77436
G1 X130.255 Y121.294 E17.82779
G1 X129.66 Y121.166 E17.87826
G1 X129.135 Y121.15 E17.92182
G1 X128.504 Y121.244 E17.97472
G1 X127.898 Y121.462 E18.02813
G1 X127.348 Y121.796 E18.08149
G1 X126.874 Y122.232 E18.1349
G1 X126.496 Y122.753 E18.18828
G1 X126.229 Y123.339 E18.24168
G1 X126.084 Y123.966 E18.29505
G1 X126.065 Y124.61 E18.34848
G1 X126.175 Y125.245 E18.40192
G1 X126.408 Y125.845 E18.4553
G1 X126.737 Y126.366 E18.5064
G1 X127.075 Y126.74 E18.5482
G1 X127.479 Y127.058 E18.59084
G1 X127.932 Y127.316 E18.63407
G1 X128.504 Y127.517 E18.68435
G1 X129.141 Y127.61 E18.73773
G1 X129.784 Y127.576 E18.79113
;WIDTH:0.721547
G1 X129.895 Y127.571 E18.80106
;WIDTH:0.768095
G1 X130.006 Y127.566 E18.8117
;WIDTH:0.814642
G1 X130.117 Y127.562 E18.82306
;WIDTH:0.86119
G1 X130.227 Y127.557 E18.83503
;WIDTH:0.907737
G1 X130.338 Y127.553 E18.84781
;WIDTH:0.954285
G1 X130.449 Y127.548 E18.86131
G1 X130.362 Y127.625 E18.87543
;WIDTH:0.907737
G1 X130.274 Y127.703 E18.88896
;WIDTH:0.86119
G1 X130.187 Y127.78 E18.90158
;WIDTH:0.814642
G1 X130.1 Y127.857 E18.91346
;WIDTH:0.768095
G1 X130.012 Y127.935 E18.92472
;WIDTH:0.721547
G1 X129.925 Y128.012 E18.9351
;WIDTH:0.675
G1 X126.591 Y129.944 E19.25465
G1 X126.248 Y130.277 E19.29429
G1 X126.066 Y130.598 E19.32489
G1 X126.039 Y130.701 E19.33372
G1 E18.83372 F240
G92 E0
G1 X126.039 Y130.701 F9000
G1 X131.6 Y126.863
G1 E.5 F240
;WIDTH:0.989641
G1 F1800
G1 X131.338 Y127.038 E.53983
;WIDTH:0.947049
G1 X131.077 Y127.214 E.57777
;WIDTH:0.954285
G1 X130.449 Y127.548 E.66422
G1 E.16422 F240
G92 E0
G1 X125.443 Y130.634 F9000
G1 E.5 F240
;WIDTH:0.675
G1 F1800
G1 X125.365 Y130.938 E.52603
;WIDTH:0.718143
G1 X125.353 Y131.158 E.54562
;WIDTH:0.761287
G1 X125.341 Y131.378 E.56652
;WIDTH:0.804431
G1 X125.329 Y131.598 E.58873
G1 X125.467 Y131.918 E.62386
;WIDTH:0.771159
G1 X125.606 Y132.238 E.65743
;WIDTH:0.737888
G1 X132.575 Y144.309 E1.93446
G1 X132.001 Y144.64 E1.99517
