; generated by PrusaSlicer 2.8.1+MacOS-arm64 on 2024-10-09 at 08:56:18 UTC


;
;

;
;
; 

; external perimeters extrusion width = 0.68mm
; perimeters extrusion width = 0.68mm
; infill extrusion width = 0.68mm
; solid infill extrusion width = 0.68mm
; top infill extrusion width = 0.60mm


EXCLUDE_OBJECT_DEFINE NAME='bed_alignment_bracket_(Instance_1)' CENTER=125.279,125.000 POLYGON=[[136.464,160.436],[120.464,160.436],[113.536,153.508],[113.536,96.492],[120.464,89.564],[136.464,89.564]]
EXCLUDE_OBJECT_DEFINE NAME='bed_alignment_bracket_(Instance_2)' CENTER=160.722,127.998 POLYGON=[[171.907,163.434],[155.907,163.434],[148.980,156.506],[148.980,99.490],[155.907,92.562],[171.907,92.562]]

;TYPE:Custom
START_PRINT BED_TEMP=65 HOTEND_TEMP=215 FILAMENT_TYPE=PLA EXTRUSION_MULTIPLIER=0.95 PERIMETER_SPEED=80
G21 ; set units to millimeters
G90 ; use absolute coordinates
M82 ; use absolute distances for extrusion
G92 E0
; Filament gcode
M107
;LAYER_CHANGE
;Z:0.35
;HEIGHT:0.35
G1 E-.5 F240
G1 Z.35 F9000
EXCLUDE_OBJECT_START NAME='bed_alignment_bracket_(Instance_1)'
G92 E0
G1 X136.126 Y89.902
G1 E.5 F240
;TYPE:External perimeter
;WIDTH:0.675
G1 F1800
G1 X136.126 Y100.878 E1.41021
G1 X136.126 Y160.098 E6.32115
G1 X120.604 Y160.098 E7.60834
G1 X113.874 Y153.368 E8.39761
G1 X113.874 Y96.632 E13.10256
G1 X120.604 Y89.902 E13.89183
G1 X136.036 Y89.902 E15.17156
G1 X136.125 Y90.495 F9000
G1 X135.526 Y91.2
;TYPE:Perimeter
G1 F1800
G1 X135.526 Y100.878 E15.97413
G1 X135.526 Y159.498 E20.83532
G1 X120.852 Y159.498 E22.05219
G1 X114.473 Y153.12 E22.80024
G1 X114.473 Y96.88 E27.46406
G1 X120.852 Y90.502 E28.21211
G1 X135.526 Y90.502 E29.42898
G1 X135.526 Y91.11 E29.4794
G1 X135.526 Y91.11 F9000
G1 X134.927 Y92.4
G1 F1800
G1 X134.927 Y100.878 E30.18246
G1 X134.927 Y158.898 E34.99389
G1 X121.101 Y158.898 E36.14044
G1 X115.073 Y152.871 E36.84732
G1 X115.073 Y97.129 E41.46984
G1 X121.101 Y91.102 E42.17672
G1 X134.927 Y91.102 E43.32327
G1 X134.927 Y92.31 E43.42345
G1 X134.927 Y92.31 F9000
G1 X133.526 Y91.282
;TYPE:Solid infill
;WIDTH:0.678837
G1 F1800
G1 X134.477 Y92.232 E43.53563
G1 X134.477 Y93.086 E43.6069
G1 X132.942 Y91.551 E43.78807
G1 X132.088 Y91.551 E43.85934
G1 X134.477 Y93.94 E44.14131
G1 X134.477 Y94.794 E44.21258
G1 X131.234 Y91.551 E44.59534
G1 X130.381 Y91.551 E44.66653
G1 X134.477 Y95.648 E45.15003
G1 X134.477 Y96.501 E45.22122
G1 X129.527 Y91.551 E45.80545
G1 X128.673 Y91.551 E45.87672
G1 X134.477 Y97.355 E46.56175
G1 X134.477 Y98.209 E46.63302
G1 X127.819 Y91.551 E47.41884
G1 X126.965 Y91.551 E47.49011
G1 X134.477 Y99.063 E48.37673
G1 X134.477 Y99.917 E48.448
G1 X126.112 Y91.551 E49.43535
G1 X125.258 Y91.551 E49.50662
G1 X134.477 Y100.77 E50.59471
G1 X134.477 Y101.624 E50.66598
G1 X124.404 Y91.551 E51.85486
G1 X123.55 Y91.551 E51.92613
G1 X134.477 Y102.478 E53.21581
G1 X134.477 Y103.332 E53.28708
G1 X122.696 Y91.551 E54.67755
G1 X121.843 Y91.551 E54.74874
G1 X134.477 Y104.185 E56.23989
G1 X134.477 Y105.039 E56.31116
G1 X121.138 Y91.701 E57.88546
G1 X120.711 Y92.127 E57.9358
G1 X134.477 Y105.893 E59.56056
G1 X134.477 Y106.747 E59.63183
G1 X120.284 Y92.554 E61.30698
G1 X119.857 Y92.981 E61.35738
G1 X134.477 Y107.601 E63.08293
G1 X134.477 Y108.454 E63.15412
G1 X119.43 Y93.408 E64.93001
G1 X119.003 Y93.835 E64.98041
G1 X134.477 Y109.308 E66.8067
G1 X134.477 Y110.162 E66.87797
G1 X118.577 Y94.262 E68.7546
G1 X118.15 Y94.689 E68.805
G1 X134.477 Y111.016 E70.73202
G1 X134.477 Y111.87 E70.80329
G1 X117.723 Y95.116 E72.78071
G1 X117.296 Y95.543 E72.83111
G1 X134.477 Y112.723 E74.85887
G1 X134.477 Y113.577 E74.93014
G1 X116.869 Y95.97 E77.0083
G1 X116.442 Y96.396 E77.05864
G1 X134.477 Y114.431 E79.18725
G1 X134.477 Y115.285 E79.25852
G1 X116.015 Y96.823 E81.43753
G1 X115.588 Y97.25 E81.48793
G1 X134.477 Y116.139 E83.71734
G1 X134.477 Y116.992 E83.78853
G1 X115.523 Y98.039 E86.02555
G1 X115.523 Y98.893 E86.09682
G1 X134.477 Y117.846 E88.33384
G1 X134.477 Y118.7 E88.40511
G1 X115.523 Y99.747 E90.64213
G1 X115.523 Y100.6 E90.71332
G1 X134.477 Y119.554 E92.9504
G1 X134.477 Y120.408 E93.02167
G1 X115.523 Y101.454 E95.25875
G1 X115.523 Y102.308 E95.33002
G1 X134.477 Y121.261 E97.56704
G1 X134.477 Y122.115 E97.63831
G1 X115.523 Y103.162 E99.87533
G1 X115.523 Y104.016 E99.9466
G1 X134.477 Y122.969 E102.18362
G1 X134.477 Y123.823 E102.25489
G1 X115.523 Y104.869 E104.49197
G1 X115.523 Y105.723 E104.56324
G1 X134.477 Y124.677 E106.80032
G1 X134.477 Y125.53 E106.87151
G1 X115.523 Y106.577 E109.10853
G1 X115.523 Y107.431 E109.1798
G1 X134.477 Y126.384 E111.41682
G1 X134.477 Y127.238 E111.48809
G1 X115.523 Y108.285 E113.72511
G1 X115.523 Y109.138 E113.7963
G1 X134.477 Y128.092 E116.03338
G1 X134.477 Y128.946 E116.10465
G1 X115.523 Y109.992 E118.34173
G1 X115.523 Y110.846 E118.413
G1 X134.477 Y129.799 E120.65002
G1 X134.477 Y130.653 E120.72129
G1 X115.523 Y111.7 E122.95831
G1 X115.523 Y112.554 E123.02958
G1 X134.477 Y131.507 E125.2666
G1 X134.477 Y132.361 E125.33787
G1 X115.523 Y113.407 E127.57495
G1 X115.523 Y114.261 E127.64622
G1 X134.477 Y133.215 E129.8833
G1 X134.477 Y134.068 E129.95449
G1 X115.523 Y115.115 E132.19151
G1 X115.523 Y115.969 E132.26278
G1 X134.477 Y134.922 E134.4998
G1 X134.477 Y135.776 E134.57107
G1 X115.523 Y116.823 E136.80809
G1 X115.523 Y117.676 E136.87928
G1 X134.477 Y136.63 E139.11636
G1 X134.477 Y137.484 E139.18763
G1 X115.523 Y118.53 E141.42471
G1 X115.523 Y119.384 E141.49598
G1 X134.477 Y138.337 E143.733
G1 X134.477 Y139.191 E143.80427
G1 X115.523 Y120.238 E146.04129
G1 X115.523 Y121.092 E146.11256
G1 X134.477 Y140.045 E148.34958
G1 X134.477 Y140.899 E148.42085
G1 X115.523 Y121.945 E150.65793
G1 X115.523 Y122.799 E150.7292
G1 X134.477 Y141.753 E152.96628
G1 X134.477 Y142.606 E153.03747
G1 X115.523 Y123.653 E155.27449
G1 X115.523 Y124.507 E155.34576
G1 X134.477 Y143.46 E157.58278
G1 X134.477 Y144.314 E157.65405
G1 X115.523 Y125.361 E159.89107
G1 X115.523 Y126.214 E159.96226
G1 X134.477 Y145.168 E162.19934
G1 X134.477 Y146.022 E162.27061
G1 X115.523 Y127.068 E164.50769
G1 X115.523 Y127.922 E164.57896
G1 X134.477 Y146.875 E166.81598
G1 X134.477 Y147.729 E166.88725
G1 X115.523 Y128.776 E169.12427
G1 X115.523 Y129.63 E169.19554
G1 X134.477 Y148.583 E171.43256
G1 X134.477 Y149.437 E171.50383
G1 X115.523 Y130.483 E173.74091
G1 X115.523 Y131.337 E173.81218
G1 X134.477 Y150.291 E176.04926
G1 X134.477 Y151.144 E176.12045
G1 X115.523 Y132.191 E178.35747
G1 X115.523 Y133.045 E178.42874
G1 X134.477 Y151.998 E180.66576
G1 X134.477 Y152.852 E180.73703
G1 X115.523 Y133.899 E182.97405
G1 X115.523 Y134.752 E183.04524
G1 X134.477 Y153.706 E185.28232
G1 X134.477 Y154.56 E185.35359
G1 X115.523 Y135.606 E187.59067
G1 X115.523 Y136.46 E187.66194
G1 X134.477 Y155.413 E189.89896
G1 X134.477 Y156.267 E189.97023
G1 X115.523 Y137.314 E192.20725
G1 X115.523 Y138.168 E192.27852
G1 X134.477 Y157.121 E194.51554
G1 X134.477 Y157.975 E194.58681
G1 X115.523 Y139.021 E196.82389
G1 X115.523 Y139.875 E196.89516
G1 X134.097 Y158.449 E199.08739
G1 X133.243 Y158.449 E199.15866
G1 X115.523 Y140.729 E201.25009
G1 X115.523 Y141.583 E201.32136
G1 X132.389 Y158.449 E203.312
G1 X131.535 Y158.449 E203.38327
G1 X115.523 Y142.437 E205.27311
G1 X115.523 Y143.29 E205.3443
G1 X130.682 Y158.449 E207.13347
G1 X129.828 Y158.449 E207.20474
G1 X115.523 Y144.144 E208.89311
G1 X115.523 Y144.998 E208.96438
G1 X128.974 Y158.449 E210.55196
G1 X128.12 Y158.449 E210.62323
G1 X115.523 Y145.852 E212.11001
G1 X115.523 Y146.706 E212.18128
G1 X127.266 Y158.449 E213.56727
G1 X126.413 Y158.449 E213.63846
G1 X115.523 Y147.559 E214.92377
G1 X115.523 Y148.413 E214.99504
G1 X125.559 Y158.449 E216.17956
G1 X124.705 Y158.449 E216.25083
G1 X115.523 Y149.267 E217.33455
G1 X115.523 Y150.121 E217.40582
G1 X123.851 Y158.449 E218.38875
G1 X122.997 Y158.449 E218.46002
G1 X115.523 Y150.975 E219.34215
G1 X115.523 Y151.828 E219.41334
G1 X122.144 Y158.449 E220.1948
G1 X121.29 Y158.449 E220.26607
G1 X115.253 Y152.412 E220.9786
G1 E220.4786 F240
G92 E0
G1 X115.253 Y152.412 F9000
EXCLUDE_OBJECT_END NAME='bed_alignment_bracket_(Instance_1)'
EXCLUDE_OBJECT_START NAME='bed_alignment_bracket_(Instance_2)'
G92 E0
G1 X171.57 Y92.9
G1 E.5 F240
;TYPE:External perimeter
;WIDTH:0.675
G1 F1800
G1 X171.57 Y103.876 E1.41021
G1 X171.57 Y163.096 E6.32115
G1 X156.047 Y163.096 E7.60843
G1 X149.317 Y156.366 E8.3977
G1 X149.317 Y99.63 E13.10265
G1 X156.047 Y92.9 E13.89192
G1 X171.48 Y92.9 E15.17173
G1 X171.569 Y93.493 F9000
G1 X170.97 Y94.198
;TYPE:Perimeter
G1 F1800
G1 X170.97 Y103.876 E15.9743
G1 X170.97 Y162.496 E20.83549
G1 X156.296 Y162.496 E22.05236
G1 X149.917 Y156.118 E22.80041
G1 X149.917 Y99.878 E27.46423
G1 X156.296 Y93.5 E28.21228
G1 X170.97 Y93.5 E29.42915
G1 X170.97 Y94.108 E29.47957
G1 X170.97 Y94.108 F9000
G1 X170.37 Y95.398
G1 F1800
G1 X170.37 Y103.876 E30.18263
G1 X170.37 Y161.897 E34.99414
G1 X156.544 Y161.897 E36.14069
G1 X150.517 Y155.869 E36.84757
G1 X150.517 Y100.127 E41.47009
G1 X156.544 Y94.1 E42.17692
G1 X170.37 Y94.1 E43.32347
G1 X170.37 Y95.308 E43.42365
G1 X170.37 Y95.308 F9000
G1 X168.969 Y94.28
;TYPE:Solid infill
;WIDTH:0.678837
G1 F1800
G1 X169.92 Y95.23 E43.53583
G1 X169.92 Y96.084 E43.6071
G1 X168.385 Y94.55 E43.78821
G1 X167.532 Y94.55 E43.8594
G1 X169.92 Y96.938 E44.14125
G1 X169.92 Y97.792 E44.21252
G1 X166.678 Y94.55 E44.59516
G1 X165.824 Y94.55 E44.66643
G1 X169.92 Y98.646 E45.14987
G1 X169.92 Y99.499 E45.22106
G1 X164.97 Y94.55 E45.80523
G1 X164.116 Y94.55 E45.8765
G1 X169.92 Y100.353 E46.56147
G1 X169.92 Y101.207 E46.63274
G1 X163.263 Y94.55 E47.41844
G1 X162.409 Y94.55 E47.48971
G1 X169.92 Y102.061 E48.37621
G1 X169.92 Y102.915 E48.44748
G1 X161.555 Y94.55 E49.43477
G1 X160.701 Y94.55 E49.50604
G1 X169.92 Y103.768 E50.59407
G1 X169.92 Y104.622 E50.66534
G1 X159.847 Y94.55 E51.85416
G1 X158.994 Y94.55 E51.92535
G1 X169.92 Y105.476 E53.21491
G1 X169.92 Y106.33 E53.28618
G1 X158.14 Y94.55 E54.67654
G1 X157.286 Y94.55 E54.74781
G1 X169.92 Y107.184 E56.23896
G1 X169.92 Y108.037 E56.31015
G1 X156.581 Y94.699 E57.88445
G1 X156.154 Y95.126 E57.93485
G1 X169.92 Y108.891 E59.55955
G1 X169.92 Y109.745 E59.63082
G1 X155.728 Y95.552 E61.30592
G1 X155.301 Y95.979 E61.35632
G1 X169.92 Y110.599 E63.08181
G1 X169.92 Y111.453 E63.15308
G1 X154.874 Y96.406 E64.92897
G1 X154.447 Y96.833 E64.97937
G1 X169.92 Y112.306 E66.8056
G1 X169.92 Y113.16 E66.87687
G1 X154.02 Y97.26 E68.7535
G1 X153.593 Y97.687 E68.8039
G1 X169.92 Y114.014 E70.73092
G1 X169.92 Y114.868 E70.80219
G1 X153.166 Y98.114 E72.77961
G1 X152.739 Y98.541 E72.83001
G1 X169.92 Y115.722 E74.85783
G1 X169.92 Y116.575 E74.92902
G1 X152.312 Y98.968 E77.00718
G1 X151.885 Y99.395 E77.05758
G1 X169.92 Y117.429 E79.18613
G1 X169.92 Y118.283 E79.2574
G1 X151.459 Y99.821 E81.43635
G1 X151.032 Y100.248 E81.48675
G1 X169.92 Y119.137 E83.7161
G1 X169.92 Y119.991 E83.78737
G1 X150.967 Y101.037 E86.02439
G1 X150.967 Y101.891 E86.09566
G1 X169.92 Y120.844 E88.33262
G1 X169.92 Y121.698 E88.40389
G1 X150.967 Y102.745 E90.64085
G1 X150.967 Y103.599 E90.71212
G1 X169.92 Y122.552 E92.94908
G1 X169.92 Y123.406 E93.02035
G1 X150.967 Y104.452 E95.25737
G1 X150.967 Y105.306 E95.32864
G1 X169.92 Y124.26 E97.56566
G1 X169.92 Y125.113 E97.63685
G1 X150.967 Y106.16 E99.87381
G1 X150.967 Y107.014 E99.94508
G1 X169.92 Y125.967 E102.18204
G1 X169.92 Y126.821 E102.25331
G1 X150.967 Y107.868 E104.49027
G1 X150.967 Y108.721 E104.56146
G1 X169.92 Y127.675 E106.79848
G1 X169.92 Y128.529 E106.86975
G1 X150.967 Y109.575 E109.10677
G1 X150.967 Y110.429 E109.17804
G1 X169.92 Y129.382 E111.415
G1 X169.92 Y130.236 E111.48627
G1 X150.967 Y111.283 E113.72323
G1 X150.967 Y112.137 E113.7945
G1 X169.92 Y131.09 E116.03146
G1 X169.92 Y131.944 E116.10273
G1 X150.967 Y112.99 E118.33975
G1 X150.967 Y113.844 E118.41102
G1 X169.92 Y132.798 E120.64804
G1 X169.92 Y133.651 E120.71923
G1 X150.967 Y114.698 E122.95619
G1 X150.967 Y115.552 E123.02746
G1 X169.92 Y134.505 E125.26442
G1 X169.92 Y135.359 E125.33569
G1 X150.967 Y116.406 E127.57265
G1 X150.967 Y117.259 E127.64384
G1 X169.92 Y136.213 E129.88086
G1 X169.92 Y137.067 E129.95213
G1 X150.967 Y118.113 E132.18915
G1 X150.967 Y118.967 E132.26042
G1 X169.92 Y137.92 E134.49738
G1 X169.92 Y138.774 E134.56865
G1 X150.967 Y119.821 E136.80561
G1 X150.967 Y120.675 E136.87688
G1 X169.92 Y139.628 E139.11384
G1 X169.92 Y140.482 E139.18511
G1 X150.967 Y121.528 E141.42213
G1 X150.967 Y122.382 E141.4934
G1 X169.92 Y141.335 E143.73036
G1 X169.92 Y142.189 E143.80163
G1 X150.967 Y123.236 E146.03859
G1 X150.967 Y124.09 E146.10986
G1 X169.92 Y143.043 E148.34682
G1 X169.92 Y143.897 E148.41809
G1 X150.967 Y124.943 E150.65511
G1 X150.967 Y125.797 E150.72638
G1 X169.92 Y144.751 E152.9634
G1 X169.92 Y145.604 E153.03459
G1 X150.967 Y126.651 E155.27155
G1 X150.967 Y127.505 E155.34282
G1 X169.92 Y146.458 E157.57978
G1 X169.92 Y147.312 E157.65105
G1 X150.967 Y128.359 E159.88801
G1 X150.967 Y129.212 E159.9592
G1 X169.92 Y148.166 E162.19622
G1 X169.92 Y149.02 E162.26749
G1 X150.967 Y130.066 E164.50451
G1 X150.967 Y130.92 E164.57578
G1 X169.92 Y149.873 E166.81274
G1 X169.92 Y150.727 E166.88401
G1 X150.967 Y131.774 E169.12097
G1 X150.967 Y132.628 E169.19224
G1 X169.92 Y151.581 E171.4292
G1 X169.92 Y152.435 E171.50047
G1 X150.967 Y133.481 E173.73749
G1 X150.967 Y134.335 E173.80876
G1 X169.92 Y153.289 E176.04578
G1 X169.92 Y154.142 E176.11697
G1 X150.967 Y135.189 E178.35393
G1 X150.967 Y136.043 E178.4252
G1 X169.92 Y154.996 E180.66216
G1 X169.92 Y155.85 E180.73343
G1 X150.967 Y136.897 E182.97039
G1 X150.967 Y137.75 E183.04158
G1 X169.92 Y156.704 E185.2786
G1 X169.92 Y157.558 E185.34987
G1 X150.967 Y138.604 E187.58689
G1 X150.967 Y139.458 E187.65816
G1 X169.92 Y158.411 E189.89512
G1 X169.92 Y159.265 E189.96639
G1 X150.967 Y140.312 E192.20335
G1 X150.967 Y141.166 E192.27462
G1 X169.92 Y160.119 E194.51158
G1 X169.92 Y160.973 E194.58285
G1 X150.967 Y142.019 E196.81987
G1 X150.967 Y142.873 E196.89114
G1 X169.54 Y161.447 E199.08331
G1 X168.686 Y161.447 E199.15458
G1 X150.967 Y143.727 E201.24596
G1 X150.967 Y144.581 E201.31723
G1 X167.833 Y161.447 E203.30787
G1 X166.979 Y161.447 E203.37914
G1 X150.967 Y145.435 E205.26898
G1 X150.967 Y146.288 E205.34017
G1 X166.125 Y161.447 E207.12928
G1 X165.271 Y161.447 E207.20055
G1 X150.967 Y147.142 E208.88886
G1 X150.967 Y147.996 E208.96013
G1 X164.417 Y161.447 E210.54765
G1 X163.564 Y161.447 E210.61884
G1 X150.967 Y148.85 E212.10562
G1 X150.967 Y149.704 E212.17689
G1 X162.71 Y161.447 E213.56288
G1 X161.856 Y161.447 E213.63415
G1 X150.967 Y150.557 E214.9194
G1 X150.967 Y151.411 E214.99067
G1 X161.002 Y161.447 E216.17513
G1 X160.148 Y161.447 E216.2464
G1 X150.967 Y152.265 E217.33006
G1 X150.967 Y153.119 E217.40133
G1 X159.295 Y161.447 E218.38426
G1 X158.441 Y161.447 E218.45553
G1 X150.967 Y153.973 E219.33766
G1 X150.967 Y154.826 E219.40885
G1 X157.587 Y161.447 E220.19025
G1 X156.733 Y161.447 E220.26152
G1 X150.697 Y155.41 E220.97399
;LAYER_CHANGE
;Z:0.55
;HEIGHT:0.2
G1 Z.55 F9000
G1 E220.47399 F240
G92 E0
G1 X150.697 Y155.41 Z.55 F9000
EXCLUDE_OBJECT_END NAME='bed_alignment_bracket_(Instance_2)'
EXCLUDE_OBJECT_START NAME='bed_alignment_bracket_(Instance_1)'
G92 E0
G1 X136.126 Y89.902
G1 E.5 F240
;TYPE:External perimeter
;WIDTH:0.674999
G1 F1920
G1 X136.126 Y160.098 E4.00487
G1 X120.604 Y160.098 E4.77988
G1 X113.874 Y153.368 E5.25509
G1 X113.874 Y96.632 E8.0879
G1 X120.604 Y89.902 E8.56311
G1 X136.036 Y89.902 E9.33363
G1 X136.125 Y90.495 F9000
G1 X135.494 Y91.265
;TYPE:Perimeter
G1 F4800
G1 X135.494 Y159.466 E12.73889
G1 X120.865 Y159.466 E13.46931
G1 X114.506 Y153.106 E13.91836
G1 X114.506 Y96.894 E16.72501
G1 X120.865 Y90.534 E17.17406
G1 X135.494 Y90.534 E17.90448
G1 X135.494 Y91.175 E17.93648
G1 X135.494 Y91.175 F9000
G1 X134.862 Y92.529
G1 F4800
G1 X134.862 Y158.834 E21.24707
G1 X121.127 Y158.834 E21.93285
G1 X115.138 Y152.845 E22.35574
G1 X115.138 Y97.155 E25.13633
G1 X121.127 Y91.166 E25.55922
G1 X134.862 Y91.166 E26.245
G1 X134.862 Y92.439 E26.30856
G1 E25.80856 F240
G92 E0
G1 X134.862 Y92.439 F9000
G1 X121.771 Y91.64
G1 E.5 F240
;TYPE:Solid infill
G1 F2880
G1 X115.612 Y97.799 E.93489
G1 X115.559 Y97.628 E.94383
;WIDTH:0.634306
