; generated by PrusaSlicer 2.8.1+MacOS-arm64 on 2024-10-09 at 10:14:25 UTC


;
;

;
;
; 

; external perimeters extrusion width = 0.68mm
; perimeters extrusion width = 0.68mm
; infill extrusion width = 0.68mm
; solid infill extrusion width = 0.68mm
; top infill extrusion width = 0.60mm


EXCLUDE_OBJECT_DEFINE NAME='bed_alignment_bracket_(Instance_1)' CENTER=110.522,124.754 POLYGON=[[121.708,160.189],[105.708,160.189],[98.780,153.262],[98.780,96.246],[105.708,89.318],[121.708,89.318]]
EXCLUDE_OBJECT_DEFINE NAME='bed_alignment_bracket_(Instance_2)' CENTER=138.835,124.326 POLYGON=[[150.020,159.762],[134.020,159.762],[127.092,152.834],[127.092,95.818],[134.020,88.890],[150.020,88.890]]

;TYPE:Custom
START_PRINT BED_TEMP=65 HOTEND_TEMP=215 FILAMENT_TYPE=PLA EXTRUSION_MULTIPLIER=0.95 PERIMETER_SPEED=80
G21 ; set units to millimeters
G90 ; use absolute coordinates
M82 ; use absolute distances for extrusion
G92 E0
; Filament gcode
M107
;LAYER_CHANGE
;Z:0.35
;HEIGHT:0.35
G1 E-.5 F240
G1 Z.35 F9000
EXCLUDE_OBJECT_START NAME='bed_alignment_bracket_(Instance_1)'
G92 E0
G1 X121.37 Y89.655
G1 E.5 F240
;TYPE:External perimeter
;WIDTH:0.675
G1 F1800
G1 X121.37 Y100.632 E1.41029
G1 X121.37 Y159.852 E6.32123
G1 X105.847 Y159.852 E7.60851
G1 X99.117 Y153.122 E8.39778
G1 X99.117 Y96.386 E13.10273
G1 X105.847 Y89.655 E13.89206
G1 X121.28 Y89.655 E15.17187
G1 X121.369 Y90.249 F9000
G1 X120.77 Y90.954
;TYPE:Perimeter
G1 F1800
G1 X120.77 Y100.632 E15.97444
G1 X120.77 Y159.252 E20.83563
G1 X106.096 Y159.252 E22.0525
G1 X99.717 Y152.873 E22.80061
G1 X99.717 Y96.634 E27.46435
G1 X106.096 Y90.255 E28.21246
G1 X120.77 Y90.255 E29.42933
G1 X120.77 Y90.864 E29.47983
G1 X120.77 Y90.864 F9000
G1 X120.17 Y92.154
G1 F1800
G1 X120.17 Y100.632 E30.18289
G1 X120.17 Y158.652 E34.99432
G1 X106.344 Y158.652 E36.14087
G1 X100.317 Y152.625 E36.8477
G1 X100.317 Y96.883 E41.47022
G1 X106.344 Y90.855 E42.1771
G1 X120.17 Y90.855 E43.32365
G1 X120.17 Y92.064 E43.42391
G1 X120.17 Y92.064 F9000
G1 X118.77 Y91.035
;TYPE:Solid infill
;WIDTH:0.678837
G1 F1800
G1 X119.72 Y91.986 E43.53609
G1 X119.72 Y92.84 E43.60736
G1 X118.186 Y91.305 E43.78847
G1 X117.332 Y91.305 E43.85974
G1 X119.72 Y93.694 E44.14165
G1 X119.72 Y94.547 E44.21284
G1 X116.478 Y91.305 E44.59548
G1 X115.624 Y91.305 E44.66675
G1 X119.72 Y95.401 E45.15019
G1 X119.72 Y96.255 E45.22146
G1 X114.771 Y91.305 E45.80563
G1 X113.917 Y91.305 E45.8769
G1 X119.72 Y97.109 E46.56187
G1 X119.72 Y97.963 E46.63314
G1 X113.063 Y91.305 E47.4189
G1 X112.209 Y91.305 E47.49017
G1 X119.72 Y98.816 E48.37667
G1 X119.72 Y99.67 E48.44794
G1 X111.355 Y91.305 E49.43523
G1 X110.502 Y91.305 E49.50642
G1 X119.72 Y100.524 E50.59445
G1 X119.72 Y101.378 E50.66572
G1 X109.648 Y91.305 E51.85454
G1 X108.794 Y91.305 E51.92581
G1 X119.72 Y102.232 E53.21543
G1 X119.72 Y103.085 E53.28662
G1 X107.94 Y91.305 E54.67698
G1 X107.086 Y91.305 E54.74825
G1 X119.72 Y103.939 E56.2394
G1 X119.72 Y104.793 E56.31067
G1 X106.382 Y91.454 E57.88497
G1 X105.955 Y91.881 E57.93537
G1 X119.72 Y105.647 E59.56007
G1 X119.72 Y106.501 E59.63134
G1 X105.528 Y92.308 E61.30644
G1 X105.101 Y92.735 E61.35684
G1 X119.72 Y107.354 E63.08227
G1 X119.72 Y108.208 E63.15354
G1 X104.674 Y93.162 E64.92937
G1 X104.247 Y93.589 E64.97977
G1 X119.72 Y109.062 E66.806
G1 X119.72 Y109.916 E66.87727
G1 X103.82 Y94.016 E68.7539
G1 X103.393 Y94.443 E68.8043
G1 X119.72 Y110.77 E70.73132
G1 X119.72 Y111.623 E70.80251
G1 X102.966 Y94.869 E72.77993
G1 X102.54 Y95.296 E72.83027
G1 X119.72 Y112.477 E74.85803
G1 X119.72 Y113.331 E74.9293
G1 X102.113 Y95.723 E77.00746
G1 X101.686 Y96.15 E77.05786
G1 X119.72 Y114.185 E79.18641
G1 X119.72 Y115.039 E79.25768
G1 X101.259 Y96.577 E81.43663
G1 X100.832 Y97.004 E81.48703
G1 X119.72 Y115.892 E83.71632
G1 X119.72 Y116.746 E83.78759
G1 X100.767 Y97.793 E86.02455
G1 X100.767 Y98.647 E86.09582
G1 X119.72 Y117.6 E88.33278
G1 X119.72 Y118.454 E88.40405
G1 X100.767 Y99.5 E90.64107
G1 X100.767 Y100.354 E90.71234
G1 X119.72 Y119.308 E92.94936
G1 X119.72 Y120.161 E93.02055
G1 X100.767 Y101.208 E95.25751
G1 X100.767 Y102.062 E95.32878
G1 X119.72 Y121.015 E97.56574
G1 X119.72 Y121.869 E97.63701
G1 X100.767 Y102.916 E99.87397
G1 X100.767 Y103.769 E99.94516
G1 X119.72 Y122.723 E102.18218
G1 X119.72 Y123.577 E102.25345
G1 X100.767 Y104.623 E104.49047
G1 X100.767 Y105.477 E104.56174
G1 X119.72 Y124.43 E106.7987
G1 X119.72 Y125.284 E106.86997
G1 X100.767 Y106.331 E109.10693
G1 X100.767 Y107.185 E109.1782
G1 X119.72 Y126.138 E111.41516
G1 X119.72 Y126.992 E111.48643
G1 X100.767 Y108.038 E113.72345
G1 X100.767 Y108.892 E113.79472
G1 X119.72 Y127.846 E116.03174
G1 X119.72 Y128.699 E116.10293
G1 X100.767 Y109.746 E118.33989
G1 X100.767 Y110.6 E118.41116
G1 X119.72 Y129.553 E120.64812
G1 X119.72 Y130.407 E120.71939
G1 X100.767 Y111.454 E122.95635
G1 X100.767 Y112.307 E123.02754
G1 X119.72 Y131.261 E125.26456
G1 X119.72 Y132.115 E125.33583
G1 X100.767 Y113.161 E127.57285
G1 X100.767 Y114.015 E127.64412
G1 X119.72 Y132.968 E129.88108
G1 X119.72 Y133.822 E129.95235
G1 X100.767 Y114.869 E132.18931
G1 X100.767 Y115.723 E132.26058
G1 X119.72 Y134.676 E134.49754
G1 X119.72 Y135.53 E134.56881
G1 X100.767 Y116.576 E136.80583
G1 X100.767 Y117.43 E136.8771
G1 X119.72 Y136.384 E139.11412
G1 X119.72 Y137.237 E139.18531
G1 X100.767 Y118.284 E141.42227
G1 X100.767 Y119.138 E141.49354
G1 X119.72 Y138.091 E143.7305
G1 X119.72 Y138.945 E143.80177
G1 X100.767 Y119.992 E146.03873
G1 X100.767 Y120.845 E146.10992
G1 X119.72 Y139.799 E148.34694
G1 X119.72 Y140.653 E148.41821
G1 X100.767 Y121.699 E150.65523
G1 X100.767 Y122.553 E150.7265
G1 X119.72 Y141.506 E152.96346
G1 X119.72 Y142.36 E153.03473
G1 X100.767 Y123.407 E155.27169
G1 X100.767 Y124.261 E155.34296
G1 X119.72 Y143.214 E157.57992
G1 X119.72 Y144.068 E157.65119
G1 X100.767 Y125.114 E159.88821
G1 X100.767 Y125.968 E159.95948
G1 X119.72 Y144.922 E162.1965
G1 X119.72 Y145.775 E162.26769
G1 X100.767 Y126.822 E164.50465
G1 X100.767 Y127.676 E164.57592
G1 X119.72 Y146.629 E166.81288
G1 X119.72 Y147.483 E166.88415
G1 X100.767 Y128.529 E169.12117
G1 X100.767 Y129.383 E169.19244
G1 X119.72 Y148.337 E171.42946
G1 X119.72 Y149.19 E171.50065
G1 X100.767 Y130.237 E173.73761
G1 X100.767 Y131.091 E173.80888
G1 X119.72 Y150.044 E176.04584
G1 X119.72 Y150.898 E176.11711
G1 X100.767 Y131.945 E178.35407
G1 X100.767 Y132.798 E178.42526
G1 X119.72 Y151.752 E180.66228
G1 X119.72 Y152.606 E180.73355
G1 X100.767 Y133.652 E182.97057
G1 X100.767 Y134.506 E183.04184
G1 X119.72 Y153.459 E185.2788
G1 X119.72 Y154.313 E185.35007
G1 X100.767 Y135.36 E187.58703
G1 X100.767 Y136.214 E187.6583
G1 X119.72 Y155.167 E189.89526
G1 X119.72 Y156.021 E189.96653
G1 X100.767 Y137.067 E192.20355
G1 X100.767 Y137.921 E192.27482
G1 X119.72 Y156.875 E194.51184
G1 X119.72 Y157.728 E194.58303
G1 X100.767 Y138.775 E196.81999
G1 X100.767 Y139.629 E196.89126
G1 X119.34 Y158.202 E199.08337
G1 X118.487 Y158.202 E199.15456
G1 X100.767 Y140.483 E201.24594
G1 X100.767 Y141.336 E201.31713
G1 X117.633 Y158.202 E203.30777
G1 X116.779 Y158.202 E203.37904
G1 X100.767 Y142.19 E205.26888
G1 X100.767 Y143.044 E205.34015
G1 X115.925 Y158.202 E207.1292
G1 X115.071 Y158.202 E207.20047
G1 X100.767 Y143.898 E208.88873
G1 X100.767 Y144.752 E208.96
G1 X114.218 Y158.202 E210.54752
G1 X113.364 Y158.202 E210.61879
G1 X100.767 Y145.605 E212.10557
G1 X100.767 Y146.459 E212.17684
G1 X112.51 Y158.202 E213.56283
G1 X111.656 Y158.202 E213.6341
G1 X100.767 Y147.313 E214.91929
G1 X100.767 Y148.167 E214.99056
G1 X110.802 Y158.202 E216.17496
G1 X109.949 Y158.202 E216.24615
G1 X100.767 Y149.021 E217.32981
G1 X100.767 Y149.874 E217.401
G1 X109.095 Y158.202 E218.38393
G1 X108.241 Y158.202 E218.4552
G1 X100.767 Y150.728 E219.33733
G1 X100.767 Y151.582 E219.4086
G1 X107.387 Y158.202 E220.18994
G1 X106.533 Y158.202 E220.26121
G1 X100.497 Y152.166 E220.97362
G1 E220.47362 F240
G92 E0
G1 X100.497 Y152.166 F9000
EXCLUDE_OBJECT_END NAME='bed_alignment_bracket_(Instance_1)'
EXCLUDE_OBJECT_START NAME='bed_alignment_bracket_(Instance_2)'
G92 E0
G1 X149.683 Y89.228
G1 E.5 F240
;TYPE:External perimeter
;WIDTH:0.675
G1 F1800
G1 X149.683 Y100.204 E1.41021
G1 X149.683 Y159.424 E6.32115
G1 X134.16 Y159.424 E7.60843
G1 X127.43 Y152.694 E8.3977
G1 X127.43 Y95.958 E13.10265
G1 X134.16 Y89.228 E13.89192
G1 X149.593 Y89.228 E15.17173
G1 X149.682 Y89.821 F9000
G1 X149.083 Y90.526
;TYPE:Perimeter
G1 F1800
G1 X149.083 Y100.204 E15.9743
G1 X149.083 Y158.824 E20.83549
G1 X134.408 Y158.824 E22.05245
G1 X128.03 Y152.446 E22.80044
G1 X128.03 Y96.206 E27.46426
G1 X134.408 Y89.828 E28.21225
G1 X149.083 Y89.828 E29.42921
G1 X149.083 Y90.436 E29.47963
G1 X149.083 Y90.436 F9000
G1 X148.483 Y91.726
G1 F1800
G1 X148.483 Y100.204 E30.18269
G1 X148.483 Y158.224 E34.99412
G1 X134.657 Y158.224 E36.14067
G1 X128.63 Y152.197 E36.8475
G1 X128.63 Y96.455 E41.47002
G1 X134.657 Y90.427 E42.1769
G1 X148.483 Y90.427 E43.32345
G1 X148.483 Y91.636 E43.42371
G1 X148.483 Y91.636 F9000
G1 X147.082 Y90.607
;TYPE:Solid infill
;WIDTH:0.678837
G1 F1800
G1 X148.033 Y91.558 E43.53595
G1 X148.033 Y92.412 E43.60722
G1 X146.498 Y90.877 E43.78839
G1 X145.644 Y90.877 E43.85966
G1 X148.033 Y93.266 E44.14163
G1 X148.033 Y94.12 E44.2129
G1 X144.791 Y90.877 E44.5956
G1 X143.937 Y90.877 E44.66687
G1 X148.033 Y94.973 E45.15031
G1 X148.033 Y95.827 E45.22158
G1 X143.083 Y90.877 E45.80581
G1 X142.229 Y90.877 E45.87708
G1 X148.033 Y96.681 E46.56211
G1 X148.033 Y97.535 E46.63338
G1 X141.375 Y90.877 E47.4192
G1 X140.522 Y90.877 E47.49039
G1 X148.033 Y98.389 E48.37695
G1 X148.033 Y99.242 E48.44814
G1 X139.668 Y90.877 E49.43543
G1 X138.814 Y90.877 E49.5067
G1 X148.033 Y100.096 E50.59479
G1 X148.033 Y100.95 E50.66606
G1 X137.96 Y90.877 E51.85494
G1 X137.106 Y90.877 E51.92621
G1 X148.033 Y101.804 E53.21589
G1 X148.033 Y102.658 E53.28716
G1 X136.253 Y90.877 E54.67757
G1 X135.399 Y90.877 E54.74884
G1 X148.033 Y103.511 E56.23999
G1 X148.033 Y104.365 E56.31126
G1 X134.694 Y91.026 E57.88562
G1 X134.267 Y91.453 E57.93602
G1 X148.033 Y105.219 E59.56078
G1 X148.033 Y106.073 E59.63205
G1 X133.84 Y91.88 E61.3072
G1 X133.413 Y92.307 E61.3576
G1 X148.033 Y106.927 E63.08315
G1 X148.033 Y107.78 E63.15434
G1 X132.986 Y92.734 E64.93023
G1 X132.56 Y93.161 E64.98057
G1 X148.033 Y108.634 E66.8068
G1 X148.033 Y109.488 E66.87807
G1 X132.133 Y93.588 E68.7547
G1 X131.706 Y94.015 E68.8051
G1 X148.033 Y110.342 E70.73212
G1 X148.033 Y111.196 E70.80339
G1 X131.279 Y94.442 E72.78081
G1 X130.852 Y94.869 E72.83121
G1 X148.033 Y112.049 E74.85897
G1 X148.033 Y112.903 E74.93024
G1 X130.425 Y95.295 E77.00846
G1 X129.998 Y95.722 E77.05886
G1 X148.033 Y113.757 E79.18747
G1 X148.033 Y114.611 E79.25874
G1 X129.571 Y96.149 E81.43775
G1 X129.144 Y96.576 E81.48815
G1 X148.033 Y115.465 E83.71756
G1 X148.033 Y116.318 E83.78875
G1 X129.079 Y97.365 E86.02577
G1 X129.079 Y98.219 E86.09704
G1 X148.033 Y117.172 E88.33406
G1 X148.033 Y118.026 E88.40533
G1 X129.079 Y99.073 E90.64235
G1 X129.079 Y99.926 E90.71354
G1 X148.033 Y118.88 E92.95062
G1 X148.033 Y119.734 E93.02189
G1 X129.079 Y100.78 E95.25897
G1 X129.079 Y101.634 E95.33024
G1 X148.033 Y120.587 E97.56726
G1 X148.033 Y121.441 E97.63853
G1 X129.079 Y102.488 E99.87555
G1 X129.079 Y103.342 E99.94682
G1 X148.033 Y122.295 E102.18384
G1 X148.033 Y123.149 E102.25511
G1 X129.079 Y104.195 E104.49219
G1 X129.079 Y105.049 E104.56346
G1 X148.033 Y124.003 E106.80054
G1 X148.033 Y124.856 E106.87173
G1 X129.079 Y105.903 E109.10875
G1 X129.079 Y106.757 E109.18002
G1 X148.033 Y125.71 E111.41704
G1 X148.033 Y126.564 E111.48831
G1 X129.079 Y107.611 E113.72533
G1 X129.079 Y108.464 E113.79652
G1 X148.033 Y127.418 E116.0336
G1 X148.033 Y128.272 E116.10487
G1 X129.079 Y109.318 E118.34195
G1 X129.079 Y110.172 E118.41322
G1 X148.033 Y129.125 E120.65024
G1 X148.033 Y129.979 E120.72151
G1 X129.079 Y111.026 E122.95853
G1 X129.079 Y111.88 E123.0298
G1 X148.033 Y130.833 E125.26682
G1 X148.033 Y131.687 E125.33809
G1 X129.079 Y112.733 E127.57517
G1 X129.079 Y113.587 E127.64644
G1 X148.033 Y132.541 E129.88352
G1 X148.033 Y133.394 E129.95471
G1 X129.079 Y114.441 E132.19173
G1 X129.079 Y115.295 E132.263
G1 X148.033 Y134.248 E134.50002
G1 X148.033 Y135.102 E134.57129
G1 X129.079 Y116.149 E136.80831
G1 X129.079 Y117.002 E136.8795
G1 X148.033 Y135.956 E139.11658
G1 X148.033 Y136.81 E139.18785
G1 X129.079 Y117.856 E141.42493
G1 X129.079 Y118.71 E141.4962
G1 X148.033 Y137.663 E143.73322
G1 X148.033 Y138.517 E143.80449
G1 X129.079 Y119.564 E146.04151
G1 X129.079 Y120.418 E146.11278
G1 X148.033 Y139.371 E148.3498
G1 X148.033 Y140.225 E148.42107
G1 X129.079 Y121.271 E150.65815
G1 X129.079 Y122.125 E150.72942
G1 X148.033 Y141.079 E152.9665
G1 X148.033 Y141.932 E153.03769
G1 X129.079 Y122.979 E155.27471
G1 X129.079 Y123.833 E155.34598
G1 X148.033 Y142.786 E157.583
G1 X148.033 Y143.64 E157.65427
G1 X129.079 Y124.687 E159.89129
G1 X129.079 Y125.54 E159.96248
G1 X148.033 Y144.494 E162.19956
G1 X148.033 Y145.348 E162.27083
G1 X129.079 Y126.394 E164.50791
G1 X129.079 Y127.248 E164.57918
G1 X148.033 Y146.201 E166.8162
G1 X148.033 Y147.055 E166.88747
G1 X129.079 Y128.102 E169.12449
G1 X129.079 Y128.956 E169.19576
G1 X148.033 Y147.909 E171.43278
G1 X148.033 Y148.763 E171.50405
G1 X129.079 Y129.809 E173.74113
G1 X129.079 Y130.663 E173.8124
G1 X148.033 Y149.617 E176.04948
G1 X148.033 Y150.47 E176.12067
G1 X129.079 Y131.517 E178.35769
G1 X129.079 Y132.371 E178.42896
G1 X148.033 Y151.324 E180.66598
G1 X148.033 Y152.178 E180.73725
G1 X129.079 Y133.225 E182.97427
G1 X129.079 Y134.078 E183.04546
G1 X148.033 Y153.032 E185.28254
G1 X148.033 Y153.886 E185.35381
G1 X129.079 Y134.932 E187.59089
G1 X129.079 Y135.786 E187.66216
G1 X148.033 Y154.739 E189.89918
G1 X148.033 Y155.593 E189.97045
G1 X129.079 Y136.64 E192.20747
G1 X129.079 Y137.494 E192.27874
G1 X148.033 Y156.447 E194.51576
G1 X148.033 Y157.301 E194.58703
G1 X129.079 Y138.347 E196.82411
G1 X129.079 Y139.201 E196.89538
G1 X147.653 Y157.775 E199.08761
G1 X146.799 Y157.775 E199.15888
G1 X129.079 Y140.055 E201.25031
G1 X129.079 Y140.909 E201.32158
G1 X145.945 Y157.775 E203.31222
G1 X145.091 Y157.775 E203.38349
G1 X129.079 Y141.762 E205.27339
G1 X129.079 Y142.616 E205.34466
G1 X144.238 Y157.775 E207.13383
G1 X143.384 Y157.775 E207.2051
G1 X129.079 Y143.47 E208.89347
G1 X129.079 Y144.324 E208.96474
G1 X142.53 Y157.775 E210.55232
G1 X141.676 Y157.775 E210.62359
G1 X129.079 Y145.178 E212.11037
G1 X129.079 Y146.031 E212.18156
G1 X140.822 Y157.775 E213.56761
G1 X139.969 Y157.775 E213.6388
G1 X129.079 Y146.885 E214.92411
G1 X129.079 Y147.739 E214.99538
G1 X139.115 Y157.775 E216.1799
G1 X138.261 Y157.775 E216.25117
G1 X129.079 Y148.593 E217.33489
G1 X129.079 Y149.447 E217.40616
G1 X137.407 Y157.775 E218.38909
G1 X136.554 Y157.775 E218.46028
G1 X129.079 Y150.3 E219.34253
G1 X129.079 Y151.154 E219.4138
G1 X135.7 Y157.775 E220.19526
G1 X134.846 Y157.775 E220.26653
G1 X128.81 Y151.738 E220.979
;LAYER_CHANGE
;Z:0.55
;HEIGHT:0.2
G1 Z.55 F9000
G1 E220.479 F240
G92 E0
G1 X128.81 Y151.738 Z.55 F9000
EXCLUDE_OBJECT_END NAME='bed_alignment_bracket_(Instance_2)'
EXCLUDE_OBJECT_START NAME='bed_alignment_bracket_(Instance_1)'
G92 E0
G1 X121.37 Y89.655
G1 E.5 F240
;TYPE:External perimeter
;WIDTH:0.674999
G1 F1920
G1 X121.37 Y159.852 E4.00492
G1 X105.847 Y159.852 E4.77998
G1 X99.117 Y153.122 E5.25519
G1 X99.117 Y96.386 E8.088
G1 X105.847 Y89.655 E8.56325
G1 X121.28 Y89.655 E9.33382
G1 X121.369 Y90.249 F9000
G1 X120.738 Y91.018
;TYPE:Perimeter
G1 F4800
G1 X120.738 Y159.22 E12.73913
G1 X106.109 Y159.22 E13.46955
G1 X99.749 Y152.86 E13.91864
G1 X99.749 Y96.647 E16.72534
G1 X106.109 Y90.288 E17.17439
G1 X120.738 Y90.288 E17.90481
G1 X120.738 Y90.928 E17.93677
G1 X120.738 Y90.928 F9000
G1 X120.106 Y92.283
G1 F4800
G1 X120.106 Y158.588 E21.24736
G1 X106.371 Y158.588 E21.93314
G1 X100.381 Y152.598 E22.3561
G1 X100.381 Y96.909 E25.13664
G1 X106.371 Y90.92 E25.55957
G1 X120.106 Y90.92 E26.24535
G1 X120.106 Y92.193 E26.30891
G1 E25.80891 F240
G92 E0
G1 X120.106 Y92.193 F9000
G1 X107.014 Y91.394
G1 E.5 F240
;TYPE:Solid infill
G1 F2880
G1 X100.856 Y97.552 E.93482
G1 X100.803 Y97.382 E.94371
;WIDTH:0.634306
