; generated by PrusaSlicer 2.8.1+MacOS-arm64 on 2024-11-27 at 05:35:27 UTC


;
;

;
;
; 

; external perimeters extrusion width = 0.50mm
; perimeters extrusion width = 0.55mm
; infill extrusion width = 0.60mm
; solid infill extrusion width = 0.60mm
; top infill extrusion width = 0.55mm
; first layer extrusion width = 0.60mm

M73 P0 R45
M73 C23

EXCLUDE_OBJECT_DEFINE NAME='bed_alignment_bracket' CENTER=124.721,125.000 POLYGON=[[136.464,96.492],[136.464,153.508],[129.536,160.436],[113.536,160.436],[113.536,89.564],[129.536,89.564]]

M190 S55 ; set bed temperature and wait for it to be reached
M104 S230 ; set temperature
;TYPE:Custom
START_PRINT BED_TEMP=55 HOTEND_TEMP=230 FILAMENT_TYPE=PLA EXTRUSION_MULTIPLIER=0.98
M109 S230 ; set temperature and wait for it to be reached
G21 ; set units to millimeters
G90 ; use absolute coordinates
M82 ; use absolute distances for extrusion
G92 E0
; Filament gcode
SET_GCODE_OFFSET Z=0.01
M107
;LAYER_CHANGE
;Z:0.25
;HEIGHT:0.25
G1 E-.53 F600
G1 Z.55 F9000
EXCLUDE_OBJECT_START NAME='bed_alignment_bracket'
G92 E0
G1 X113.836 Y89.864
G1 Z.25
G1 E.53 F1200
;TYPE:External perimeter
;WIDTH:0.599999
G1 F1800
G1 X129.412 Y89.864 E1.39681
G1 X136.164 Y96.616 E1.92821
G1 X136.164 Y101.241 E2.18559
G1 X136.164 Y153.384 E5.08738
G1 X129.412 Y160.136 E5.61878
G1 X113.836 Y160.136 E6.48559
G1 X113.836 Y89.939 E10.3921
G1 X114.331 Y89.865 F9000
G1 X115.017 Y90.411
;TYPE:Perimeter
G1 F1800
G1 X129.186 Y90.411 E11.18061
G1 X135.618 Y96.843 E11.68682
G1 X135.618 Y101.241 E11.93157
G1 X135.618 Y153.157 E14.82073
G1 X129.186 Y159.589 E15.32694
G1 X114.382 Y159.589 E16.15079
G1 X114.382 Y90.411 E20.00059
G1 X114.942 Y90.411 E20.03175
G1 X114.942 Y90.411 F9000
G1 X116.109 Y90.957
G1 F1800
G1 X128.959 Y90.957 E20.74686
G1 X135.071 Y97.069 E21.22789
G1 X135.071 Y101.241 E21.46006
G1 X135.071 Y152.931 E24.33664
G1 X128.959 Y159.043 E24.81767
G1 X114.929 Y159.043 E25.59845
G1 X114.929 Y90.957 E29.38748
G1 X116.034 Y90.957 E29.44897
G1 X116.034 Y90.957 F9000
G1 X117.202 Y91.503
G1 F1800
G1 X128.733 Y91.503 E30.09068
G1 X134.525 Y97.295 E30.54652
G1 X134.525 Y101.241 E30.76612
G1 X134.525 Y152.705 E33.63013
G1 X128.733 Y158.497 E34.08597
G1 X115.475 Y158.497 E34.82379
G1 X115.475 Y91.503 E38.55205
G1 X117.127 Y91.503 E38.64398
G1 E38.11398 F600
G92 E0
G1 X117.127 Y91.503 F9000
G1 X133.297 Y97.328 Z.55
G1 X134.361 Y97.712
G1 Z.25
G1 E.53 F1200
;TYPE:Solid infill
;WIDTH:0.601382
G1 F1800
G1 X128.562 Y91.913 E.98755
G1 X127.788 Y91.913 E1.03073
G1 X134.115 Y98.241 E1.52998
G1 X134.115 Y99.015 E1.57316
G1 X127.013 Y91.913 E2.13352
G1 X126.238 Y91.913 E2.17676
G1 X134.115 Y99.79 E2.79826
G1 X134.115 Y100.564 E2.84144
G1 X125.464 Y91.913 E3.52401
G1 X124.689 Y91.913 E3.56725
M73 P1 R45
G1 X134.115 Y101.339 E4.31097
G1 X134.115 Y102.114 E4.35421
G1 X123.915 Y91.913 E5.15904
G1 X123.14 Y91.913 E5.20228
G1 X134.115 Y102.888 E6.06822
G1 X134.115 Y103.663 E6.11146
G1 X122.365 Y91.913 E7.03855
G1 X121.591 Y91.913 E7.08173
G1 X134.115 Y104.437 E8.06989
G1 X134.115 Y105.212 E8.11313
G1 X120.816 Y91.913 E9.16244
G1 X120.041 Y91.913 E9.20568
G1 X134.115 Y105.987 E10.31613
G1 X134.115 Y106.761 E10.35931
G1 X119.267 Y91.913 E11.53083
G1 X118.492 Y91.913 E11.57407
G1 X134.115 Y107.536 E12.80674
G1 X134.115 Y108.311 E12.84998
G1 X117.718 Y91.913 E14.14376
G1 X116.943 Y91.913 E14.187
G1 X134.115 Y109.085 E15.54189
G1 X134.115 Y109.86 E15.58513
G1 X116.168 Y91.913 E17.00117
G1 X115.885 Y91.913 E17.01696
G1 X115.885 Y92.404 E17.04435
G1 X134.115 Y110.634 E18.48272
G1 X134.115 Y111.409 E18.52596
G1 X115.885 Y93.179 E19.96433
G1 X115.885 Y93.953 E20.00751
G1 X134.115 Y112.184 E21.44592
G1 X134.115 Y112.958 E21.4891
G1 X115.885 Y94.728 E22.92747
G1 X115.885 Y95.503 E22.97071
G1 X134.115 Y113.733 E24.40908
G1 X134.115 Y114.507 E24.45226
G1 X115.885 Y96.277 E25.89063
G1 X115.885 Y97.052 E25.93387
G1 X134.115 Y115.282 E27.37224
G1 X134.115 Y116.057 E27.41548
G1 X115.885 Y97.826 E28.85389
G1 X115.885 Y98.601 E28.89713
G1 X134.115 Y116.831 E30.3355
G1 X134.115 Y117.606 E30.37874
G1 X115.885 Y99.376 E31.81711
G1 X115.885 Y100.15 E31.86029
G1 X134.115 Y118.38 E33.29866
G1 X134.115 Y119.155 E33.3419
M73 P1 R44
G1 X115.885 Y100.925 E34.78027
G1 X115.885 Y101.7 E34.82351
G1 X134.115 Y119.93 E36.26188
G1 X134.115 Y120.704 E36.30506
G1 X115.885 Y102.474 E37.74343
G1 X115.885 Y103.249 E37.78667
G1 X134.115 Y121.479 E39.22504
G1 X134.115 Y122.254 E39.26828
G1 X115.885 Y104.023 E40.70669
G1 X115.885 Y104.798 E40.74993
M73 C22
G1 X134.115 Y123.028 E42.1883
G1 X134.115 Y123.803 E42.23154
G1 X115.885 Y105.573 E43.66991
G1 X115.885 Y106.347 E43.71309
G1 X134.115 Y124.577 E45.15146
G1 X134.115 Y125.352 E45.1947
G1 X115.885 Y107.122 E46.63307
G1 X115.885 Y107.896 E46.67625
M73 P2 R44
G1 X134.115 Y126.127 E48.11466
G1 X134.115 Y126.901 E48.15784
G1 X115.885 Y108.671 E49.59621
G1 X115.885 Y109.446 E49.63945
G1 X134.115 Y127.676 E51.07782
G1 X134.115 Y128.45 E51.121
G1 X115.885 Y110.22 E52.55937
G1 X115.885 Y110.995 E52.60261
G1 X134.115 Y129.225 E54.04098
G1 X134.115 Y130 E54.08422
G1 X115.885 Y111.769 E55.52263
G1 X115.885 Y112.544 E55.56587
G1 X134.115 Y130.774 E57.00424
G1 X134.115 Y131.549 E57.04748
G1 X115.885 Y113.319 E58.48585
G1 X115.885 Y114.093 E58.52903
G1 X134.115 Y132.323 E59.9674
G1 X134.115 Y133.098 E60.01064
G1 X115.885 Y114.868 E61.44901
G1 X115.885 Y115.642 E61.49219
G1 X134.115 Y133.873 E62.9306
G1 X134.115 Y134.647 E62.97378
G1 X115.885 Y116.417 E64.41215
G1 X115.885 Y117.192 E64.45539
G1 X134.115 Y135.422 E65.89376
G1 X134.115 Y136.196 E65.93694
G1 X115.885 Y117.966 E67.37531
G1 X115.885 Y118.741 E67.41855
G1 X134.115 Y136.971 E68.85692
G1 X134.115 Y137.746 E68.90016
G1 X115.885 Y119.516 E70.33853
G1 X115.885 Y120.29 E70.38171
G1 X134.115 Y138.52 E71.82008
G1 X134.115 Y139.295 E71.86332
G1 X115.885 Y121.065 E73.30169
G1 X115.885 Y121.839 E73.34487
G1 X134.115 Y140.07 E74.78328
G1 X134.115 Y140.844 E74.82646
G1 X115.885 Y122.614 E76.26483
G1 X115.885 Y123.389 E76.30807
G1 X134.115 Y141.619 E77.74644
G1 X134.115 Y142.393 E77.78962
G1 X115.885 Y124.163 E79.22799
G1 X115.885 Y124.938 E79.27123
G1 X134.115 Y143.168 E80.7096
G1 X134.115 Y143.943 E80.75284
G1 X115.885 Y125.712 E82.19125
G1 X115.885 Y126.487 E82.23449
G1 X134.115 Y144.717 E83.67286
G1 X134.115 Y145.492 E83.7161
G1 X115.885 Y127.262 E85.15447
G1 X115.885 Y128.036 E85.19765
G1 X134.115 Y146.266 E86.63602
G1 X134.115 Y147.041 E86.67926
G1 X115.885 Y128.811 E88.11763
G1 X115.885 Y129.585 E88.16081
G1 X134.115 Y147.816 E89.59922
G1 X134.115 Y148.59 E89.6424
M73 P3 R44
G1 X115.885 Y130.36 E91.08077
G1 X115.885 Y131.135 E91.12401
G1 X134.115 Y149.365 E92.56238
G1 X134.115 Y150.139 E92.60556
G1 X115.885 Y131.909 E94.04393
G1 X115.885 Y132.684 E94.08717
G1 X134.115 Y150.914 E95.52554
G1 X134.115 Y151.689 E95.56878
G1 X115.885 Y133.459 E97.00715
G1 X115.885 Y134.233 E97.05033
G1 X134.115 Y152.463 E98.4887
G1 X134.115 Y152.535 E98.49272
G1 X133.764 Y152.886 E98.52041
G1 X115.885 Y135.008 E99.93104
G1 X115.885 Y135.782 E99.97422
G1 X133.376 Y153.274 E101.35432
G1 X132.989 Y153.661 E101.38485
G1 X115.885 Y136.557 E102.73437
G1 X115.885 Y137.332 E102.77761
G1 X132.602 Y154.048 E104.09656
G1 X132.214 Y154.436 E104.12717
G1 X115.885 Y138.106 E105.41559
G1 X115.885 Y138.881 E105.45883
G1 X131.827 Y154.823 E106.71667
G1 X131.44 Y155.21 E106.7472
G1 X115.885 Y139.655 E107.97451
G1 X115.885 Y140.43 E108.01775
G1 X131.053 Y155.598 E109.21452
G1 X130.665 Y155.985 E109.24509
G1 X115.885 Y141.205 E110.41125
G1 X115.885 Y141.979 E110.45443
G1 X130.278 Y156.372 E111.59005
G1 X129.891 Y156.76 E111.62062
G1 X115.885 Y142.754 E112.72571
G1 X115.885 Y143.528 E112.76889
G1 X129.503 Y157.147 E113.84341
G1 X129.116 Y157.534 E113.87394
G1 X115.885 Y144.303 E114.91788
G1 X115.885 Y145.078 E114.96112
G1 X128.729 Y157.921 E115.97449
G1 X128.563 Y158.087 E115.98759
G1 X128.12 Y158.087 E116.01231
G1 X115.885 Y145.852 E116.97767
G1 X115.885 Y146.627 E117.02091
G1 X127.345 Y158.087 E117.92512
G1 X126.57 Y158.087 E117.96836
G1 X115.885 Y147.401 E118.81146
G1 X115.885 Y148.176 E118.8547
G1 X125.796 Y158.087 E119.63669
G1 X125.021 Y158.087 E119.67993
G1 X115.885 Y148.951 E120.40077
G1 X115.885 Y149.725 E120.44395
G1 X124.247 Y158.087 E121.10372
G1 X123.472 Y158.087 E121.14696
G1 X115.885 Y150.5 E121.74558
G1 X115.885 Y151.275 E121.78882
G1 X122.697 Y158.087 E122.32629
G1 X121.923 Y158.087 E122.36947
G1 X115.885 Y152.049 E122.84588
G1 X115.885 Y152.824 E122.88912
G1 X121.148 Y158.087 E123.30438
G1 X120.373 Y158.087 E123.34762
G1 X115.885 Y153.598 E123.70177
G1 X115.885 Y154.373 E123.74501
G1 X119.599 Y158.087 E124.03805
G1 X118.824 Y158.087 E124.08129
G1 X115.885 Y155.148 E124.31318
G1 X115.885 Y155.922 E124.35636
G1 X118.05 Y158.087 E124.52718
G1 X117.275 Y158.087 E124.57042
G1 X115.885 Y156.697 E124.68009
G1 X115.885 Y157.471 E124.72327
G1 X116.746 Y158.333 E124.79124
;LAYER_CHANGE
;Z:0.45
;HEIGHT:0.2
G1 E124.26124 F600
G92 E0
G1 X116.746 Y158.333 Z.25 F9000
G1 X116.004 Y141.162 Z.55
G1 X113.786 Y89.814 Z.55
M104 S215 ; set temperature
G1 Z.45
M73 P3 R43
G1 E.53 F1200
;TYPE:External perimeter
;WIDTH:0.499999
G1 F2099.997
G1 X129.433 Y89.814 E1.11279
G1 X136.214 Y96.596 E1.47
G1 X136.214 Y153.404 E3.58588
G1 X129.433 Y160.186 E3.94309
G1 X113.786 Y160.186 E4.52588
G1 X113.786 Y89.889 E7.14417
M73 P4 R43
G1 X114.281 Y89.815 F9000
M73 C21
G1 X114.806 Y90.296
;TYPE:Perimeter
;WIDTH:0.549999
G1 F4800
G1 X129.233 Y90.296 E7.7403
G1 X135.732 Y96.795 E8.12008
G1 X135.732 Y153.205 E10.45097
G1 X129.233 Y159.704 E10.83075
G1 X114.268 Y159.704 E11.44911
G1 X114.268 Y90.296 E14.31708
G1 X114.731 Y90.296 E14.33621
G1 X114.731 Y90.296 F9000
G1 X115.82 Y90.803
G1 F4800
G1 X129.023 Y90.803 E14.88176
G1 X135.225 Y97.005 E15.24418
G1 X135.225 Y152.995 E17.55772
G1 X129.023 Y159.197 E17.92014
G1 X114.775 Y159.197 E18.50887
G1 X114.775 Y90.803 E21.33495
G1 X115.745 Y90.803 E21.37503
G1 X115.745 Y90.803 F9000
G1 X116.834 Y91.31
G1 F4800
G1 X128.813 Y91.31 E21.87001
G1 X134.718 Y97.215 E22.21507
G1 X134.718 Y152.785 E24.51125
G1 X128.813 Y158.69 E24.85631
G1 X115.282 Y158.69 E25.41542
G1 X115.282 Y91.31 E28.1996
G1 X116.759 Y91.31 E28.26063
G1 X116.759 Y91.31 F9000
G1 X115.839 Y91.761
;TYPE:Solid infill
;WIDTH:0.735162
G1 F4200
G1 X115.778 Y91.7 E28.2655
G1 X115.694 Y91.722 E28.2704
G1 X115.672 Y91.806 E28.2753
G1 X115.733 Y91.867 E28.28017
G1 X115.816 Y91.845 E28.28501
;WIDTH:0.599999
G1 X116.706 Y91.716 E28.32583
G1 X115.688 Y92.734 E28.39118
G1 X115.688 Y93.522 E28.42695
G1 X117.494 Y91.716 E28.54289
G1 X118.282 Y91.716 E28.57866
G1 X115.688 Y94.31 E28.74519
G1 X115.688 Y95.098 E28.78096
G1 X119.07 Y91.716 E28.99808
G1 X119.858 Y91.716 E29.03385
G1 X115.688 Y95.886 E29.30156
G1 X115.688 Y96.674 E29.33733
G1 X120.645 Y91.716 E29.65559
G1 X121.433 Y91.716 E29.69136
G1 X115.688 Y97.461 E30.06018
G1 X115.688 Y98.249 E30.09595
G1 X122.221 Y91.716 E30.51536
G1 X123.009 Y91.716 E30.55113
G1 X115.688 Y99.037 E31.02112
G1 X115.688 Y99.825 E31.05689
G1 X123.797 Y91.716 E31.57747
G1 X124.585 Y91.716 E31.61324
G1 X115.688 Y100.613 E32.18441
G1 X115.688 Y101.4 E32.22014
G1 X125.372 Y91.716 E32.84183
G1 X126.16 Y91.716 E32.8776
G1 X115.688 Y102.188 E33.54988
G1 X115.688 Y102.976 E33.58565
G1 X126.948 Y91.716 E34.30852
G1 X127.736 Y91.716 E34.34429
G1 X115.688 Y103.764 E35.11775
G1 X115.688 Y104.552 E35.15352
G1 X128.524 Y91.716 E35.97757
G1 X128.978 Y92.049 E36.00313
G1 X115.688 Y105.34 E36.85635
G1 X115.688 Y106.127 E36.89208
G1 X129.372 Y92.443 E37.77057
G1 X129.766 Y92.837 E37.79586
G1 X115.688 Y106.915 E38.69964
G1 X115.688 Y107.703 E38.73541
G1 X130.16 Y93.231 E39.66448
G1 X130.554 Y93.625 E39.68977
G1 X115.688 Y108.491 E40.64414
G1 X115.688 Y109.279 E40.67991
G1 X130.948 Y94.019 E41.65957
G1 X131.342 Y94.413 E41.68486
G1 X115.688 Y110.067 E42.68982
G1 X115.688 Y110.854 E42.72555
G1 X131.736 Y94.806 E43.7558
G1 X132.13 Y95.2 E43.78109
G1 X115.688 Y111.642 E44.83663
G1 X115.688 Y112.43 E44.8724
G1 X132.523 Y95.594 E45.95321
G1 X132.917 Y95.988 E45.9785
G1 X115.688 Y113.218 E47.0846
G1 X115.688 Y114.006 E47.12037
G1 X133.311 Y96.382 E48.25176
G1 X133.705 Y96.776 E48.27705
G1 X115.688 Y114.794 E49.43374
G1 X115.688 Y115.581 E49.46947
G1 X134.099 Y97.17 E50.65142
G1 X134.312 Y97.745 E50.67926
G1 X115.688 Y116.369 E51.87488
G1 X115.688 Y117.157 E51.91065
G1 X134.312 Y98.532 E53.10631
G1 X134.312 Y99.32 E53.14208
G1 X115.688 Y117.945 E54.33774
G1 X115.688 Y118.733 E54.37351
G1 X134.312 Y100.108 E55.56917
G1 X134.312 Y100.896 E55.60494
G1 X115.688 Y119.521 E56.8006
G1 X115.688 Y120.308 E56.83633
G1 X134.312 Y101.684 E58.03195
G1 X134.312 Y102.472 E58.06772
G1 X115.688 Y121.096 E59.26334
G1 X115.688 Y121.884 E59.29911
G1 X134.312 Y103.259 E60.49477
G1 X134.312 Y104.047 E60.53054
G1 X115.688 Y122.672 E61.7262
G1 X115.688 Y123.46 E61.76197
G1 X134.312 Y104.835 E62.95763
G1 X134.312 Y105.623 E62.9934
M73 P5 R43
G1 X115.688 Y124.248 E64.18906
G1 X115.688 Y125.035 E64.22479
G1 X134.312 Y106.411 E65.42041
G1 X134.312 Y107.199 E65.45618
G1 X115.688 Y125.823 E66.6518
G1 X115.688 Y126.611 E66.68757
G1 X134.312 Y107.986 E67.88323
G1 X134.312 Y108.774 E67.919
G1 X115.688 Y127.399 E69.11466
G1 X115.688 Y128.187 E69.15043
G1 X134.312 Y109.562 E70.34609
G1 X134.312 Y110.35 E70.38186
G1 X115.688 Y128.974 E71.57748
G1 X115.688 Y129.762 E71.61325
G1 X134.312 Y111.138 E72.80887
G1 X134.312 Y111.925 E72.8446
G1 X115.688 Y130.55 E74.04026
G1 X115.688 Y131.338 E74.07603
G1 X134.312 Y112.713 E75.27169
G1 X134.312 Y113.501 E75.30746
G1 X115.688 Y132.126 E76.50312
G1 X115.688 Y132.914 E76.53889
G1 X134.312 Y114.289 E77.73455
G1 X134.312 Y115.077 E77.77032
G1 X115.688 Y133.701 E78.96594
G1 X115.688 Y134.489 E79.00171
G1 X134.312 Y115.865 E80.19733
G1 X134.312 Y116.652 E80.23306
G1 X115.688 Y135.277 E81.42872
G1 X115.688 Y136.065 E81.46449
G1 X134.312 Y117.44 E82.66015
G1 X134.312 Y118.228 E82.69592
G1 X115.688 Y136.853 E83.89158
G1 X115.688 Y137.641 E83.92735
G1 X134.312 Y119.016 E85.12301
G1 X134.312 Y119.804 E85.15878
G1 X115.688 Y138.428 E86.3544
G1 X115.688 Y139.216 E86.39017
G1 X134.312 Y120.592 E87.58579
G1 X134.312 Y121.379 E87.62152
G1 X115.688 Y140.004 E88.81718
G1 X115.688 Y140.792 E88.85295
G1 X134.312 Y122.167 E90.04861
G1 X134.312 Y122.955 E90.08438
G1 X115.688 Y141.58 E91.28004
G1 X115.688 Y142.368 E91.31581
G1 X134.312 Y123.743 E92.51147
G1 X134.312 Y124.531 E92.54724
G1 X115.688 Y143.155 E93.74286
G1 X115.688 Y143.943 E93.77863
G1 X134.312 Y125.319 E94.97425
G1 X134.312 Y126.106 E95.00998
G1 X115.688 Y144.731 E96.20564
G1 X115.688 Y145.519 E96.24141
G1 X134.312 Y126.894 E97.43707
G1 X134.312 Y127.682 E97.47284
G1 X115.688 Y146.307 E98.6685
G1 X115.688 Y147.095 E98.70427
G1 X134.312 Y128.47 E99.89993
G1 X134.312 Y129.258 E99.9357
G1 X115.688 Y147.882 E101.13132
G1 X115.688 Y148.67 E101.16709
G1 X134.312 Y130.046 E102.36271
G1 X134.312 Y130.833 E102.39844
G1 X115.688 Y149.458 E103.5941
G1 X115.688 Y150.246 E103.62987
G1 X134.312 Y131.621 E104.82553
G1 X134.312 Y132.409 E104.8613
G1 X115.688 Y151.034 E106.05696
G1 X115.688 Y151.822 E106.09273
G1 X134.312 Y133.197 E107.28839
G1 X134.312 Y133.985 E107.32416
G1 X115.688 Y152.609 E108.51978
G1 X115.688 Y153.397 E108.55555
G1 X134.312 Y134.773 E109.75117
G1 X134.312 Y135.56 E109.7869
G1 X115.688 Y154.185 E110.98256
G1 X115.688 Y154.973 E111.01833
G1 X134.312 Y136.348 E112.21399
G1 X134.312 Y137.136 E112.24976
G1 X115.688 Y155.761 E113.44542
G1 X115.688 Y156.548 E113.48115
G1 X134.312 Y137.924 E114.67677
G1 X134.312 Y138.712 E114.71254
G1 X115.688 Y157.336 E115.90816
G1 X115.575 Y158.434 E115.95827
;WIDTH:0.46792
G2 X115.561 Y158.486 I-.049 J.015 E115.96739
;WIDTH:0.511947
G1 X115.604 Y158.365 E115.9723
;WIDTH:0.555973
G1 X115.646 Y158.245 E115.97762
;WIDTH:0.599999
G1 X115.688 Y158.124 E115.98343
G1 X134.312 Y139.499 E117.17909
G1 X134.312 Y140.287 E117.21486
G1 X116.315 Y158.284 E118.37023
G1 X117.103 Y158.284 E118.406
G1 X134.312 Y141.075 E119.51078
G1 X134.312 Y141.863 E119.54655
G1 X117.891 Y158.284 E120.60075
G1 X118.679 Y158.284 E120.63652
G1 X134.312 Y142.651 E121.64013
