; generated by PrusaSlicer 2.8.1+MacOS-arm64 on 2024-10-09 at 10:13:25 UTC


;
;

;
;
; 

; external perimeters extrusion width = 0.68mm
; perimeters extrusion width = 0.68mm
; infill extrusion width = 0.68mm
; solid infill extrusion width = 0.68mm
; top infill extrusion width = 0.60mm


EXCLUDE_OBJECT_DEFINE NAME='bed_alignment_bracket' CENTER=125.279,125.000 POLYGON=[[136.464,160.436],[120.464,160.436],[113.536,153.508],[113.536,96.492],[120.464,89.564],[136.464,89.564]]

;TYPE:Custom
START_PRINT BED_TEMP=65 HOTEND_TEMP=215 FILAMENT_TYPE=PLA EXTRUSION_MULTIPLIER=0.95 PERIMETER_SPEED=80
G21 ; set units to millimeters
G90 ; use absolute coordinates
M82 ; use absolute distances for extrusion
G92 E0
; Filament gcode
M107
;LAYER_CHANGE
;Z:0.35
;HEIGHT:0.35
G1 E-.5 F240
G1 Z.35 F9000
EXCLUDE_OBJECT_START NAME='bed_alignment_bracket'
G92 E0
G1 X136.126 Y89.902
G1 E.5 F240
;TYPE:External perimeter
;WIDTH:0.675
G1 F1800
G1 X136.126 Y100.878 E1.41021
G1 X136.126 Y160.098 E6.32115
G1 X120.604 Y160.098 E7.60834
G1 X113.874 Y153.368 E8.39761
G1 X113.874 Y96.632 E13.10256
G1 X120.604 Y89.902 E13.89183
G1 X136.036 Y89.902 E15.17156
G1 X136.125 Y90.495 F9000
G1 X135.526 Y91.2
;TYPE:Perimeter
G1 F1800
G1 X135.526 Y100.878 E15.97413
G1 X135.526 Y159.498 E20.83532
G1 X120.852 Y159.498 E22.05219
G1 X114.473 Y153.12 E22.80024
G1 X114.473 Y96.88 E27.46406
G1 X120.852 Y90.502 E28.21211
G1 X135.526 Y90.502 E29.42898
G1 X135.526 Y91.11 E29.4794
G1 X135.526 Y91.11 F9000
G1 X134.927 Y92.4
G1 F1800
G1 X134.927 Y100.878 E30.18246
G1 X134.927 Y158.898 E34.99389
G1 X121.101 Y158.898 E36.14044
G1 X115.073 Y152.871 E36.84732
G1 X115.073 Y97.129 E41.46984
G1 X121.101 Y91.102 E42.17672
G1 X134.927 Y91.102 E43.32327
G1 X134.927 Y92.31 E43.42345
G1 X134.927 Y92.31 F9000
G1 X133.526 Y91.282
;TYPE:Solid infill
;WIDTH:0.678837
G1 F1800
G1 X134.477 Y92.232 E43.53563
G1 X134.477 Y93.086 E43.6069
G1 X132.942 Y91.551 E43.78807
G1 X132.088 Y91.551 E43.85934
G1 X134.477 Y93.94 E44.14131
G1 X134.477 Y94.794 E44.21258
G1 X131.234 Y91.551 E44.59534
G1 X130.381 Y91.551 E44.66653
G1 X134.477 Y95.648 E45.15003
G1 X134.477 Y96.501 E45.22122
G1 X129.527 Y91.551 E45.80545
G1 X128.673 Y91.551 E45.87672
G1 X134.477 Y97.355 E46.56175
G1 X134.477 Y98.209 E46.63302
G1 X127.819 Y91.551 E47.41884
G1 X126.965 Y91.551 E47.49011
G1 X134.477 Y99.063 E48.37673
G1 X134.477 Y99.917 E48.448
G1 X126.112 Y91.551 E49.43535
G1 X125.258 Y91.551 E49.50662
G1 X134.477 Y100.77 E50.59471
G1 X134.477 Y101.624 E50.66598
G1 X124.404 Y91.551 E51.85486
G1 X123.55 Y91.551 E51.92613
G1 X134.477 Y102.478 E53.21581
G1 X134.477 Y103.332 E53.28708
G1 X122.696 Y91.551 E54.67755
G1 X121.843 Y91.551 E54.74874
G1 X134.477 Y104.185 E56.23989
G1 X134.477 Y105.039 E56.31116
G1 X121.138 Y91.701 E57.88546
G1 X120.711 Y92.127 E57.9358
G1 X134.477 Y105.893 E59.56056
G1 X134.477 Y106.747 E59.63183
G1 X120.284 Y92.554 E61.30698
G1 X119.857 Y92.981 E61.35738
G1 X134.477 Y107.601 E63.08293
G1 X134.477 Y108.454 E63.15412
G1 X119.43 Y93.408 E64.93001
G1 X119.003 Y93.835 E64.98041
G1 X134.477 Y109.308 E66.8067
G1 X134.477 Y110.162 E66.87797
G1 X118.577 Y94.262 E68.7546
G1 X118.15 Y94.689 E68.805
G1 X134.477 Y111.016 E70.73202
G1 X134.477 Y111.87 E70.80329
G1 X117.723 Y95.116 E72.78071
G1 X117.296 Y95.543 E72.83111
G1 X134.477 Y112.723 E74.85887
G1 X134.477 Y113.577 E74.93014
G1 X116.869 Y95.97 E77.0083
G1 X116.442 Y96.396 E77.05864
G1 X134.477 Y114.431 E79.18725
G1 X134.477 Y115.285 E79.25852
G1 X116.015 Y96.823 E81.43753
G1 X115.588 Y97.25 E81.48793
G1 X134.477 Y116.139 E83.71734
G1 X134.477 Y116.992 E83.78853
G1 X115.523 Y98.039 E86.02555
G1 X115.523 Y98.893 E86.09682
G1 X134.477 Y117.846 E88.33384
G1 X134.477 Y118.7 E88.40511
G1 X115.523 Y99.747 E90.64213
G1 X115.523 Y100.6 E90.71332
G1 X134.477 Y119.554 E92.9504
G1 X134.477 Y120.408 E93.02167
G1 X115.523 Y101.454 E95.25875
G1 X115.523 Y102.308 E95.33002
G1 X134.477 Y121.261 E97.56704
G1 X134.477 Y122.115 E97.63831
G1 X115.523 Y103.162 E99.87533
G1 X115.523 Y104.016 E99.9466
G1 X134.477 Y122.969 E102.18362
G1 X134.477 Y123.823 E102.25489
G1 X115.523 Y104.869 E104.49197
G1 X115.523 Y105.723 E104.56324
G1 X134.477 Y124.677 E106.80032
G1 X134.477 Y125.53 E106.87151
G1 X115.523 Y106.577 E109.10853
G1 X115.523 Y107.431 E109.1798
G1 X134.477 Y126.384 E111.41682
G1 X134.477 Y127.238 E111.48809
G1 X115.523 Y108.285 E113.72511
G1 X115.523 Y109.138 E113.7963
G1 X134.477 Y128.092 E116.03338
G1 X134.477 Y128.946 E116.10465
G1 X115.523 Y109.992 E118.34173
G1 X115.523 Y110.846 E118.413
G1 X134.477 Y129.799 E120.65002
G1 X134.477 Y130.653 E120.72129
G1 X115.523 Y111.7 E122.95831
G1 X115.523 Y112.554 E123.02958
G1 X134.477 Y131.507 E125.2666
G1 X134.477 Y132.361 E125.33787
G1 X115.523 Y113.407 E127.57495
G1 X115.523 Y114.261 E127.64622
G1 X134.477 Y133.215 E129.8833
G1 X134.477 Y134.068 E129.95449
G1 X115.523 Y115.115 E132.19151
G1 X115.523 Y115.969 E132.26278
G1 X134.477 Y134.922 E134.4998
G1 X134.477 Y135.776 E134.57107
G1 X115.523 Y116.823 E136.80809
G1 X115.523 Y117.676 E136.87928
G1 X134.477 Y136.63 E139.11636
G1 X134.477 Y137.484 E139.18763
G1 X115.523 Y118.53 E141.42471
G1 X115.523 Y119.384 E141.49598
G1 X134.477 Y138.337 E143.733
G1 X134.477 Y139.191 E143.80427
G1 X115.523 Y120.238 E146.04129
G1 X115.523 Y121.092 E146.11256
G1 X134.477 Y140.045 E148.34958
G1 X134.477 Y140.899 E148.42085
G1 X115.523 Y121.945 E150.65793
G1 X115.523 Y122.799 E150.7292
G1 X134.477 Y141.753 E152.96628
G1 X134.477 Y142.606 E153.03747
G1 X115.523 Y123.653 E155.27449
G1 X115.523 Y124.507 E155.34576
G1 X134.477 Y143.46 E157.58278
G1 X134.477 Y144.314 E157.65405
G1 X115.523 Y125.361 E159.89107
G1 X115.523 Y126.214 E159.96226
G1 X134.477 Y145.168 E162.19934
G1 X134.477 Y146.022 E162.27061
G1 X115.523 Y127.068 E164.50769
G1 X115.523 Y127.922 E164.57896
G1 X134.477 Y146.875 E166.81598
G1 X134.477 Y147.729 E166.88725
G1 X115.523 Y128.776 E169.12427
G1 X115.523 Y129.63 E169.19554
G1 X134.477 Y148.583 E171.43256
G1 X134.477 Y149.437 E171.50383
G1 X115.523 Y130.483 E173.74091
G1 X115.523 Y131.337 E173.81218
G1 X134.477 Y150.291 E176.04926
G1 X134.477 Y151.144 E176.12045
G1 X115.523 Y132.191 E178.35747
G1 X115.523 Y133.045 E178.42874
G1 X134.477 Y151.998 E180.66576
G1 X134.477 Y152.852 E180.73703
G1 X115.523 Y133.899 E182.97405
G1 X115.523 Y134.752 E183.04524
G1 X134.477 Y153.706 E185.28232
G1 X134.477 Y154.56 E185.35359
G1 X115.523 Y135.606 E187.59067
G1 X115.523 Y136.46 E187.66194
G1 X134.477 Y155.413 E189.89896
G1 X134.477 Y156.267 E189.97023
G1 X115.523 Y137.314 E192.20725
G1 X115.523 Y138.168 E192.27852
G1 X134.477 Y157.121 E194.51554
G1 X134.477 Y157.975 E194.58681
G1 X115.523 Y139.021 E196.82389
G1 X115.523 Y139.875 E196.89516
G1 X134.097 Y158.449 E199.08739
G1 X133.243 Y158.449 E199.15866
G1 X115.523 Y140.729 E201.25009
G1 X115.523 Y141.583 E201.32136
G1 X132.389 Y158.449 E203.312
G1 X131.535 Y158.449 E203.38327
G1 X115.523 Y142.437 E205.27311
G1 X115.523 Y143.29 E205.3443
G1 X130.682 Y158.449 E207.13347
G1 X129.828 Y158.449 E207.20474
G1 X115.523 Y144.144 E208.89311
G1 X115.523 Y144.998 E208.96438
G1 X128.974 Y158.449 E210.55196
G1 X128.12 Y158.449 E210.62323
G1 X115.523 Y145.852 E212.11001
G1 X115.523 Y146.706 E212.18128
G1 X127.266 Y158.449 E213.56727
G1 X126.413 Y158.449 E213.63846
G1 X115.523 Y147.559 E214.92377
G1 X115.523 Y148.413 E214.99504
G1 X125.559 Y158.449 E216.17956
G1 X124.705 Y158.449 E216.25083
G1 X115.523 Y149.267 E217.33455
G1 X115.523 Y150.121 E217.40582
G1 X123.851 Y158.449 E218.38875
G1 X122.997 Y158.449 E218.46002
G1 X115.523 Y150.975 E219.34215
G1 X115.523 Y151.828 E219.41334
G1 X122.144 Y158.449 E220.1948
G1 X121.29 Y158.449 E220.26607
G1 X115.253 Y152.412 E220.9786
;LAYER_CHANGE
;Z:0.55
;HEIGHT:0.2
G1 Z.55 F9000
G1 E220.4786 F240
G92 E0
G1 X115.253 Y152.412 Z.55 F9000
G1 X136.126 Y89.902
G1 E.5 F240
;TYPE:External perimeter
;WIDTH:0.674999
G1 F1920
G1 X136.126 Y160.098 E4.00487
G1 X120.604 Y160.098 E4.77988
G1 X113.874 Y153.368 E5.25509
G1 X113.874 Y96.632 E8.0879
G1 X120.604 Y89.902 E8.56311
G1 X136.036 Y89.902 E9.33363
G1 X136.125 Y90.495 F9000
G1 X135.494 Y91.265
;TYPE:Perimeter
G1 F4800
G1 X135.494 Y159.466 E12.73889
G1 X120.865 Y159.466 E13.46931
G1 X114.506 Y153.106 E13.91836
G1 X114.506 Y96.894 E16.72501
G1 X120.865 Y90.534 E17.17406
G1 X135.494 Y90.534 E17.90448
G1 X135.494 Y91.175 E17.93648
G1 X135.494 Y91.175 F9000
G1 X134.862 Y92.529
G1 F4800
G1 X134.862 Y158.834 E21.24707
G1 X121.127 Y158.834 E21.93285
G1 X115.138 Y152.845 E22.35574
G1 X115.138 Y97.155 E25.13633
G1 X121.127 Y91.166 E25.55922
G1 X134.862 Y91.166 E26.245
G1 X134.862 Y92.439 E26.30856
G1 E25.80856 F240
G92 E0
G1 X134.862 Y92.439 F9000
G1 X121.771 Y91.64
G1 E.5 F240
;TYPE:Solid infill
G1 F2880
G1 X115.612 Y97.799 E.93489
G1 X115.559 Y97.628 E.94383
;WIDTH:0.634306
G1 X115.506 Y97.457 E.95219
;WIDTH:0.593613
G1 X115.454 Y97.286 E.95996
;WIDTH:0.55292
G1 X121.258 Y91.482 E1.29063
G1 X121.258 Y91.482 F9000
G1 X122.665 Y91.64
;WIDTH:0.674999
G1 F2880
G1 X115.612 Y98.693 E1.78865
G1 X115.612 Y99.587 E1.83329
G1 X123.558 Y91.64 E2.3944
G1 X124.452 Y91.64 E2.43904
G1 X115.612 Y100.48 E3.06324
G1 X115.612 Y101.374 E3.10788
G1 X125.346 Y91.64 E3.79521
G1 X126.24 Y91.64 E3.83985
G1 X115.612 Y102.268 E4.59031
G1 X115.612 Y103.162 E4.63495
G1 X127.134 Y91.64 E5.44853
G1 X128.028 Y91.64 E5.49317
G1 X115.612 Y104.056 E6.36988
G1 X115.612 Y104.95 E6.41452
G1 X128.922 Y91.64 E7.35436
G1 X129.816 Y91.64 E7.399
G1 X115.612 Y105.844 E8.40196
G1 X115.612 Y106.738 E8.4466
G1 X130.71 Y91.64 E9.51269
G1 X131.603 Y91.64 E9.55728
G1 X115.612 Y107.632 E10.68646
G1 X115.612 Y108.525 E10.73105
G1 X132.497 Y91.64 E11.92332
G1 X133.391 Y91.64 E11.96796
G1 X115.612 Y109.419 E13.22336
G1 X115.612 Y110.313 E13.268
G1 X134.285 Y91.64 E14.58652
G1 X134.388 Y92.431 E14.62635
G1 X115.612 Y111.207 E15.95215
G1 X115.612 Y112.101 E15.99679
G1 X134.388 Y93.325 E17.32259
G1 X134.388 Y94.219 E17.36723
G1 X115.612 Y112.995 E18.69303
G1 X115.612 Y113.889 E18.73767
G1 X134.388 Y95.113 E20.06347
G1 X134.388 Y96.006 E20.10806
G1 X115.612 Y114.783 E21.43389
G1 X115.612 Y115.677 E21.47853
G1 X134.388 Y96.9 E22.80436
G1 X134.388 Y97.794 E22.849
G1 X115.612 Y116.571 E24.17483
G1 X115.612 Y117.464 E24.21942
G1 X134.388 Y98.688 E25.54522
G1 X134.388 Y99.582 E25.58986
G1 X115.612 Y118.358 E26.91566
G1 X115.612 Y119.252 E26.9603
G1 X134.388 Y100.476 E28.2861
G1 X134.388 Y101.37 E28.33074
G1 X115.612 Y120.146 E29.65654
G1 X115.612 Y121.04 E29.70118
G1 X134.388 Y102.264 E31.02698
G1 X134.388 Y103.158 E31.07162
G1 X115.612 Y121.934 E32.39742
G1 X115.612 Y122.828 E32.44206
G1 X134.388 Y104.051 E33.76789
G1 X134.388 Y104.945 E33.81253
G1 X115.612 Y123.722 E35.13836
G1 X115.612 Y124.616 E35.183
G1 X134.388 Y105.839 E36.50883
G1 X134.388 Y106.733 E36.55347
G1 X115.612 Y125.509 E37.87927
G1 X115.612 Y126.403 E37.92391
G1 X134.388 Y107.627 E39.24971
G1 X134.388 Y108.521 E39.29435
G1 X115.612 Y127.297 E40.62015
G1 X115.612 Y128.191 E40.66479
G1 X134.388 Y109.415 E41.99059
G1 X134.388 Y110.309 E42.03523
G1 X115.612 Y129.085 E43.36103
G1 X115.612 Y129.979 E43.40567
G1 X134.388 Y111.203 E44.73147
G1 X134.388 Y112.097 E44.77611
G1 X115.612 Y130.873 E46.10191
G1 X115.612 Y131.767 E46.14655
G1 X134.388 Y112.99 E47.47238
G1 X134.388 Y113.884 E47.51702
G1 X115.612 Y132.661 E48.84285
G1 X115.612 Y133.555 E48.88749
G1 X134.388 Y114.778 E50.21332
G1 X134.388 Y115.672 E50.25796
G1 X115.612 Y134.448 E51.58376
G1 X115.612 Y135.342 E51.6284
G1 X134.388 Y116.566 E52.9542
G1 X134.388 Y117.46 E52.99884
G1 X115.612 Y136.236 E54.32464
G1 X115.612 Y137.13 E54.36928
G1 X134.388 Y118.354 E55.69508
G1 X134.388 Y119.248 E55.73972
G1 X115.612 Y138.024 E57.06552
G1 X115.612 Y138.918 E57.11016
G1 X134.388 Y120.142 E58.43596
G1 X134.388 Y121.035 E58.48055
G1 X115.612 Y139.812 E59.80638
G1 X115.612 Y140.706 E59.85102
G1 X134.388 Y121.929 E61.17685
G1 X134.388 Y122.823 E61.22149
G1 X115.612 Y141.6 E62.54732
G1 X115.612 Y142.493 E62.59191
G1 X134.388 Y123.717 E63.91771
G1 X134.388 Y124.611 E63.96235
G1 X115.612 Y143.387 E65.28815
G1 X115.612 Y144.281 E65.33279
G1 X134.388 Y125.505 E66.65859
G1 X134.388 Y126.399 E66.70323
G1 X115.612 Y145.175 E68.02903
G1 X115.612 Y146.069 E68.07367
G1 X134.388 Y127.293 E69.39947
G1 X134.388 Y128.187 E69.44411
G1 X115.612 Y146.963 E70.76991
G1 X115.612 Y147.857 E70.81455
G1 X134.388 Y129.081 E72.14035
G1 X134.388 Y129.974 E72.18494
G1 X115.612 Y148.751 E73.51077
G1 X115.612 Y149.645 E73.55541
G1 X134.388 Y130.868 E74.88124
G1 X134.388 Y131.762 E74.92588
G1 X115.612 Y150.539 E76.25171
G1 X115.612 Y151.432 E76.2963
G1 X134.388 Y132.656 E77.6221
G1 X134.388 Y133.55 E77.66674
G1 X115.612 Y152.326 E78.99254
G1 X115.556 Y152.459 E78.99975
;WIDTH:0.634306
G1 X115.5 Y152.592 E79.00649
;WIDTH:0.593613
G1 X115.444 Y152.724 E79.01273
;WIDTH:0.55292
G1 X115.399 Y152.679 E79.01529
G1 X115.337 Y152.696 E79.01788
G1 X115.321 Y152.757 E79.02042
G1 X115.366 Y152.803 E79.02301
G1 X115.428 Y152.786 E79.0256
;WIDTH:0.674999
G1 X115.898 Y152.934 E79.0502
G1 X134.388 Y134.444 E80.3558
G1 X134.388 Y135.338 E80.40044
G1 X116.345 Y153.381 E81.67448
G1 X116.792 Y153.828 E81.70604
G1 X134.388 Y136.232 E82.94852
G1 X134.388 Y137.126 E82.99316
G1 X117.239 Y154.275 E84.20407
G1 X117.686 Y154.722 E84.23563
G1 X134.388 Y138.019 E85.41501
G1 X134.388 Y138.913 E85.45965
G1 X118.133 Y155.169 E86.60747
G1 X118.58 Y155.616 E86.63903
G1 X134.388 Y139.807 E87.75529
G1 X134.388 Y140.701 E87.79993
G1 X119.026 Y156.063 E88.88466
G1 X119.473 Y156.51 E88.91622
G1 X134.388 Y141.595 E89.96939
G1 X134.388 Y142.489 E90.01403
G1 X119.92 Y156.957 E91.03563
G1 X120.367 Y157.404 E91.06719
G1 X134.388 Y143.383 E92.05723
G1 X134.388 Y144.277 E92.10187
G1 X120.814 Y157.851 E93.06035
G1 X121.261 Y158.298 E93.09191
G1 X134.388 Y145.171 E94.01882
G1 X134.388 Y146.065 E94.06346
G1 X122.093 Y158.36 E94.93163
G1 X122.987 Y158.36 E94.97627
G1 X134.388 Y146.958 E95.78134
G1 X134.388 Y147.852 E95.82598
G1 X123.88 Y158.36 E96.56796
G1 X124.774 Y158.36 E96.6126
G1 X134.388 Y148.746 E97.29146
G1 X134.388 Y149.64 E97.3361
G1 X125.668 Y158.36 E97.95183
G1 X126.562 Y158.36 E97.99647
G1 X134.388 Y150.534 E98.54907
G1 X134.388 Y151.428 E98.59371
G1 X127.456 Y158.36 E99.08319
G1 X128.35 Y158.36 E99.12783
G1 X134.388 Y152.322 E99.55418
G1 X134.388 Y153.216 E99.59882
G1 X129.244 Y158.36 E99.96204
G1 X130.138 Y158.36 E100.00668
G1 X134.388 Y154.11 E100.30678
G1 X134.388 Y155.003 E100.35137
G1 X131.032 Y158.36 E100.58838
G1 X131.925 Y158.36 E100.63297
G1 X134.388 Y155.897 E100.80689
G1 X134.388 Y156.791 E100.85153
G1 X132.819 Y158.36 E100.96232
G1 X132.819 Y158.36 F9000
G1 X134.224 Y157.766
;WIDTH:0.556626
G1 F2880
G1 X133.57 Y158.419 E100.99982
G1 X134.447 Y158.419 E101.03541
G1 X134.447 Y157.542 E101.071
;LAYER_CHANGE
;Z:0.75
;HEIGHT:0.2
G1 Z.75 F9000
G1 E100.571 F240
G92 E0
G1 X134.447 Y157.542 Z.75 F9000
G1 X136.126 Y89.902
G1 E.5 F240
;TYPE:External perimeter
;WIDTH:0.674999
G1 F1920
G1 X136.126 Y160.098 E4.00487
G1 X120.604 Y160.098 E4.77988
G1 X113.874 Y153.368 E5.25509
G1 X113.874 Y96.632 E8.0879
G1 X120.604 Y89.902 E8.56311
G1 X136.036 Y89.902 E9.33363
G1 X136.125 Y90.495 F9000
G1 X135.494 Y91.265
;TYPE:Perimeter
G1 F4800
G1 X135.494 Y159.466 E12.73889
G1 X120.865 Y159.466 E13.46931
G1 X114.506 Y153.106 E13.91836
G1 X114.506 Y96.894 E16.72501
G1 X120.865 Y90.534 E17.17406
G1 X135.494 Y90.534 E17.90448
G1 X135.494 Y91.175 E17.93648
G1 X135.494 Y91.175 F9000
G1 X134.862 Y92.529
G1 F4800
G1 X134.862 Y158.834 E21.24707
G1 X121.127 Y158.834 E21.93285
G1 X115.138 Y152.845 E22.35574
G1 X115.138 Y97.155 E25.13633
G1 X121.127 Y91.166 E25.55922
G1 X134.862 Y91.166 E26.245
G1 X134.862 Y92.439 E26.30856
G1 E25.80856 F240
G92 E0
G1 X134.862 Y92.439 F9000
G1 X121.258 Y158.518
G1 E.5 F240
;TYPE:Solid infill
;WIDTH:0.55292
G1 F2880
G1 X115.454 Y152.714 E.83067
;WIDTH:0.593613
G1 X115.506 Y152.543 E.83844
;WIDTH:0.634306
G1 X115.559 Y152.372 E.8468
;WIDTH:0.674999
G1 X115.612 Y152.201 E.85574
G1 X121.771 Y158.36 E1.29063
G1 X122.665 Y158.36 E1.33527
G1 X115.612 Y151.307 E1.83329
G1 X115.612 Y150.413 E1.87793
