; generated by PrusaSlicer 2.8.0+MacOS-arm64 on 2024-09-05 at 15:16:56 UTC


;
;

;
;
; 

; external perimeters extrusion width = 0.68mm
; perimeters extrusion width = 0.68mm
; infill extrusion width = 0.68mm
; solid infill extrusion width = 0.68mm
; top infill extrusion width = 0.60mm

; external perimeters extrusion width = 0.68mm
; perimeters extrusion width = 0.68mm
; infill extrusion width = 0.68mm
; solid infill extrusion width = 0.68mm
; top infill extrusion width = 0.60mm


EXCLUDE_OBJECT_DEFINE NAME='top_support_bracket_2' CENTER=125.001,151.812 POLYGON=[[102.491,145.700],[147.519,145.700],[147.519,125.700],[167.005,125.700],[168.016,125.876],[168.792,126.291],[169.415,126.913],[169.830,127.690],[170.001,128.553],[170.005,170.702],[80.005,170.713],[80.005,128.700],[80.063,128.115],[80.233,127.552],[80.782,126.686],[81.218,126.291],[81.722,125.988],[82.276,125.790],[82.858,125.704],[102.491,125.700]]
EXCLUDE_OBJECT_DEFINE NAME='top_support_bracket_1' CENTER=124.990,98.188 POLYGON=[[169.930,80.726],[170.059,121.300],[169.890,122.164],[169.562,122.821],[169.084,123.379],[168.354,123.870],[167.657,124.103],[167.072,124.162],[147.586,124.226],[147.521,104.226],[102.493,104.373],[102.558,124.373],[82.778,124.423],[82.061,124.265],[81.283,123.852],[80.750,123.348],[80.355,122.728],[80.122,122.032],[80.063,121.447],[79.925,79.445],[169.925,79.140]]

;TYPE:Custom
START_PRINT BED_TEMP=65 HOTEND_TEMP=220 FILAMENT_TYPE=PLA EXTRUSION_MULTIPLIER=0.95 PERIMETER_SPEED=70
G21 ; set units to millimeters
G90 ; use absolute coordinates
M82 ; use absolute distances for extrusion
G92 E0
; Filament gcode
M107
;LAYER_CHANGE
;Z:0.35
;HEIGHT:0.35
G1 E-.5 F240
G1 Z.35 F9000
EXCLUDE_OBJECT_START NAME='top_support_bracket_2'
G92 E0
G1 X137.28 Y156.607
G1 E.5 F240
G92 E0
;TYPE:External perimeter
;WIDTH:0.675
G1 F1800
G1 X137.198 Y156.372 E.02064
G1 X137.121 Y155.802 E.06834
G1 X137.158 Y155.229 E.11596
G1 X137.308 Y154.674 E.16364
G1 X137.564 Y154.16 E.21126
G1 X137.96 Y153.664 E.26389
G1 X138.355 Y153.333 E.30663
G1 X138.856 Y153.052 E.35427
G1 X139.404 Y152.877 E.40198
G1 X139.971 Y152.814 E.44929
G1 X140.681 Y152.895 E.50855
G1 X141.23 Y153.087 E.55678
G1 X141.724 Y153.382 E.60449
G1 X142.149 Y153.768 E.6521
G1 X142.49 Y154.231 E.69978
G1 X142.731 Y154.753 E.74746
G1 X142.865 Y155.312 E.79513
G1 X142.885 Y155.886 E.84276
G1 X142.791 Y156.453 E.89042
G1 X142.587 Y156.99 E.93806
G1 X142.28 Y157.476 E.98573
G1 X141.883 Y157.892 E1.03342
G1 X141.412 Y158.221 E1.08106
G1 X140.884 Y158.449 E1.12875
G1 X140.322 Y158.569 E1.17641
G1 X139.612 Y158.559 E1.23529
G1 X139.046 Y158.422 E1.28358
G1 X138.526 Y158.178 E1.33121
G1 X138.064 Y157.836 E1.37888
G1 X137.679 Y157.409 E1.42656
G1 X137.387 Y156.914 E1.47422
G1 X137.309 Y156.692 E1.49373
G1 X137.171 Y156.109 F9000
G1 X136.71 Y156.783
;TYPE:Perimeter
G1 F1800
G1 X136.629 Y156.563 E1.51317
G1 X136.525 Y155.877 E1.57071
G1 X136.559 Y155.184 E1.62825
G1 X136.73 Y154.511 E1.68583
G1 X137.031 Y153.886 E1.74336
G1 X137.449 Y153.332 E1.80091
G1 X137.574 Y153.204 E1.81575
G1 X137.969 Y152.873 E1.85849
G1 X138.57 Y152.526 E1.91604
G1 X139.227 Y152.304 E1.97355
G1 X139.911 Y152.217 E2.03073
G1 X140.755 Y152.3 E2.10106
G1 X141.436 Y152.523 E2.16048
G1 X142.037 Y152.87 E2.21803
G1 X142.557 Y153.328 E2.27549
G1 X142.977 Y153.881 E2.33308
G1 X143.278 Y154.506 E2.39061
G1 X143.45 Y155.178 E2.44813
G1 X143.485 Y155.871 E2.50567
G1 X143.382 Y156.557 E2.5632
G1 X143.193 Y157.089 E2.61002
G1 X143.064 Y157.369 E2.63559
G1 X142.784 Y157.802 E2.67835
G1 X142.312 Y158.311 E2.73592
G1 X141.749 Y158.716 E2.79343
G1 X141.117 Y159.002 E2.85096
G1 X140.441 Y159.157 E2.90847
G1 X139.598 Y159.159 E2.97838
G1 X138.898 Y159.004 E3.03784
G1 X138.265 Y158.719 E3.09541
G1 X137.702 Y158.314 E3.15292
G1 X137.229 Y157.806 E3.21048
G1 X136.867 Y157.214 E3.26802
G1 X136.741 Y156.868 E3.29856
G1 X136.741 Y156.868 F9000
G1 X136.138 Y156.959
G1 F1800
G1 X136.061 Y156.754 E3.31672
G1 X135.964 Y156.225 E3.36132
G1 X135.923 Y155.653 E3.40888
G1 X135.961 Y155.139 E3.45162
G1 X136.153 Y154.349 E3.51904
G1 X136.497 Y153.612 E3.58649
G1 X136.98 Y152.958 E3.65391
G1 X137.189 Y152.745 E3.67866
G1 X137.583 Y152.413 E3.72139
G1 X138.283 Y151.999 E3.78883
G1 X139.05 Y151.731 E3.85621
G1 X139.851 Y151.621 E3.92326
G1 X140.186 Y151.624 E3.95104
G1 X140.829 Y151.704 E4.00477
G1 X141.641 Y151.96 E4.07537
G1 X142.349 Y152.358 E4.14272
G1 X142.965 Y152.889 E4.21016
G1 X143.464 Y153.531 E4.27759
G1 X143.825 Y154.259 E4.34498
G1 X144.035 Y155.045 E4.41245
G1 X144.085 Y155.856 E4.47983
G1 X143.973 Y156.661 E4.54723
G1 X143.751 Y157.308 E4.60395
G1 X143.567 Y157.694 E4.63941
G1 X143.288 Y158.127 E4.68213
G1 X142.742 Y158.73 E4.74959
G1 X142.087 Y159.212 E4.81703
G1 X141.35 Y159.555 E4.88444
G1 X140.56 Y159.745 E4.95182
G1 X140.225 Y159.774 E4.9797
G1 X139.583 Y159.758 E5.03296
G1 X139.25 Y159.712 E5.06084
G1 X138.75 Y159.585 E5.10362
G1 X138.005 Y159.259 E5.17106
G1 X137.339 Y158.793 E5.23847
G1 X136.78 Y158.203 E5.30587
G1 X136.348 Y157.514 E5.37331
G1 X136.17 Y157.044 E5.41499
G1 X136.17 Y157.044 F9000
G1 X135.557 Y157.139
G1 F1800
G1 X135.492 Y156.945 E5.43196
G1 X135.369 Y156.3 E5.48641
G1 X135.319 Y155.757 E5.53163
G1 X135.363 Y155.094 E5.58673
G1 X135.436 Y154.682 E5.62143
G1 X135.575 Y154.186 E5.66415
G1 X135.728 Y153.797 E5.69881
G1 X135.963 Y153.339 E5.7415
G1 X136.511 Y152.584 E5.81886
G1 X136.803 Y152.285 E5.85352
G1 X137.198 Y151.954 E5.89626
G1 X137.996 Y151.472 E5.97357
G1 X138.874 Y151.158 E6.0509
G1 X139.282 Y151.075 E6.08543
G1 X139.791 Y151.024 E6.12785
G1 X140.26 Y151.029 E6.16675
G1 X140.903 Y151.109 E6.22048
G1 X141.362 Y151.22 E6.25964
G1 X141.846 Y151.396 E6.30235
G1 X142.662 Y151.846 E6.37963
G1 X143.373 Y152.449 E6.45694
G1 X143.951 Y153.181 E6.53429
G1 X144.372 Y154.013 E6.61162
G1 X144.543 Y154.576 E6.66041
G1 X144.663 Y155.178 E6.71131
G1 X144.684 Y155.841 E6.76632
G1 X144.645 Y156.307 E6.8051
G1 X144.526 Y156.936 E6.85819
G1 X144.309 Y157.527 E6.9104
G1 X144.071 Y158.02 E6.9558
G1 X143.792 Y158.453 E6.99852
G1 X143.531 Y158.78 E7.03322
G1 X143.171 Y159.149 E7.07597
G1 X142.851 Y159.417 E7.11058
G1 X142.425 Y159.708 E7.15336
G1 X142.058 Y159.907 E7.18798
G1 X141.583 Y160.108 E7.23075
G1 X140.679 Y160.333 E7.308
G1 X140.211 Y160.374 E7.34696
G1 X139.568 Y160.358 E7.4003
G1 X139.102 Y160.294 E7.43931
G1 X138.602 Y160.167 E7.48209
G1 X137.745 Y159.8 E7.5594
G1 X137.388 Y159.582 E7.59409
G1 X136.977 Y159.271 E7.63683
G1 X136.671 Y158.986 E7.67151
G1 X136.33 Y158.6 E7.71422
G1 X136.086 Y158.261 E7.74886
G1 X135.828 Y157.814 E7.79166
G1 X135.656 Y157.433 E7.82633
G1 X135.586 Y157.224 E7.84461
G1 E7.34461 F240
G92 E0
G1 X135.586 Y157.224 F9000
G1 X160.448 Y158.695
G1 E.5 F240
;TYPE:External perimeter
G1 F1800
G1 X160.337 Y158.718 E.5094
G1 X159.732 Y158.724 E.55957
G1 X159.139 Y158.61 E.60965
G1 X158.579 Y158.381 E.65982
G1 X158.076 Y158.045 E.70998
G1 X157.65 Y157.617 E.76006
G1 X157.317 Y157.112 E.81022
G1 X157.054 Y156.413 E.87215
G1 X156.971 Y155.806 E.92296
G1 X157.01 Y155.202 E.97315
G1 X157.168 Y154.619 E1.02324
G1 X157.438 Y154.078 E1.07338
G1 X157.798 Y153.617 E1.12188
G1 X158.27 Y153.209 E1.17362
G1 X158.798 Y152.914 E1.22378
G1 X159.337 Y152.742 E1.2707
G1 X159.971 Y152.664 E1.32367
G1 X160.718 Y152.75 E1.38603
G1 X161.295 Y152.952 E1.43673
G1 X161.862 Y153.298 E1.49181
G1 X162.262 Y153.669 E1.53705
G1 X162.619 Y154.156 E1.58712
G1 X162.874 Y154.705 E1.63732
G1 X163.014 Y155.293 E1.68744
G1 X163.035 Y155.897 E1.73756
G1 X162.936 Y156.494 E1.78774
G1 X162.72 Y157.059 E1.8379
G1 X162.397 Y157.57 E1.88803
G1 X161.979 Y158.007 E1.93818
G1 X161.483 Y158.352 E1.98828
G1 X160.928 Y158.593 E2.03846
G1 X160.536 Y158.676 E2.07169
G1 X159.938 Y158.717 F9000
G1 X160.523 Y159.291
;TYPE:Perimeter
G1 F1800
G1 X160.456 Y159.306 E2.07738
G1 X159.732 Y159.324 E2.13744
G1 X159.02 Y159.198 E2.1974
G1 X158.346 Y158.934 E2.25743
G1 X157.738 Y158.541 E2.31747
G1 X157.221 Y158.035 E2.37746
G1 X156.813 Y157.437 E2.43749
G1 X156.591 Y156.894 E2.48614
G1 X156.437 Y156.373 E2.53119
G1 X156.373 Y155.855 E2.57447
G1 X156.412 Y155.158 E2.63236
G1 X156.59 Y154.456 E2.69242
G1 X156.905 Y153.804 E2.75247
G1 X157.329 Y153.243 E2.81078
G1 X157.884 Y152.749 E2.8724
G1 X158.511 Y152.387 E2.93244
G1 X159.16 Y152.169 E2.98921
G1 X159.911 Y152.067 E3.05206
G1 X160.792 Y152.154 E3.12547
G1 X161.501 Y152.388 E3.18738
G1 X162.127 Y152.75 E3.24735
G1 X162.27 Y152.858 E3.26221
G1 X162.67 Y153.229 E3.30745
G1 X163.107 Y153.806 E3.36747
G1 X163.42 Y154.458 E3.42745
G1 X163.599 Y155.16 E3.48753
G1 X163.635 Y155.882 E3.54748
G1 X163.527 Y156.598 E3.60753
G1 X163.279 Y157.278 E3.66755
G1 X162.901 Y157.895 E3.72755
G1 X162.409 Y158.426 E3.78758
G1 X161.821 Y158.848 E3.8476
G1 X161.161 Y159.145 E3.90762
G1 X160.611 Y159.271 E3.95441
G1 X160.599 Y159.889 F9000
G1 F1800
G1 X160.575 Y159.894 E3.95644
G1 X159.732 Y159.924 E4.02639
G1 X158.901 Y159.786 E4.09625
G1 X158.113 Y159.486 E4.16617
G1 X157.401 Y159.036 E4.23602
G1 X156.791 Y158.454 E4.30594
G1 X156.309 Y157.763 E4.37581
G1 X156.16 Y157.462 E4.40366
G1 X155.927 Y156.823 E4.46006
G1 X155.842 Y156.447 E4.49203
G1 X155.775 Y155.912 E4.53674
G1 X155.814 Y155.113 E4.60308
G1 X156.013 Y154.294 E4.67297
G1 X156.371 Y153.531 E4.74286
G1 X156.86 Y152.869 E4.81111
G1 X157.499 Y152.29 E4.88262
G1 X158.224 Y151.861 E4.95248
G1 X158.983 Y151.595 E5.01918
G1 X159.312 Y151.525 E5.04707
G1 X159.851 Y151.471 E5.09199
G1 X160.186 Y151.475 E5.11977
G1 X160.866 Y151.559 E5.17659
G1 X161.193 Y151.638 E5.20449
G1 X161.706 Y151.824 E5.24974
G1 X162.44 Y152.238 E5.31962
G1 X162.678 Y152.419 E5.34442
G1 X163.078 Y152.79 E5.38966
G1 X163.594 Y153.456 E5.45953
G1 X163.967 Y154.212 E5.52944
G1 X164.184 Y155.026 E5.5993
G1 X164.234 Y155.867 E5.66916
G1 X164.117 Y156.702 E5.73908
G1 X163.837 Y157.497 E5.80898
G1 X163.405 Y158.221 E5.87889
G1 X162.838 Y158.845 E5.94881
G1 X162.159 Y159.344 E6.01869
G1 X161.394 Y159.698 E6.08859
G1 X160.686 Y159.868 E6.14897
G1 X160.686 Y159.868 F9000
G1 X160.672 Y160.484
G1 F1800
G1 X160.278 Y160.524 E6.18181
G1 X159.732 Y160.524 E6.22709
G1 X158.782 Y160.374 E6.30685
G1 X157.88 Y160.039 E6.38664
G1 X157.063 Y159.532 E6.46638
G1 X156.742 Y159.263 E6.50111
G1 X156.362 Y158.873 E6.54627
G1 X156.101 Y158.546 E6.58097
G1 X155.805 Y158.088 E6.62619
G1 X155.596 Y157.668 E6.66509
G1 X155.363 Y157.028 E6.72157
G1 X155.247 Y156.522 E6.76462
G1 X155.178 Y155.969 E6.81083
G1 X155.215 Y155.068 E6.88561
G1 X155.288 Y154.656 E6.92031
G1 X155.436 Y154.132 E6.96546
G1 X155.588 Y153.742 E7.00017
G1 X155.837 Y153.257 E7.04538
G1 X156.064 Y152.906 E7.08004
G1 X156.404 Y152.48 E7.12524
G1 X156.696 Y152.18 E7.15996
G1 X157.113 Y151.83 E7.20511
G1 X157.459 Y151.594 E7.23984
G1 X157.938 Y151.334 E7.28504
G1 X158.323 Y151.171 E7.31971
G1 X158.844 Y151.011 E7.36491
G1 X159.252 Y150.928 E7.39944
G1 X159.79 Y150.874 E7.44428
G1 X160.26 Y150.879 E7.48326
G1 X160.94 Y150.964 E7.54009
G1 X161.399 Y151.074 E7.57923
G1 X161.911 Y151.261 E7.62443
G1 X162.288 Y151.442 E7.65911
G1 X162.753 Y151.726 E7.70429
G1 X163.086 Y151.979 E7.73897
G1 X163.486 Y152.35 E7.78421
G1 X164.081 Y153.106 E7.86399
G1 X164.514 Y153.965 E7.94376
G1 X164.768 Y154.893 E8.02355
G1 X164.834 Y155.853 E8.10335
G1 X164.803 Y156.269 E8.13794
G1 X164.708 Y156.806 E8.18316
G1 X164.396 Y157.716 E8.26294
G1 X163.909 Y158.546 E8.34274
G1 X163.268 Y159.263 E8.4225
G1 X162.497 Y159.839 E8.50231
G1 X162.13 Y160.039 E8.53697
G1 X161.627 Y160.251 E8.58224
G1 X160.76 Y160.466 E8.65632
G1 E8.15632 F240
G92 E0
G1 X160.76 Y160.466 F9000
G1 X162.699 Y134.328
G1 E.5 F240
;TYPE:External perimeter
G1 F1800
G1 X162.874 Y134.705 E.53447
G1 X163.014 Y135.293 E.58459
G1 X163.035 Y135.897 E.63471
G1 X162.936 Y136.494 E.68489
G1 X162.72 Y137.059 E.73505
G1 X162.397 Y137.57 E.78518
G1 X161.979 Y138.007 E.83533
G1 X161.483 Y138.352 E.88543
G1 X160.928 Y138.593 E.93561
G1 X160.337 Y138.718 E.9857
G1 X159.732 Y138.724 E1.03587
G1 X159.139 Y138.61 E1.08595
G1 X158.579 Y138.381 E1.13612
G1 X158.076 Y138.045 E1.18628
G1 X157.65 Y137.617 E1.23636
G1 X157.317 Y137.112 E1.28652
G1 X157.054 Y136.413 E1.34845
G1 X156.971 Y135.806 E1.39926
G1 X157.01 Y135.202 E1.44945
G1 X157.168 Y134.619 E1.49954
G1 X157.438 Y134.078 E1.54968
G1 X157.811 Y133.602 E1.59983
G1 X158.27 Y133.209 E1.64994
G1 X158.798 Y132.914 E1.7001
G1 X159.374 Y132.73 E1.75024
G1 X159.971 Y132.664 E1.80005
G1 X160.718 Y132.75 E1.86241
G1 X161.295 Y132.952 E1.91311
G1 X161.814 Y133.262 E1.96324
G1 X162.262 Y133.669 E2.01343
G1 X162.619 Y134.156 E2.0635
G1 X162.661 Y134.247 E2.07181
G1 X162.884 Y134.804 F9000
G1 X163.234 Y134.071
;TYPE:Perimeter
G1 F1800
G1 X163.42 Y134.458 E2.10742
G1 X163.599 Y135.16 E2.1675
G1 X163.635 Y135.882 E2.22745
G1 X163.527 Y136.598 E2.2875
G1 X163.279 Y137.278 E2.34752
G1 X162.901 Y137.895 E2.40752
G1 X162.409 Y138.426 E2.46755
G1 X161.821 Y138.848 E2.52757
G1 X161.161 Y139.145 E2.58759
G1 X160.456 Y139.306 E2.64756
G1 X159.732 Y139.324 E2.70762
G1 X159.02 Y139.198 E2.76758
G1 X158.346 Y138.934 E2.82761
G1 X157.738 Y138.541 E2.88765
G1 X157.221 Y138.035 E2.94764
G1 X156.813 Y137.437 E3.00767
G1 X156.491 Y136.618 E3.08065
G1 X156.375 Y135.88 E3.1426
G1 X156.412 Y135.158 E3.20255
G1 X156.59 Y134.456 E3.26261
G1 X156.905 Y133.804 E3.32266
G1 X157.342 Y133.228 E3.38262
G1 X157.884 Y132.749 E3.4426
G1 X158.511 Y132.387 E3.50264
G1 X159.197 Y132.157 E3.56264
G1 X159.911 Y132.067 E3.62232
G1 X160.792 Y132.154 E3.69573
G1 X161.501 Y132.388 E3.75764
G1 X162.127 Y132.75 E3.81761
G1 X162.67 Y133.229 E3.87766
G1 X163.107 Y133.806 E3.93768
G1 X163.195 Y133.99 E3.95459
G1 X163.195 Y133.99 F9000
G1 X163.77 Y133.812
G1 F1800
G1 X163.967 Y134.212 E3.99157
G1 X164.184 Y135.026 E4.06143
G1 X164.234 Y135.867 E4.13129
G1 X164.117 Y136.702 E4.20121
G1 X163.837 Y137.497 E4.27111
G1 X163.405 Y138.221 E4.34102
G1 X162.838 Y138.845 E4.41094
G1 X162.159 Y139.344 E4.48082
G1 X161.394 Y139.698 E4.55072
G1 X160.575 Y139.894 E4.62056
G1 X160.001 Y139.924 E4.66823
G1 X159.481 Y139.903 E4.71139
G1 X158.901 Y139.786 E4.76046
G1 X158.113 Y139.486 E4.83038
G1 X157.401 Y139.036 E4.90023
G1 X156.791 Y138.454 E4.97015
G1 X156.309 Y137.763 E5.04002
G1 X156.16 Y137.462 E5.06787
G1 X155.927 Y136.823 E5.12427
G1 X155.848 Y136.496 E5.15217
G1 X155.78 Y135.955 E5.19739
G1 X155.814 Y135.113 E5.26727
G1 X156.013 Y134.294 E5.33716
G1 X156.371 Y133.531 E5.40705
G1 X156.873 Y132.854 E5.47694
G1 X157.499 Y132.29 E5.54681
G1 X158.224 Y131.861 E5.61667
G1 X159.021 Y131.584 E5.68664
G1 X159.851 Y131.471 E5.7561
G1 X160.186 Y131.475 E5.78388
G1 X160.866 Y131.559 E5.8407
G1 X161.706 Y131.824 E5.91374
G1 X162.44 Y132.238 E5.98362
G1 X163.078 Y132.79 E6.05358
G1 X163.594 Y133.456 E6.12345
G1 X163.73 Y133.732 E6.14897
G1 X163.73 Y133.732 F9000
G1 X164.307 Y133.554
G1 F1800
G1 X164.514 Y133.965 E6.18713
G1 X164.768 Y134.893 E6.26692
G1 X164.834 Y135.853 E6.34672
G1 X164.803 Y136.269 E6.38131
G1 X164.708 Y136.806 E6.42653
G1 X164.396 Y137.716 E6.50631
G1 X163.909 Y138.546 E6.58611
G1 X163.268 Y139.263 E6.66587
G1 X162.497 Y139.839 E6.74568
G1 X161.627 Y140.251 E6.82551
G1 X161.228 Y140.374 E6.86013
G1 X160.694 Y140.482 E6.90531
G1 X160.001 Y140.524 E6.96288
G1 X159.445 Y140.504 E7.00902
G1 X158.782 Y140.374 E7.06505
G1 X158.383 Y140.251 E7.09967
G1 X157.88 Y140.039 E7.14494
G1 X157.513 Y139.839 E7.1796
G1 X157.063 Y139.532 E7.22477
G1 X156.362 Y138.873 E7.30456
G1 X155.805 Y138.088 E7.38438
G1 X155.596 Y137.668 E7.42328
G1 X155.363 Y137.028 E7.47976
G1 X155.253 Y136.571 E7.51874
G1 X155.185 Y136.03 E7.56396
G1 X155.175 Y135.612 E7.59863
G1 X155.215 Y135.068 E7.64386
G1 X155.436 Y134.132 E7.72361
G1 X155.837 Y133.257 E7.80343
G1 X156.404 Y132.48 E7.8832
G1 X156.696 Y132.18 E7.91792
G1 X157.113 Y131.83 E7.96307
G1 X157.938 Y131.334 E8.0429
G1 X158.844 Y131.011 E8.12266
G1 X159.252 Y130.928 E8.15719
G1 X159.79 Y130.874 E8.20203
G1 X160.26 Y130.879 E8.24101
G1 X160.94 Y130.964 E8.29784
G1 X161.399 Y131.074 E8.33698
G1 X161.911 Y131.261 E8.38218
G1 X162.753 Y131.726 E8.46194
G1 X163.486 Y132.35 E8.54177
G1 X164.081 Y133.106 E8.62155
G1 X164.266 Y133.474 E8.65571
