; generated by PrusaSlicer 2.8.0+MacOS-arm64 on 2024-09-05 at 21:03:20 UTC


;
;

;
;
; 

; external perimeters extrusion width = 0.68mm
; perimeters extrusion width = 0.68mm
; infill extrusion width = 0.68mm
; solid infill extrusion width = 0.68mm
; top infill extrusion width = 0.60mm

; external perimeters extrusion width = 0.68mm
; perimeters extrusion width = 0.68mm
; infill extrusion width = 0.68mm
; solid infill extrusion width = 0.68mm
; top infill extrusion width = 0.60mm


EXCLUDE_OBJECT_DEFINE NAME='a_lid' CENTER=117.079,77.894 POLYGON=[[115.626,58.626],[180.894,58.626],[180.894,28.626],[194.446,28.626],[195.026,28.713],[195.474,28.911],[195.860,29.212],[196.161,29.598],[196.360,30.046],[196.446,30.626],[196.446,94.623],[196.120,95.115],[195.749,95.438],[195.310,95.660],[194.830,95.769],[181.550,95.775],[180.872,95.657],[180.243,95.377],[179.017,94.315],[178.151,93.826],[177.191,93.566],[176.197,93.550],[175.418,93.715],[174.687,94.031],[174.033,94.486],[173.609,94.908],[173.253,95.387],[172.896,96.099],[172.687,96.868],[172.635,97.663],[172.700,98.257],[172.923,99.022],[173.292,99.727],[173.794,100.345],[174.409,100.851],[174.929,101.146],[175.488,101.359],[176.270,101.510],[177.264,101.476],[178.219,101.198],[179.076,100.694],[179.947,99.854],[180.396,99.535],[181.029,99.264],[181.570,99.160],[194.633,99.146],[195.402,99.300],[196.053,99.738],[196.446,100.302],[196.446,107.526],[186.446,117.526],[48.646,117.526],[48.646,30.626],[48.798,29.861],[49.303,29.144],[49.972,28.743],[50.646,28.626],[115.626,28.626]]
EXCLUDE_OBJECT_DEFINE NAME='b_lid' CENTER=120.962,170.318 POLYGON=[[196.635,126.203],[197.392,126.393],[197.951,126.786],[198.384,127.435],[198.536,128.201],[198.536,215.101],[51.836,215.101],[41.836,205.101],[41.858,198.427],[41.989,197.955],[42.230,197.529],[42.645,197.114],[43.071,196.873],[43.836,196.721],[56.899,196.734],[57.440,196.838],[58.073,197.109],[58.522,197.429],[59.393,198.268],[60.250,198.773],[61.205,199.051],[62.199,199.084],[62.981,198.933],[63.540,198.720],[64.060,198.426],[64.675,197.919],[65.063,197.465],[65.467,196.779],[65.728,196.026],[65.834,195.237],[65.782,194.442],[65.640,193.862],[65.319,193.133],[64.860,192.482],[64.436,192.061],[63.782,191.606],[63.051,191.290],[62.272,191.124],[61.278,191.140],[60.318,191.400],[59.452,191.889],[58.226,192.951],[57.597,193.231],[56.919,193.349],[43.640,193.343],[43.163,193.236],[42.645,192.959],[42.230,192.544],[41.953,192.027],[41.836,191.353],[41.836,128.201],[41.923,127.620],[42.121,127.172],[42.493,126.719],[42.894,126.437],[43.351,126.261],[43.836,126.201]]

;TYPE:Custom
START_PRINT BED_TEMP=75 HOTEND_TEMP=240 FILAMENT_TYPE=PET EXTRUSION_MULTIPLIER=0.88 PERIMETER_SPEED=70
G21 ; set units to millimeters
G90 ; use absolute coordinates
M82 ; use absolute distances for extrusion
G92 E0
; Filament gcode
; ########################### NOTE OFFSET CHANGES ####################################
; Prevents PETG buildup on nozzle.
; SET_GCODE_OFFSET Z=0.06
; ####################################################################################
M107
;LAYER_CHANGE
;Z:0.35
;HEIGHT:0.35
G1 E-.5 F240
G1 Z.35 F9000
EXCLUDE_OBJECT_START NAME='b_lid'
G92 E0
G1 X113.428 Y170.936
G1 E.5 F240
G92 E0
;TYPE:External perimeter
;WIDTH:0.675
G1 F1800
G1 X113.082 Y170.46 E.0452
G1 X112.884 Y170.136 E.07437
G1 X112.644 Y169.585 E.12054
G1 X112.468 Y168.901 E.17479
G1 X112.399 Y168.4 E.21364
G1 X112.368 Y167.735 E.26478
G1 X112.38 Y165.775 E.41534
G1 X112.441 Y165.121 E.4658
G1 X112.655 Y163.993 E.55399
G1 X112.984 Y163.163 E.62257
G1 X113.442 Y162.506 E.68409
G1 X114.063 Y161.992 E.74601
G1 X114.729 Y161.671 E.8028
G1 X115.384 Y161.512 E.85458
G1 X116.139 Y161.458 E.91272
G1 X125.982 Y161.466 E1.66883
G1 X126.486 Y161.568 E1.70833
G1 X126.983 Y161.799 E1.75043
G1 X127.396 Y162.128 E1.79099
G1 X127.707 Y162.524 E1.82967
G1 X127.911 Y162.973 E1.86755
G1 X128.005 Y163.38 E1.89964
G1 X127.984 Y178.053 E3.02677
G1 X127.743 Y178.713 E3.08074
G1 X127.352 Y179.21 E3.12932
G1 X126.962 Y179.506 E3.16693
G1 X126.563 Y179.692 E3.20075
G1 X125.988 Y179.843 E3.24642
G1 X116.461 Y179.843 E3.97825
G1 X115.868 Y179.817 E4.02385
G1 X115.032 Y179.671 E4.08904
G1 X114.261 Y179.364 E4.15279
G1 X113.703 Y178.965 E4.20548
G1 X113.392 Y178.626 E4.24082
G1 X112.976 Y177.944 E4.30219
G1 X112.691 Y177.145 E4.36735
G1 X112.578 Y176.609 E4.40943
G1 X112.493 Y175.696 E4.47987
G1 X112.481 Y174.605 E4.56368
G1 X112.483 Y173.68 E4.63474
G1 X112.574 Y172.853 E4.69865
G1 X112.81 Y171.997 E4.76686
G1 X113.181 Y171.259 E4.83031
G1 X113.382 Y171.007 E4.85507
G1 X113.093 Y170.481 F9000
G1 X112.672 Y170.95
;TYPE:Perimeter
G1 F1800
G1 X112.682 Y170.932 E4.85665
G1 X112.371 Y170.462 E4.89994
G1 X112.094 Y169.824 E4.95337
G1 X111.874 Y168.983 E5.02015
G1 X111.804 Y168.478 E5.05931
G1 X111.769 Y167.762 E5.11438
G1 X111.78 Y165.775 E5.26702
G1 X111.884 Y164.711 E5.34914
G1 X112.069 Y163.865 E5.41566
G1 X112.428 Y162.94 E5.49188
G1 X112.954 Y162.158 E5.56428
G1 X113.122 Y161.979 E5.58314
G1 X113.687 Y161.525 E5.63882
G1 X114.475 Y161.128 E5.7066
G1 X115.248 Y160.928 E5.76793
G1 X116.139 Y160.858 E5.83658
G1 X125.983 Y160.867 E6.59276
G1 X126.612 Y160.981 E6.64186
G1 X127.245 Y161.26 E6.695
G1 X127.777 Y161.664 E6.74631
G1 X128.135 Y162.096 E6.78941
G1 X128.285 Y162.33 E6.81076
G1 X128.484 Y162.795 E6.84961
G1 X128.6 Y163.288 E6.88851
G1 X128.584 Y178.054 E8.02279
G1 X128.519 Y178.387 E8.04885
G1 X128.3 Y178.936 E8.09425
G1 X128.159 Y179.173 E8.11543
G1 X127.815 Y179.591 E8.15701
G1 X127.37 Y179.957 E8.20127
G1 X126.891 Y180.208 E8.24281
G1 X126.119 Y180.434 E8.3046
G1 X125.988 Y180.443 E8.31469
G1 X116.461 Y180.443 E9.04652
G1 X115.841 Y180.417 E9.09419
G1 X114.926 Y180.261 E9.16549
G1 X114.035 Y179.919 E9.2388
G1 X113.348 Y179.448 E9.30278
G1 X112.984 Y179.078 E9.34265
G1 X112.464 Y178.256 E9.41737
G1 X112.242 Y177.679 E9.46486
G1 X112.093 Y177.228 E9.50135
G1 X111.99 Y176.73 E9.54041
G1 X111.896 Y175.751 E9.61596
G1 X111.881 Y174.604 E9.70408
G1 X111.883 Y173.678 E9.77521
G1 X111.978 Y172.786 E9.84412
G1 X112.232 Y171.835 E9.91973
G1 X112.512 Y171.24 E9.97024
G1 X112.628 Y171.029 E9.98874
G1 E9.48874 F240
G92 E0
G1 X112.628 Y171.029 F9000
G1 X57.461 Y191.663
G1 E.5 F240
;TYPE:External perimeter
;WIDTH:0.720385
G1 F1800
G1 X57.426 Y191.693 E.50381
;WIDTH:0.765771
G1 X57.269 Y191.83 E.52224
;WIDTH:0.811157
G1 X57.112 Y191.966 E.54182
;WIDTH:0.849097
G1 X57.04 Y192.018 E.55062
;WIDTH:0.887038
G1 X56.967 Y192.07 E.55994
G1 X56.632 Y192.147 E.59568
;WIDTH:0.85259
G1 X56.251 Y192.17 E.63368
;WIDTH:0.852412
G1 X55.945 Y192.147 E.66422
G1 X55.779 Y192.057 E.68301
;WIDTH:0.808059
G1 X55.612 Y191.967 E.70082
;WIDTH:0.763706
G1 X55.446 Y191.877 E.71747
;WIDTH:0.719353
G1 X55.279 Y191.787 E.73312
;WIDTH:0.675
G1 X54.953 Y191.514 E.76578
G1 X54.721 Y191.205 E.79546
G1 X54.513 Y190.712 E.83656
G1 X54.452 Y190.269 E.87091
G1 X54.486 Y189.905 E.89899
G1 X54.662 Y189.415 E.93898
G1 X54.953 Y188.993 E.97836
G1 X55.279 Y188.719 E1.01107
G1 X55.603 Y188.55 E1.03914
G1 X55.954 Y188.448 E1.06722
G1 X56.337 Y188.42 E1.09672
G1 X56.866 Y188.513 E1.13798
G1 X57.272 Y188.702 E1.17238
G1 X57.65 Y189.03 E1.21082
G1 X57.95 Y189.471 E1.25179
G1 X58.085 Y189.874 E1.28444
G1 X58.121 Y190.288 E1.31636
G1 X58.062 Y190.706 E1.34879
G1 X57.987 Y190.952 E1.36855
G1 X57.815 Y191.275 E1.39666
G1 X57.582 Y191.557 E1.42476
;WIDTH:0.720385
G1 X57.528 Y191.604 E1.43068
G1 X57.069 Y191.989 F9000
G1 E.93068 F240
G92 E0
G1 X52.071 Y149.16 F9000
G1 E.5 F240
;WIDTH:0.675
G1 F1800
G1 X51.754 Y149.187 E.52444
G1 X51.361 Y149.142 E.55483
G1 X50.985 Y149.019 E.58522
G1 X50.641 Y148.825 E.61556
G1 X50.342 Y148.566 E.64595
G1 X50.1 Y148.253 E.67634
G1 X49.925 Y147.899 E.70667
G1 X49.824 Y147.524 E.7365
G1 X49.798 Y147.22 E.75994
G1 X49.833 Y146.826 E.79032
G1 X49.946 Y146.447 E.8207
G1 X50.132 Y146.098 E.85108
G1 X50.383 Y145.792 E.88148
G1 X50.69 Y145.543 E.91184
G1 X51.071 Y145.349 E.94468
G1 X51.461 Y145.244 E.97571
G1 X52.012 Y145.229 E1.01805
G1 X52.492 Y145.345 E1.05598
G1 X52.845 Y145.521 E1.08628
G1 X53.157 Y145.765 E1.11671
G1 X53.414 Y146.066 E1.14711
G1 X53.607 Y146.411 E1.17748
G1 X53.727 Y146.788 E1.20787
G1 X53.771 Y147.181 E1.23825
G1 X53.735 Y147.575 E1.26864
G1 X53.622 Y147.954 E1.29902
G1 X53.437 Y148.303 E1.32936
G1 X53.185 Y148.609 E1.35981
G1 X52.879 Y148.859 E1.39016
G1 X52.528 Y149.043 E1.4206
G1 X52.161 Y149.15 E1.44997
G1 X51.561 Y149.154 F9000
G1 X52.146 Y149.751
;TYPE:Perimeter
G1 F1800
G1 X51.695 Y149.784 E1.48471
G1 X51.185 Y149.715 E1.52424
G1 X50.698 Y149.546 E1.56384
G1 X50.255 Y149.284 E1.60338
G1 X49.873 Y148.94 E1.64287
G1 X49.566 Y148.527 E1.6824
G1 X49.347 Y148.061 E1.72195
G1 X49.227 Y147.584 E1.75973
G1 X49.2 Y147.175 E1.79122
G1 X49.256 Y146.664 E1.83071
G1 X49.413 Y146.174 E1.87024
G1 X49.663 Y145.724 E1.90978
G1 X49.998 Y145.333 E1.94933
G1 X50.403 Y145.016 E1.98884
G1 X50.863 Y144.786 E2.02835
G1 X51.351 Y144.652 E2.06722
G1 X51.841 Y144.616 E2.10496
G1 X52.258 Y144.66 E2.13717
G1 X52.752 Y144.804 E2.1767
G1 X53.208 Y145.043 E2.21625
G1 X53.607 Y145.368 E2.25578
G1 X53.934 Y145.766 E2.29535
G1 X54.176 Y146.22 E2.33487
G1 X54.323 Y146.713 E2.37439
G1 X54.369 Y147.226 E2.41396
G1 X54.313 Y147.737 E2.45345
G1 X54.159 Y148.222 E2.49254
G1 X53.916 Y148.664 E2.53129
G1 X53.593 Y149.049 E2.56989
G1 X53.197 Y149.367 E2.6089
G1 X52.753 Y149.6 E2.64742
G1 X52.272 Y149.742 E2.68595
G1 X52.235 Y149.744 E2.6888
G1 E2.1888 F240
G92 E0
G1 X52.235 Y149.744 F9000
G1 X47.759 Y130.507
G1 E.5 F240
;TYPE:External perimeter
G1 F1800
G1 X48.04 Y130.359 E.5244
G1 X48.419 Y130.248 E.55474
G1 X48.798 Y130.214 E.58397
G1 X49.11 Y130.241 E.60803
G1 X49.492 Y130.345 E.63844
G1 X49.845 Y130.521 E.66874
G1 X50.157 Y130.765 E.69917
G1 X50.414 Y131.065 E.72951
G1 X50.607 Y131.411 E.75994
G1 X50.727 Y131.788 E.79033
G1 X50.771 Y132.181 E.82071
G1 X50.735 Y132.575 E.8511
G1 X50.622 Y132.954 E.88148
G1 X50.437 Y133.303 E.91182
G1 X50.185 Y133.609 E.94227
G1 X49.879 Y133.859 E.97262
G1 X49.481 Y134.057 E1.00677
G1 X49.117 Y134.157 E1.03577
G1 X48.741 Y134.186 E1.06474
G1 X48.361 Y134.142 E1.09413
G1 X47.985 Y134.019 E1.12452
G1 X47.641 Y133.825 E1.15486
G1 X47.352 Y133.578 E1.18406
G1 X47.154 Y133.336 E1.20808
G1 X46.962 Y132.99 E1.23848
G1 X46.841 Y132.614 E1.26882
G1 X46.798 Y132.22 E1.29927
G1 X46.833 Y131.826 E1.32965
G1 X46.946 Y131.447 E1.36003
G1 X47.152 Y131.073 E1.39283
G1 X47.383 Y130.792 E1.42077
G1 X47.68 Y130.551 E1.45015
G1 X48.232 Y130.314 F9000
G1 X47.459 Y129.988
;TYPE:Perimeter
G1 F1800
G1 X47.863 Y129.786 E1.48485
G1 X48.359 Y129.651 E1.52434
G1 X48.841 Y129.616 E1.56146
G1 X49.258 Y129.66 E1.59367
G1 X49.752 Y129.804 E1.6332
G1 X50.208 Y130.043 E1.67275
G1 X50.607 Y130.368 E1.71228
G1 X50.934 Y130.766 E1.75185
G1 X51.176 Y131.22 E1.79137
G1 X51.323 Y131.713 E1.83089
G1 X51.369 Y132.226 E1.87046
G1 X51.313 Y132.737 E1.90995
G1 X51.156 Y133.228 E1.94955
G1 X50.906 Y133.677 E1.98903
G1 X50.571 Y134.068 E2.02858
G1 X50.165 Y134.385 E2.06815
G1 X49.705 Y134.616 E2.10769
G1 X49.176 Y134.754 E2.14969
G1 X48.681 Y134.782 E2.18778
G1 X48.185 Y134.715 E2.22623
G1 X47.698 Y134.546 E2.26583
G1 X47.256 Y134.285 E2.30526
G1 X46.894 Y133.965 E2.34237
G1 X46.634 Y133.635 E2.37464
G1 X46.393 Y133.181 E2.41412
G1 X46.246 Y132.688 E2.45364
G1 X46.2 Y132.176 E2.49313
G1 X46.256 Y131.664 E2.53269
G1 X46.413 Y131.174 E2.57222
G1 X46.663 Y130.724 E2.61176
G1 X46.998 Y130.333 E2.65131
G1 X47.382 Y130.033 E2.68874
G1 E2.18874 F240
G92 E0
G1 X47.382 Y130.033 F9000
G1 X170.895 Y148.845
G1 E.5 F240
;TYPE:External perimeter
G1 F1800
G1 X170.879 Y148.859 E.50163
G1 X170.528 Y149.043 E.53207
G1 X170.149 Y149.153 E.56238
G1 X169.754 Y149.187 E.59283
G1 X169.362 Y149.142 E.62314
G1 X168.985 Y149.019 E.6536
G1 X168.641 Y148.825 E.68394
G1 X168.347 Y148.572 E.71374
G1 X168.154 Y148.335 E.73722
G1 X167.962 Y147.99 E.76755
G1 X167.845 Y147.638 E.79604
G1 X167.798 Y147.22 E.82835
G1 X167.833 Y146.826 E.85873
G1 X167.946 Y146.447 E.88911
G1 X168.132 Y146.098 E.91949
G1 X168.383 Y145.792 E.94989
G1 X168.69 Y145.543 E.98025
G1 X169.04 Y145.359 E1.01062
G1 X169.419 Y145.248 E1.04096
G1 X169.798 Y145.214 E1.07019
G1 X170.11 Y145.241 E1.09425
G1 X170.492 Y145.345 E1.12466
G1 X170.845 Y145.521 E1.15496
G1 X171.157 Y145.765 E1.18539
G1 X171.45 Y146.128 E1.22122
G1 X171.627 Y146.47 E1.2508
G1 X171.727 Y146.788 E1.27641
G1 X171.771 Y147.181 E1.30679
G1 X171.735 Y147.575 E1.33718
G1 X171.622 Y147.954 E1.36756
G1 X171.437 Y148.303 E1.3979
G1 X171.185 Y148.609 E1.42835
G1 X170.965 Y148.788 E1.45014
G1 X170.428 Y149.056 F9000
G1 X171.218 Y149.344
;TYPE:Perimeter
G1 F1800
G1 X171.165 Y149.385 E1.45529
G1 X170.705 Y149.616 E1.49483
G1 X170.208 Y149.75 E1.53437
G1 X169.695 Y149.784 E1.57386
G1 X169.196 Y149.718 E1.61253
G1 X168.721 Y149.558 E1.65103
G1 X168.276 Y149.301 E1.6905
G1 X167.891 Y148.963 E1.72985
G1 X167.634 Y148.635 E1.76186
G1 X167.393 Y148.181 E1.80134
G1 X167.258 Y147.76 E1.8353
G1 X167.197 Y147.245 E1.87514
G1 X167.244 Y146.71 E1.9164
G1 X167.392 Y146.216 E1.95601
G1 X167.626 Y145.774 E1.99443
G1 X167.952 Y145.374 E2.03407
G1 X168.351 Y145.047 E2.0737
G1 X168.806 Y144.805 E2.11329
G1 X169.294 Y144.66 E2.1524
G1 X169.841 Y144.616 E2.19455
G1 X170.258 Y144.66 E2.22676
G1 X170.752 Y144.804 E2.26629
G1 X171.208 Y145.043 E2.30584
G1 X171.607 Y145.368 E2.34537
G1 X171.934 Y145.766 E2.38494
G1 X172.176 Y146.22 E2.42446
G1 X172.323 Y146.713 E2.46398
G1 X172.369 Y147.226 E2.50355
G1 X172.313 Y147.737 E2.54304
G1 X172.156 Y148.228 E2.58264
G1 X171.906 Y148.677 E2.62212
G1 X171.571 Y149.068 E2.66167
G1 X171.289 Y149.289 E2.68919
G1 E2.18919 F240
G92 E0
G1 X171.289 Y149.289 F9000
G1 X194.629 Y131.933
G1 E.5 F240
;TYPE:External perimeter
G1 F1800
G1 X194.622 Y131.954 E.5017
G1 X194.437 Y132.303 E.53204
G1 X194.185 Y132.609 E.56249
G1 X193.879 Y132.859 E.59284
G1 X193.528 Y133.043 E.62328
G1 X193.149 Y133.153 E.65359
G1 X192.814 Y133.187 E.67946
G1 X192.361 Y133.142 E.71443
G1 X191.985 Y133.019 E.74482
G1 X191.593 Y132.785 E.77989
G1 X191.297 Y132.51 E.81093
G1 X191.1 Y132.254 E.83574
G1 X190.93 Y131.914 E.86494
G1 X190.841 Y131.613 E.88905
G1 X190.798 Y131.22 E.91942
G1 X190.833 Y130.826 E.9498
G1 X190.946 Y130.447 E.98018
G1 X191.132 Y130.098 E1.01056
G1 X191.383 Y129.792 E1.04096
G1 X191.69 Y129.543 E1.07132
G1 X192.04 Y129.359 E1.10169
G1 X192.419 Y129.248 E1.13203
G1 X192.798 Y129.214 E1.16126
G1 X193.11 Y129.241 E1.18532
G1 X193.492 Y129.345 E1.21573
G1 X193.845 Y129.521 E1.24603
G1 X194.157 Y129.765 E1.27646
G1 X194.414 Y130.065 E1.3068
G1 X194.607 Y130.411 E1.33723
G1 X194.727 Y130.788 E1.36762
G1 X194.771 Y131.181 E1.398
G1 X194.735 Y131.575 E1.42839
G1 X194.654 Y131.847 E1.45019
G1 X194.362 Y132.371 F9000
G1 X195.176 Y132.164
;TYPE:Perimeter
G1 F1800
G1 X195.156 Y132.228 E1.45534
G1 X194.906 Y132.677 E1.49482
G1 X194.571 Y133.068 E1.53437
G1 X194.165 Y133.385 E1.57394
G1 X193.705 Y133.616 E1.61348
G1 X193.208 Y133.75 E1.65302
G1 X192.874 Y133.784 E1.67881
G1 X192.36 Y133.75 E1.71838
G1 X191.864 Y133.616 E1.75785
G1 X191.403 Y133.385 E1.79746
G1 X190.998 Y133.068 E1.83697
G1 X190.663 Y132.677 E1.87652
G1 X190.416 Y132.236 E1.91535
G1 X190.246 Y131.688 E1.95942
G1 X190.2 Y131.176 E1.99891
G1 X190.256 Y130.664 E2.03847
G1 X190.413 Y130.174 E2.078
G1 X190.663 Y129.724 E2.11754
G1 X190.998 Y129.333 E2.15709
G1 X191.403 Y129.016 E2.1966
G1 X191.863 Y128.786 E2.23611
G1 X192.359 Y128.651 E2.2756
G1 X192.841 Y128.616 E2.31272
G1 X193.258 Y128.66 E2.34493
G1 X193.752 Y128.804 E2.38446
G1 X194.208 Y129.043 E2.42401
G1 X194.607 Y129.368 E2.46354
G1 X194.934 Y129.766 E2.50311
G1 X195.176 Y130.22 E2.54263
G1 X195.323 Y130.713 E2.58215
G1 X195.369 Y131.226 E2.62172
G1 X195.313 Y131.737 E2.66121
G1 X195.204 Y132.078 E2.68871
G1 E2.18871 F240
G92 E0
G1 X195.204 Y132.078 F9000
G1 X198.199 Y214.763
G1 E.5 F240
;TYPE:External perimeter
G1 F1800
G1 X51.976 Y214.763 E11.73237
G1 X42.174 Y204.961 E12.79721
G1 X42.174 Y198.744 E13.27478
G1 X42.249 Y198.235 E13.3143
G1 X42.369 Y197.945 E13.33841
G1 X42.663 Y197.547 E13.37642
G1 X42.989 Y197.292 E13.40821
