; generated by PrusaSlicer 2.8.0+MacOS-arm64 on 2024-09-05 at 21:07:14 UTC


;
;

;
;
; 

; external perimeters extrusion width = 0.68mm
; perimeters extrusion width = 0.68mm
; infill extrusion width = 0.68mm
; solid infill extrusion width = 0.68mm
; top infill extrusion width = 0.60mm

; external perimeters extrusion width = 0.68mm
; perimeters extrusion width = 0.68mm
; infill extrusion width = 0.68mm
; solid infill extrusion width = 0.68mm
; top infill extrusion width = 0.60mm


EXCLUDE_OBJECT_DEFINE NAME='c_lid' CENTER=128.501,171.681 POLYGON=[[193.156,143.283],[193.913,143.472],[194.472,143.866],[194.905,144.515],[195.058,145.280],[195.058,198.080],[194.971,198.661],[194.720,199.191],[194.326,199.626],[193.823,199.928],[193.058,200.080],[63.945,200.080],[63.365,199.994],[62.834,199.743],[62.399,199.349],[62.098,198.846],[61.945,198.080],[61.945,145.280],[62.032,144.700],[62.283,144.169],[62.677,143.734],[63.180,143.432],[63.945,143.280]]
EXCLUDE_OBJECT_DEFINE NAME='d_lid' CENTER=129.571,101.941 POLYGON=[[189.843,64.411],[190.510,64.561],[191.088,64.927],[191.508,65.466],[191.723,66.115],[191.744,79.814],[217.744,105.814],[217.742,133.307],[217.658,133.789],[217.407,134.320],[217.088,134.691],[216.600,135.017],[215.744,135.209],[49.257,135.209],[48.676,135.122],[48.228,134.924],[47.775,134.552],[47.449,134.064],[47.257,133.209],[47.257,80.409],[47.343,79.828],[47.594,79.297],[47.988,78.863],[48.583,78.526],[49.158,78.411],[68.785,78.409],[68.795,66.213],[68.902,65.735],[69.122,65.297],[69.442,64.927],[69.930,64.601],[70.785,64.409]]

;TYPE:Custom
START_PRINT BED_TEMP=75 HOTEND_TEMP=240 FILAMENT_TYPE=PET EXTRUSION_MULTIPLIER=0.88 PERIMETER_SPEED=70
G21 ; set units to millimeters
G90 ; use absolute coordinates
M82 ; use absolute distances for extrusion
G92 E0
; Filament gcode
; ########################### NOTE OFFSET CHANGES ####################################
; Prevents PETG buildup on nozzle.
; SET_GCODE_OFFSET Z=0.06
; ####################################################################################
M107
;LAYER_CHANGE
;Z:0.35
;HEIGHT:0.35
G1 E-.5 F240
G1 Z.35 F9000
EXCLUDE_OBJECT_START NAME='c_lid'
G92 E0
G1 X122.934 Y164.816
G1 E.5 F240
G92 E0
;TYPE:External perimeter
;WIDTH:0.675
G1 F1800
G1 X122.939 Y164.821 E.00054
G1 X123.077 Y165.078 E.02295
G1 X123.161 Y165.42 E.05
G1 X123.168 Y173.411 E.66384
G1 X123.235 Y173.858 E.69856
G1 X123.409 Y174.356 E.73908
G1 X123.783 Y174.699 E.77806
G1 X124.274 Y174.875 E.81813
G1 X125.266 Y175.001 E.89494
G1 X125.907 Y175.024 E.94421
G1 X131.523 Y175.013 E1.37561
G1 X132.531 Y174.922 E1.45336
G1 X133.028 Y174.781 E1.49304
G1 X133.321 Y174.618 E1.5188
G1 X133.574 Y174.366 E1.54623
G1 X133.761 Y173.876 E1.58652
G1 X133.808 Y173.39 E1.62403
G1 X133.82 Y165.418 E2.23641
G1 X133.898 Y165.097 E2.26179
G1 X134.169 Y164.687 E2.29954
G1 X134.439 Y164.548 E2.32287
G1 X134.706 Y164.495 E2.34378
G1 X136.691 Y164.486 E2.49626
G1 X137.077 Y164.55 E2.52632
G1 X137.374 Y164.717 E2.55249
G1 X137.597 Y165.052 E2.5834
G1 X137.694 Y165.419 E2.61256
G1 X137.683 Y173.724 E3.25052
G1 X137.562 Y174.812 E3.33461
G1 X137.431 Y175.39 E3.38014
G1 X137.181 Y176.096 E3.43767
G1 X136.819 Y176.736 E3.49415
G1 X136.466 Y177.17 E3.53712
G1 X136.036 Y177.566 E3.58202
G1 X135.496 Y177.933 E3.63217
G1 X134.831 Y178.261 E3.68913
G1 X134.011 Y178.533 E3.75549
G1 X133.211 Y178.698 E3.81824
G1 X132.161 Y178.82 E3.89944
G1 X131.413 Y178.862 E3.95699
G1 X126.365 Y178.876 E4.34476
G1 X125.279 Y178.851 E4.42821
G1 X124.146 Y178.754 E4.51556
G1 X122.927 Y178.513 E4.61101
G1 X122.383 Y178.343 E4.65479
G1 X121.701 Y178.04 E4.71212
G1 X121.152 Y177.694 E4.76197
G1 X120.745 Y177.363 E4.80227
G1 X120.374 Y176.972 E4.84367
G1 X120.054 Y176.521 E4.88615
G1 X119.706 Y175.805 E4.9473
G1 X119.54 Y175.27 E4.99033
G1 X119.416 Y174.669 E5.03747
G1 X119.333 Y173.944 E5.09353
G1 X119.309 Y173.247 E5.1471
G1 X119.31 Y165.391 E5.75057
G1 X119.463 Y164.929 E5.78795
G1 X119.708 Y164.652 E5.81636
G1 X119.99 Y164.529 E5.83999
G1 X120.396 Y164.484 E5.87137
G1 X122.052 Y164.484 E5.99858
G1 X122.481 Y164.533 E6.03175
G1 X122.744 Y164.642 E6.05362
G1 X122.868 Y164.755 E6.06651
G1 X123.117 Y165.301 F9000
G1 X123.406 Y164.454
;TYPE:Perimeter
G1 F1800
G1 X123.617 Y164.81 E6.0983
G1 X123.756 Y165.324 E6.1392
G1 X123.761 Y165.419 E6.14651
G1 X123.768 Y173.383 E6.75828
G1 X123.861 Y173.867 E6.79614
G1 X123.921 Y174.038 E6.81006
G1 X124.221 Y174.233 E6.83755
G1 X124.677 Y174.341 E6.87355
G1 X125.382 Y174.409 E6.92796
G1 X125.907 Y174.424 E6.96831
G1 X131.496 Y174.414 E7.39764
G1 X132.003 Y174.377 E7.43669
G1 X132.509 Y174.308 E7.47592
G1 X132.895 Y174.186 E7.50702
G1 X133.073 Y174.028 E7.5253
G1 X133.178 Y173.702 E7.55161
G1 X133.208 Y173.032 E7.60313
G1 X133.221 Y165.417 E8.18809
G1 X133.294 Y164.992 E8.22122
G1 X133.524 Y164.547 E8.2597
G1 X133.757 Y164.248 E8.28882
G1 X134.183 Y164.001 E8.32665
G1 X134.703 Y163.895 E8.36742
G1 X136.691 Y163.886 E8.52013
G1 X137.206 Y163.96 E8.5601
G1 X137.671 Y164.179 E8.59958
G1 X137.867 Y164.374 E8.62082
G1 X138.142 Y164.793 E8.65932
G1 X138.286 Y165.299 E8.69973
G1 X138.283 Y173.722 E9.34676
G1 X138.158 Y174.879 E9.43615
G1 X138.015 Y175.524 E9.4869
G1 X137.679 Y176.445 E9.56221
G1 X137.339 Y177.035 E9.61452
G1 X136.929 Y177.552 E9.66521
G1 X136.441 Y178.009 E9.71657
G1 X135.831 Y178.431 E9.77355
G1 X135.095 Y178.8 E9.83679
G1 X134.197 Y179.103 E9.90959
G1 X133.28 Y179.294 E9.98154
G1 X132.231 Y179.416 E10.06266
G1 X131.415 Y179.462 E10.12544
G1 X126.365 Y179.476 E10.51337
G1 X125.228 Y179.449 E10.60074
G1 X124.095 Y179.352 E10.68809
G1 X122.81 Y179.101 E10.78866
G1 X122.202 Y178.915 E10.8375
G1 X121.456 Y178.588 E10.90007
G1 X120.829 Y178.199 E10.95675
G1 X120.365 Y177.827 E11.00243
G1 X119.937 Y177.383 E11.0498
G1 X119.563 Y176.865 E11.09888
G1 X119.165 Y176.065 E11.16752
G1 X118.966 Y175.444 E11.21761
G1 X118.829 Y174.79 E11.26894
G1 X118.737 Y174.011 E11.3292
G1 X118.709 Y173.267 E11.38639
G1 X118.71 Y165.391 E11.9914
G1 X118.76 Y165.097 E12.01431
G1 X118.966 Y164.594 E12.05606
G1 X119.281 Y164.218 E12.09374
G1 X119.833 Y163.95 E12.14088
G1 X120.396 Y163.884 E12.18442
G1 X122.052 Y163.884 E12.31163
G1 X122.612 Y163.946 E12.35491
G1 X123.062 Y164.133 E12.39234
G1 X123.355 Y164.381 E12.42183
G1 E11.92183 F240
G92 E0
G1 X123.355 Y164.381 F9000
G1 X170.943 Y149.312
G1 E.5 F240
;TYPE:External perimeter
G1 F1800
G1 X170.953 Y149.332 E.50172
G1 X171.063 Y149.703 E.53145
G1 X171.096 Y150.007 E.55494
G1 X171.071 Y150.401 E.58527
G1 X170.967 Y150.783 E.61568
G1 X170.79 Y151.137 E.64608
G1 X170.547 Y151.449 E.67646
G1 X170.246 Y151.706 E.70686
G1 X169.901 Y151.898 E.73719
G1 X169.524 Y152.019 E.7676
G1 X169.131 Y152.062 E.79797
G1 X168.744 Y152.028 E.82781
G1 X168.475 Y151.959 E.84914
G1 X168.092 Y151.781 E.88158
G1 X167.774 Y151.545 E.912
G1 X167.51 Y151.251 E.94235
G1 X167.309 Y150.911 E.97269
G1 X167.179 Y150.537 E1.00311
G1 X167.126 Y150.145 E1.0335
G1 X167.152 Y149.75 E1.06391
G1 X167.255 Y149.368 E1.0943
G1 X167.432 Y149.015 E1.12463
G1 X167.675 Y148.703 E1.15501
G1 X167.976 Y148.446 E1.18541
G1 X168.321 Y148.253 E1.21578
G1 X168.698 Y148.133 E1.24617
G1 X169.091 Y148.089 E1.27655
G1 X169.485 Y148.125 E1.30694
G1 X169.865 Y148.238 E1.33739
G1 X170.214 Y148.423 E1.36773
G1 X170.519 Y148.675 E1.39812
G1 X170.769 Y148.981 E1.42847
G1 X170.901 Y149.233 E1.45032
G1 X171.061 Y149.811 F9000
G1 X171.496 Y149.095
;TYPE:Perimeter
G1 F1800
G1 X171.526 Y149.155 E1.45547
G1 X171.658 Y149.629 E1.49327
G1 X171.695 Y150.037 E1.52474
G1 X171.652 Y150.549 E1.56421
G1 X171.511 Y151.036 E1.60316
G1 X171.268 Y151.499 E1.64333
G1 X170.944 Y151.898 E1.68281
G1 X170.546 Y152.225 E1.72238
G1 X170.092 Y152.467 E1.7619
G1 X169.599 Y152.614 E1.80142
G1 X169.086 Y152.66 E1.84099
G1 X168.596 Y152.61 E1.87883
G1 X168.28 Y152.526 E1.90395
G1 X167.804 Y152.309 E1.94414
G1 X167.391 Y152.009 E1.98335
G1 X167.038 Y151.625 E2.02342
G1 X166.77 Y151.177 E2.06352
G1 X166.586 Y150.626 E2.10814
G1 X166.527 Y150.115 E2.14765
G1 X166.57 Y149.602 E2.1872
G1 X166.714 Y149.108 E2.22673
G1 X166.954 Y148.652 E2.26631
G1 X167.278 Y148.253 E2.30579
G1 X167.676 Y147.926 E2.34536
G1 X168.13 Y147.684 E2.38488
G1 X168.624 Y147.537 E2.42447
G1 X169.136 Y147.491 E2.46396
G1 X169.648 Y147.547 E2.50352
G1 X170.138 Y147.704 E2.54305
G1 X170.588 Y147.954 E2.58259
G1 X170.979 Y148.289 E2.62214
G1 X171.296 Y148.695 E2.66171
G1 X171.456 Y149.015 E2.68919
G1 E2.18919 F240
G92 E0
G1 X171.456 Y149.015 F9000
G1 X168.851 Y195.542
G1 E.5 F240
;TYPE:External perimeter
G1 F1800
G1 X168.731 Y195.532 E.50925
G1 X168.351 Y195.419 E.5397
G1 X168.003 Y195.233 E.57001
G1 X167.708 Y194.993 E.59922
G1 X167.503 Y194.756 E.62329
G1 X167.302 Y194.416 E.65363
G1 X167.173 Y194.042 E.68402
G1 X167.12 Y193.65 E.71441
G1 X167.145 Y193.255 E.74481
G1 X167.249 Y192.873 E.77522
G1 X167.476 Y192.453 E.81189
G1 X167.669 Y192.208 E.83585
G1 X167.97 Y191.951 E.86625
G1 X168.315 Y191.758 E.89662
G1 X168.692 Y191.638 E.92701
G1 X169.085 Y191.594 E.95739
G1 X169.479 Y191.63 E.98778
G1 X169.858 Y191.743 E1.01816
G1 X170.208 Y191.928 E1.04857
G1 X170.508 Y192.174 E1.07837
G1 X170.706 Y192.406 E1.1018
G1 X170.907 Y192.746 E1.13214
G1 X171.037 Y193.12 E1.16256
G1 X171.09 Y193.512 E1.19295
G1 X171.064 Y193.906 E1.22328
G1 X170.961 Y194.288 E1.25367
G1 X170.784 Y194.642 E1.28407
G1 X170.54 Y194.954 E1.3145
G1 X170.24 Y195.211 E1.34484
G1 X169.895 Y195.403 E1.37517
G1 X169.518 Y195.524 E1.40558
G1 X169.124 Y195.567 E1.43603
G1 X168.94 Y195.55 E1.45022
G1 X168.359 Y195.401 F9000
G1 X168.762 Y196.13
;TYPE:Perimeter
G1 F1800
G1 X168.568 Y196.109 E1.46521
G1 X168.078 Y195.953 E1.50471
G1 X167.629 Y195.703 E1.54419
G1 X167.259 Y195.391 E1.58137
G1 X166.991 Y195.069 E1.61355
G1 X166.739 Y194.621 E1.65303
G1 X166.58 Y194.131 E1.6926
G1 X166.52 Y193.62 E1.73212
G1 X166.564 Y193.107 E1.77167
G1 X166.708 Y192.613 E1.8112
G1 X166.941 Y192.166 E1.84992
G1 X167.254 Y191.775 E1.88839
G1 X167.641 Y191.448 E1.92731
G1 X168.085 Y191.204 E1.96623
G1 X168.563 Y191.051 E2.00478
G1 X169.065 Y190.994 E2.04359
G1 X169.564 Y191.034 E2.08204
G1 X170.064 Y191.178 E2.12201
G1 X170.544 Y191.431 E2.16369
G1 X170.958 Y191.777 E2.20514
G1 X171.218 Y192.093 E2.23657
G1 X171.471 Y192.541 E2.27609
G1 X171.63 Y193.03 E2.31559
G1 X171.689 Y193.541 E2.3551
G1 X171.646 Y194.054 E2.39465
G1 X171.502 Y194.548 E2.43418
G1 X171.262 Y195.004 E2.47376
G1 X170.937 Y195.403 E2.51329
G1 X170.54 Y195.73 E2.5528
G1 X170.086 Y195.972 E2.59232
G1 X169.592 Y196.119 E2.63191
G1 X169.08 Y196.165 E2.6714
G1 X168.852 Y196.14 E2.68902
G1 E2.18902 F240
G92 E0
G1 X168.852 Y196.14 F9000
G1 X66.144 Y171.277
G1 E.5 F240
;TYPE:External perimeter
G1 F1800
G1 X66.145 Y171.255 E.50169
G1 X66.249 Y170.873 E.5321
G1 X66.426 Y170.52 E.56243
G1 X66.669 Y170.208 E.59281
G1 X66.97 Y169.951 E.62321
G1 X67.315 Y169.758 E.65358
G1 X67.692 Y169.638 E.68397
G1 X68.085 Y169.594 E.71435
G1 X68.479 Y169.63 E.74474
G1 X68.858 Y169.743 E.77512
G1 X69.208 Y169.928 E.80553
G1 X69.508 Y170.174 E.83533
G1 X69.706 Y170.406 E.85876
G1 X69.907 Y170.746 E.8891
G1 X70.037 Y171.12 E.91952
G1 X70.09 Y171.512 E.94991
G1 X70.064 Y171.906 E.98024
G1 X69.961 Y172.288 E1.01063
G1 X69.784 Y172.642 E1.04103
G1 X69.54 Y172.954 E1.07146
G1 X69.24 Y173.211 E1.1018
G1 X68.894 Y173.403 E1.1322
G1 X68.518 Y173.524 E1.16254
G1 X68.125 Y173.567 E1.19291
G1 X67.746 Y173.535 E1.22213
G1 X67.444 Y173.454 E1.24615
G1 X67.138 Y173.316 E1.27194
G1 X66.768 Y173.05 E1.30694
G1 X66.504 Y172.756 E1.33729
G1 X66.302 Y172.416 E1.36767
G1 X66.173 Y172.042 E1.39806
G1 X66.12 Y171.65 E1.42845
G1 X66.138 Y171.367 E1.45023
G1 X66.307 Y170.791 F9000
G1 X65.561 Y171.174
;TYPE:Perimeter
G1 F1800
G1 X65.647 Y170.782 E1.48106
G1 X65.854 Y170.31 E1.52065
G1 X66.15 Y169.889 E1.56018
G1 X66.524 Y169.536 E1.59969
G1 X66.961 Y169.263 E1.63927
G1 X67.443 Y169.082 E1.67882
G1 X67.951 Y169.001 E1.71834
G1 X68.465 Y169.021 E1.75785
G1 X68.965 Y169.143 E1.79739
G1 X69.431 Y169.362 E1.83694
G1 X69.844 Y169.669 E1.87647
G1 X70.198 Y170.061 E1.91704
G1 X70.459 Y170.509 E1.95687
G1 X70.626 Y171.003 E1.99693
G1 X70.69 Y171.515 E2.03657
G1 X70.652 Y172.027 E2.07601
G1 X70.517 Y172.514 E2.11483
G1 X70.284 Y172.974 E2.15444
G1 X69.971 Y173.372 E2.19333
G1 X69.551 Y173.724 E2.23543
G1 X69.086 Y173.972 E2.27591
G1 X68.592 Y174.119 E2.3155
G1 X68.081 Y174.165 E2.35491
G1 X67.6 Y174.117 E2.39204
G1 X67.197 Y174.001 E2.42425
G1 X66.891 Y173.863 E2.45004
G1 X66.463 Y173.577 E2.48958
G1 X66.1 Y173.212 E2.52912
G1 X65.816 Y172.782 E2.56871
G1 X65.624 Y172.305 E2.60821
G1 X65.529 Y171.799 E2.64776
G1 X65.537 Y171.284 E2.68733
G1 X65.542 Y171.262 E2.68906
G1 E2.18906 F240
G92 E0
G1 X65.542 Y171.262 F9000
G1 X194.713 Y145.289
G1 E.5 F240
;TYPE:External perimeter
G1 F1800
G1 X194.72 Y145.383 E.50724
G1 X194.72 Y198.057 E4.55348
G1 X194.645 Y198.562 E4.5927
G1 X194.437 Y199.002 E4.63009
G1 X194.11 Y199.363 E4.66751
G1 X193.885 Y199.497 E4.68763
G1 X193.517 Y199.668 E4.7188
G1 X193.041 Y199.743 E4.75582
G1 X63.969 Y199.743 E14.6707
G1 X63.464 Y199.668 E14.70992
G1 X63.024 Y199.46 E14.74731
G1 X62.663 Y199.133 E14.78473
G1 X62.528 Y198.908 E14.80489
G1 X62.358 Y198.54 E14.83603
G1 X62.283 Y198.064 E14.87305
G1 X62.283 Y145.304 E18.9259
G1 X62.358 Y144.799 E18.96512
G1 X62.566 Y144.358 E19.00258
G1 X62.893 Y143.998 E19.03994
G1 X63.118 Y143.863 E19.0601
G1 X63.486 Y143.692 E19.09127
G1 X63.962 Y143.618 E19.12827
G1 X192.957 Y143.62 E29.03724
G1 X193.378 Y143.65 E29.06966
G1 X193.837 Y143.823 E29.10734
G1 X194.232 Y144.106 E29.14467
G1 X194.515 Y144.501 E29.182
G1 X194.686 Y144.956 E29.21934
G1 X194.706 Y145.199 E29.23807
G1 X194.718 Y145.799 F9000
G1 X194.109 Y145.304
;TYPE:Perimeter
G1 F1800
G1 X194.12 Y145.383 E29.2442
G1 X194.12 Y197.923 E33.28015
G1 X194.065 Y198.386 E33.31597
G1 X193.933 Y198.665 E33.33968
G1 X193.725 Y198.894 E33.36344
G1 X193.441 Y199.064 E33.38887
G1 X193.011 Y199.143 E33.42245
G1 X64.103 Y199.143 E43.32474
G1 X63.64 Y199.088 E43.36056
G1 X63.361 Y198.955 E43.3843
G1 X63.132 Y198.748 E43.40801
G1 X62.962 Y198.464 E43.43344
G1 X62.883 Y198.034 E43.46702
G1 X62.883 Y145.438 E47.50727
G1 X62.938 Y144.975 E47.54309
G1 X63.07 Y144.695 E47.56687
G1 X63.278 Y144.466 E47.59063
G1 X63.561 Y144.296 E47.61599
G1 X63.991 Y144.218 E47.64956
G1 X192.957 Y144.22 E57.5563
G1 X193.253 Y144.239 E57.57908
G1 X193.645 Y144.4 E57.61163
G1 X193.937 Y144.692 E57.64335
G1 X194.065 Y144.975 E57.66721
G1 X194.097 Y145.215 E57.68581
G1 X194.097 Y145.215 F9000
G1 X193.64 Y145.567
;TYPE:Solid infill
;WIDTH:0.675
G1 F1800
G1 X167.53 Y171.676 E60.52222
G1 X193.64 Y197.786 E63.35869
G1 X193.64 Y197.786 F9000
G1 X193.468 Y198.463
G1 F1800
G1 X166.682 Y171.676 E66.26865
G1 X193.474 Y144.884 E69.17921
G1 E68.67921 F240
G92 E0
G1 X193.474 Y144.884 F9000
G1 X193.64 Y165.079
G1 E.5 F240
G1 F1800
G1 X187.043 Y171.676 E1.21667
G1 X193.64 Y178.273 E1.93334
G1 X193.64 Y178.273 F9000
G1 X193.64 Y177.425
G1 F1800
G1 X187.891 Y171.676 E2.55788
G1 X193.64 Y165.928 E3.18237
G1 X193.64 Y165.928 F9000
G1 X193.64 Y166.776
G1 F1800
G1 X188.74 Y171.676 E3.71468
G1 X193.64 Y176.577 E4.24705
G1 X193.64 Y176.577 F9000
G1 X193.64 Y175.728
G1 F1800
G1 X189.588 Y171.676 E4.68724
G1 X193.64 Y167.624 E5.12743
G1 X193.64 Y167.624 F9000
G1 X193.64 Y168.473
G1 F1800
G1 X190.437 Y171.676 E5.47539
G1 X193.64 Y174.88 E5.8234
G1 X193.64 Y174.88 F9000
G1 X193.64 Y174.032
G1 F1800
G1 X191.285 Y171.676 E6.07929
G1 X193.64 Y169.321 E6.33513
G1 E5.83513 F240
G92 E0
G1 X193.64 Y169.321 F9000
G1 X193.64 Y172.335
G1 E.5 F240
G1 F1800
G1 X192.982 Y171.676 E.57154
G1 X193.64 Y171.018 E.64302
G1 X193.64 Y171.018 F9000
G1 X193.64 Y170.169
G1 F1800
G1 X192.133 Y171.676 E.80673
G1 X193.64 Y173.183 E.97044
G1 E.47044 F240
G92 E0
G1 X193.64 Y173.183 F9000
G1 X193.64 Y179.122
G1 E.5 F240
G1 F1800
G1 X186.195 Y171.676 E1.30884
G1 X193.64 Y164.231 E2.11763
G1 X193.64 Y164.231 F9000
G1 X193.64 Y163.382
G1 F1800
G1 X185.346 Y171.676 E3.01865
G1 X193.64 Y179.97 E3.91967
G1 X193.64 Y179.97 F9000
G1 X193.64 Y180.819
G1 F1800
G1 X184.498 Y171.676 E4.91287
G1 X193.64 Y162.534 E5.90601
G1 X193.64 Y162.534 F9000
