; generated by PrusaSlicer 2.8.0+MacOS-arm64 on 2024-09-05 at 21:08:35 UTC


;
;

;
;
; 

; external perimeters extrusion width = 0.68mm
; perimeters extrusion width = 0.68mm
; infill extrusion width = 0.68mm
; solid infill extrusion width = 0.68mm
; top infill extrusion width = 0.60mm


EXCLUDE_OBJECT_DEFINE NAME='e_lid' CENTER=127.450,122.849 POLYGON=[[179.288,33.541],[179.956,33.691],[180.604,34.124],[181.038,34.773],[181.188,35.440],[181.169,89.176],[180.954,89.825],[180.604,90.296],[180.133,90.646],[179.484,90.860],[168.990,90.882],[168.990,98.182],[181.186,98.192],[181.756,98.334],[182.333,98.700],[182.754,99.239],[182.969,99.889],[182.990,204.553],[182.904,205.134],[182.706,205.582],[182.404,205.968],[182.018,206.269],[181.571,206.467],[181.088,206.551],[168.990,206.553],[168.988,209.980],[168.873,210.556],[168.597,211.073],[168.182,211.488],[167.664,211.765],[167.088,211.880],[75.390,211.882],[74.904,211.822],[74.362,211.598],[73.976,211.296],[73.626,210.825],[73.450,210.368],[73.390,209.882],[73.390,35.538],[73.450,35.053],[73.675,34.510],[73.976,34.124],[74.362,33.823],[74.810,33.625],[75.390,33.538]]

;TYPE:Custom
START_PRINT BED_TEMP=75 HOTEND_TEMP=240 FILAMENT_TYPE=PET EXTRUSION_MULTIPLIER=0.88 PERIMETER_SPEED=70
G21 ; set units to millimeters
G90 ; use absolute coordinates
M82 ; use absolute distances for extrusion
G92 E0
; Filament gcode
; ########################### NOTE OFFSET CHANGES ####################################
; Prevents PETG buildup on nozzle.
; SET_GCODE_OFFSET Z=0.06
; ####################################################################################
M107
;LAYER_CHANGE
;Z:0.35
;HEIGHT:0.35
G1 E-.5 F240
G1 Z.35 F9000
EXCLUDE_OBJECT_START NAME='e_lid'
G92 E0
G1 X133.813 Y115.893
G1 E.5 F240
G92 E0
;TYPE:External perimeter
;WIDTH:0.675
G1 F1800
G1 X133.913 Y115.773 E.012
G1 X134.233 Y115.647 E.03842
G1 X134.596 Y115.611 E.06644
G1 X136.279 Y115.611 E.19572
G1 X136.747 Y115.675 E.232
G1 X137.141 Y115.908 E.26716
G1 X137.357 Y116.36 E.30564
G1 X137.379 Y117.193 E.36965
G1 X137.383 Y128.889 E1.2681
G1 X137.294 Y129.231 E1.29525
G1 X137.073 Y129.571 E1.3264
G1 X136.796 Y129.73 E1.35093
G1 X136.3 Y129.81 E1.38952
G1 X134.597 Y129.81 E1.52034
G1 X134.092 Y129.728 E1.55964
G1 X133.971 Y129.678 E1.5697
G1 X133.737 Y129.48 E1.59325
G1 X133.531 Y129.024 E1.63169
G1 X133.513 Y128.765 E1.65163
G1 X133.531 Y116.508 E2.59317
G1 X133.664 Y116.073 E2.62811
G1 X133.756 Y115.962 E2.63918
G1 X134.278 Y115.667 F9000
G1 X133.367 Y115.487
;TYPE:Perimeter
G1 F1800
G1 X133.482 Y115.344 E2.65328
G1 X133.929 Y115.11 E2.69204
G1 X134.504 Y115.016 E2.7368
G1 X136.274 Y115.011 E2.87277
G1 X136.778 Y115.058 E2.91165
G1 X137.02 Y115.141 E2.9313
G1 X137.473 Y115.395 E2.97119
G1 X137.691 Y115.655 E2.99725
G1 X137.912 Y116.133 E3.0377
G1 X137.979 Y116.474 E3.0644
G1 X137.982 Y128.889 E4.01808
G1 X137.883 Y129.376 E4.05625
G1 X137.644 Y129.832 E4.0958
G1 X137.418 Y130.061 E4.12052
G1 X137.031 Y130.287 E4.15495
G1 X136.445 Y130.397 E4.20075
G1 X134.597 Y130.41 E4.34271
G1 X133.991 Y130.319 E4.38978
G1 X133.629 Y130.171 E4.41982
G1 X133.385 Y129.991 E4.44311
G1 X133.177 Y129.701 E4.47052
G1 X132.968 Y129.231 E4.51003
G1 X132.913 Y128.919 E4.53437
G1 X132.931 Y116.507 E5.48782
G1 X133.046 Y115.989 E5.52858
G1 X133.172 Y115.729 E5.55077
G1 X133.31 Y115.557 E5.56771
G1 E5.06771 F240
G92 E0
G1 X133.31 Y115.557 F9000
G1 X126.297 Y119.482
G1 E.5 F240
;TYPE:External perimeter
G1 F1800
G1 X125.133 Y119.463 E.58943
G1 X124.478 Y119.57 E.64041
G1 X124.017 Y119.781 E.67936
G1 X123.729 Y120.089 E.71175
G1 X123.587 Y120.448 E.74141
G1 X123.505 Y121.018 E.78565
G1 X123.494 Y121.329 E.80955
G1 X123.493 Y128.873 E1.38906
G1 X123.349 Y129.362 E1.42822
G1 X123.259 Y129.497 E1.44068
G1 X122.94 Y129.729 E1.47098
G1 X122.54 Y129.807 E1.50229
G1 X119.98 Y129.808 E1.69894
G1 X119.487 Y129.703 E1.73766
G1 X119.169 Y129.419 E1.77041
G1 X119.005 Y128.94 E1.8093
G1 X118.998 Y128.875 E1.81432
G1 X118.998 Y121.228 E2.40174
G1 X119.038 Y120.305 E2.47271
G1 X119.126 Y119.649 E2.52355
G1 X119.301 Y118.943 E2.57942
G1 X119.539 Y118.322 E2.63051
G1 X119.916 Y117.668 E2.6885
G1 X120.375 Y117.14 E2.74224
G1 X121.009 Y116.65 E2.80379
G1 X121.652 Y116.305 E2.85984
G1 X122.128 Y116.118 E2.89913
G1 X122.896 Y115.902 E2.96041
G1 X123.517 Y115.791 E3.00887
G1 X124.204 Y115.701 E3.06209
G1 X125.406 Y115.617 E3.15465
G1 X128.383 Y115.654 E3.38335
G1 X128.628 Y115.726 E3.40297
G1 X129.105 Y115.952 E3.44352
G1 X129.522 Y116.26 E3.48334
G1 X129.839 Y116.653 E3.52213
G1 X130.048 Y117.11 E3.56073
G1 X130.149 Y117.684 E3.6055
G1 X130.17 Y128.767 E4.45686
G1 X130.04 Y129.228 E4.49365
G1 X129.779 Y129.543 E4.52507
G1 X129.321 Y129.689 E4.562
G1 X127.407 Y129.703 E4.70903
G1 X127.053 Y129.668 E4.73636
G1 X126.734 Y129.539 E4.76279
G1 X126.536 Y129.363 E4.78314
G1 X126.374 Y129 E4.81368
G1 X126.318 Y128.768 E4.83201
G1 X126.318 Y119.551 E5.54003
G1 X125.723 Y119.476 F9000
G1 X125.684 Y120.072
;TYPE:Perimeter
G1 F1800
G1 X125.177 Y120.064 E5.57898
G1 X124.654 Y120.149 E5.61968
G1 X124.287 Y120.348 E5.65175
G1 X124.173 Y120.585 E5.67195
G1 X124.094 Y121.329 E5.72942
G1 X124.093 Y128.873 E6.30893
G1 X124.002 Y129.296 E6.34217
G1 X123.855 Y129.698 E6.37505
G1 X123.648 Y129.953 E6.40028
G1 X123.273 Y130.24 E6.43655
G1 X122.725 Y130.387 E6.48013
G1 X121.827 Y130.407 E6.54913
G1 X119.981 Y130.408 E6.69093
G1 X119.459 Y130.323 E6.73156
G1 X119.139 Y130.194 E6.75806
G1 X118.75 Y129.865 E6.7972
G1 X118.58 Y129.565 E6.82369
G1 X118.419 Y129.069 E6.86375
G1 X118.398 Y128.875 E6.87874
G1 X118.398 Y121.228 E7.46616
G1 X118.438 Y120.279 E7.53912
G1 X118.532 Y119.568 E7.59421
G1 X118.719 Y118.797 E7.65515
G1 X118.979 Y118.106 E7.71186
G1 X119.398 Y117.366 E7.77718
G1 X119.925 Y116.743 E7.83986
G1 X120.646 Y116.173 E7.91046
G1 X121.42 Y115.752 E7.97814
G1 X121.907 Y115.56 E8.01835
G1 X122.735 Y115.324 E8.08449
G1 X123.413 Y115.201 E8.13742
G1 X124.126 Y115.106 E8.19267
G1 X125.378 Y115.018 E8.28908
G1 X128.392 Y115.054 E8.52062
G1 X128.779 Y115.137 E8.55102
G1 X129.304 Y115.377 E8.59536
G1 X129.841 Y115.746 E8.64541
G1 X130.256 Y116.201 E8.69272
G1 X130.583 Y116.835 E8.74752
G1 X130.735 Y117.53 E8.80217
G1 X130.748 Y117.683 E8.81397
G1 X130.77 Y128.768 E9.66548
G1 X130.649 Y129.318 E9.70874
G1 X130.505 Y129.61 E9.73375
G1 X130.222 Y129.958 E9.76821
G1 X129.913 Y130.138 E9.79568
G1 X129.43 Y130.282 E9.8344
G1 X127.412 Y130.302 E9.98942
G1 X126.901 Y130.249 E10.02888
G1 X126.508 Y130.109 E10.06093
G1 X126.131 Y129.818 E10.09751
G1 X125.888 Y129.434 E10.13242
G1 X125.732 Y128.929 E10.17302
G1 X125.718 Y128.768 E10.18543
G1 X125.718 Y120.128 E10.84913
G1 E10.34913 F240
G92 E0
G1 X125.718 Y120.128 F9000
G1 X117.101 Y39.997
G1 E.5 F240
;TYPE:External perimeter
G1 F1800
G1 X117.111 Y39.977 E.50172
G1 X117.355 Y39.666 E.53209
G1 X117.655 Y39.408 E.56248
G1 X118.001 Y39.216 E.59288
G1 X118.377 Y39.095 E.62322
G1 X118.771 Y39.052 E.65367
G1 X119.165 Y39.088 E.68406
G1 X119.537 Y39.197 E.71384
G1 X119.81 Y39.334 E.7373
G1 X120.127 Y39.569 E.76761
G1 X120.392 Y39.863 E.79801
G1 X120.593 Y40.204 E.82842
G1 X120.722 Y40.577 E.85874
G1 X120.775 Y40.969 E.88913
G1 X120.75 Y41.364 E.91953
G1 X120.646 Y41.746 E.94994
G1 X120.47 Y42.1 E.98031
G1 X120.177 Y42.455 E1.01567
G1 X119.925 Y42.669 E1.04107
G1 X119.598 Y42.854 E1.06993
G1 X119.203 Y42.982 E1.10183
G1 X118.81 Y43.025 E1.1322
G1 X118.416 Y42.989 E1.16259
G1 X118.037 Y42.876 E1.19297
G1 X117.688 Y42.691 E1.22331
G1 X117.382 Y42.44 E1.25371
G1 X117.132 Y42.133 E1.28412
G1 X116.948 Y41.782 E1.31456
G1 X116.838 Y41.403 E1.34487
G1 X116.804 Y41.009 E1.37525
G1 X116.849 Y40.616 E1.40564
G1 X116.965 Y40.254 E1.43484
G1 X117.059 Y40.076 E1.4503
G1 X117.44 Y39.612 F9000
G1 X116.601 Y39.673
;TYPE:Perimeter
G1 F1800
G1 X116.633 Y39.615 E1.45539
G1 X116.958 Y39.216 E1.49492
G1 X117.355 Y38.889 E1.53443
G1 X117.81 Y38.647 E1.57402
G1 X118.303 Y38.5 E1.61354
G1 X118.815 Y38.454 E1.65303
G1 X119.327 Y38.51 E1.69259
G1 X119.797 Y38.657 E1.73042
G1 X120.16 Y38.847 E1.76189
G1 X120.567 Y39.161 E1.80138
G1 X120.903 Y39.55 E1.84087
G1 X121.156 Y39.998 E1.88039
G1 X121.316 Y40.488 E1.91999
G1 X121.375 Y40.999 E1.9595
G1 X121.331 Y41.512 E1.99905
G1 X121.187 Y42.006 E2.03858
G1 X120.948 Y42.462 E2.07813
G1 X120.623 Y42.861 E2.11766
G1 X120.225 Y43.188 E2.15723
G1 X119.825 Y43.41 E2.19237
G1 X119.335 Y43.568 E2.23192
G1 X118.831 Y43.626 E2.27089
G1 X118.329 Y43.585 E2.30958
G1 X117.848 Y43.448 E2.348
G1 X117.399 Y43.22 E2.38668
G1 X116.99 Y42.897 E2.42671
G1 X116.647 Y42.488 E2.46771
G1 X116.397 Y42.022 E2.50833
G1 X116.241 Y41.463 E2.55291
G1 X116.207 Y40.949 E2.59248
G1 X116.276 Y40.44 E2.63194
G1 X116.43 Y39.982 E2.66906
G1 X116.557 Y39.752 E2.68924
G1 E2.18924 F240
G92 E0
G1 X116.557 Y39.752 F9000
G1 X175.576 Y40.188
G1 E.5 F240
;TYPE:External perimeter
G1 F1800
G1 X175.632 Y40.295 E.50928
G1 X175.743 Y40.674 E.53962
G1 X175.776 Y41.068 E.56999
G1 X175.731 Y41.461 E.60038
G1 X175.609 Y41.838 E.63082
G1 X175.415 Y42.182 E.66116
G1 X175.162 Y42.476 E.69096
G1 X174.968 Y42.639 E.71042
G1 X174.58 Y42.861 E.74476
G1 X174.203 Y42.982 E.77517
G1 X173.81 Y43.025 E.80554
G1 X173.416 Y42.989 E.83593
G1 X173.044 Y42.88 E.86571
G1 X172.771 Y42.743 E.88917
G1 X172.454 Y42.508 E.91948
G1 X172.189 Y42.214 E.94988
G1 X171.988 Y41.873 E.98029
G1 X171.858 Y41.5 E1.01063
G1 X171.805 Y41.108 E1.04102
G1 X171.831 Y40.713 E1.07143
G1 X171.934 Y40.331 E1.10182
G1 X172.111 Y39.977 E1.13222
G1 X172.355 Y39.666 E1.16259
G1 X172.655 Y39.408 E1.19298
G1 X173.001 Y39.216 E1.22338
G1 X173.377 Y39.095 E1.25372
G1 X173.771 Y39.052 E1.28417
G1 X174.165 Y39.088 E1.31456
G1 X174.544 Y39.201 E1.34494
G1 X174.893 Y39.386 E1.37528
G1 X175.198 Y39.638 E1.40567
G1 X175.448 Y39.944 E1.43602
G1 X175.534 Y40.108 E1.45024
G1 X175.723 Y40.677 F9000
G1 X176.118 Y39.943
;TYPE:Perimeter
G1 F1800
G1 X176.205 Y40.118 E1.46525
G1 X176.34 Y40.614 E1.50474
G1 X176.373 Y41.128 E1.54431
G1 X176.304 Y41.638 E1.58384
G1 X176.136 Y42.124 E1.62334
G1 X175.874 Y42.568 E1.66294
G1 X175.547 Y42.936 E1.70076
G1 X175.353 Y43.098 E1.72018
G1 X174.771 Y43.43 E1.77165
G1 X174.278 Y43.577 E1.81117
G1 X173.765 Y43.623 E1.85074
G1 X173.254 Y43.567 E1.89023
G1 X172.784 Y43.42 E1.92806
G1 X172.421 Y43.23 E1.95953
G1 X172.014 Y42.916 E1.99902
G1 X171.677 Y42.527 E2.03856
G1 X171.424 Y42.079 E2.07808
G1 X171.265 Y41.589 E2.11765
G1 X171.206 Y41.078 E2.15716
G1 X171.249 Y40.565 E2.19671
G1 X171.394 Y40.071 E2.23626
G1 X171.633 Y39.615 E2.27581
G1 X171.958 Y39.216 E2.31534
G1 X172.355 Y38.889 E2.35485
G1 X172.81 Y38.647 E2.39444
G1 X173.303 Y38.5 E2.43396
G1 X173.815 Y38.454 E2.47345
G1 X174.327 Y38.51 E2.51301
G1 X174.817 Y38.667 E2.55254
G1 X175.267 Y38.917 E2.59208
G1 X175.658 Y39.252 E2.63163
G1 X175.975 Y39.657 E2.67114
G1 X176.078 Y39.862 E2.68876
G1 E2.18876 F240
G92 E0
G1 X176.078 Y39.862 F9000
G1 X157.257 Y201.176
G1 E.5 F240
;TYPE:External perimeter
G1 F1800
G1 X157.279 Y201.173 E.50171
G1 X157.673 Y201.209 E.5321
G1 X158.045 Y201.318 E.56188
G1 X158.318 Y201.455 E.58534
G1 X158.74 Y201.803 E.62736
G1 X158.9 Y201.984 E.64592
G1 X159.101 Y202.325 E.67633
G1 X159.231 Y202.699 E.70675
G1 X159.284 Y203.091 E.73714
G1 X159.258 Y203.485 E.76747
G1 X159.155 Y203.867 E.79786
G1 X158.978 Y204.221 E.82826
G1 X158.734 Y204.533 E.85869
G1 X158.434 Y204.79 E.88903
G1 X158.088 Y204.982 E.91943
G1 X157.711 Y205.103 E.94984
G1 X157.318 Y205.146 E.98021
G1 X156.924 Y205.111 E1.01059
G1 X156.545 Y204.998 E1.04097
G1 X156.196 Y204.812 E1.07135
G1 X155.89 Y204.561 E1.10175
G1 X155.641 Y204.254 E1.13211
G1 X155.457 Y203.904 E1.16248
G1 X155.346 Y203.524 E1.19289
G1 X155.312 Y203.13 E1.22327
G1 X155.358 Y202.737 E1.25367
G1 X155.48 Y202.361 E1.28404
G1 X155.655 Y202.042 E1.31199
G1 X155.863 Y201.787 E1.33727
G1 X156.163 Y201.53 E1.36761
G1 X156.509 Y201.337 E1.39804
G1 X156.886 Y201.217 E1.42843
G1 X157.168 Y201.186 E1.45022
G1 X157.764 Y201.251 F9000
G1 X157.257 Y200.577
;TYPE:Perimeter
G1 F1800
G1 X157.296 Y200.574 E1.45322
G1 X157.798 Y200.622 E1.49196
G1 X158.305 Y200.778 E1.53271
G1 X158.668 Y200.968 E1.56418
G1 X159.075 Y201.282 E1.60367
G1 X159.412 Y201.671 E1.64321
G1 X159.665 Y202.12 E1.6828
G1 X159.824 Y202.609 E1.7223
G1 X159.883 Y203.12 E1.76181
G1 X159.839 Y203.633 E1.80136
G1 X159.695 Y204.127 E1.84089
G1 X159.456 Y204.583 E1.88044
G1 X159.131 Y204.982 E1.91997
G1 X158.734 Y205.309 E1.95948
G1 X158.279 Y205.551 E1.99907
G1 X157.786 Y205.698 E2.03859
G1 X157.273 Y205.744 E2.07816
G1 X156.762 Y205.688 E2.11765
G1 X156.271 Y205.532 E2.15722
G1 X155.822 Y205.281 E2.19673
G1 X155.431 Y204.946 E2.23628
G1 X155.114 Y204.541 E2.27579
G1 X154.884 Y204.081 E2.3153
G1 X154.749 Y203.584 E2.35486
G1 X154.715 Y203.07 E2.39443
G1 X154.784 Y202.56 E2.43396
G1 X154.952 Y202.075 E2.47339
G1 X155.165 Y201.696 E2.50679
G1 X155.466 Y201.337 E2.54278
G1 X155.857 Y201.014 E2.58174
G1 X156.298 Y200.775 E2.62027
G1 X156.788 Y200.625 E2.65963
G1 X157.167 Y200.586 E2.6889
G1 E2.1889 F240
G92 E0
G1 X157.167 Y200.586 F9000
G1 X118.153 Y206.911
G1 E.5 F240
;TYPE:External perimeter
G1 F1800
G1 X118.037 Y206.876 E.50931
G1 X117.688 Y206.691 E.53965
G1 X117.382 Y206.439 E.5701
G1 X117.132 Y206.133 E.60045
G1 X116.972 Y205.838 E.62623
G1 X116.838 Y205.403 E.66119
G1 X116.804 Y205.009 E.69157
G1 X116.849 Y204.616 E.72196
G1 X116.972 Y204.239 E.75242
G1 X117.166 Y203.895 E.78276
G1 X117.425 Y203.596 E.81315
G1 X117.737 Y203.354 E.84348
G1 X118.077 Y203.184 E.87268
G1 X118.378 Y203.095 E.89679
G1 X118.771 Y203.052 E.92716
G1 X119.165 Y203.088 E.95755
G1 X119.544 Y203.201 E.98793
G1 X119.893 Y203.386 E1.01827
G1 X120.193 Y203.632 E1.04807
G1 X120.392 Y203.863 E1.07149
G1 X120.593 Y204.204 E1.1019
G1 X120.722 Y204.577 E1.13222
G1 X120.775 Y204.969 E1.16261
G1 X120.75 Y205.364 E1.19301
G1 X120.646 Y205.746 E1.22342
G1 X120.47 Y206.1 E1.25379
G1 X120.226 Y206.411 E1.28416
G1 X119.925 Y206.669 E1.31461
G1 X119.58 Y206.861 E1.34494
G1 X119.203 Y206.982 E1.37535
G1 X118.81 Y207.025 E1.40572
G1 X118.416 Y206.989 E1.43611
G1 X118.239 Y206.937 E1.45028
G1 X117.699 Y206.675 F9000
G1 X117.949 Y207.47
;TYPE:Perimeter
G1 F1800
G1 X117.763 Y207.41 E1.46529
G1 X117.314 Y207.16 E1.50477
G1 X116.923 Y206.825 E1.54432
G1 X116.606 Y206.42 E1.58383
G1 X116.445 Y206.124 E1.60971
G1 X116.276 Y205.638 E1.64924
G1 X116.207 Y205.128 E1.68877
G1 X116.241 Y204.614 E1.72834
G1 X116.375 Y204.118 E1.76781
G1 X116.606 Y203.657 E1.80742
G1 X116.923 Y203.252 E1.84693
G1 X117.314 Y202.917 E1.88648
G1 X117.755 Y202.67 E1.92531
G1 X118.244 Y202.51 E1.96483
G1 X118.743 Y202.451 E2.00343
G1 X119.245 Y202.491 E2.04211
G1 X119.743 Y202.633 E2.08189
G1 X120.188 Y202.861 E2.1203
G1 X120.584 Y203.174 E2.15907
G1 X120.904 Y203.551 E2.19706
G1 X121.156 Y203.998 E2.23648
G1 X121.316 Y204.488 E2.27608
G1 X121.375 Y204.999 E2.31559
G1 X121.331 Y205.512 E2.35514
G1 X121.187 Y206.006 E2.39467
G1 X120.948 Y206.462 E2.43422
G1 X120.623 Y206.861 E2.47375
G1 X120.225 Y207.188 E2.51332
G1 X119.771 Y207.43 E2.55284
G1 X119.278 Y207.577 E2.59236
G1 X118.765 Y207.623 E2.63193
G1 X118.253 Y207.567 E2.67149
G1 X118.035 Y207.497 E2.68908
G1 E2.18908 F240
G92 E0
G1 X168.749 Y90.635 F9000
G1 E.5 F240
;TYPE:External perimeter
G1 F1800
G1 X168.725 Y90.649 E.50213
G1 X168.653 Y90.845 E.51817
G1 X168.659 Y98.279 E1.08923
G1 X168.761 Y98.45 E1.10453
G1 X168.952 Y98.52 E1.12016
G1 X181.146 Y98.529 E2.05686
G1 X181.632 Y98.651 E2.09535
G1 X181.907 Y98.798 E2.1193
G1 X182.147 Y99.015 E2.14415
G1 X182.376 Y99.281 E2.17111
G1 X182.577 Y99.693 E2.20632
G1 X182.653 Y100.339 E2.25629
G1 X182.653 Y204.53 E10.2599
G1 X182.577 Y205.039 E10.29943
G1 X182.414 Y205.407 E10.33035
G1 X182.164 Y205.727 E10.36154
G1 X181.843 Y205.978 E10.39284
G1 X181.472 Y206.142 E10.424
G1 X181.06 Y206.214 E10.45613
G1 X168.9 Y206.221 E11.39022
G1 X168.727 Y206.319 E11.40549
G1 X168.653 Y206.512 E11.42137
G1 X168.65 Y209.948 E11.68531
G1 X168.552 Y210.441 E11.72392
G1 X168.323 Y210.87 E11.76128
G1 X167.979 Y211.215 E11.7987
G1 X167.549 Y211.444 E11.83612
G1 X167.057 Y211.542 E11.87466
G1 X75.52 Y211.545 E18.90623
G1 X74.991 Y211.493 E18.94706
