; generated by PrusaSlicer 2.8.0+MacOS-arm64 on 2024-09-05 at 21:09:18 UTC


;
;

;
;
; 

; external perimeters extrusion width = 0.68mm
; perimeters extrusion width = 0.68mm
; infill extrusion width = 0.68mm
; solid infill extrusion width = 0.68mm
; top infill extrusion width = 0.60mm

; external perimeters extrusion width = 0.68mm
; perimeters extrusion width = 0.68mm
; infill extrusion width = 0.68mm
; solid infill extrusion width = 0.68mm
; top infill extrusion width = 0.60mm


EXCLUDE_OBJECT_DEFINE NAME='g_lid' CENTER=185.678,128.629 POLYGON=[[208.994,35.838],[209.751,36.027],[210.310,36.421],[210.744,37.070],[210.896,37.835],[210.896,215.545],[210.810,216.126],[210.503,216.737],[210.088,217.152],[209.570,217.429],[208.896,217.545],[155.396,217.545],[154.816,217.459],[154.205,217.152],[153.790,216.737],[153.513,216.219],[153.399,215.644],[153.396,192.545],[153.456,192.059],[153.632,191.603],[153.982,191.131],[154.453,190.782],[155.006,190.584],[161.896,190.545],[161.896,37.835],[161.982,37.255],[162.233,36.724],[162.627,36.289],[163.131,35.988],[163.798,35.838]]
EXCLUDE_OBJECT_DEFINE NAME='f_lid' CENTER=92.317,129.633 POLYGON=[[152.009,39.722],[152.766,39.912],[153.325,40.305],[153.758,40.954],[153.911,41.720],[153.911,172.820],[153.825,173.400],[153.574,173.931],[152.939,174.535],[152.491,174.733],[152.009,174.817],[116.911,174.820],[116.056,175.012],[115.365,175.551],[115.028,176.146],[114.911,176.820],[114.908,223.020],[114.793,223.598],[114.514,224.117],[114.097,224.532],[113.668,224.773],[112.899,224.922],[77.566,224.722],[23.111,224.722],[23.111,172.820],[23.263,172.054],[23.565,171.551],[23.999,171.157],[24.530,170.906],[25.012,170.822],[46.111,170.820],[46.111,41.720],[46.197,41.139],[46.448,40.608],[46.768,40.238],[47.168,39.956],[47.625,39.779],[48.111,39.720]]

;TYPE:Custom
START_PRINT BED_TEMP=75 HOTEND_TEMP=240 FILAMENT_TYPE=PET EXTRUSION_MULTIPLIER=0.88 PERIMETER_SPEED=70
G21 ; set units to millimeters
G90 ; use absolute coordinates
M82 ; use absolute distances for extrusion
G92 E0
; Filament gcode
; ########################### NOTE OFFSET CHANGES ####################################
; Prevents PETG buildup on nozzle.
; SET_GCODE_OFFSET Z=0.06
; ####################################################################################
M107
;LAYER_CHANGE
;Z:0.35
;HEIGHT:0.35
G1 E-.5 F240
G1 Z.35 F9000
EXCLUDE_OBJECT_START NAME='g_lid'
G92 E0
G1 X177.941 Y125.011
G1 E.5 F240
G92 E0
;TYPE:External perimeter
;WIDTH:0.675
G1 F1800
G1 X182.954 Y125.011 E.38508
G1 X183.293 Y125.076 E.4116
G1 X183.617 Y125.275 E.44081
G1 X183.798 Y125.585 E.46839
G1 X183.889 Y126.055 E.50516
G1 X183.883 Y127.922 E.64858
G1 X183.761 Y128.389 E.68566
G1 X183.494 Y128.683 E.71617
G1 X182.963 Y128.863 E.75924
G1 X175.349 Y128.863 E1.34412
G1 X175.035 Y128.806 E1.36863
G1 X174.587 Y128.556 E1.40804
G1 X174.373 Y128.249 E1.43679
G1 X174.264 Y127.639 E1.48439
G1 X174.263 Y121.827 E1.93085
G1 X174.309 Y120.748 E2.01381
G1 X174.454 Y119.807 E2.08695
G1 X174.623 Y119.23 E2.13314
G1 X174.822 Y118.792 E2.1701
G1 X175.038 Y118.462 E2.2004
G1 X175.382 Y118.092 E2.23921
G1 X175.746 Y117.831 E2.27362
G1 X176.143 Y117.648 E2.3072
G1 X176.597 Y117.534 E2.34316
G1 X177.068 Y117.498 E2.37945
G1 X184.412 Y117.498 E2.94359
G1 X185.225 Y117.534 E3.0061
G1 X185.992 Y117.631 E3.06549
G1 X186.563 Y117.761 E3.11047
G1 X187.275 Y118.012 E3.16846
G1 X187.768 Y118.277 E3.21145
G1 X188.472 Y118.853 E3.28132
G1 X188.997 Y119.516 E3.34628
G1 X189.446 Y120.386 E3.42149
G1 X189.717 Y121.22 E3.48885
G1 X189.88 Y122.033 E3.55254
G1 X190 Y123.107 E3.63555
G1 X190.04 Y123.857 E3.69324
G1 X190.051 Y124.571 E3.74809
G1 X190.051 Y128.827 E4.07502
G1 X190.032 Y129.774 E4.14778
G1 X189.987 Y130.492 E4.20304
G1 X189.873 Y131.412 E4.27425
G1 X189.765 Y131.944 E4.31595
G1 X189.503 Y132.828 E4.38678
G1 X189.28 Y133.345 E4.43003
G1 X188.911 Y133.972 E4.48592
G1 X188.555 Y134.427 E4.5303
G1 X188.175 Y134.792 E4.57077
G1 X187.723 Y135.117 E4.61353
G1 X187.173 Y135.406 E4.66126
G1 X186.482 Y135.641 E4.71733
G1 X185.544 Y135.817 E4.79064
G1 X184.742 Y135.878 E4.85242
G1 X175.163 Y135.883 E5.58825
G1 X174.665 Y135.719 E5.62853
G1 X174.388 Y135.453 E5.65803
G1 X174.278 Y135.16 E5.68207
G1 X174.242 Y134.85 E5.70604
G1 X174.248 Y132.953 E5.85176
G1 X174.38 Y132.467 E5.89045
G1 X174.578 Y132.236 E5.91382
G1 X175.077 Y132.048 E5.95478
G1 X175.349 Y132.031 E5.97571
G1 X184.297 Y132.031 E6.66307
G1 X184.787 Y131.994 E6.70082
G1 X185.3 Y131.897 E6.74093
G1 X185.705 Y131.632 E6.77811
G1 X185.879 Y131.345 E6.80389
G1 X186.018 Y130.973 E6.8344
G1 X186.121 Y130.448 E6.8755
G1 X186.174 Y129.929 E6.91558
G1 X186.199 Y129.186 E6.97269
G1 X186.199 Y124.215 E7.35455
G1 X186.185 Y123.622 E7.40011
G1 X186.125 Y122.962 E7.45102
G1 X185.974 Y122.233 E7.50821
G1 X185.79 Y121.862 E7.54002
G1 X185.502 Y121.598 E7.57003
G1 X185.047 Y121.432 E7.60724
G1 X184.291 Y121.371 E7.6655
G1 X178.243 Y121.375 E8.13009
G1 X178.095 Y121.429 E8.14219
G1 X177.965 Y121.805 E8.17275
G1 X177.922 Y122.355 E8.21513
G1 X177.94 Y124.921 E8.41225
G1 X178.534 Y125.01 F9000
G1 X178.537 Y124.411
;TYPE:Perimeter
G1 F1800
G1 X182.954 Y124.411 E8.75155
G1 X183.261 Y124.444 E8.77527
G1 X183.592 Y124.556 E8.80211
G1 X184.049 Y124.859 E8.84423
;WIDTH:0.715689
G1 X184.237 Y125.157 E8.87313
;WIDTH:0.756379
G1 X184.426 Y125.455 E8.90391
;WIDTH:0.803612
G1 X184.47 Y125.553 E8.91393
;WIDTH:0.850846
G1 X184.514 Y125.65 E8.92451
;WIDTH:0.89808
G1 X184.558 Y125.748 E8.93583
;WIDTH:0.945314
G1 X184.602 Y125.845 E8.9477
G1 X184.616 Y126.057 E8.97137
;WIDTH:0.933007
G1 X184.612 Y127.924 E9.17647
G1 X184.577 Y128.145 E9.20105
;WIDTH:0.912179
G1 X184.512 Y128.263 E9.21549
;WIDTH:0.864743
G1 X184.446 Y128.381 E9.22916
;WIDTH:0.817307
G1 X184.381 Y128.499 E9.24196
;WIDTH:0.769871
G1 X184.316 Y128.617 E9.25395
;WIDTH:0.722435
G1 X184.251 Y128.735 E9.26512
;WIDTH:0.675
G1 X183.937 Y129.106 E9.30246
G1 X183.679 Y129.255 E9.32535
G1 X183.118 Y129.45 E9.37097
G1 X182.963 Y129.463 E9.38292
G1 X175.349 Y129.463 E9.9678
G1 X174.875 Y129.388 E10.00466
G1 X174.422 Y129.173 E10.04318
G1 X174.124 Y128.938 E10.07233
G1 X173.824 Y128.492 E10.11362
G1 X173.678 Y127.8 E10.16795
G1 X173.664 Y127.639 E10.18036
G1 X173.664 Y121.789 E10.62974
G1 X173.71 Y120.723 E10.7117
G1 X173.864 Y119.699 E10.79124
G1 X174.048 Y119.059 E10.84239
G1 X174.254 Y118.583 E10.88223
G1 X174.546 Y118.116 E10.92454
G1 X174.895 Y117.728 E10.96463
G1 X175.34 Y117.378 E11.00812
G1 X175.833 Y117.125 E11.05069
G1 X176.394 Y116.962 E11.09557
G1 X177.068 Y116.898 E11.14758
G1 X184.412 Y116.898 E11.71172
G1 X185.252 Y116.934 E11.77631
G1 X186.073 Y117.036 E11.83986
G1 X186.697 Y117.176 E11.88899
G1 X187.476 Y117.447 E11.95235
G1 X188.056 Y117.751 E12.00265
G1 X188.854 Y118.39 E12.08118
G1 X189.47 Y119.148 E12.15621
G1 X189.98 Y120.114 E12.24012
G1 X190.289 Y121.037 E12.31489
G1 X190.477 Y121.966 E12.3877
G1 X190.597 Y123.04 E12.47071
G1 X190.639 Y123.826 E12.53117
G1 X190.651 Y128.827 E12.91533
G1 X190.631 Y129.786 E12.98901
G1 X190.586 Y130.529 E13.04619
G1 X190.468 Y131.486 E13.12026
G1 X190.352 Y132.065 E13.16562
G1 X190.078 Y132.999 E13.24039
G1 X189.83 Y133.585 E13.28927
G1 X189.428 Y134.278 E13.35081
G1 X189.026 Y134.799 E13.40136
G1 X188.588 Y135.227 E13.4484
G1 X188.071 Y135.606 E13.49764
G1 X187.449 Y135.938 E13.5518
G1 X186.672 Y136.21 E13.61504
G1 X185.653 Y136.407 E13.69477
G1 X184.786 Y136.476 E13.76158
G1 X175.163 Y136.483 E14.50079
G1 X174.854 Y136.428 E14.5249
G1 X174.326 Y136.217 E14.56858
G1 X173.966 Y135.893 E14.60578
G1 X173.818 Y135.649 E14.6277
G1 X173.683 Y135.233 E14.6613
G1 X173.643 Y134.848 E14.69103
G1 X173.648 Y132.951 E14.83675
G1 X173.684 Y132.703 E14.856
G1 X173.847 Y132.188 E14.89749
G1 X174.11 Y131.852 E14.93027
G1 X174.385 Y131.657 E14.95617
G1 X174.88 Y131.481 E14.99653
G1 X175.176 Y131.431 E15.01959
G1 X184.284 Y131.431 E15.71924
G1 X184.906 Y131.361 E15.76732
G1 X185.156 Y131.286 E15.78737
G1 X185.282 Y131.204 E15.79892
G1 X185.431 Y130.848 E15.82857
G1 X185.569 Y129.986 E15.89563
G1 X185.596 Y129.265 E15.95105
;WIDTH:0.708546
G1 X185.58 Y129.026 E15.97048
;WIDTH:0.742092
G1 X185.564 Y128.787 E15.99094
;WIDTH:0.775638
G1 X185.548 Y128.548 E16.01243
;WIDTH:0.81774
G1 X185.527 Y128.455 E16.0215
;WIDTH:0.859843
G1 X185.506 Y128.361 E16.03118
;WIDTH:0.901946
G1 X185.485 Y128.268 E16.04127
;WIDTH:0.944049
G1 X185.464 Y128.175 E16.05188
G1 X185.47 Y127.925 E16.07971
;WIDTH:0.933007
G1 X185.471 Y126.054 E16.28525
;WIDTH:0.945314
G1 X185.464 Y125.757 E16.31835
G1 X185.487 Y125.653 E16.33022
;WIDTH:0.89808
G1 X185.511 Y125.548 E16.34157
;WIDTH:0.850846
G1 X185.534 Y125.444 E16.35215
;WIDTH:0.803612
G1 X185.558 Y125.34 E16.36211
;WIDTH:0.756379
G1 X185.578 Y125.055 E16.38703
;WIDTH:0.715689
G1 X185.599 Y124.77 E16.41047
;WIDTH:0.675
G1 X185.585 Y123.656 E16.49605
G1 X185.531 Y123.05 E16.54279
G1 X185.402 Y122.43 E16.59144
G1 X185.245 Y122.176 E16.61438
G1 X184.918 Y122.024 E16.64208
G1 X184.267 Y121.971 E16.69225
G1 X178.554 Y121.975 E17.1311
G1 X178.528 Y123.201 E17.2253
G1 X178.536 Y124.321 E17.31134
G1 E16.81134 F240
G92 E0
G1 X178.536 Y124.321 F9000
G1 X166.348 Y167.413
G1 E.5 F240
;TYPE:External perimeter
G1 F1800
G1 X166.509 Y167.211 E.51984
G1 X166.858 Y166.918 E.55484
G1 X167.208 Y166.734 E.58521
G1 X167.587 Y166.624 E.61552
G1 X167.966 Y166.59 E.64475
G1 X168.278 Y166.617 E.66881
G1 X168.66 Y166.72 E.6992
G1 X169.083 Y166.95 E.73619
G1 X169.325 Y167.141 E.75987
G1 X169.582 Y167.441 E.79021
G1 X169.775 Y167.787 E.82064
G1 X169.895 Y168.163 E.85096
G1 X169.939 Y168.557 E.88141
G1 X169.903 Y168.951 E.9118
G1 X169.79 Y169.33 E.94218
G1 X169.604 Y169.679 E.97256
G1 X169.353 Y169.985 E1.00296
G1 X169.046 Y170.234 E1.03332
G1 X168.696 Y170.418 E1.06369
G1 X168.316 Y170.529 E1.0941
G1 X167.922 Y170.563 E1.12448
G1 X167.529 Y170.517 E1.15488
G1 X167.153 Y170.395 E1.18525
G1 X166.809 Y170.201 E1.21559
G1 X166.509 Y169.942 E1.24604
G1 X166.268 Y169.629 E1.27639
G1 X166.092 Y169.274 E1.30683
G1 X165.992 Y168.9 E1.33657
G1 X165.966 Y168.596 E1.36001
G1 X166.001 Y168.202 E1.39039
G1 X166.114 Y167.823 E1.42077
G1 X166.294 Y167.485 E1.45019
G1 X166.711 Y167.053 F9000
G1 X165.87 Y167.051
;TYPE:Perimeter
G1 F1800
G1 X166.04 Y166.837 E1.47118
G1 X166.423 Y166.492 E1.51078
G1 X166.866 Y166.231 E1.55028
G1 X167.353 Y166.062 E1.58988
G1 X167.853 Y165.994 E1.62864
G1 X168.426 Y166.036 E1.67277
G1 X168.92 Y166.18 E1.7123
G1 X169.376 Y166.419 E1.75185
G1 X169.775 Y166.744 E1.79138
G1 X170.102 Y167.141 E1.83089
G1 X170.344 Y167.596 E1.87048
G1 X170.49 Y168.089 E1.90998
G1 X170.537 Y168.601 E1.94948
G1 X170.481 Y169.113 E1.98904
G1 X170.324 Y169.603 E2.02857
G1 X170.073 Y170.053 E2.06815
G1 X169.739 Y170.444 E2.10765
G1 X169.333 Y170.761 E2.14722
G1 X168.873 Y170.991 E2.18673
G1 X168.376 Y171.126 E2.22629
G1 X167.863 Y171.159 E2.26578
G1 X167.353 Y171.09 E2.30531
G1 X166.866 Y170.922 E2.34488
G1 X166.423 Y170.66 E2.38442
G1 X166.04 Y170.316 E2.42397
G1 X165.734 Y169.902 E2.46352
G1 X165.515 Y169.437 E2.503
G1 X165.395 Y168.959 E2.54086
G1 X165.368 Y168.551 E2.57227
G1 X165.424 Y168.039 E2.61183
G1 X165.58 Y167.549 E2.65133
G1 X165.818 Y167.123 E2.68881
G1 E2.18881 F240
G92 E0
G1 X165.818 Y167.123 F9000
G1 X206.885 Y212.648
G1 E.5 F240
;TYPE:External perimeter
G1 F1800
G1 X206.782 Y212.842 E.51687
G1 X206.53 Y213.147 E.54726
G1 X206.223 Y213.397 E.57767
G1 X205.873 Y213.581 E.60804
G1 X205.494 Y213.692 E.63838
G1 X205.099 Y213.725 E.66883
G1 X204.706 Y213.68 E.69922
G1 X204.33 Y213.557 E.72961
G1 X203.986 Y213.363 E.75995
G1 X203.687 Y213.104 E.79034
G1 X203.448 Y212.798 E.82017
G1 X203.306 Y212.528 E.8436
G1 X203.186 Y212.152 E.87392
G1 X203.143 Y211.758 E.90437
G1 X203.178 Y211.364 E.93475
G1 X203.291 Y210.985 E.96513
G1 X203.477 Y210.636 E.99551
G1 X203.728 Y210.331 E1.02585
G1 X203.996 Y210.106 E1.05273
G1 X204.385 Y209.897 E1.08665
G1 X204.764 Y209.786 E1.11699
G1 X205.143 Y209.752 E1.14622
G1 X205.455 Y209.779 E1.17028
G1 X205.837 Y209.883 E1.20069
G1 X206.19 Y210.06 E1.23102
G1 X206.502 Y210.303 E1.2614
G1 X206.759 Y210.604 E1.2918
G1 X206.952 Y210.949 E1.32217
G1 X207.072 Y211.326 E1.35256
G1 X207.116 Y211.719 E1.38294
G1 X207.08 Y212.113 E1.41333
G1 X206.967 Y212.492 E1.44371
G1 X206.927 Y212.568 E1.45031
G1 X206.589 Y213.064 F9000
G1 X207.408 Y212.933
;TYPE:Perimeter
G1 F1800
G1 X207.251 Y213.216 E1.47517
G1 X206.916 Y213.607 E1.51472
G1 X206.51 Y213.924 E1.55429
G1 X206.05 Y214.154 E1.5938
G1 X205.553 Y214.288 E1.63334
G1 X205.04 Y214.322 E1.67283
G1 X204.53 Y214.253 E1.71236
G1 X204.043 Y214.084 E1.75196
G1 X203.6 Y213.823 E1.79146
G1 X203.218 Y213.478 E1.831
G1 X202.922 Y213.085 E1.86879
G1 X202.738 Y212.719 E1.90026
G1 X202.591 Y212.226 E1.93978
G1 X202.545 Y211.714 E1.97927
G1 X202.601 Y211.202 E2.01883
G1 X202.757 Y210.712 E2.05833
G1 X203.008 Y210.262 E2.09791
G1 X203.343 Y209.871 E2.13746
G1 X203.63 Y209.631 E2.1662
G1 X204.091 Y209.369 E2.20693
G1 X204.611 Y209.204 E2.24884
G1 X205.186 Y209.154 E2.29318
G1 X205.603 Y209.198 E2.32539
G1 X206.097 Y209.342 E2.36492
G1 X206.553 Y209.581 E2.40447
G1 X206.952 Y209.906 E2.444
G1 X207.279 Y210.304 E2.48357
G1 X207.521 Y210.758 E2.52309
G1 X207.668 Y211.251 E2.56261
G1 X207.714 Y211.764 E2.60218
G1 X207.658 Y212.276 E2.64174
G1 X207.501 Y212.766 E2.68127
G1 X207.452 Y212.854 E2.68901
G1 E2.18901 F240
G92 E0
G1 X207.452 Y212.854 F9000
G1 X206.337 Y81.003
G1 E.5 F240
;TYPE:External perimeter
G1 F1800
G1 X206.09 Y81.203 E.52441
G1 X205.74 Y81.387 E.55478
G1 X205.361 Y81.498 E.58512
G1 X204.966 Y81.532 E.61557
G1 X204.573 Y81.486 E.64597
G1 X204.197 Y81.364 E.67634
G1 X203.853 Y81.17 E.70668
G1 X203.444 Y80.78 E.75009
G1 X203.178 Y80.347 E.78913
G1 X203.053 Y79.958 E.82052
G1 X203.01 Y79.565 E.85089
G1 X203.045 Y79.171 E.88127
G1 X203.158 Y78.792 E.91165
G1 X203.344 Y78.443 E.94203
G1 X203.595 Y78.137 E.97243
G1 X203.902 Y77.888 E1.00279
G1 X204.252 Y77.704 E1.03316
G1 X204.631 Y77.593 E1.0635
G1 X205.01 Y77.559 E1.09273
G1 X205.322 Y77.586 E1.11679
G1 X205.704 Y77.689 E1.14718
G1 X206.057 Y77.866 E1.17751
G1 X206.369 Y78.11 E1.20794
G1 X206.626 Y78.41 E1.23828
G1 X206.819 Y78.756 E1.26871
G1 X206.939 Y79.133 E1.2991
G1 X206.983 Y79.526 E1.32948
G1 X206.947 Y79.92 E1.35987
G1 X206.834 Y80.299 E1.39025
G1 X206.648 Y80.648 E1.42063
G1 X206.405 Y80.944 E1.45005
G1 X205.912 Y81.285 F9000
G1 X206.733 Y81.452
;TYPE:Perimeter
G1 F1800
G1 X206.377 Y81.73 E1.48475
G1 X205.917 Y81.961 E1.52429
G1 X205.42 Y82.095 E1.56383
G1 X204.907 Y82.129 E1.60332
G1 X204.397 Y82.06 E1.64285
G1 X203.91 Y81.891 E1.68245
G1 X203.467 Y81.629 E1.72199
G1 X203.099 Y81.303 E1.75976
G1 X202.846 Y80.98 E1.79128
G1 X202.605 Y80.526 E1.83076
G1 X202.458 Y80.033 E1.87028
G1 X202.412 Y79.52 E1.90985
G1 X202.468 Y79.009 E1.94934
G1 X202.624 Y78.518 E1.98891
G1 X202.875 Y78.069 E2.02842
G1 X203.21 Y77.678 E2.06797
G1 X203.615 Y77.361 E2.10748
G1 X204.075 Y77.13 E2.14702
G1 X204.571 Y76.996 E2.18649
G1 X205.053 Y76.96 E2.22362
G1 X205.47 Y77.005 E2.25584
G1 X205.964 Y77.149 E2.29537
G1 X206.42 Y77.388 E2.33492
G1 X206.819 Y77.713 E2.37445
G1 X207.146 Y78.11 E2.41396
G1 X207.388 Y78.565 E2.45355
G1 X207.534 Y79.058 E2.49305
G1 X207.581 Y79.571 E2.53262
G1 X207.525 Y80.082 E2.57211
G1 X207.368 Y80.573 E2.61171
G1 X207.118 Y81.022 E2.65119
G1 X206.8 Y81.393 E2.68873
G1 E2.18873 F240
G92 E0
G1 X206.8 Y81.393 F9000
G1 X165.935 Y62.291
G1 E.5 F240
;TYPE:External perimeter
G1 F1800
G1 X165.945 Y62.171 E.50925
G1 X166.058 Y61.792 E.53963
G1 X166.244 Y61.443 E.57001
G1 X166.495 Y61.137 E.60041
G1 X166.802 Y60.888 E.63077
G1 X167.152 Y60.704 E.66114
G1 X167.531 Y60.593 E.69148
G1 X167.91 Y60.559 E.72071
G1 X168.222 Y60.586 E.74477
G1 X168.604 Y60.689 E.77516
G1 X168.957 Y60.866 E.80549
G1 X169.269 Y61.11 E.83592
G1 X169.526 Y61.41 E.86626
G1 X169.719 Y61.756 E.89669
G1 X169.839 Y62.133 E.92708
G1 X169.883 Y62.526 E.95746
G1 X169.847 Y62.92 E.98785
G1 X169.734 Y63.299 E1.01823
G1 X169.548 Y63.648 E1.04861
G1 X169.297 Y63.954 E1.07901
G1 X168.99 Y64.203 E1.10937
G1 X168.64 Y64.387 E1.13974
G1 X168.261 Y64.498 E1.17008
G1 X167.866 Y64.532 E1.20053
