; generated by PrusaSlicer 2.8.0+MacOS-arm64 on 2024-09-05 at 15:05:12 UTC


;
;

;
;
; 

; external perimeters extrusion width = 0.68mm
; perimeters extrusion width = 0.68mm
; infill extrusion width = 0.68mm
; solid infill extrusion width = 0.68mm
; top infill extrusion width = 0.60mm

; external perimeters extrusion width = 0.68mm
; perimeters extrusion width = 0.68mm
; infill extrusion width = 0.68mm
; solid infill extrusion width = 0.68mm
; top infill extrusion width = 0.60mm

; external perimeters extrusion width = 0.68mm
; perimeters extrusion width = 0.68mm
; infill extrusion width = 0.68mm
; solid infill extrusion width = 0.68mm
; top infill extrusion width = 0.60mm

; external perimeters extrusion width = 0.68mm
; perimeters extrusion width = 0.68mm
; infill extrusion width = 0.68mm
; solid infill extrusion width = 0.68mm
; top infill extrusion width = 0.60mm


EXCLUDE_OBJECT_DEFINE NAME='bed_wheel_turn_handle_4' CENTER=89.974,89.974 POLYGON=[[90.152,84.954],[91.039,85.065],[92.056,85.403],[92.977,85.949],[93.666,86.569],[94.211,87.277],[94.686,88.237],[94.919,89.100],[94.993,90.152],[94.882,91.039],[94.544,92.056],[93.999,92.978],[93.378,93.666],[92.670,94.211],[91.710,94.686],[90.847,94.920],[89.795,94.993],[88.908,94.882],[87.892,94.544],[86.970,93.999],[86.281,93.378],[85.736,92.670],[85.261,91.710],[85.028,90.847],[84.954,89.795],[85.065,88.908],[85.403,87.892],[85.948,86.970],[86.569,86.281],[87.277,85.736],[88.237,85.261],[89.100,85.028]]
EXCLUDE_OBJECT_DEFINE NAME='bed_wheel_turn_handle_1' CENTER=160.026,89.974 POLYGON=[[160.205,84.954],[161.092,85.065],[162.108,85.403],[163.030,85.949],[163.719,86.569],[164.264,87.277],[164.739,88.237],[164.972,89.100],[165.046,90.152],[164.935,91.039],[164.597,92.056],[164.052,92.978],[163.431,93.666],[162.723,94.211],[161.763,94.686],[160.900,94.920],[159.848,94.993],[158.961,94.882],[157.944,94.544],[157.023,93.999],[156.334,93.378],[155.789,92.670],[155.314,91.710],[155.081,90.847],[155.007,89.795],[155.118,88.908],[155.456,87.892],[156.001,86.970],[156.622,86.281],[157.330,85.736],[158.290,85.261],[159.153,85.028]]
EXCLUDE_OBJECT_DEFINE NAME='bed_wheel_turn_handle_3' CENTER=89.974,160.026 POLYGON=[[90.152,155.007],[91.039,155.118],[92.056,155.456],[92.977,156.001],[93.666,156.622],[94.211,157.330],[94.686,158.290],[94.919,159.153],[94.993,160.205],[94.882,161.092],[94.544,162.108],[93.999,163.030],[93.378,163.719],[92.670,164.264],[91.710,164.739],[90.847,164.972],[89.795,165.046],[88.908,164.935],[87.892,164.597],[86.970,164.052],[86.281,163.431],[85.736,162.723],[85.261,161.763],[85.028,160.900],[84.954,159.848],[85.065,158.961],[85.403,157.944],[85.948,157.023],[86.569,156.334],[87.277,155.789],[88.237,155.314],[89.100,155.081]]
EXCLUDE_OBJECT_DEFINE NAME='bed_wheel_turn_handle_2' CENTER=160.026,160.026 POLYGON=[[160.205,155.007],[161.092,155.118],[162.108,155.456],[163.030,156.001],[163.719,156.622],[164.264,157.330],[164.739,158.290],[164.972,159.153],[165.046,160.205],[164.935,161.092],[164.597,162.108],[164.052,163.030],[163.431,163.719],[162.723,164.264],[161.763,164.739],[160.900,164.972],[159.848,165.046],[158.961,164.935],[157.944,164.597],[157.023,164.052],[156.334,163.431],[155.789,162.723],[155.314,161.763],[155.081,160.900],[155.007,159.848],[155.118,158.961],[155.456,157.944],[156.001,157.023],[156.622,156.334],[157.330,155.789],[158.290,155.314],[159.153,155.081]]

;TYPE:Custom
START_PRINT BED_TEMP=65 HOTEND_TEMP=220 FILAMENT_TYPE=PLA EXTRUSION_MULTIPLIER=0.95 PERIMETER_SPEED=80
G21 ; set units to millimeters
G90 ; use absolute coordinates
M82 ; use absolute distances for extrusion
G92 E0
; Filament gcode
M107
;LAYER_CHANGE
;Z:0.35
;HEIGHT:0.35
G1 E-.5 F240
G1 Z.35 F9000
EXCLUDE_OBJECT_START NAME='bed_wheel_turn_handle_2'
G92 E0
G1 X162.066 Y159.623
G1 E.5 F240
G92 E0
;TYPE:External perimeter
;WIDTH:0.675
G1 F600
G1 X162.11 Y159.987 E.03041
G1 X162.076 Y160.401 E.06486
G1 X161.961 Y160.799 E.09922
G1 X161.77 Y161.168 E.13368
G1 X161.509 Y161.49 E.16805
G1 X161.19 Y161.755 E.20244
G1 X160.824 Y161.951 E.23687
G1 X160.427 Y162.071 E.27126
G1 X160.014 Y162.11 E.30566
G1 X159.601 Y162.066 E.3401
G1 X159.236 Y161.957 E.37169
G1 X158.842 Y161.741 E.40895
G1 X158.526 Y161.472 E.44336
G1 X158.259 Y161.13 E.47934
G1 X158.07 Y160.73 E.51603
G1 X157.983 Y160.419 E.54281
G1 X157.943 Y160.071 E.57186
G1 X157.977 Y159.652 E.60672
G1 X158.091 Y159.253 E.64113
G1 X158.283 Y158.885 E.67555
G1 X158.544 Y158.562 E.70999
G1 X158.863 Y158.298 E.74433
G1 X159.229 Y158.101 E.7788
G1 X159.626 Y157.982 E.81317
G1 X160.039 Y157.943 E.84757
G1 X160.452 Y157.987 E.88201
G1 X160.866 Y158.119 E.91804
G1 X161.24 Y158.339 E.95402
G1 X161.559 Y158.622 E.98938
G1 X161.719 Y158.809 E1.00979
G1 X161.931 Y159.181 E1.0453
G1 X162.047 Y159.535 E1.07619
G1 X162.086 Y160.134 F9000
G1 X162.6 Y159.529
;TYPE:Perimeter
;WIDTH:0.559876
G1 F600
G1 X162.653 Y159.979 E1.10655
G1 X162.61 Y160.501 E1.14165
G1 X162.465 Y161.003 E1.17667
G1 X162.223 Y161.467 E1.21174
G1 X161.894 Y161.874 E1.24681
G1 X161.491 Y162.207 E1.28184
G1 X161.03 Y162.454 E1.31689
G1 X160.529 Y162.605 E1.35196
G1 X160.008 Y162.654 E1.38703
G1 X159.488 Y162.598 E1.42208
G1 X158.989 Y162.44 E1.45716
;WIDTH:0.559872
G1 X158.531 Y162.187 E1.49222
G1 X158.133 Y161.848 E1.52725
G1 X157.821 Y161.454 E1.56093
;WIDTH:0.564663
G1 X157.559 Y160.917 E1.60137
G1 X157.445 Y160.5 E1.63063
;WIDTH:0.564262
G1 X157.4 Y160.044 E1.66161
;WIDTH:0.562633
G1 X157.45 Y159.518 E1.69722
;WIDTH:0.562492
G1 X157.602 Y159.017 E1.73249
G1 X157.85 Y158.557 E1.7677
G1 X158.184 Y158.155 E1.80291
G1 X158.591 Y157.827 E1.83813
G1 X159.056 Y157.586 E1.87342
G1 X159.558 Y157.442 E1.90861
G1 X160.08 Y157.401 E1.94389
G1 X160.599 Y157.463 E1.97911
G1 X161.101 Y157.629 E2.01473
;WIDTH:0.564267
G1 X161.558 Y157.896 E2.05052
;WIDTH:0.564932
G1 X161.959 Y158.252 E2.08683
G1 X162.183 Y158.526 E2.11079
;WIDTH:0.56283
G1 X162.429 Y158.963 E2.1446
;WIDTH:0.559876
G1 X162.585 Y159.44 E2.17823
G1 E1.67823 F240
G92 E0
G1 X162.585 Y159.44 F9000
G1 X162.291 Y162.88
G1 E.5 F240
;TYPE:External perimeter
;WIDTH:0.675
G1 F600
G1 X162.013 Y163.102 E.5295
G1 X161.364 Y163.434 E.58995
G1 X160.662 Y163.632 E.65044
G1 X159.935 Y163.686 E.71089
G1 X159.212 Y163.596 E.77131
G1 X158.521 Y163.363 E.83178
G1 X157.889 Y162.999 E.89226
G1 X157.343 Y162.516 E.95271
G1 X156.903 Y161.935 E1.01315
G1 X156.585 Y161.277 E1.07375
G1 X156.423 Y160.675 E1.12545
G1 X156.365 Y160.028 E1.17932
G1 X156.438 Y159.301 E1.23991
G1 X156.653 Y158.604 E1.3004
G1 X157.002 Y157.964 E1.36085
G1 X157.47 Y157.406 E1.42124
G1 X158.04 Y156.951 E1.48172
G1 X158.689 Y156.619 E1.54217
G1 X159.391 Y156.421 E1.60266
G1 X160.118 Y156.367 E1.66311
G1 X160.841 Y156.457 E1.72353
G1 X161.532 Y156.689 E1.78398
G1 X162.095 Y157.014 E1.83789
G1 X162.356 Y157.224 E1.86567
G1 X162.756 Y157.593 E1.9108
G1 X163.083 Y158.022 E1.95553
G1 X163.423 Y158.68 E2.01695
G1 X163.623 Y159.379 E2.07724
G1 X163.687 Y160.026 E2.13116
G1 X163.615 Y160.752 E2.19166
G1 X163.4 Y161.448 E2.25207
G1 X163.051 Y162.089 E2.31259
G1 X162.583 Y162.647 E2.37298
G1 X162.361 Y162.824 E2.39653
G1 X161.867 Y163.164 F9000
G1 X161.94 Y162.462
;TYPE:Perimeter
;WIDTH:0.562484
G1 F600
G1 X161.695 Y162.654 E2.4175
G1 X161.141 Y162.932 E2.45926
G1 X160.543 Y163.096 E2.50104
G1 X159.925 Y163.137 E2.54277
G1 X159.31 Y163.055 E2.58457
G1 X158.724 Y162.853 E2.62633
G1 X158.19 Y162.539 E2.66807
G1 X157.729 Y162.125 E2.70982
G1 X157.358 Y161.629 E2.75155
;WIDTH:0.564663
G1 X157.092 Y161.064 E2.79381
G1 X156.959 Y160.558 E2.82922
;WIDTH:0.564262
G1 X156.914 Y160.008 E2.86653
;WIDTH:0.562633
G1 X156.981 Y159.386 E2.90869
;WIDTH:0.562486
G1 X157.168 Y158.795 E2.95045
G1 X157.469 Y158.253 E2.99222
G1 X157.871 Y157.782 E3.03394
G1 X158.358 Y157.399 E3.07568
G1 X158.912 Y157.12 E3.11747
G1 X159.51 Y156.957 E3.15923
G1 X160.128 Y156.916 E3.20096
G1 X160.743 Y156.998 E3.24276
G1 X161.329 Y157.199 E3.2845
;WIDTH:0.564267
G1 X161.862 Y157.514 E3.32636
;WIDTH:0.564932
G1 X162.3 Y157.901 E3.36594
G1 X162.605 Y158.282 E3.39899
;WIDTH:0.56283
G1 X162.904 Y158.84 E3.44167
;WIDTH:0.562497
G1 X163.082 Y159.434 E3.48345
;WIDTH:0.562484
G1 X163.139 Y160.051 E3.5252
G1 X163.072 Y160.667 E3.56695
G1 X162.885 Y161.258 E3.60871
G1 X162.584 Y161.8 E3.65048
G1 X162.182 Y162.271 E3.6922
G1 X162.01 Y162.406 E3.70693
;LAYER_CHANGE
;Z:0.55
;HEIGHT:0.2
G1 Z.55 F9000
M104 S215 ; set temperature
G1 E3.20693 F240
G92 E0
G1 X162.01 Y162.406 Z.55 F9000
G1 X162.063 Y159.606
G1 E.5 F240
G92 E0
;TYPE:External perimeter
;WIDTH:0.674999
G1 F600
G1 X162.11 Y159.993 E.01946
G1 X162.084 Y160.368 E.03823
G1 X161.972 Y160.777 E.0594
G1 X161.753 Y161.19 E.08274
G1 X161.534 Y161.468 E.10041
G1 X161.219 Y161.738 E.12112
G1 X160.856 Y161.941 E.14189
G1 X160.46 Y162.067 E.16264
G1 X160.047 Y162.113 E.18339
G1 X159.633 Y162.075 E.20415
G1 X159.235 Y161.957 E.22488
G1 X158.868 Y161.762 E.24563
G1 X158.555 Y161.506 E.26582
G1 X158.34 Y161.253 E.2824
G1 X158.109 Y160.837 E.30616
G1 X157.997 Y160.511 E.32337
G1 X157.943 Y160.06 E.34605
G1 X157.968 Y159.684 E.36487
G1 X158.081 Y159.276 E.38601
G1 X158.299 Y158.865 E.40924
G1 X158.519 Y158.584 E.42706
G1 X158.886 Y158.284 E.45073
G1 X159.153 Y158.131 E.46609
G1 X159.629 Y157.981 E.49101
G1 X160.006 Y157.94 E.50994
G1 X160.446 Y157.984 E.53202
G1 X160.786 Y158.088 E.54977
G1 X161.205 Y158.313 E.57352
G1 X161.487 Y158.544 E.59172
G1 X161.712 Y158.798 E.60866
G1 X161.944 Y159.216 E.63253
G1 X162.048 Y159.518 E.64848
G1 X162.089 Y160.117 F9000
G1 X162.641 Y159.475
;TYPE:Perimeter
;WIDTH:0.590069
G1 F600
G1 X162.7 Y159.983 E.67058
;WIDTH:0.58842
G1 X162.655 Y160.514 E.69354
;WIDTH:0.589329
G1 X162.507 Y161.025 E.7165
G1 X162.259 Y161.496 E.73948
;WIDTH:0.590357
G1 X161.933 Y161.903 E.76203
G1 X161.513 Y162.248 E.78553
G1 X161.046 Y162.499 E.80846
G1 X160.533 Y162.65 E.83159
;WIDTH:0.589538
G1 X160.029 Y162.702 E.85347
G1 X159.474 Y162.64 E.87758
;WIDTH:0.586694
G1 X158.967 Y162.48 E.90042
;WIDTH:0.590034
G1 X158.508 Y162.228 E.92305
G1 X158.114 Y161.896 E.94532
;WIDTH:0.590543
G1 X157.836 Y161.56 E.96418
G1 X157.581 Y161.104 E.98678
;WIDTH:0.590059
G1 X157.416 Y160.608 E1.00937
G1 X157.353 Y160.07 E1.03278
;WIDTH:0.588412
G1 X157.398 Y159.539 E1.05574
;WIDTH:0.589342
G1 X157.546 Y159.028 E1.0787
G1 X157.794 Y158.557 E1.10168
;WIDTH:0.590247
G1 X158.128 Y158.143 E1.12468
G1 X158.54 Y157.805 E1.14772
;WIDTH:0.587353
G1 X158.883 Y157.61 E1.16469
;WIDTH:0.58451
G1 X159.382 Y157.434 E1.18733
;WIDTH:0.583778
G1 X159.909 Y157.356 E1.21009
G1 X160.434 Y157.386 E1.23256
;WIDTH:0.587764
G1 X160.963 Y157.523 E1.25608
G1 X161.439 Y157.759 E1.27895
;WIDTH:0.58746
G1 X161.862 Y158.083 E1.30187
;WIDTH:0.590069
G1 X162.211 Y158.485 E1.32488
G1 X162.472 Y158.949 E1.34789
G1 X162.618 Y159.388 E1.36789
G1 E.86789 F240
G92 E0
G1 X162.618 Y159.388 F9000
G1 X162.398 Y162.995
G1 E.5 F240
;TYPE:External perimeter
;WIDTH:0.674999
G1 F600
G1 X162.19 Y163.169 E.51354
G1 X161.469 Y163.558 E.55444
G1 X160.826 Y163.757 E.58805
G1 X160.024 Y163.842 E.62832
G1 X159.353 Y163.782 E.66196
G1 X158.57 Y163.552 E.70271
G1 X157.852 Y163.162 E.74351
G1 X157.333 Y162.729 E.77726
G1 X156.884 Y162.19 E.81229
G1 X156.495 Y161.469 E.85319
G1 X156.296 Y160.826 E.8868
G1 X156.211 Y160.024 E.92707
G1 X156.271 Y159.353 E.96071
G1 X156.501 Y158.569 E1.0015
G1 X156.891 Y157.853 E1.04221
G1 X157.341 Y157.317 E1.07715
G1 X157.981 Y156.806 E1.11804
G1 X158.578 Y156.497 E1.1516
G1 X159.365 Y156.269 E1.19251
G1 X160.067 Y156.212 E1.22768
G1 X160.838 Y156.298 E1.26641
G1 X161.332 Y156.453 E1.29226
G1 X161.802 Y156.674 E1.31819
G1 X162.266 Y156.947 E1.34507
G1 X162.788 Y157.403 E1.37968
G1 X163.209 Y157.937 E1.41363
G1 X163.583 Y158.665 E1.45449
G1 X163.767 Y159.323 E1.4886
G1 X163.834 Y160.113 E1.52819
G1 X163.782 Y160.699 E1.55756
G1 X163.552 Y161.483 E1.59835
G1 X163.162 Y162.201 E1.63915
G1 X162.729 Y162.719 E1.67286
G1 X162.467 Y162.938 E1.68991
G1 X161.972 Y163.276 F9000
G1 X162.033 Y162.521
;TYPE:Perimeter
;WIDTH:0.590113
G1 F600
G1 X161.778 Y162.723 E1.70397
;WIDTH:0.590259
G1 X161.211 Y163.021 E1.73166
G1 X160.595 Y163.19 E1.75928
;WIDTH:0.589044
G1 X159.958 Y163.244 E1.78686
G1 X159.325 Y163.162 E1.8144
;WIDTH:0.586694
G1 X158.713 Y162.961 E1.84207
;WIDTH:0.58988
G1 X158.156 Y162.647 E1.8697
G1 X157.701 Y162.251 E1.89576
;WIDTH:0.590543
G1 X157.362 Y161.833 E1.91904
;WIDTH:0.592071
G1 X157.034 Y161.214 E1.94943
G1 X156.872 Y160.668 E1.97414
;WIDTH:0.59146
G1 X156.807 Y159.992 E2.00357
G1 X156.872 Y159.395 E2.02959
;WIDTH:0.590057
G1 X157.063 Y158.77 E2.05784
;WIDTH:0.591742
G1 X157.399 Y158.166 E2.0878
G1 X157.777 Y157.723 E2.11305
;WIDTH:0.591864
G1 X158.328 Y157.291 E2.14341
G1 X158.847 Y157.032 E2.16856
;WIDTH:0.591199
G1 X159.5 Y156.85 E2.19792
G1 X160.101 Y156.809 E2.22401
;WIDTH:0.590436
G1 X160.741 Y156.886 E2.25189
;WIDTH:0.592078
G1 X161.273 Y157.059 E2.27616
;WIDTH:0.592727
G1 X161.887 Y157.399 E2.30664
G1 X162.333 Y157.78 E2.33212
G1 X162.69 Y158.218 E2.35666
;WIDTH:0.592061
G1 X163.019 Y158.839 E2.38714
G1 X163.181 Y159.385 E2.41185
;WIDTH:0.591457
G1 X163.246 Y160.06 E2.44123
G1 X163.181 Y160.658 E2.46729
;WIDTH:0.590047
G1 X162.99 Y161.283 E2.49554
;WIDTH:0.591885
G1 X162.653 Y161.888 E2.52557
G1 X162.281 Y162.326 E2.55049
;WIDTH:0.590113
G1 X162.104 Y162.465 E2.56022
;LAYER_CHANGE
;Z:0.75
;HEIGHT:0.2
G1 Z.75 F9000
G1 E2.06022 F240
G92 E0
G1 X162.104 Y162.465 Z.75 F9000
G1 X162.061 Y159.607
G1 E.5 F240
G92 E0
;TYPE:External perimeter
;WIDTH:0.674999
G1 F600
G1 X162.069 Y159.632 E.00131
G1 X162.104 Y160.097 E.02459
G1 X162.07 Y160.425 E.04105
G1 X161.927 Y160.871 E.06444
G1 X161.691 Y161.272 E.08767
G1 X161.45 Y161.543 E.10578
G1 X161.188 Y161.756 E.12264
G1 X160.76 Y161.973 E.1466
G1 X160.445 Y162.069 E.16304
G1 X159.99 Y162.108 E.18584
G1 X159.525 Y162.045 E.20927
G1 X159.212 Y161.945 E.22568
G1 X158.799 Y161.706 E.2495
G1 X158.523 Y161.469 E.26766
G1 X158.289 Y161.183 E.28611
G1 X158.073 Y160.738 E.31081
G1 X157.984 Y160.421 E.32725
G1 X157.949 Y159.956 E.35053
G1 X157.983 Y159.628 E.36699
G1 X158.126 Y159.182 E.39038
G1 X158.362 Y158.781 E.41361
G1 X158.603 Y158.51 E.43172
G1 X158.865 Y158.296 E.44861
G1 X159.293 Y158.08 E.47255
G1 X159.609 Y157.984 E.48904
G1 X160.06 Y157.944 E.51165
G1 X160.42 Y157.978 E.5297
G1 X160.872 Y158.122 E.55339
G1 X161.383 Y158.442 E.58349
G1 X161.708 Y158.792 E.60734
G1 X161.92 Y159.15 E.62811
G1 X162.035 Y159.521 E.6475
G1 X162.086 Y160.118 F9000
G1 X162.664 Y159.469
;TYPE:Perimeter
;WIDTH:0.654271
G1 F600
G1 X162.684 Y159.539 E.65102
;WIDTH:0.653816
G1 X162.725 Y160.128 E.67951
G1 X162.672 Y160.578 E.70138
;WIDTH:0.652912
G1 X162.487 Y161.14 E.72989
;WIDTH:0.65373
G1 X162.186 Y161.647 E.75834
;WIDTH:0.653931
G1 X161.861 Y162.009 E.78182
G1 X161.498 Y162.294 E.8041
;WIDTH:0.652227
G1 X161.052 Y162.526 E.8283
;WIDTH:0.650681
G1 X160.537 Y162.682 E.85413
G1 X160.001 Y162.729 E.87996
;WIDTH:0.647988
G1 X159.466 Y162.67 E.90569
;WIDTH:0.650216
G1 X158.952 Y162.508 E.93154
G1 X158.483 Y162.245 E.95733
;WIDTH:0.65002
G1 X158.073 Y161.896 E.98315
;WIDTH:0.650336
G1 X157.756 Y161.498 E1.00756
;WIDTH:0.653867
G1 X157.489 Y160.951 E1.03694
G1 X157.369 Y160.514 E1.05881
G1 X157.328 Y159.925 E1.0873
G1 X157.381 Y159.475 E1.10917
;WIDTH:0.652914
G1 X157.566 Y158.913 E1.13768
;WIDTH:0.653731
G1 X157.866 Y158.406 E1.1661
;WIDTH:0.653927
G1 X158.192 Y158.044 E1.18961
G1 X158.555 Y157.759 E1.21188
;WIDTH:0.652229
G1 X159 Y157.526 E1.23606
;WIDTH:0.650679
G1 X159.516 Y157.371 E1.26193
G1 X160.052 Y157.323 E1.28777
;WIDTH:0.650785
G1 X160.576 Y157.378 E1.31307
G1 X161.079 Y157.536 E1.33839
;WIDTH:0.653422
G1 X161.653 Y157.871 E1.37044
;WIDTH:0.653791
G1 X162.007 Y158.191 E1.39347
G1 X162.356 Y158.66 E1.42168
;WIDTH:0.654271
G1 X162.561 Y159.093 E1.44482
G1 X162.64 Y159.382 E1.45929
G1 E.95929 F240
G92 E0
G1 X162.64 Y159.382 F9000
G1 X162.473 Y163.092
G1 E.5 F240
;TYPE:External perimeter
;WIDTH:0.674999
G1 F600
G1 X162.143 Y163.346 E.52079
G1 X161.385 Y163.722 E.56304
G1 X160.714 Y163.903 E.59774
G1 X159.887 Y163.961 E.63913
G1 X159.052 Y163.841 E.68125
