; generated by PrusaSlicer 2.8.0+MacOS-arm64 on 2024-09-06 at 20:05:45 UTC


;
;

;
;
; 

; external perimeters extrusion width = 0.68mm
; perimeters extrusion width = 0.68mm
; infill extrusion width = 0.68mm
; solid infill extrusion width = 0.68mm
; top infill extrusion width = 0.60mm

; external perimeters extrusion width = 0.68mm
; perimeters extrusion width = 0.68mm
; infill extrusion width = 0.68mm
; solid infill extrusion width = 0.68mm
; top infill extrusion width = 0.60mm

; external perimeters extrusion width = 0.68mm
; perimeters extrusion width = 0.68mm
; infill extrusion width = 0.68mm
; solid infill extrusion width = 0.68mm
; top infill extrusion width = 0.60mm

; external perimeters extrusion width = 0.68mm
; perimeters extrusion width = 0.68mm
; infill extrusion width = 0.68mm
; solid infill extrusion width = 0.68mm
; top infill extrusion width = 0.60mm


EXCLUDE_OBJECT_DEFINE NAME='cover_1' CENTER=149.207,147.412 POLYGON=[[168.378,152.072],[153.114,167.339],[128.628,167.339],[128.628,150.039],[138.058,140.609],[138.058,127.339],[168.378,127.339]]
EXCLUDE_OBJECT_DEFINE NAME='cover_4' CENTER=148.704,102.053 POLYGON=[[158.212,87.729],[167.875,97.392],[167.875,122.125],[137.555,122.125],[137.555,108.855],[128.125,99.425],[128.125,82.125],[152.611,82.125]]
EXCLUDE_OBJECT_DEFINE NAME='cover_2' CENTER=102.704,147.947 POLYGON=[[121.875,152.608],[106.611,167.875],[82.125,167.875],[82.125,150.575],[91.555,141.145],[91.555,127.875],[121.875,127.875]]
EXCLUDE_OBJECT_DEFINE NAME='cover_3' CENTER=102.704,102.053 POLYGON=[[112.212,87.729],[121.875,97.392],[121.875,122.125],[91.555,122.125],[91.555,108.855],[82.125,99.425],[82.125,82.125],[106.611,82.125]]

;TYPE:Custom
START_PRINT BED_TEMP=65 HOTEND_TEMP=220 FILAMENT_TYPE=PLA EXTRUSION_MULTIPLIER=0.95 PERIMETER_SPEED=80
G21 ; set units to millimeters
G90 ; use absolute coordinates
M82 ; use absolute distances for extrusion
G92 E0
; Filament gcode
M107
;LAYER_CHANGE
;Z:0.35
;HEIGHT:0.35
G1 E-.5 F240
G1 Z.35 F9000
EXCLUDE_OBJECT_START NAME='cover_2'
G92 E0
G1 X90.771 Y151.324
G1 E.5 F240
G92 E0
;TYPE:External perimeter
;WIDTH:0.675
G1 F1800
G1 X90.73 Y151.091 E.01962
G1 X90.757 Y150.677 E.05402
G1 X90.866 Y150.272 E.0888
G1 X91.054 Y149.897 E.12359
G1 X91.312 Y149.566 E.15839
G1 X91.63 Y149.293 E.19315
G1 X91.996 Y149.088 E.22794
G1 X92.396 Y148.96 E.26277
G1 X92.813 Y148.914 E.29756
G1 X93.231 Y148.951 E.33236
G1 X93.633 Y149.071 E.36715
G1 X93.997 Y149.262 E.40124
G1 X94.252 Y149.461 E.42806
G1 X94.532 Y149.772 E.46276
G1 X94.746 Y150.134 E.49763
G1 X94.884 Y150.53 E.53241
G1 X94.941 Y150.945 E.56715
G1 X94.914 Y151.364 E.60197
G1 X94.804 Y151.769 E.63677
G1 X94.617 Y152.144 E.67152
G1 X94.359 Y152.475 E.70632
G1 X94.041 Y152.748 E.74108
G1 X93.674 Y152.953 E.77594
G1 X93.275 Y153.081 E.81069
G1 X92.858 Y153.127 E.84548
G1 X92.44 Y153.09 E.88028
G1 X92.038 Y152.97 E.91507
G1 X91.667 Y152.774 E.94987
G1 X91.343 Y152.508 E.98463
G1 X91.078 Y152.182 E1.01947
G1 X90.883 Y151.811 E1.05423
G1 X90.823 Y151.618 E1.07099
G1 X90.787 Y151.412 E1.08833
G1 X90.758 Y150.813 F9000
G1 X90.163 Y151.4
;TYPE:Perimeter
G1 F1800
G1 X90.13 Y151.002 E1.12145
G1 X90.176 Y150.529 E1.16086
G1 X90.326 Y150.012 E1.2055
G1 X90.556 Y149.561 E1.24748
G1 X90.874 Y149.155 E1.29025
G1 X91.33 Y148.773 E1.33958
G1 X91.805 Y148.52 E1.38421
G1 X92.321 Y148.365 E1.42889
G1 X92.857 Y148.316 E1.47352
G1 X93.393 Y148.374 E1.51823
G1 X93.906 Y148.537 E1.56287
G1 X94.359 Y148.784 E1.60566
G1 X94.692 Y149.053 E1.64116
G1 X95.028 Y149.433 E1.68322
G1 X95.285 Y149.867 E1.72505
G1 X95.465 Y150.376 E1.76982
G1 X95.54 Y150.896 E1.81339
G1 X95.508 Y151.452 E1.85957
G1 X95.38 Y151.946 E1.90189
G1 X95.158 Y152.411 E1.94462
G1 X94.822 Y152.861 E1.99119
G1 X94.417 Y153.218 E2.03596
G1 X93.95 Y153.488 E2.08069
G1 X93.438 Y153.66 E2.12548
G1 X92.903 Y153.728 E2.1702
G1 X92.365 Y153.687 E2.21494
G1 X91.849 Y153.542 E2.25939
G1 X91.293 Y153.243 E2.31174
G1 X90.884 Y152.893 E2.35638
G1 X90.551 Y152.469 E2.40109
G1 X90.309 Y151.988 E2.44574
G1 X90.25 Y151.795 E2.46248
G1 X90.172 Y151.489 E2.48867
G1 E1.98867 F240
G92 E0
G1 X90.172 Y151.489 F9000
G1 X119.226 Y140.834
G1 E.5 F240
;TYPE:External perimeter
G1 F1800
G1 X119.208 Y141.065 E.51921
G1 X119.099 Y141.47 E.55399
G1 X118.911 Y141.845 E.58878
G1 X118.653 Y142.176 E.62358
G1 X118.335 Y142.449 E.65834
G1 X117.969 Y142.654 E.69313
G1 X117.569 Y142.782 E.72796
G1 X117.152 Y142.828 E.76275
G1 X116.734 Y142.791 E.79755
G1 X116.332 Y142.671 E.83234
G1 X115.962 Y142.475 E.86706
G1 X115.638 Y142.209 E.90182
G1 X115.372 Y141.883 E.93671
G1 X115.177 Y141.512 E.97147
G1 X115.069 Y141.162 E1.00184
G1 X115.023 Y140.692 E1.041
G1 X115.071 Y140.275 E1.07581
G1 X115.2 Y139.876 E1.11058
G1 X115.404 Y139.512 E1.14518
G1 X115.645 Y139.227 E1.17613
G1 X115.925 Y138.994 E1.20634
G1 X116.291 Y138.789 E1.24113
G1 X116.69 Y138.661 E1.27588
G1 X117.107 Y138.615 E1.31067
G1 X117.525 Y138.652 E1.34547
G1 X117.927 Y138.772 E1.38026
G1 X118.298 Y138.968 E1.41506
G1 X118.622 Y139.234 E1.44982
G1 X118.887 Y139.56 E1.48466
G1 X119.082 Y139.931 E1.51942
G1 X119.2 Y140.331 E1.554
G1 X119.236 Y140.702 E1.58491
G1 X119.233 Y140.745 E1.58848
G1 X119.127 Y141.335 F9000
G1 X119.953 Y140.889
;TYPE:Perimeter
;WIDTH:0.946307
G1 F1800
G1 X119.937 Y141.17 E1.62238
G1 X119.888 Y141.264 E1.63515
;WIDTH:0.901089
G1 X119.838 Y141.357 E1.64721
;WIDTH:0.855871
G1 X119.788 Y141.45 E1.65861
;WIDTH:0.810653
G1 X119.739 Y141.544 E1.66939
;WIDTH:0.765435
G1 X119.689 Y141.637 E1.67947
;WIDTH:0.720217
G1 X119.639 Y141.73 E1.68889
;WIDTH:0.675
G1 X119.39 Y142.208 E1.73358
G1 X119.05 Y142.626 E1.77826
G1 X118.635 Y142.969 E1.82291
G1 X118.16 Y143.223 E1.86758
G1 X117.644 Y143.377 E1.91224
G1 X117.107 Y143.426 E1.95696
G1 X116.572 Y143.368 E2.00159
G1 X116.059 Y143.205 E2.04623
G1 X115.588 Y142.944 E2.09088
G1 X115.178 Y142.594 E2.13558
G1 X114.846 Y142.17 E2.18024
G1 X114.607 Y141.698 E2.22411
G1 X114.492 Y141.326 E2.2564
G1 X114.426 Y140.811 E2.29946
G1 X114.462 Y140.274 E2.34409
G1 X114.604 Y139.754 E2.38879
G1 X114.846 Y139.273 E2.43344
G1 X115.254 Y138.772 E2.48702
G1 X115.625 Y138.474 E2.52648
G1 X116.099 Y138.221 E2.57104
G1 X116.615 Y138.066 E2.61572
G1 X117.152 Y138.017 E2.66044
G1 X117.687 Y138.075 E2.70507
G1 X118.201 Y138.238 E2.74979
G1 X118.672 Y138.499 E2.79444
G1 X119.081 Y138.849 E2.83908
G1 X119.414 Y139.273 E2.88379
G1 X119.656 Y139.754 E2.92844
;WIDTH:0.7204
G1 X119.702 Y139.837 E2.9369
;WIDTH:0.7658
G1 X119.748 Y139.92 E2.94596
;WIDTH:0.8112
G1 X119.794 Y140.002 E2.95553
;WIDTH:0.8566
G1 X119.84 Y140.085 E2.96578
;WIDTH:0.902
G1 X119.886 Y140.168 E2.97663
;WIDTH:0.947401
G1 X119.932 Y140.251 E2.98807
G1 X119.96 Y140.748 E3.04809
;WIDTH:0.946307
G1 X119.958 Y140.799 E3.05424
G1 E2.55424 F240
G92 E0
G1 X119.958 Y140.799 F9000
G1 X92.963 Y141.728
G1 E.5 F240
;TYPE:External perimeter
;WIDTH:0.675
G1 F1800
G1 X93.003 Y141.621 E.50947
G1 X93.003 Y129.323 E1.52931
G1 X121.537 Y129.323 E3.89555
G1 X121.537 Y133.971 E4.281
G1 X121.537 Y150.897 E5.68462
G1 X106.011 Y166.427 E7.50569
G1 X83.573 Y166.427 E9.36641
G1 X83.573 Y151.175 E10.63121
G1 X92.931 Y141.816 E11.72874
G1 X92.932 Y141.813 E11.729
G1 X92.995 Y141.216 F9000
G1 X93.53 Y141.966
;TYPE:Perimeter
G1 F1800
G1 X93.541 Y141.949 E11.73068
G1 X93.603 Y141.621 E11.75836
G1 X93.603 Y129.923 E12.72844
G1 X120.938 Y129.923 E14.99525
G1 X120.938 Y133.971 E15.33094
G1 X120.938 Y139.561 E15.7945
;WIDTH:0.7204
G1 X120.915 Y139.668 E15.80426
;WIDTH:0.7658
G1 X120.892 Y139.775 E15.81471
;WIDTH:0.8112
G1 X120.869 Y139.882 E15.82585
;WIDTH:0.8566
G1 X120.847 Y139.989 E15.83765
;WIDTH:0.902
G1 X120.824 Y140.096 E15.85016
;WIDTH:0.947401
G1 X120.801 Y140.204 E15.86348
G1 X120.812 Y140.774 E15.93223
;WIDTH:0.927029
G1 X120.827 Y141.357 E16.00091
;WIDTH:0.895492
G1 X120.849 Y141.491 E16.01631
;WIDTH:0.851393
G1 X120.871 Y141.625 E16.03088
;WIDTH:0.807295
G1 X120.893 Y141.759 E16.04462
;WIDTH:0.763196
G1 X120.916 Y141.893 E16.05755
;WIDTH:0.719098
G1 X120.938 Y142.027 E16.06964
;WIDTH:0.675
G1 X120.938 Y150.648 E16.78455
G1 X105.762 Y165.827 E18.56452
G1 X84.173 Y165.827 E20.35483
G1 X84.173 Y151.423 E21.54931
G1 X93.34 Y142.257 E22.62433
G1 X93.481 Y142.042 E22.64565
G1 X93.481 Y142.042 F9000
G1 X93.862 Y142.305
;TYPE:Solid infill
;WIDTH:0.675
G1 F1800
G1 X96.986 Y142.305 E22.90471
G1 X96.986 Y136.367 E23.39713
G1 X101.185 Y140.566 E23.88957
G1 X105.384 Y136.367 E24.38201
G1 X105.384 Y142.305 E24.87443
G1 X111.323 Y142.305 E25.36693
G1 X107.124 Y146.505 E25.85943
G1 X111.323 Y150.704 E26.35187
G1 X105.384 Y150.704 E26.84437
G1 X105.384 Y156.642 E27.33679
G1 X101.185 Y152.443 E27.82923
G1 X96.386 Y157.242 E28.39204
G1 X96.386 Y151.304 E28.88446
G1 X95.965 Y151.304 E28.91937
G1 X95.965 Y151.304 F9000
G1 X95.966 Y150.704
G1 F1800
G1 X96.986 Y150.704 E29.00396
G1 X96.986 Y155.794 E29.42606
G1 X101.185 Y151.595 E29.9185
G1 X104.784 Y155.194 E30.34058
G1 X104.784 Y150.104 E30.76268
G1 X109.874 Y150.104 E31.18478
G1 X106.275 Y146.505 E31.60686
G1 X109.874 Y142.905 E32.029
G1 X104.784 Y142.905 E32.4511
G1 X104.784 Y137.815 E32.8732
G1 X101.185 Y141.414 E33.29528
G1 X97.586 Y137.815 E33.71736
G1 X97.586 Y142.905 E34.13946
G1 X93.328 Y142.905 E34.49256
G1 X93.328 Y142.905 F9000
G1 X92.911 Y143.321
G1 F1800
G1 X96.095 Y146.505 E34.86597
G1 X94.343 Y148.256 E35.07138
G1 X94.343 Y148.256 F9000
G1 X94.848 Y148.599
G1 F1800
G1 X96.943 Y146.505 E35.31702
G1 X93.944 Y143.505 E35.66879
G1 X98.185 Y143.505 E36.02048
G1 X98.185 Y139.263 E36.37226
G1 X101.185 Y142.263 E36.72409
G1 X104.184 Y139.263 E37.07586
G1 X104.184 Y143.505 E37.42764
G1 X108.426 Y143.505 E37.77942
G1 X105.427 Y146.505 E38.13119
G1 X108.426 Y149.504 E38.4829
G1 X104.184 Y149.504 E38.83468
G1 X104.184 Y153.746 E39.18646
G1 X101.185 Y150.746 E39.53823
G1 X97.586 Y154.346 E39.96037
G1 X97.586 Y150.104 E40.31215
G1 X95.844 Y150.104 E40.45661
G1 X95.844 Y150.104 F9000
G1 X95.589 Y149.504
G1 F1800
G1 X98.185 Y149.504 E40.67189
G1 X98.185 Y152.897 E40.95326
G1 X101.185 Y149.898 E41.30503
G1 X103.584 Y152.298 E41.58644
G1 X103.584 Y148.904 E41.86789
G1 X106.978 Y148.904 E42.14934
G1 X104.578 Y146.505 E42.43075
G1 X106.978 Y144.105 E42.71221
G1 X103.584 Y144.105 E42.99366
G1 X103.584 Y140.712 E43.27503
G1 X101.185 Y143.111 E43.55638
G1 X98.785 Y140.712 E43.83779
G1 X98.785 Y144.105 E44.11916
G1 X95.392 Y144.105 E44.40053
G1 X97.791 Y146.505 E44.68194
G1 X95.392 Y148.904 E44.96329
G1 X98.785 Y148.904 E45.24466
G1 X98.785 Y151.449 E45.45571
G1 X101.185 Y149.05 E45.73712
G1 X102.985 Y150.849 E45.94816
G1 X102.985 Y148.304 E46.15921
G1 X105.53 Y148.304 E46.37026
G1 X103.73 Y146.505 E46.5813
G1 X105.53 Y144.705 E46.7924
G1 X102.985 Y144.705 E47.00345
G1 X102.985 Y142.16 E47.2145
G1 X101.185 Y143.959 E47.42554
G1 X99.385 Y142.16 E47.63658
G1 X99.385 Y144.705 E47.84763
G1 X96.84 Y144.705 E48.05868
G1 X98.64 Y146.505 E48.26978
G1 X96.84 Y148.304 E48.48082
G1 X99.385 Y148.304 E48.69187
G1 X99.385 Y150.001 E48.8326
G1 X101.185 Y148.201 E49.0437
G1 X102.385 Y149.401 E49.18443
G1 X102.385 Y147.704 E49.32516
G1 X104.081 Y147.704 E49.4658
G1 X102.882 Y146.505 E49.60641
G1 X104.081 Y145.305 E49.74708
G1 X102.385 Y145.305 E49.88772
G1 X102.385 Y143.608 E50.02845
G1 X101.185 Y144.808 E50.16918
G1 X99.985 Y143.608 E50.30991
G1 X99.985 Y145.305 E50.45064
G1 X98.288 Y145.305 E50.59137
G1 X99.488 Y146.505 E50.7321
G1 X98.288 Y147.704 E50.87277
G1 X99.985 Y147.704 E51.0135
G1 X99.985 Y148.553 E51.08391
G1 X101.185 Y147.353 E51.22464
G1 X101.785 Y147.953 E51.29501
G1 X101.785 Y147.104 E51.36542
G1 X102.633 Y147.104 E51.43574
G1 X102.033 Y146.505 E51.50605
G1 X102.633 Y145.905 E51.57642
G1 X101.785 Y145.905 E51.64674
G1 X101.785 Y145.056 E51.71715
G1 X101.185 Y145.656 E51.78752
G1 X100.585 Y145.056 E51.85789
G1 X100.585 Y145.905 E51.9283
G1 X99.737 Y145.905 E51.99862
G1 X100.337 Y146.505 E52.06899
G1 X99.737 Y147.104 E52.1393
G1 X100.585 Y147.104 E52.20962
G1 X101.185 Y146.505 E52.27993
G1 E51.77993 F240
G92 E0
G1 X101.185 Y146.505 F9000
G1 X95.786 Y152.137
G1 E.5 F240
G1 F1800
G1 X95.786 Y158.691 E1.0435
G1 X101.185 Y153.292 E1.67668
G1 X105.984 Y158.091 E2.23949
G1 X105.984 Y151.304 E2.80232
G1 X112.771 Y151.304 E3.36515
G1 X107.972 Y146.505 E3.92796
G1 X112.771 Y141.705 E4.49083
G1 X105.984 Y141.705 E5.05366
G1 X105.984 Y134.918 E5.61649
G1 X101.185 Y139.718 E6.17936
G1 X96.386 Y134.918 E6.74223
G1 X96.386 Y141.705 E7.30506
G1 X94.045 Y141.705 E7.49919
G1 X94.045 Y141.705 F9000
G1 X94.053 Y141.106
G1 F1800
G1 X95.786 Y141.106 E7.6429
G1 X95.786 Y133.47 E8.27613
G1 X101.185 Y138.869 E8.90931
G1 X106.584 Y133.47 E9.54249
G1 X106.584 Y141.106 E10.17572
G1 X114.007 Y141.106 E10.79129
G1 X114.007 Y141.106 F9000
G1 X114.026 Y141.299
G1 F1800
G1 X108.82 Y146.505 E11.40183
G1 X114.219 Y151.904 E12.03501
G1 X106.584 Y151.904 E12.66816
G1 X106.584 Y159.539 E13.30131
G1 X101.185 Y154.14 E13.93449
G1 X95.186 Y160.139 E14.63803
G1 X95.186 Y153.122 E15.21993
G1 E14.71993 F240
G92 E0
G1 X95.186 Y153.122 F9000
G1 X90.791 Y145.442
G1 E.5 F240
G1 F1800
G1 X91.853 Y146.505 E.62461
G1 X85.254 Y153.103 E1.39846
G1 X90.473 Y153.103 E1.83126
G1 X90.473 Y153.103 F9000
G1 X90.058 Y152.503
G1 F1800
G1 X86.702 Y152.503 E2.10956
G1 X92.701 Y146.505 E2.81304
G1 X91.215 Y145.018 E2.98737
G1 X91.215 Y145.018 F9000
G1 X91.639 Y144.594
G1 F1800
G1 X93.55 Y146.505 E3.21149
G1 X92.098 Y147.956 E3.38172
G1 X92.098 Y147.956 F9000
G1 X93.025 Y147.877
G1 F1800
G1 X94.398 Y146.505 E3.54268
G1 X92.063 Y144.17 E3.81652
G1 X92.063 Y144.17 F9000
G1 X92.487 Y143.746
G1 F1800
G1 X95.246 Y146.505 E4.14009
G1 X93.745 Y148.006 E4.31612
G1 E3.81612 F240
G92 E0
G1 X93.745 Y148.006 F9000
G1 X89.775 Y150.279
G1 E.5 F240
G1 F1800
G1 X88.151 Y151.904 E.69052
G1 X89.813 Y151.904 E.82834
G1 X89.813 Y151.904 F9000
G1 X89.697 Y151.304
G1 F1800
G1 X89.599 Y151.304 E.83647
G1 X89.688 Y151.215 E.84691
G1 E.34691 F240
G92 E0
G1 X89.688 Y151.215 F9000
G1 X91.18 Y153.703
G1 E.5 F240
G1 F1800
G1 X84.623 Y153.703 E1.04375
G1 X84.623 Y153.703 F9000
G1 X84.623 Y154.303
G1 F1800
G1 X93.386 Y154.303 E1.77044
G1 X93.386 Y164.484 E2.61472
G1 X101.185 Y156.685 E3.52936
G1 X107.726 Y163.226 E4.29647
G1 X107.726 Y163.226 F9000
G1 X107.302 Y163.65
G1 F1800
G1 X101.185 Y157.533 E5.01385
G1 X93.341 Y165.377 E5.93377
G1 X93.341 Y165.377 F9000
G1 X92.786 Y165.377
G1 F1800
G1 X92.786 Y154.903 E6.80235
G1 X84.623 Y154.903 E7.47928
G1 X84.623 Y155.503 F9000
G1 F1800
G1 X92.187 Y155.503 E8.10654
G1 X92.187 Y165.377 E8.92536
G1 E8.42536 F240
G92 E0
G1 X92.187 Y165.377 F9000
G1 X94.19 Y165.377
G1 E.5 F240
G1 F1800
G1 X101.185 Y158.382 E1.32035
G1 X106.878 Y164.075 E1.98801
G1 X106.878 Y164.075 F9000
G1 X106.454 Y164.499
G1 F1800
G1 X101.185 Y159.23 E2.60594
G1 X95.038 Y165.377 E3.32684
G1 X95.038 Y165.377 F9000
G1 X95.886 Y165.377
G1 F1800
G1 X101.185 Y160.078 E3.94829
G1 X106.03 Y164.923 E4.5165
G1 X106.03 Y164.923 F9000
G1 X105.605 Y165.347
G1 F1800
G1 X101.185 Y160.927 E5.03486
G1 X96.735 Y165.377 E5.55674
G1 X96.735 Y165.377 F9000
G1 X97.583 Y165.377
G1 F1800
G1 X101.185 Y161.775 E5.97917
G1 X104.787 Y165.377 E6.4016
G1 E5.9016 F240
G92 E0
G1 X104.787 Y165.377 F9000
G1 X100.977 Y165.377
G1 E.5 F240
G1 F1800
G1 X101.185 Y165.169 E.52439
G1 X101.393 Y165.377 E.54878
G1 X102.241 Y165.377 F9000
G1 F1800
G1 X101.185 Y164.32 E.67268
G1 X100.128 Y165.377 E.79664
G1 X100.128 Y165.377 F9000
G1 X99.28 Y165.377
G1 F1800
G1 X101.185 Y163.472 E1.02005
G1 X103.09 Y165.377 E1.24346
G1 X103.09 Y165.377 F9000
G1 X103.938 Y165.377
G1 F1800
G1 X101.185 Y162.624 E1.56632
G1 X98.432 Y165.377 E1.88918
G1 E1.38918 F240
G92 E0
G1 X98.432 Y165.377 F9000
G1 X89.187 Y165.377
G1 E.5 F240
G1 F1800
G1 X89.187 Y158.502 E1.07012
G1 X84.623 Y158.502 E1.4486
G1 X84.623 Y158.502 F9000
G1 X84.623 Y159.102
G1 F1800
G1 X88.587 Y159.102 E1.77732
G1 X88.587 Y165.377 E2.29769
G1 X88.587 Y165.377 F9000
G1 X87.987 Y165.377
G1 F1800
G1 X87.987 Y159.702 E2.7683
G1 X84.623 Y159.702 E3.04727
G1 X84.623 Y159.702 F9000
G1 X84.623 Y160.302
G1 F1800
G1 X87.387 Y160.302 E3.27648
G1 X87.387 Y165.377 E3.69734
G1 X87.387 Y165.377 F9000
G1 X86.788 Y165.377
G1 F1800
