; generated by PrusaSlicer 2.8.0+MacOS-arm64 on 2024-08-28 at 15:07:12 UTC


;
;

;
;
; 

; external perimeters extrusion width = 0.68mm
; perimeters extrusion width = 0.68mm
; infill extrusion width = 0.68mm
; solid infill extrusion width = 0.68mm
; top infill extrusion width = 0.60mm
; support material extrusion width = 0.60mm


EXCLUDE_OBJECT_DEFINE NAME='gantry_harness_guide_back' CENTER=128.780,124.991 POLYGON=[[134.382,114.717],[136.325,115.024],[137.724,115.498],[139.038,116.171],[140.240,117.028],[141.304,118.052],[142.470,119.637],[143.130,120.958],[143.590,122.361],[143.841,123.816],[143.877,125.692],[143.698,127.158],[143.130,129.042],[142.470,130.363],[141.624,131.574],[140.240,132.972],[139.038,133.829],[138.173,134.299],[136.799,134.841],[134.873,135.242],[133.889,135.299],[132.906,135.242],[130.980,134.841],[129.606,134.299],[128.741,133.829],[127.912,133.267],[127.127,132.610],[126.315,131.766],[125.650,130.897],[125.067,129.934],[124.627,128.988],[116.078,128.988],[115.108,130.277],[113.793,131.407],[112.234,132.230],[110.643,132.664],[109.441,132.763],[108.262,132.680],[106.894,132.350],[106.375,132.151],[106.185,131.972],[106.111,131.728],[106.118,130.170],[106.250,129.850],[106.516,129.634],[106.965,129.586],[107.879,129.939],[108.623,130.109],[109.897,130.143],[110.664,130.011],[111.404,129.765],[112.098,129.412],[112.732,128.958],[113.459,128.217],[114.136,127.111],[114.468,126.127],[114.597,125.097],[114.519,124.062],[114.238,123.063],[113.763,122.139],[112.927,121.148],[112.317,120.663],[111.641,120.276],[110.915,119.993],[110.155,119.822],[108.821,119.800],[107.994,119.962],[106.955,120.350],[106.496,120.290],[106.230,120.056],[106.112,119.706],[106.115,118.157],[106.354,117.796],[107.643,117.371],[109.019,117.180],[110.351,117.229],[111.751,117.534],[113.146,118.130],[114.251,118.865],[115.257,119.823],[116.078,120.947],[124.653,120.947],[125.361,119.549],[126.285,118.270],[127.445,117.107],[128.741,116.171],[130.055,115.498],[131.453,115.024],[132.906,114.758]]

;TYPE:Custom
START_PRINT BED_TEMP=65 HOTEND_TEMP=220 FILAMENT_TYPE=PLA EXTRUSION_MULTIPLIER=0.95 PERIMETER_SPEED=80
G21 ; set units to millimeters
G90 ; use absolute coordinates
M82 ; use absolute distances for extrusion
G92 E0
; Filament gcode
M107
;LAYER_CHANGE
;Z:0.35
;HEIGHT:0.35
G1 E-.5 F240
G1 Z.35 F9000
EXCLUDE_OBJECT_START NAME='gantry_harness_guide_back'
G92 E0
G1 X110.414 Y112.729
G1 E.5 F240
G92 E0
;TYPE:Support material
;WIDTH:0.6
G1 F1800
G1 X112.05 Y112.979 E.12009
G1 X113.127 Y113.398 E.20394
G1 X114.201 Y114.067 E.29575
G1 X115.024 Y114.91 E.38123
G1 X115.65 Y115.816 E.46113
G1 X116.771 Y115.866 E.54255
G1 X117.87 Y116.117 E.62435
G1 X118.907 Y116.56 E.70617
G1 X119.847 Y117.181 E.78792
G1 X120.662 Y117.96 E.86972
G1 X121.325 Y118.872 E.95153
G1 X121.814 Y119.888 E1.03334
G1 X122.114 Y120.974 E1.11509
G1 X122.215 Y122.097 E1.1969
G1 X122.114 Y123.22 E1.27871
G1 X121.814 Y124.306 E1.36046
G1 X121.604 Y124.743 E1.39564
G1 X121.827 Y125.206 E1.43293
G1 X122.127 Y126.293 E1.51475
G1 X122.228 Y127.416 E1.59656
G1 X122.127 Y128.539 E1.67837
G1 X121.827 Y129.625 E1.76012
G1 X121.338 Y130.641 E1.84193
G1 X120.675 Y131.553 E1.92374
G1 X119.861 Y132.332 E2.00549
G1 X118.92 Y132.953 E2.0873
G1 X117.883 Y133.396 E2.16912
G1 X116.784 Y133.647 E2.25092
G1 X115.597 Y133.7 E2.33713
G1 X115.31 Y134.297 E2.38519
G1 X114.647 Y135.209 E2.467
G1 X113.832 Y135.988 E2.5488
G1 X112.891 Y136.609 E2.63061
G1 X111.855 Y137.052 E2.71237
G1 X110.756 Y137.303 E2.79417
G1 X109.63 Y137.353 E2.87595
G1 X108.513 Y137.202 E2.95774
G1 X107.441 Y136.854 E3.03952
G1 X106.448 Y136.32 E3.12133
G1 X105.567 Y135.617 E3.20311
G1 X104.825 Y134.768 E3.28492
G1 X104.247 Y133.8 E3.36673
G1 X103.851 Y132.745 E3.4485
G1 X103.65 Y131.636 E3.53028
G1 X103.65 Y130.508 E3.61213
G1 X103.851 Y129.399 E3.69391
G1 X104.247 Y128.344 E3.77568
G1 X104.825 Y127.376 E3.85749
G1 X105.567 Y126.527 E3.9393
G1 X106.448 Y125.824 E4.02108
G1 X107.807 Y125.093 E4.13305
G1 X106.192 Y124.038 E4.27302
G1 X105.732 Y123.631 E4.31759
G1 X105.18 Y123.066 E4.3749
G1 X104.482 Y122.04 E4.46494
G1 X104.099 Y121.143 E4.53571
G1 X103.858 Y120.247 E4.60303
G1 X103.748 Y118.628 E4.72077
G1 X103.902 Y117.561 E4.79899
G1 X104.071 Y116.95 E4.84499
G1 X104.504 Y115.945 E4.92439
G1 X105.17 Y114.939 E5.01193
G1 X105.967 Y114.136 E5.09402
G1 X107.245 Y113.3 E5.20483
G1 X108.54 Y112.776 E5.3062
G1 X109.92 Y112.673 E5.40661
G1 X110.336 Y112.72 E5.43699
G1 X110.336 Y112.72 F9000
G1 X121.501 Y129.758
G1 F1800
G1 X121.501 Y125.8 E5.72418
G1 X121.079 Y124.743 E5.80676
G1 X121.37 Y124.14 E5.85534
G1 X121.501 Y123.665 E5.89109
G1 X121.501 Y120.529 E6.11864
G1 X121.37 Y120.054 E6.15439
G1 X120.918 Y119.115 E6.23001
G1 X120.918 Y130.416 E7.05
G1 X120.334 Y131.218 E7.12199
G1 X120.334 Y118.313 E8.05837
G1 X119.751 Y117.743 E8.11753
G1 X119.751 Y131.783 E9.13626
G1 X119.168 Y132.223 E9.18926
G1 X119.168 Y117.299 E10.27214
G1 X118.585 Y116.936 E10.32197
G1 X118.585 Y132.582 E11.45723
G1 X118.001 Y132.832 E11.50332
G1 X118.001 Y116.687 E12.67479
G1 X117.418 Y116.499 E12.71924
G1 X117.418 Y133.017 E13.91778
G1 X116.835 Y133.15 E13.96117
G1 X116.835 Y116.365 E15.17908
G1 X116.252 Y116.316 E15.22153
G1 X116.252 Y133.198 E16.44648
G1 X115.669 Y133.224 E16.48882
G1 X115.669 Y116.29 E17.71754
G1 X115.394 Y116.277 E17.73752
G1 X115.085 Y115.83 E17.77695
G1 X115.085 Y133.674 E19.0717
G1 X114.502 Y134.605 E19.1514
G1 X114.502 Y115.052 E20.57015
G1 X113.919 Y114.455 E20.6307
G1 X113.919 Y135.251 E22.13964
G1 X113.336 Y135.75 E22.19532
G1 X113.336 Y114.085 E23.76732
G1 X112.753 Y113.76 E23.81575
G1 X112.753 Y136.135 E25.43927
G1 X112.169 Y136.404 E25.48592
G1 X112.169 Y113.533 E27.14543
G1 X111.586 Y113.37 E27.18935
G1 X111.586 Y136.629 E28.87701
G1 X111.003 Y136.762 E28.9204
G1 X111.003 Y113.256 E30.62598
G1 X110.42 Y113.203 E30.66846
G1 X110.42 Y136.845 E32.38391
G1 X109.837 Y136.871 E32.42625
G1 X109.837 Y113.153 E34.14721
G1 X109.253 Y113.197 E34.1897
G1 X109.253 Y136.826 E35.90421
G1 X108.67 Y136.747 E35.9469
G1 X108.67 Y113.24 E37.65255
G1 X108.087 Y113.469 E37.698
G1 X108.087 Y124.712 E38.51378
G1 X107.504 Y124.331 E38.56431
G1 X107.504 Y113.704 E39.3354
G1 X106.92 Y114.042 E39.38436
G1 X106.92 Y123.95 E40.10328
G1 X106.337 Y123.536 E40.15516
G1 X106.337 Y114.453 E40.81422
G1 X105.754 Y115.021 E40.87328
G1 X105.754 Y122.978 E41.45063
G1 X105.171 Y122.212 E41.52048
G1 X105.171 Y115.793 E41.98624
G1 X104.921 Y116.171 E42.01912
G1 X104.588 Y116.944 E42.08019
G1 X104.588 Y121.685 E42.42419
G1 E41.92419 F240
G92 E0
G1 X104.588 Y121.685 F9000
G1 X108.087 Y136.815
G1 E.5 F240
G1 F1800
G1 X108.087 Y125.479 E1.32253
G1 X107.504 Y125.793 E1.37058
G1 X107.504 Y136.351 E2.13666
G1 X106.92 Y136.037 E2.18477
G1 X106.92 Y126.107 E2.90528
G1 X106.337 Y126.517 E2.957
G1 X106.337 Y135.627 E3.61802
G1 X105.754 Y135.113 E3.67442
G1 X105.754 Y127.031 E4.26084
G1 X105.171 Y127.718 E4.32622
G1 X105.171 Y134.426 E4.81295
G1 X104.588 Y133.364 E4.90086
G1 X104.588 Y128.234 E5.27309
G1 E4.77309 F240
G92 E0
G1 X104.588 Y128.234 F9000
G1 X136.959 Y124.445
G1 E.5 F240
;TYPE:External perimeter
;WIDTH:0.675
G1 F1800
G1 X136.986 Y124.556 E.50947
G1 X137.007 Y125.16 E.55959
G1 X136.908 Y125.757 E.60977
G1 X136.692 Y126.322 E.65993
G1 X136.369 Y126.833 E.71006
G1 X135.951 Y127.27 E.76021
G1 X135.455 Y127.615 E.81031
G1 X134.9 Y127.855 E.86045
G1 X134.309 Y127.981 E.91056
G1 X133.704 Y127.987 E.96073
G1 X133.111 Y127.873 E1.01081
G1 X132.608 Y127.668 E1.05585
G1 X132.155 Y127.381 E1.10032
G1 X131.819 Y127.072 E1.13817
G1 X131.495 Y126.711 E1.1784
G1 X131.22 Y126.235 E1.22399
G1 X131.024 Y125.668 E1.27374
G1 X130.946 Y125.093 E1.32186
G1 X130.982 Y124.465 E1.37402
G1 X131.141 Y123.876 E1.42461
G1 X131.41 Y123.341 E1.47427
G1 X131.783 Y122.864 E1.52448
G1 X132.242 Y122.471 E1.57459
G1 X132.77 Y122.177 E1.62471
G1 X133.346 Y121.993 E1.67485
G1 X133.942 Y121.927 E1.72458
G1 X134.689 Y122.012 E1.78693
G1 X135.267 Y122.215 E1.83773
G1 X135.786 Y122.525 E1.88786
G1 X136.234 Y122.932 E1.93805
G1 X136.591 Y123.419 E1.98812
G1 X136.845 Y123.968 E2.03828
G1 X136.938 Y124.358 E2.07153
G1 X136.994 Y124.955 F9000
G1 X137.554 Y124.355
;TYPE:Perimeter
G1 F1800
G1 X137.571 Y124.422 E2.07726
G1 X137.606 Y125.145 E2.13729
G1 X137.531 Y125.675 E2.18168
G1 X137.45 Y126.033 E2.21212
G1 X137.251 Y126.541 E2.25736
G1 X136.986 Y126.983 E2.3001
G1 X136.761 Y127.298 E2.3322
G1 X136.376 Y127.693 E2.37794
G1 X135.793 Y128.111 E2.43743
G1 X135.133 Y128.408 E2.49745
G1 X134.428 Y128.569 E2.55742
G1 X133.704 Y128.587 E2.61748
G1 X132.992 Y128.461 E2.67744
G1 X132.375 Y128.22 E2.73237
G1 X131.817 Y127.876 E2.78673
G1 X131.558 Y127.672 E2.81407
G1 X131.095 Y127.174 E2.87046
G1 X130.702 Y126.539 E2.93239
G1 X130.455 Y125.859 E2.99239
G1 X130.35 Y125.168 E3.05035
G1 X130.384 Y124.42 E3.11244
G1 X130.567 Y123.703 E3.1738
G1 X130.877 Y123.067 E3.23247
G1 X131.314 Y122.49 E3.29249
G1 X131.856 Y122.012 E3.35242
G1 X132.483 Y121.65 E3.41246
G1 X133.169 Y121.42 E3.47246
G1 X133.882 Y121.33 E3.53206
G1 X134.763 Y121.417 E3.60547
G1 X135.472 Y121.651 E3.66738
G1 X136.099 Y122.013 E3.72742
G1 X136.642 Y122.492 E3.78747
G1 X137.078 Y123.069 E3.84744
G1 X137.392 Y123.721 E3.90745
G1 X137.531 Y124.268 E3.95425
G1 X137.531 Y124.268 F9000
G1 X138.149 Y124.265
G1 F1800
G1 X138.155 Y124.289 E3.9563
G1 X138.206 Y125.13 E4.02617
G1 X138.122 Y125.779 E4.08044
G1 X138.008 Y126.252 E4.12079
G1 X137.809 Y126.76 E4.16603
G1 X137.49 Y127.309 E4.21868
G1 X137.191 Y127.717 E4.26063
G1 X136.81 Y128.107 E4.30584
G1 X136.357 Y128.452 E4.35306
G1 X135.869 Y128.749 E4.40043
G1 X135.366 Y128.961 E4.4457
G1 X134.547 Y129.157 E4.51554
G1 X133.704 Y129.187 E4.58549
G1 X132.873 Y129.049 E4.65535
G1 X132.142 Y128.773 E4.72015
G1 X131.823 Y128.606 E4.75001
G1 X131.372 Y128.299 E4.79525
G1 X130.94 Y127.888 E4.8447
G1 X130.504 Y127.39 E4.89959
G1 X130.183 Y126.839 E4.95247
G1 X129.886 Y126.05 E5.02238
G1 X129.755 Y125.242 E5.09026
G1 X129.765 Y124.65 E5.13936
G1 X129.837 Y124.081 E5.18692
G1 X129.993 Y123.53 E5.23441
G1 X130.343 Y122.794 E5.30199
G1 X130.845 Y122.116 E5.37195
G1 X131.471 Y121.552 E5.44182
G1 X132.196 Y121.123 E5.51168
G1 X132.992 Y120.847 E5.58155
G1 X133.822 Y120.733 E5.65103
G1 X134.158 Y120.737 E5.6789
G1 X134.837 Y120.822 E5.73565
G1 X135.217 Y120.92 E5.76819
G1 X135.727 Y121.106 E5.81321
G1 X136.412 Y121.501 E5.87878
G1 X137.05 Y122.052 E5.94869
G1 X137.565 Y122.719 E6.01857
G1 X137.939 Y123.474 E6.08844
G1 X138.126 Y124.178 E6.14885
G1 E5.64885 F240
G92 E0
G1 X124.963 Y128.888 F9000
G1 E.5 F240
;TYPE:External perimeter
G1 F1800
G1 X124.791 Y128.469 E.53756
G1 X124.516 Y127.557 E.61655
G1 X124.332 Y126.623 E.69549
G1 X124.239 Y125.676 E.7744
G1 X124.239 Y124.324 E.88652
G1 X124.332 Y123.377 E.96543
G1 X124.516 Y122.443 E1.04437
G1 X124.791 Y121.531 E1.12336
G1 X125.153 Y120.651 E1.20227
G1 X125.599 Y119.81 E1.28121
G1 X126.125 Y119.016 E1.36019
G1 X126.726 Y118.278 E1.43912
G1 X127.396 Y117.601 E1.51811
G1 X128.128 Y116.993 E1.59702
G1 X128.916 Y116.46 E1.67591
G1 X129.753 Y116.005 E1.75491
G1 X130.63 Y115.634 E1.83388
G1 X131.538 Y115.351 E1.91275
G1 X132.47 Y115.157 E1.99169
G1 X133.296 Y115.068 E2.06058
G1 X133.886 Y115.038 E2.10957
G1 X134.833 Y115.094 E2.18824
G1 X136.244 Y115.352 E2.30719
G1 X137.149 Y115.634 E2.3858
G1 X138.026 Y116.005 E2.46477
G1 X138.862 Y116.46 E2.5437
G1 X139.651 Y116.993 E2.62266
G1 X140.383 Y117.601 E2.70157
G1 X141.053 Y118.278 E2.78056
G1 X141.654 Y119.016 E2.85949
G1 X142.18 Y119.81 E2.93847
G1 X142.626 Y120.651 E3.01741
G1 X142.988 Y121.531 E3.09632
G1 X143.263 Y122.443 E3.17531
G1 X143.447 Y123.377 E3.25425
G1 X143.54 Y124.484 E3.34637
G1 X143.54 Y125.676 E3.44522
G1 X143.447 Y126.623 E3.52413
G1 X143.263 Y127.557 E3.60307
G1 X142.988 Y128.469 E3.68206
G1 X142.626 Y129.349 E3.76097
G1 X142.18 Y130.19 E3.83991
G1 X141.654 Y130.984 E3.91889
G1 X141.053 Y131.722 E3.99782
G1 X140.383 Y132.399 E4.07681
G1 X139.651 Y133.007 E4.15572
G1 X138.862 Y133.54 E4.23468
G1 X138.026 Y133.995 E4.31361
G1 X137.149 Y134.366 E4.39258
G1 X136.24 Y134.649 E4.47153
G1 X135.308 Y134.843 E4.55047
G1 X134.363 Y134.945 E4.62929
G1 X133.416 Y134.945 E4.70782
G1 X132.47 Y134.843 E4.78672
G1 X131.538 Y134.649 E4.86566
G1 X130.63 Y134.366 E4.94453
G1 X129.753 Y133.995 E5.0235
G1 X128.916 Y133.54 E5.1025
G1 X128.128 Y133.007 E5.18139
G1 X127.396 Y132.399 E5.2603
G1 X126.726 Y131.722 E5.33929
G1 X126.125 Y130.984 E5.41822
G1 X125.599 Y130.19 E5.4972
G1 X125.153 Y129.35 E5.57607
G1 X124.998 Y128.972 E5.60995
G1 X124.781 Y128.412 F9000
G1 X125.513 Y128.647
;TYPE:Perimeter
G1 F1800
G1 X125.357 Y128.268 E5.64394
G1 X125.099 Y127.412 E5.71808
G1 X124.926 Y126.536 E5.79213
G1 X124.839 Y125.647 E5.8662
G1 X124.839 Y124.353 E5.97351
G1 X124.926 Y123.464 E6.04758
G1 X125.099 Y122.588 E6.12163
G1 X125.357 Y121.732 E6.19577
G1 X125.697 Y120.906 E6.26984
G1 X126.115 Y120.117 E6.34388
G1 X126.609 Y119.372 E6.41801
G1 X127.173 Y118.679 E6.49211
G1 X127.801 Y118.044 E6.56617
G1 X128.489 Y117.474 E6.64026
G1 X129.228 Y116.973 E6.7143
G1 X130.013 Y116.546 E6.78841
G1 X130.836 Y116.198 E6.86251
G1 X131.689 Y115.932 E6.93661
G1 X132.564 Y115.75 E7.01072
G1 X133.36 Y115.664 E7.07711
G1 X133.878 Y115.639 E7.12012
G1 X134.761 Y115.691 E7.19347
G1 X136.1 Y115.935 E7.30634
G1 X136.942 Y116.198 E7.37949
G1 X137.765 Y116.546 E7.45359
G1 X138.55 Y116.973 E7.5277
G1 X139.29 Y117.474 E7.60181
G1 X139.977 Y118.044 E7.67584
G1 X140.606 Y118.679 E7.74996
G1 X141.17 Y119.372 E7.82406
G1 X141.663 Y120.117 E7.89814
G1 X142.082 Y120.906 E7.97222
G1 X142.422 Y121.732 E8.04629
G1 X142.716 Y122.77 E8.13575
G1 X142.866 Y123.595 E8.20529
G1 X142.94 Y124.484 E8.27927
G1 X142.94 Y125.647 E8.37571
G1 X142.853 Y126.536 E8.44978
G1 X142.68 Y127.412 E8.52383
G1 X142.422 Y128.268 E8.59797
G1 X142.082 Y129.094 E8.67204
G1 X141.663 Y129.883 E8.74612
G1 X141.17 Y130.628 E8.8202
G1 X140.606 Y131.321 E8.8943
G1 X139.977 Y131.956 E8.96842
G1 X139.29 Y132.526 E9.04245
G1 X138.55 Y133.027 E9.11656
G1 X137.765 Y133.454 E9.19067
G1 X136.942 Y133.802 E9.26477
G1 X136.09 Y134.068 E9.33879
G1 X135.215 Y134.25 E9.4129
G1 X134.331 Y134.345 E9.48663
G1 X133.448 Y134.345 E9.55985
G1 X132.564 Y134.25 E9.63358
G1 X131.689 Y134.068 E9.70769
G1 X130.836 Y133.802 E9.78179
G1 X130.013 Y133.454 E9.85589
G1 X129.228 Y133.027 E9.93
G1 X128.489 Y132.526 E10.00404
G1 X127.801 Y131.956 E10.07813
G1 X127.173 Y131.321 E10.15219
G1 X126.609 Y130.628 E10.22629
G1 X126.115 Y129.883 E10.30042
G1 X125.697 Y129.094 E10.37446
G1 X125.547 Y128.73 E10.40711
G1 X125.547 Y128.73 F9000
G1 X126.062 Y128.406
G1 F1800
G1 X125.923 Y128.067 E10.43749
G1 X125.682 Y127.267 E10.50678
G1 X125.52 Y126.448 E10.57601
G1 X125.439 Y125.617 E10.64525
G1 X125.439 Y124.383 E10.74758
G1 X125.52 Y123.552 E10.81682
G1 X125.682 Y122.733 E10.88605
G1 X125.923 Y121.933 E10.95534
G1 X126.24 Y121.161 E11.02455
G1 X126.632 Y120.424 E11.09377
G1 X127.093 Y119.728 E11.163
G1 X127.62 Y119.08 E11.23226
G1 X128.207 Y118.487 E11.30145
G1 X128.849 Y117.954 E11.37065
G1 X129.541 Y117.486 E11.43993
G1 X130.274 Y117.087 E11.50914
G1 X131.043 Y116.762 E11.57837
G1 X131.84 Y116.513 E11.64761
G1 X132.657 Y116.343 E11.71681
G1 X133.357 Y116.268 E11.77519
G1 X133.871 Y116.239 E11.81788
G1 X134.689 Y116.287 E11.88583
G1 X136.085 Y116.559 E12.00377
G1 X136.835 Y116.804 E12.0692
G1 X137.599 Y117.138 E12.13835
G1 X138.327 Y117.546 E12.20756
G1 X139.011 Y118.022 E12.27667
G1 X139.658 Y118.574 E12.3472
G1 X140.225 Y119.162 E12.41494
G1 X140.765 Y119.847 E12.48727
G1 X141.196 Y120.516 E12.55326
G1 X141.597 Y121.304 E12.62658
G1 X141.886 Y122.032 E12.69153
G1 X142.127 Y122.886 E12.76512
G1 X142.269 Y123.653 E12.82981
G1 X142.34 Y124.484 E12.89897
G1 X142.34 Y125.617 E12.99293
G1 X142.259 Y126.448 E13.06217
G1 X142.097 Y127.267 E13.1314
G1 X141.856 Y128.067 E13.20069
G1 X141.538 Y128.839 E13.26993
G1 X141.147 Y129.576 E13.33912
G1 X140.686 Y130.272 E13.40835
G1 X140.159 Y130.92 E13.47761
G1 X139.572 Y131.513 E13.5468
G1 X138.929 Y132.046 E13.61606
G1 X138.238 Y132.514 E13.68527
G1 X137.505 Y132.913 E13.75448
