; generated by PrusaSlicer 2.8.0+MacOS-arm64 on 2024-09-04 at 13:40:59 UTC


;
;

;
;
; 

; external perimeters extrusion width = 0.68mm
; perimeters extrusion width = 0.68mm
; infill extrusion width = 0.68mm
; solid infill extrusion width = 0.68mm
; top infill extrusion width = 0.60mm


EXCLUDE_OBJECT_DEFINE NAME='heater_bed_cable_guide_(Instance_1)' CENTER=106.508,98.009 POLYGON=[[107.436,88.019],[108.918,88.203],[110.820,88.786],[112.569,89.735],[114.096,91.011],[115.318,91.074],[116.334,91.293],[117.251,91.653],[117.831,92.170],[118.143,92.776],[118.234,93.451],[118.156,93.932],[117.789,95.007],[116.997,95.007],[116.327,94.529],[116.198,94.207],[115.435,94.037],[113.854,94.038],[112.706,94.361],[111.705,95.008],[110.938,95.921],[110.475,97.020],[110.356,98.207],[110.529,99.187],[110.938,100.093],[111.558,100.871],[112.351,101.472],[112.890,101.731],[113.657,101.947],[115.240,101.997],[116.198,101.808],[116.327,101.485],[116.997,101.007],[117.789,101.007],[118.181,102.177],[118.232,102.760],[118.143,103.239],[117.888,103.765],[117.492,104.195],[117.051,104.466],[115.660,104.885],[114.096,105.004],[113.365,105.680],[112.150,106.549],[111.275,107.024],[109.884,107.568],[107.933,107.959],[106.440,107.994],[104.473,107.696],[102.604,107.013],[100.907,105.974],[99.449,104.620],[98.288,103.004],[97.471,101.190],[97.103,99.742],[96.954,97.758],[97.201,95.784],[97.834,93.898],[98.829,92.174],[100.144,90.681],[101.729,89.479],[103.521,88.614],[105.449,88.121]]
EXCLUDE_OBJECT_DEFINE NAME='heater_bed_cable_guide_(Instance_2)' CENTER=128.660,96.542 POLYGON=[[129.588,86.552],[131.070,86.736],[132.972,87.319],[134.721,88.268],[136.248,89.544],[137.470,89.607],[138.486,89.826],[139.403,90.185],[139.983,90.703],[140.295,91.308],[140.386,91.984],[140.308,92.465],[139.941,93.540],[139.148,93.540],[138.478,93.062],[138.350,92.740],[137.587,92.570],[136.006,92.571],[134.858,92.894],[133.856,93.541],[133.090,94.454],[132.626,95.553],[132.508,96.740],[132.680,97.719],[133.090,98.626],[133.710,99.404],[134.503,100.005],[135.042,100.264],[135.809,100.480],[137.392,100.530],[138.350,100.341],[138.478,100.018],[139.148,99.540],[139.941,99.540],[140.333,100.710],[140.383,101.292],[140.295,101.772],[140.040,102.298],[139.644,102.728],[139.203,102.998],[137.812,103.418],[136.248,103.536],[135.516,104.213],[134.302,105.082],[133.427,105.557],[132.036,106.100],[130.085,106.492],[128.592,106.527],[126.625,106.228],[124.756,105.546],[123.059,104.507],[121.601,103.153],[120.700,101.962],[119.793,100.191],[119.254,98.275],[119.106,96.291],[119.353,94.317],[119.986,92.431],[120.980,90.707],[122.296,89.214],[123.881,88.012],[125.673,87.147],[127.601,86.654]]
EXCLUDE_OBJECT_DEFINE NAME='heater_bed_cable_guide_(Instance_3)' CENTER=128.740,119.059 POLYGON=[[129.668,109.068],[131.150,109.252],[133.052,109.836],[134.801,110.784],[136.328,112.060],[137.550,112.123],[138.566,112.343],[139.483,112.702],[140.063,113.219],[140.375,113.825],[140.466,114.500],[140.388,114.981],[140.021,116.057],[139.229,116.057],[138.559,115.579],[138.430,115.256],[137.667,115.086],[136.086,115.087],[134.938,115.410],[133.937,116.057],[133.170,116.971],[132.707,118.069],[132.588,119.256],[132.761,120.236],[133.170,121.143],[133.790,121.920],[134.583,122.521],[135.122,122.780],[135.889,122.996],[137.472,123.046],[138.430,122.857],[138.559,122.535],[139.229,122.057],[140.021,122.057],[140.413,123.226],[140.464,123.809],[140.375,124.288],[140.120,124.814],[139.724,125.244],[139.283,125.515],[137.892,125.934],[136.328,126.053],[135.597,126.729],[134.382,127.598],[133.507,128.073],[132.116,128.617],[130.165,129.008],[128.672,129.044],[126.705,128.745],[124.836,128.062],[123.139,127.023],[121.681,125.669],[120.780,124.478],[119.873,122.707],[119.335,120.792],[119.186,118.807],[119.433,116.833],[120.066,114.947],[121.061,113.223],[122.376,111.731],[123.961,110.528],[125.753,109.663],[127.681,109.170]]
EXCLUDE_OBJECT_DEFINE NAME='heater_bed_cable_guide_(Instance_4)' CENTER=107.057,119.606 POLYGON=[[107.985,109.616],[109.467,109.799],[111.369,110.383],[113.118,111.331],[114.645,112.608],[115.867,112.670],[116.883,112.890],[117.800,113.249],[118.380,113.766],[118.692,114.372],[118.783,115.047],[118.705,115.529],[118.338,116.604],[117.545,116.604],[116.875,116.126],[116.747,115.803],[115.984,115.633],[114.403,115.635],[113.255,115.958],[112.253,116.604],[111.487,117.518],[111.023,118.617],[110.905,119.803],[111.077,120.783],[111.487,121.690],[112.107,122.468],[112.900,123.068],[113.439,123.328],[114.206,123.543],[115.789,123.593],[116.747,123.404],[116.875,123.082],[117.545,122.604],[118.338,122.604],[118.730,123.774],[118.780,124.356],[118.692,124.836],[118.437,125.362],[118.041,125.792],[117.600,126.062],[116.209,126.481],[114.645,126.600],[113.913,127.276],[112.699,128.146],[111.824,128.621],[110.433,129.164],[108.482,129.555],[106.989,129.591],[105.022,129.292],[103.153,128.610],[101.456,127.571],[99.998,126.216],[99.097,125.025],[98.190,123.254],[97.651,121.339],[97.503,119.355],[97.750,117.380],[98.383,115.494],[99.377,113.771],[100.693,112.278],[102.278,111.075],[104.070,110.210],[105.998,109.717]]

;TYPE:Custom
START_PRINT BED_TEMP=75 HOTEND_TEMP=240 FILAMENT_TYPE=PET EXTRUSION_MULTIPLIER=0.88 PERIMETER_SPEED=70
G21 ; set units to millimeters
G90 ; use absolute coordinates
M82 ; use absolute distances for extrusion
G92 E0
; Filament gcode
; ########################### NOTE OFFSET CHANGES ####################################
; Prevents PETG buildup on nozzle.
; SET_GCODE_OFFSET Z=0.06
; ####################################################################################
M107
;LAYER_CHANGE
;Z:0.35
;HEIGHT:0.35
G1 E-.5 F240
G1 Z.35 F9000
EXCLUDE_OBJECT_START NAME='heater_bed_cable_guide_(Instance_2)'
G92 E0
G1 X121.684 Y96.758
G1 E.5 F240
G92 E0
;TYPE:External perimeter
;WIDTH:0.675
G1 F1800
G1 X121.668 Y96.646 E.00869
G1 X121.708 Y96.042 E.05519
G1 X121.866 Y95.459 E.10159
G1 X122.136 Y94.918 E.14804
G1 X122.508 Y94.442 E.19445
G1 X122.968 Y94.049 E.24093
G1 X123.496 Y93.754 E.28739
G1 X124.066 Y93.572 E.33335
G1 X124.668 Y93.504 E.37989
G1 X125.196 Y93.562 E.42069
G1 X125.481 Y93.605 E.44283
G1 X125.993 Y93.792 E.4847
G1 X126.512 Y94.102 E.53114
G1 X126.959 Y94.509 E.57758
G1 X127.317 Y94.996 E.62401
G1 X127.571 Y95.545 E.67048
G1 X127.712 Y96.133 E.71693
G1 X127.732 Y96.734 E.76312
G1 X127.646 Y97.26 E.80406
G1 X127.391 Y97.952 E.86071
G1 X127.095 Y98.41 E.9026
G1 X126.7 Y98.824 E.94656
G1 X126.181 Y99.192 E.99543
G1 X125.639 Y99.427 E1.04081
G1 X125.035 Y99.558 E1.08829
G1 X124.43 Y99.564 E1.13477
G1 X123.85 Y99.453 E1.18013
G1 X123.277 Y99.221 E1.22762
G1 X122.81 Y98.91 E1.27072
G1 X122.26 Y98.343 E1.3314
G1 X121.948 Y97.816 E1.37845
G1 X121.749 Y97.245 E1.4249
G1 X121.696 Y96.848 E1.45567
G1 X121.699 Y96.248 F9000
G1 X121.083 Y96.789
;TYPE:Perimeter
G1 F1800
G1 X121.073 Y96.72 E1.46103
G1 X121.109 Y95.998 E1.51656
G1 X121.288 Y95.296 E1.57221
G1 X121.602 Y94.644 E1.6278
G1 X122.039 Y94.068 E1.68334
G1 X122.582 Y93.589 E1.73896
G1 X123.209 Y93.227 E1.79458
G1 X123.889 Y92.999 E1.84967
G1 X124.608 Y92.907 E1.90535
G1 X125.27 Y92.967 E1.95641
G1 X125.686 Y93.042 E1.98888
G1 X126.198 Y93.228 E2.03073
G1 X126.825 Y93.59 E2.08635
G1 X127.207 Y93.921 E2.12518
G1 X127.486 Y94.204 E2.15571
G1 X127.804 Y94.646 E2.19754
G1 X128.118 Y95.298 E2.25313
G1 X128.296 Y96 E2.30876
G1 X128.332 Y96.719 E2.36406
G1 X128.237 Y97.365 E2.41422
G1 X127.999 Y98.06 E2.47065
G1 X127.895 Y98.277 E2.48913
G1 X127.599 Y98.735 E2.53102
G1 X127.129 Y99.243 E2.58418
G1 X126.519 Y99.688 E2.64218
G1 X125.872 Y99.98 E2.69671
G1 X125.154 Y100.146 E2.75332
G1 X124.43 Y100.164 E2.80895
G1 X123.731 Y100.041 E2.86347
G1 X123.044 Y99.774 E2.92009
G1 X122.473 Y99.406 E2.97227
G1 X122.039 Y98.986 E3.01866
G1 X121.701 Y98.589 E3.05871
G1 X121.428 Y98.116 E3.10066
G1 X121.181 Y97.436 E3.15623
G1 X121.097 Y96.878 E3.19958
G1 E2.69958 F240
G92 E0
G1 X121.097 Y96.878 F9000
G1 X138.584 Y92.496
G1 E.5 F240
;TYPE:External perimeter
G1 F1800
G1 X138.576 Y92.482 E.50124
G1 X138.377 Y92.401 E.51774
G1 X137.599 Y92.233 E.57888
G1 X136.683 Y92.211 E.64926
G1 X135.942 Y92.24 E.70622
G1 X135.307 Y92.372 E.75604
G1 X134.699 Y92.596 E.80581
G1 X134.079 Y92.949 E.86061
G1 X133.617 Y93.303 E.90532
G1 X133.167 Y93.769 E.95508
G1 X132.791 Y94.298 E1.00493
G1 X132.498 Y94.876 E1.05471
G1 X132.295 Y95.491 E1.10446
G1 X132.184 Y96.192 E1.15898
G1 X132.172 Y96.779 E1.20408
G1 X132.247 Y97.376 E1.2503
G1 X132.366 Y97.841 E1.28717
G1 X132.585 Y98.399 E1.33322
G1 X132.814 Y98.822 E1.37017
G1 X133.164 Y99.309 E1.41624
G1 X133.819 Y99.947 E1.48648
G1 X134.354 Y100.308 E1.53606
G1 X134.949 Y100.588 E1.58657
G1 X135.773 Y100.815 E1.65222
G1 X136.405 Y100.877 E1.701
G1 X137.438 Y100.864 E1.78036
G1 X138.334 Y100.695 E1.8504
G1 X138.583 Y100.593 E1.87107
G1 X138.756 Y100.236 E1.90154
G1 X139.258 Y99.878 E1.9489
G1 X139.698 Y99.878 E1.9827
G1 X139.972 Y100.696 E2.04897
G1 X140.033 Y101.159 E2.08484
G1 X139.971 Y101.667 E2.12415
G1 X139.758 Y102.106 E2.16163
G1 X139.427 Y102.466 E2.1992
G1 X139.082 Y102.681 E2.23043
G1 X138.389 Y102.931 E2.28702
G1 X137.749 Y103.086 E2.3376
G1 X137.097 Y103.177 E2.38817
G1 X136.225 Y103.199 E2.45518
G1 X136.03 Y103.279 E2.47137
G1 X135.3 Y103.953 E2.54769
G1 X134.534 Y104.531 E2.6214
G1 X133.28 Y105.252 E2.73252
G1 X131.933 Y105.778 E2.8436
G1 X131.003 Y106.014 E2.9173
G1 X130.222 Y106.131 E2.97796
G1 X129.575 Y106.191 E3.02787
G1 X128.609 Y106.19 E3.10207
G1 X127.652 Y106.093 E3.17596
G1 X126.708 Y105.901 E3.24996
G1 X125.789 Y105.616 E3.32387
G1 X124.903 Y105.242 E3.39774
G1 X124.058 Y104.781 E3.47168
G1 X123.263 Y104.238 E3.54563
G1 X122.526 Y103.619 E3.61956
G1 X121.92 Y102.997 E3.68627
G1 X121.548 Y102.563 E3.73018
G1 X120.984 Y101.779 E3.80437
G1 X120.503 Y100.945 E3.87833
G1 X120.107 Y100.067 E3.95232
G1 X119.801 Y99.155 E4.02622
G1 X119.587 Y98.217 E4.10013
G1 X119.468 Y97.262 E4.17406
G1 X119.444 Y96.3 E4.24798
G1 X119.516 Y95.34 E4.32193
G1 X119.683 Y94.392 E4.39587
G1 X119.943 Y93.465 E4.46983
G1 X120.294 Y92.569 E4.54375
G1 X120.733 Y91.713 E4.61765
G1 X121.255 Y90.904 E4.69161
G1 X121.855 Y90.151 E4.76557
G1 X122.526 Y89.462 E4.83945
G1 X123.263 Y88.843 E4.91338
G1 X124.058 Y88.3 E4.98733
G1 X124.903 Y87.839 E5.06127
G1 X125.789 Y87.464 E5.13517
G1 X126.708 Y87.18 E5.20906
G1 X127.652 Y86.988 E5.28306
G1 X128.609 Y86.891 E5.35695
G1 X129.401 Y86.889 E5.41779
G1 X130.048 Y86.924 E5.46756
G1 X131.004 Y87.067 E5.54181
G1 X131.937 Y87.303 E5.61574
G1 X132.842 Y87.631 E5.68968
G1 X133.709 Y88.047 E5.76355
G1 X134.531 Y88.547 E5.83746
G1 X135.413 Y89.232 E5.92325
G1 X136.129 Y89.863 E5.99656
G1 X136.296 Y89.882 E6.00947
G1 X136.815 Y89.887 E6.04934
G1 X137.479 Y89.952 E6.10059
G1 X138.057 Y90.062 E6.14579
G1 X139.013 Y90.369 E6.22292
G1 X139.411 Y90.609 E6.25862
G1 X139.715 Y90.91 E6.29148
G1 X139.972 Y91.41 E6.33466
G1 X140.036 Y91.822 E6.36669
G1 X140.033 Y92.062 E6.38513
G1 X139.982 Y92.375 E6.40949
G1 X139.699 Y93.203 E6.47671
G1 X139.257 Y93.203 E6.51066
G1 X138.756 Y92.845 E6.55796
G1 X138.686 Y92.667 E6.57265
G1 X138.63 Y92.573 E6.58106
G1 X138.075 Y92.347 F9000
G1 X139.046 Y91.992
;TYPE:Perimeter
;WIDTH:0.842037
G1 F1800
G1 X139.021 Y91.963 E6.58482
G1 X138.833 Y91.836 E6.6071
G1 X138.527 Y91.734 E6.63878
;WIDTH:0.882275
G1 X137.616 Y91.529 E6.73529
G1 X137.501 Y91.547 E6.74732
;WIDTH:0.84082
G1 X137.386 Y91.565 E6.75873
;WIDTH:0.799365
G1 X137.271 Y91.583 E6.76953
;WIDTH:0.75791
G1 X137.156 Y91.601 E6.77971
;WIDTH:0.716455
G1 X137.041 Y91.619 E6.78927
;WIDTH:0.675
G1 X136.336 Y91.607 E6.84343
G1 X135.823 Y91.652 E6.88299
G1 X135.102 Y91.808 E6.93966
G1 X134.412 Y92.069 E6.99633
G1 X133.716 Y92.471 E7.05807
G1 X133.068 Y93.006 E7.12262
G1 X132.587 Y93.547 E7.17823
G1 X132.257 Y94.024 E7.22279
G1 X131.929 Y94.685 E7.27947
G1 X131.704 Y95.387 E7.3361
G1 X131.584 Y96.177 E7.39748
G1 X131.593 Y96.983 E7.4594
G1 X131.673 Y97.56 E7.50415
G1 X131.83 Y98.118 E7.54868
G1 X132.074 Y98.72 E7.59858
G1 X132.327 Y99.172 E7.63837
G1 X132.677 Y99.659 E7.68444
G1 X132.979 Y99.972 E7.71785
G1 X133.481 Y100.443 E7.77073
G1 X134.094 Y100.848 E7.82717
G1 X134.786 Y101.166 E7.88567
G1 X135.713 Y101.412 E7.95934
G1 X136.411 Y101.476 E8.01318
;WIDTH:0.683858
G1 X136.997 Y101.475 E8.05886
;WIDTH:0.725811
G1 X137.106 Y101.493 E8.06807
;WIDTH:0.767764
G1 X137.215 Y101.512 E8.07788
;WIDTH:0.809717
G1 X137.323 Y101.53 E8.08818
;WIDTH:0.85167
G1 X137.432 Y101.548 E8.09917
;WIDTH:0.893623
G1 X137.541 Y101.566 E8.11075
G1 X138.244 Y101.432 E8.18576
;WIDTH:0.848483
G1 X138.797 Y101.26 E8.24311
;WIDTH:0.837572
G1 X139.042 Y101.096 E8.27189
G1 X139.277 Y100.764 E8.3116
G1 X139.326 Y100.913 E8.32691
G1 X139.355 Y101.218 E8.35682
G1 X139.324 Y101.42 E8.37677
G1 X139.209 Y101.677 E8.40426
G1 X139.022 Y101.901 E8.43275
G1 X138.745 Y102.078 E8.46484
;WIDTH:0.871561
G1 X138.167 Y102.266 E8.52683
;WIDTH:0.882211
G1 X137.476 Y102.433 E8.6003
;WIDTH:0.840768
G1 X137.356 Y102.47 E8.61261
;WIDTH:0.799326
G1 X137.236 Y102.506 E8.62423
;WIDTH:0.757884
G1 X137.116 Y102.543 E8.63521
;WIDTH:0.716442
G1 X136.995 Y102.579 E8.64558
;WIDTH:0.675
G1 X136.271 Y102.598 E8.70121
G1 X135.894 Y102.665 E8.73062
G1 X135.622 Y102.838 E8.75538
G1 X134.914 Y103.493 E8.82947
G1 X134.203 Y104.03 E8.89791
G1 X133.02 Y104.71 E9.00273
G1 X131.75 Y105.206 E9.10746
G1 X130.885 Y105.425 E9.176
G1 X130.133 Y105.537 E9.2344
G1 X129.553 Y105.591 E9.27915
G1 X128.64 Y105.59 E9.34928
G1 X127.742 Y105.499 E9.41861
G1 X126.857 Y105.319 E9.48798
G1 X125.995 Y105.052 E9.5573
G1 X125.164 Y104.701 E9.6266
G1 X124.371 Y104.268 E9.696
G1 X123.626 Y103.759 E9.76531
G1 X122.935 Y103.178 E9.83466
G1 X122.35 Y102.578 E9.89903
G1 X122.021 Y102.195 E9.93782
G1 X121.489 Y101.453 E10.00795
G1 X121.038 Y100.671 E10.07729
G1 X120.667 Y99.848 E10.14664
G1 X120.379 Y98.993 E10.21594
G1 X120.179 Y98.113 E10.28526
G1 X120.067 Y97.217 E10.35462
G1 X120.044 Y96.315 E10.42393
G1 X120.112 Y95.414 E10.49334
G1 X120.268 Y94.526 E10.5626
G1 X120.512 Y93.657 E10.63194
G1 X120.842 Y92.816 E10.70134
G1 X121.253 Y92.013 E10.77063
G1 X121.743 Y91.254 E10.84003
G1 X122.305 Y90.548 E10.90935
G1 X122.935 Y89.902 E10.97866
G1 X123.626 Y89.321 E11.04801
G1 X124.371 Y88.812 E11.11732
G1 X125.164 Y88.38 E11.18669
G1 X125.995 Y88.028 E11.25602
G1 X126.857 Y87.761 E11.32534
G1 X127.742 Y87.582 E11.3947
G1 X128.64 Y87.491 E11.46403
G1 X129.402 Y87.489 E11.52256
G1 X129.982 Y87.521 E11.56718
G1 X130.885 Y87.656 E11.63732
G1 X131.76 Y87.877 E11.70665
G1 X132.609 Y88.185 E11.77603
G1 X133.423 Y88.575 E11.84537
G1 X134.194 Y89.044 E11.91469
G1 X134.914 Y89.588 E11.98401
G1 X135.622 Y90.242 E12.05805
G1 X135.919 Y90.425 E12.08485
G1 X136.232 Y90.481 E12.10928
G1 X136.761 Y90.484 E12.14992
;WIDTH:0.718367
G1 X137.06 Y90.534 E12.17489
;WIDTH:0.761734
G1 X137.359 Y90.584 E12.20154
;WIDTH:0.799615
G1 X137.579 Y90.651 E12.22288
;WIDTH:0.837496
G1 X137.8 Y90.718 E12.24542
;WIDTH:0.875377
G1 X138.728 Y90.995 E12.34466
;WIDTH:0.842037
G1 X139.008 Y91.161 E12.37663
G1 X139.237 Y91.429 E12.41125
G1 X139.353 Y91.813 E12.45064
G1 X139.35 Y92.053 E12.47421
G1 X139.28 Y92.317 E12.50103
G1 X139.226 Y92.206 E12.51315
G1 X139.104 Y92.061 E12.53176
G1 E12.03176 F240
G92 E0
G1 X139.104 Y92.061 F9000
G1 X120.825 Y98.247
G1 E.5 F240
;WIDTH:0.675055
G1 F1800
G1 X120.771 Y98.035 E.51681
;WIDTH:0.638161
G1 X120.718 Y97.822 E.53264
;WIDTH:0.601267
G1 X120.665 Y97.609 E.54743
;WIDTH:0.564373
G1 X120.616 Y97.197 E.57342
;WIDTH:0.530364
G1 X120.567 Y96.784 E.59767
;WIDTH:0.513897
G1 X120.592 Y95.959 E.64405
;WIDTH:0.548067
G1 X120.641 Y95.686 E.66085
;WIDTH:0.582238
G1 X120.69 Y95.414 E.6788
;WIDTH:0.616409
G1 X120.739 Y95.142 E.69796
G1 E.19796 F240
G92 E0
G1 X120.739 Y95.142 F9000
G1 X136.231 Y91.047
G1 E.5 F240
;WIDTH:0.606629
G1 F1800
G1 X137.054 Y91.066 E.55603
G1 X137.054 Y91.066 F9000
G1 X136.231 Y91.047
;WIDTH:0.637124
G1 F1800
G1 X135.968 Y91.057 E.57497
;WIDTH:0.66762
G1 X135.705 Y91.067 E.59494
;WIDTH:0.675
G1 X134.897 Y91.244 E.65848
G1 X134.125 Y91.543 E.72207
G1 X133.354 Y91.993 E.79065
G1 X132.758 Y92.465 E.84905
