; generated by PrusaSlicer 2.8.1+MacOS-arm64 on 2024-11-27 at 05:48:17 UTC


;
;

;
;
; 

; external perimeters extrusion width = 0.55mm
; perimeters extrusion width = 0.60mm
; infill extrusion width = 0.60mm
; solid infill extrusion width = 0.60mm
; top infill extrusion width = 0.55mm
; first layer extrusion width = 0.60mm

M73 P0 R43

EXCLUDE_OBJECT_DEFINE NAME='heater_bed_cable_guide_(Instance_1)' CENTER=83.274,165.011 POLYGON=[[84.202,155.021],[86.170,155.315],[87.586,155.788],[89.335,156.737],[90.862,158.013],[92.084,158.076],[93.100,158.295],[94.017,158.654],[94.597,159.172],[94.909,159.777],[94.999,160.453],[94.922,160.934],[94.554,162.009],[93.762,162.009],[93.092,161.531],[92.964,161.209],[92.201,161.039],[90.620,161.040],[89.472,161.363],[88.470,162.010],[87.703,162.923],[87.240,164.022],[87.121,165.209],[87.294,166.188],[87.703,167.095],[88.324,167.873],[89.117,168.474],[89.656,168.733],[90.423,168.949],[92.005,168.999],[92.964,168.810],[93.092,168.487],[93.762,168.009],[94.554,168.009],[94.946,169.179],[94.997,169.761],[94.909,170.241],[94.654,170.767],[94.258,171.197],[93.817,171.467],[92.426,171.887],[90.862,172.005],[90.130,172.682],[88.916,173.551],[88.040,174.026],[86.649,174.569],[84.698,174.961],[83.206,174.996],[81.238,174.697],[79.369,174.015],[77.672,172.976],[76.215,171.622],[75.314,170.431],[74.407,168.660],[73.868,166.744],[73.719,164.760],[73.967,162.786],[74.600,160.900],[75.594,159.176],[76.910,157.683],[78.495,156.481],[80.287,155.616],[82.214,155.123]]
EXCLUDE_OBJECT_DEFINE NAME='heater_bed_cable_guide_(Instance_2)' CENTER=83.274,84.993 POLYGON=[[84.202,75.003],[85.684,75.186],[87.586,75.770],[89.335,76.718],[90.862,77.995],[92.084,78.057],[93.100,78.277],[94.017,78.636],[94.597,79.153],[94.909,79.759],[94.999,80.434],[94.922,80.915],[94.554,81.991],[93.762,81.991],[93.092,81.513],[92.964,81.190],[92.201,81.020],[90.620,81.022],[89.472,81.344],[88.470,81.991],[87.703,82.905],[87.240,84.004],[87.121,85.190],[87.294,86.170],[87.703,87.077],[88.324,87.855],[89.117,88.455],[89.656,88.715],[90.423,88.930],[92.005,88.980],[92.964,88.791],[93.092,88.469],[93.762,87.991],[94.554,87.991],[94.946,89.161],[94.997,89.743],[94.909,90.223],[94.654,90.749],[94.258,91.179],[93.817,91.449],[92.426,91.868],[90.862,91.987],[90.130,92.663],[88.916,93.533],[88.040,94.008],[86.649,94.551],[84.698,94.942],[83.206,94.978],[81.238,94.679],[79.369,93.996],[77.672,92.958],[76.215,91.603],[75.314,90.412],[74.407,88.641],[73.868,86.726],[73.719,84.742],[73.967,82.767],[74.600,80.881],[75.594,79.157],[76.910,77.665],[78.495,76.462],[80.287,75.597],[82.214,75.104]]
EXCLUDE_OBJECT_DEFINE NAME='heater_bed_cable_guide_(Instance_3)' CENTER=164.554,165.011 POLYGON=[[165.481,155.021],[167.449,155.315],[168.866,155.788],[170.615,156.737],[172.141,158.013],[173.363,158.076],[174.379,158.295],[175.297,158.654],[175.876,159.172],[176.188,159.777],[176.279,160.453],[176.201,160.934],[175.834,162.009],[175.042,162.009],[174.372,161.531],[174.243,161.209],[173.480,161.039],[171.900,161.040],[170.752,161.363],[169.750,162.010],[168.983,162.923],[168.520,164.022],[168.401,165.209],[168.574,166.188],[168.983,167.095],[169.603,167.873],[170.397,168.474],[170.935,168.733],[171.702,168.949],[173.285,168.999],[174.243,168.810],[174.372,168.487],[175.042,168.009],[175.834,168.009],[176.226,169.179],[176.277,169.761],[176.188,170.241],[175.933,170.767],[175.537,171.197],[175.096,171.467],[173.705,171.887],[172.141,172.005],[171.410,172.682],[170.196,173.551],[169.320,174.026],[167.929,174.569],[165.978,174.961],[164.485,174.996],[162.518,174.697],[160.649,174.015],[158.952,172.976],[157.494,171.622],[156.593,170.431],[155.686,168.660],[155.148,166.744],[154.999,164.760],[155.246,162.786],[155.880,160.900],[156.874,159.176],[158.189,157.683],[159.775,156.481],[161.566,155.616],[163.494,155.123]]
EXCLUDE_OBJECT_DEFINE NAME='heater_bed_cable_guide_(Instance_4)' CENTER=164.553,84.993 POLYGON=[[165.481,75.002],[166.963,75.186],[168.866,75.770],[170.615,76.718],[172.141,77.995],[173.363,78.057],[174.379,78.277],[175.297,78.636],[175.876,79.153],[176.188,79.759],[176.279,80.434],[176.201,80.915],[175.834,81.991],[175.042,81.991],[174.372,81.513],[174.243,81.190],[173.480,81.020],[171.900,81.022],[170.752,81.344],[169.750,81.991],[168.983,82.905],[168.520,84.004],[168.401,85.190],[168.574,86.170],[168.983,87.077],[169.603,87.855],[170.397,88.455],[170.935,88.715],[171.702,88.930],[173.285,88.980],[174.243,88.791],[174.372,88.469],[175.042,87.991],[175.834,87.991],[176.226,89.161],[176.277,89.743],[176.188,90.223],[175.933,90.749],[175.537,91.179],[175.096,91.449],[173.705,91.868],[172.141,91.987],[171.410,92.663],[170.196,93.533],[169.320,94.008],[167.929,94.551],[165.978,94.942],[164.485,94.978],[162.518,94.679],[160.649,93.996],[158.952,92.958],[157.494,91.603],[156.593,90.412],[155.686,88.641],[155.148,86.726],[154.999,84.742],[155.246,82.767],[155.880,80.881],[156.874,79.157],[158.189,77.665],[159.775,76.462],[161.566,75.597],[163.494,75.104]]

M190 S55 ; set bed temperature and wait for it to be reached
M104 S230 ; set temperature
;TYPE:Custom
START_PRINT BED_TEMP=55 HOTEND_TEMP=230 FILAMENT_TYPE=PLA EXTRUSION_MULTIPLIER=0.98
M109 S230 ; set temperature and wait for it to be reached
G21 ; set units to millimeters
G90 ; use absolute coordinates
M82 ; use absolute distances for extrusion
G92 E0
; Filament gcode
SET_GCODE_OFFSET Z=0.01
M107
;LAYER_CHANGE
;Z:0.3
;HEIGHT:0.3
G1 E-.53 F600
G1 Z.6 F9000
EXCLUDE_OBJECT_START NAME='heater_bed_cable_guide_(Instance_1)'
G92 E0
G1 X75.726 Y165.436
G1 Z.3
G1 E.53 F1200
;TYPE:Perimeter
;WIDTH:0.6
G1 F1800
G1 X75.688 Y165.18 E.54694
G1 X75.729 Y164.43 E.59612
G1 X75.906 Y163.757 E.64168
G1 X76.222 Y163.106 E.68906
G1 X76.661 Y162.531 E.73642
G1 X77.166 Y162.086 E.78049
G3 X78.636 Y161.439 I2.473 J3.623 E.88624
G1 X79.23 Y161.378 E.92533
G1 X80.114 Y161.467 E.9835
G1 X80.82 Y161.703 E1.03224
G1 X81.425 Y162.053 E1.078
G1 X81.819 Y162.391 E1.11199
G3 X82.422 Y163.124 I-2.559 J2.717 E1.1743
G1 X82.733 Y163.777 E1.22165
G1 X82.91 Y164.478 E1.26898
G1 X82.944 Y165.194 E1.31591
G1 X82.834 Y165.916 E1.36372
G1 X82.585 Y166.595 E1.41107
G1 X82.282 Y167.092 E1.44918
G3 X81.71 Y167.742 I-3.156 J-2.203 E1.50599
G1 X81.124 Y168.16 E1.55312
G1 X80.485 Y168.447 E1.59898
G1 X79.758 Y168.615 E1.64783
G1 X79.034 Y168.631 E1.69524
G1 X78.358 Y168.51 E1.7402
G1 X77.65 Y168.237 E1.78988
G1 X77.043 Y167.843 E1.83726
G1 X76.428 Y167.209 E1.89509
G1 X76.039 Y166.576 E1.94373
G1 X75.794 Y165.895 E1.99111
G1 X75.737 Y165.511 E2.01653
G1 X75.737 Y165.511 F9000
G1 X76.255 Y165.383
;TYPE:External perimeter
G1 F1800
G1 X76.219 Y165.113 E2.03436
G1 X76.261 Y164.488 E2.07537
G1 X76.422 Y163.902 E2.11516
G1 X76.699 Y163.35 E2.15559
G1 X77.079 Y162.865 E2.19593
G1 X77.51 Y162.496 E2.23308
G1 X78.088 Y162.164 E2.27672
G1 X78.676 Y161.977 E2.31712
G1 X79.283 Y161.911 E2.35709
G1 X80.048 Y161.999 E2.4075
G1 X80.637 Y162.206 E2.44837
G1 X81.146 Y162.511 E2.48722
G1 X81.622 Y162.939 E2.52913
G1 X81.987 Y163.437 E2.56955
G1 X82.245 Y163.997 E2.60992
G1 X82.388 Y164.598 E2.65037
G1 X82.408 Y165.207 E2.69026
G1 X82.307 Y165.823 E2.73113
G1 X82.086 Y166.399 E2.77152
G1 X81.756 Y166.92 E2.8119
G1 X81.41 Y167.283 E2.84473
G1 X80.822 Y167.718 E2.89262
G1 X80.277 Y167.953 E2.93148
G1 X79.651 Y168.09 E2.97343
G1 X79.034 Y168.095 E3.01383
G1 X78.464 Y167.985 E3.05184
G1 X77.858 Y167.743 E3.09456
G1 X77.345 Y167.4 E3.13496
G1 X76.821 Y166.845 E3.18493
G1 X76.503 Y166.308 E3.22579
G1 X76.301 Y165.725 E3.26618
G1 X76.265 Y165.458 E3.28382
G1 X76.238 Y164.958 F9000
G1 X75.419 Y166.651
;TYPE:Perimeter
;WIDTH:0.720627
G1 F1800
G1 X75.345 Y166.361 E3.30783
;WIDTH:0.675611
G1 X75.271 Y166.071 E3.33019
;WIDTH:0.630595
G1 X75.223 Y165.657 E3.35903
;WIDTH:0.5966
G1 X75.175 Y165.244 E3.38608
;WIDTH:0.579829
G1 X75.202 Y164.418 E3.43815
;WIDTH:0.613998
G1 X75.252 Y164.146 E3.45673
;WIDTH:0.648167
G1 X75.301 Y163.873 E3.47652
;WIDTH:0.682337
G1 X75.351 Y163.601 E3.49741
;WIDTH:0.730507
G1 X75.43 Y163.334 E3.52008
G1 E2.99008 F600
G92 E0
G1 X75.43 Y163.334 F9000
G1 X91.488 Y169.461 Z.6
G1 X93.308 Y170.156
G1 Z.3
G1 E.53 F1200
;WIDTH:0.470362
G1 F1800
G1 X93.057 Y170.237 E.54309
;WIDTH:0.502113
G1 X92.805 Y170.319 E.55727
;WIDTH:0.534299
G1 X92.506 Y170.379 E.57479
;WIDTH:0.566485
G1 X92.207 Y170.439 E.59351
;WIDTH:0.61176
G1 X91.767 Y170.472 E.62303
;WIDTH:0.657037
G1 X91.327 Y170.505 E.65499
;WIDTH:0.662469
G1 X90.809 Y170.502 E.69286
;WIDTH:0.674689
G1 X90.689 Y170.501 E.70181
G1 E.17181 F600
G92 E0
G1 X90.689 Y170.501 F9000
G1 X90.568 Y159.517 Z.492
G1 Z.3
G1 E.53 F1200
;WIDTH:0.706077
G1 F1800
G1 X90.451 Y159.544 E.53942
;WIDTH:0.67955
G1 X90.333 Y159.57 E.54851
;WIDTH:0.653023
G1 X89.936 Y159.672 E.578
;WIDTH:0.626511
G1 X89.539 Y159.773 E.60615
;WIDTH:0.6
G1 X88.777 Y160.067 E.65962
G1 X88.008 Y160.515 E.71789
G2 X86.992 Y161.418 I3.735 J5.221 E.80705
G2 X86.399 Y162.243 I8.021 J6.393 E.87359
G1 X86.04 Y162.977 E.92708
G1 X85.793 Y163.756 E.98058
G1 X85.665 Y164.624 E1.03802
G1 X85.665 Y165.413 E1.08968
G1 X85.787 Y166.226 E1.1435
G2 X86.233 Y167.47 I10.773 J-3.157 E1.23007
G2 X86.872 Y168.431 I4.581 J-2.354 E1.30578
G1 X87.359 Y168.984 E1.35402
G2 X88.234 Y169.657 I11.178 J-13.632 E1.4263
G1 X88.959 Y170.034 E1.4798
G1 X89.765 Y170.306 E1.53549
;WIDTH:0.637344
G1 X90.227 Y170.404 E1.56857
;WIDTH:0.674689
G1 X90.689 Y170.501 E1.60379
G1 X90.571 Y170.526 E1.61279
;WIDTH:0.656475
G1 X90.247 Y170.697 E1.6393
;WIDTH:0.628237
G1 X89.923 Y170.868 E1.66455
;WIDTH:0.6
G3 X87.403 Y172.698 I-6.619 J-6.464 E1.86942
G3 X84.13 Y173.526 I-3.775 J-8.037 E2.0918
G3 X80.792 Y173.019 I-.36 J-8.872 E2.3142
G3 X77.912 Y171.256 I3.112 J-8.316 E2.53663
G3 X75.922 Y168.462 I6.194 J-6.517 E2.76259
G1 X75.558 Y167.459 E2.83245
;WIDTH:0.630114
G1 X75.496 Y167.183 E2.85201
;WIDTH:0.660228
G1 X75.435 Y166.907 E2.8726
;WIDTH:0.690427
G1 X75.427 Y166.779 E2.88241
;WIDTH:0.720627
G1 X75.419 Y166.651 E2.8927
G1 X75.484 Y166.755 E2.90254
;WIDTH:0.690427
G1 X75.549 Y166.859 E2.91192
;WIDTH:0.660228
G1 X75.792 Y167.216 E2.94337
;WIDTH:0.630114
G1 X76.035 Y167.574 E2.97329
;WIDTH:0.6
G1 X76.742 Y168.285 E3.03893
G2 X77.703 Y168.841 I2.699 J-3.563 E3.11181
G1 X78.252 Y169.035 E3.14993
G1 X79.034 Y169.167 E3.20185
G1 X79.864 Y169.14 E3.25622
G1 X80.693 Y168.94 E3.31205
G1 X81.425 Y168.603 E3.36481
G1 X82.092 Y168.118 E3.4188
G2 X82.732 Y167.383 I-3.049 J-3.304 E3.48273
G1 X83.083 Y166.791 E3.52779
G1 X83.361 Y166.009 E3.58213
G1 X83.479 Y165.18 E3.63695
G1 X83.432 Y164.359 E3.69079
G1 X83.222 Y163.556 E3.74513
G1 X82.856 Y162.811 E3.79947
G1 X82.489 Y162.303 E3.8405
G2 X81.704 Y161.596 I-5.246 J5.037 E3.90973
G1 X81.003 Y161.199 E3.96247
G1 X80.18 Y160.936 E4.01904
G1 X79.176 Y160.845 E4.08504
G1 X78.36 Y160.954 E4.13894
G2 X77.412 Y161.313 I1.08 J4.283 E4.20545
G1 X76.822 Y161.676 E4.2508
G1 X76.242 Y162.197 E4.30184
G1 X75.746 Y162.862 E4.35615
;WIDTH:0.643502
G1 X75.641 Y163.019 E4.36952
;WIDTH:0.687004
G1 X75.535 Y163.176 E4.38394
;WIDTH:0.730507
G1 X75.43 Y163.334 E4.39939
G1 X75.456 Y163.123 E4.4167
;WIDTH:0.687004
G1 X75.482 Y162.912 E4.43288
;WIDTH:0.643502
G1 X75.508 Y162.702 E4.44786
;WIDTH:0.6
G3 X77.047 Y159.696 I8.528 J2.471 E4.67031
G3 X79.632 Y157.524 I6.9 J5.588 E4.89271
G3 X82.857 Y156.526 I4.191 J7.828 E5.11508
G3 X86.217 Y156.857 I.824 J8.84 E5.33748
G3 X89.185 Y158.466 I-2.671 J8.467 E5.55986
G1 X89.899 Y159.128 E5.62361
;WIDTH:0.626511
G1 X90.121 Y159.279 E5.64206
;WIDTH:0.653023
G1 X90.344 Y159.43 E5.66144
;WIDTH:0.67955
G1 X90.456 Y159.474 E5.67049
;WIDTH:0.706077
G1 X90.498 Y159.49 E5.67402
G1 X90.498 Y159.49 F9000
G1 X90.568 Y159.517
G1 F1800
G1 X91.327 Y159.518 E5.73355
;WIDTH:0.665887
G1 X91.878 Y159.547 E5.77412
;WIDTH:0.625589
G1 X92.148 Y159.578 E5.79276
;WIDTH:0.586678
G1 X92.417 Y159.61 E5.81005
;WIDTH:0.547767
G1 X92.946 Y159.746 E5.84232
G1 X92.946 Y159.746 F9000
G1 X93.61 Y160.517
;WIDTH:0.6
G1 F1800
G2 X93.57 Y160.475 I-.998 J.916 E5.84612
G1 X93.245 Y160.318 E5.86975
G1 X92.395 Y160.124 E5.92683
G2 X90.444 Y160.121 I-.995 J14.287 E6.05466
G1 X89.723 Y160.276 E6.10294
G1 X89.033 Y160.537 E6.15124
G1 X88.389 Y160.898 E6.19957
G2 X87.683 Y161.477 I2.87 J4.218 E6.25943
G2 X86.876 Y162.487 I4.845 J4.699 E6.3442
G1 X86.547 Y163.147 E6.39248
G1 X86.321 Y163.849 E6.44076
G1 X86.2 Y164.637 E6.49295
G1 X86.195 Y165.334 E6.53858
G1 X86.317 Y166.147 E6.5924
G2 X86.697 Y167.202 I12.826 J-4.019 E6.66584
G2 X87.282 Y168.087 I3.991 J-2.006 E6.73546
G1 X87.731 Y168.596 E6.7799
G1 X88.49 Y169.186 E6.84284
G1 X89.142 Y169.531 E6.89113
G1 X89.858 Y169.778 E6.94072
G1 X90.768 Y169.932 E7.00114
G2 X92.131 Y169.926 I.557 J-25.067 E7.09039
G2 X93.187 Y169.718 I-.611 J-5.885 E7.16095
G1 X93.511 Y169.586 E7.18385
G1 X93.756 Y169.329 E7.2071
G1 X93.855 Y169.104 E7.22319
G1 X93.917 Y169.052 E7.22849
G3 X94.017 Y169.919 I-1.294 J.588 E7.28657
G1 X93.874 Y170.23 E7.30898
G1 X93.586 Y170.517 E7.3356
G3 X92.519 Y170.908 I-2.198 J-4.343 E7.41017
G3 X90.669 Y171.081 I-1.673 J-7.893 E7.53209
G1 X90.249 Y171.296 E7.56298
G3 X87.635 Y173.182 I-6.867 J-6.765 E7.77501
G3 X85.055 Y173.973 I-4.129 J-8.86 E7.95225
G3 X82.355 Y173.97 I-1.338 J-9.682 E8.12958
G3 X79.776 Y173.171 I1.574 J-9.647 E8.30691
G3 X77.547 Y171.649 I4.346 J-8.756 E8.48418
G3 X75.865 Y169.538 I6.732 J-7.088 E8.66146
G3 X74.88 Y167.024 I8.521 J-4.791 E8.8388
G3 X74.678 Y164.333 I9.553 J-2.068 E9.01604
G3 X75.279 Y161.701 I9.739 J.836 E9.19336
G3 X76.627 Y159.362 I9.06 J3.668 E9.37067
G3 X78.605 Y157.525 I7.578 J6.174 E9.54797
G3 X81.036 Y156.351 I5.424 J8.132 E9.72528
G3 X83.705 Y155.946 I2.788 J9.369 E9.90258
G3 X86.375 Y156.345 I-.095 J9.774 E10.07989
G3 X88.809 Y157.512 I-2.97 J9.313 E10.25718
G1 X89.529 Y158.055 E10.31622
G1 X90.262 Y158.735 E10.38168
G1 X90.535 Y158.902 E10.40263
G1 X90.809 Y158.95 E10.42084
G3 X93.085 Y159.275 I.249 J6.371 E10.57219
G3 X93.741 Y159.633 I-.609 J1.899 E10.62141
G1 X93.894 Y159.82 E10.63723
G1 X94.045 Y160.215 E10.66492
G1 X94.01 Y160.7 E10.69676
G1 X93.921 Y160.969 E10.71531
G1 X93.871 Y160.934 E10.71931
G2 X93.659 Y160.574 I-1.259 J.499 E10.74677
G1 X93.659 Y160.574 F9000
G1 X93.249 Y160.917
;TYPE:External perimeter
G1 F1800
G2 X93.234 Y160.893 I-1.545 J.962 E10.74862
G2 X92.223 Y160.64 I-3.018 J9.914 E10.81688
G2 X90.551 Y160.646 I-.756 J19.911 E10.92638
G1 X89.906 Y160.78 E10.96951
G1 X89.289 Y161.007 E11.01255
G1 X88.655 Y161.369 E11.06035
G1 X88.191 Y161.724 E11.0986
G1 X87.734 Y162.197 E11.14166
G1 X87.352 Y162.732 E11.1847
G1 X87.055 Y163.318 E11.22771
G1 X86.848 Y163.942 E11.27075
G1 X86.735 Y164.651 E11.31775
G1 X86.724 Y165.254 E11.35723
G1 X86.847 Y166.067 E11.41106
G1 X87.161 Y166.935 E11.47149
G1 X87.471 Y167.472 E11.51208
G1 X88.064 Y168.177 E11.57239
G1 X88.746 Y168.716 E11.6293
G1 X89.325 Y169.028 E11.67236
G1 X89.951 Y169.251 E11.71587
G1 X90.795 Y169.397 E11.77195
G2 X92.27 Y169.364 I.364 J-16.398 E11.86857
G1 X93.043 Y169.202 E11.92028
G1 X93.247 Y169.114 E11.93483
G1 X93.419 Y168.749 E11.96125
G1 X93.895 Y168.409 E11.99955
G1 X94.267 Y168.409 E12.0239
G1 X94.528 Y169.188 E12.07769
G1 X94.586 Y169.633 E12.10707
G1 X94.544 Y170.017 E12.13236
G1 X94.411 Y170.372 E12.15718
G1 X94.195 Y170.688 E12.18224
G1 X93.813 Y171.017 E12.21525
G3 X92.028 Y171.546 I-2.664 J-5.713 E12.33758
G3 X90.809 Y171.605 I-1.004 J-8.263 E12.41755
G1 X90.622 Y171.68 E12.43074
G3 X88.708 Y173.209 I-7.617 J-7.574 E12.59147
G1 X87.867 Y173.665 E12.6541
G1 X86.986 Y174.035 E12.71666
G1 X86.071 Y174.316 E12.77933
G1 X85.134 Y174.504 E12.8419
G1 X84.182 Y174.598 E12.90453
G1 X83.226 Y174.596 E12.96712
G1 X82.275 Y174.5 E13.0297
G1 X81.338 Y174.309 E13.09231
G1 X80.424 Y174.027 E13.15493
G1 X79.543 Y173.654 E13.21756
G1 X78.704 Y173.196 E13.28014
G1 X77.914 Y172.657 E13.34275
G1 X77.182 Y172.042 E13.40534
G1 X76.515 Y171.357 E13.46793
G1 X75.919 Y170.609 E13.53055
G1 X75.401 Y169.806 E13.59311
G1 X74.965 Y168.954 E13.65577
G1 X74.616 Y168.064 E13.71836
G1 X74.357 Y167.144 E13.78093
G1 X74.191 Y166.202 E13.84355
G1 X74.12 Y165.248 E13.90618
G1 X74.144 Y164.293 E13.96872
