; generated by PrusaSlicer 2.8.1+MacOS-arm64 on 2024-10-25 at 08:50:19 UTC


;
;

;
;
; 

; external perimeters extrusion width = 0.55mm
; perimeters extrusion width = 0.55mm
; infill extrusion width = 0.60mm
; solid infill extrusion width = 0.60mm
; top infill extrusion width = 0.50mm
; first layer extrusion width = 0.60mm

M73 P0 R78
M73 C69

EXCLUDE_OBJECT_DEFINE NAME='cwe3d_name_tag_l_(Instance_1)' CENTER=108.007,96.750 POLYGON=[[151.098,86.502],[151.855,86.692],[152.414,87.086],[152.848,87.735],[153.000,88.500],[152.990,105.196],[152.848,105.765],[152.482,106.343],[151.943,106.764],[151.390,106.962],[65.000,107.000],[64.326,106.883],[63.731,106.546],[63.285,106.028],[63.038,105.390],[63.010,88.304],[63.192,87.645],[63.518,87.157],[63.972,86.785],[64.610,86.538]]
EXCLUDE_OBJECT_DEFINE NAME='cwe3d_name_tag_l_(Instance_2)' CENTER=108.007,123.250 POLYGON=[[151.098,113.002],[151.855,113.192],[152.414,113.586],[152.848,114.235],[153.000,115.000],[152.990,131.696],[152.848,132.265],[152.482,132.843],[151.943,133.264],[151.390,133.462],[65.000,133.500],[64.326,133.383],[63.731,133.046],[63.285,132.528],[63.038,131.890],[63.010,114.804],[63.192,114.145],[63.518,113.657],[63.972,113.285],[64.610,113.038]]

M190 S55 ; set bed temperature and wait for it to be reached
M104 S215 ; set temperature
;TYPE:Custom
START_PRINT BED_TEMP=55 HOTEND_TEMP=215 FILAMENT_TYPE=PLA EXTRUSION_MULTIPLIER=0.98
M109 S215 ; set temperature and wait for it to be reached
G21 ; set units to millimeters
G90 ; use absolute coordinates
M82 ; use absolute distances for extrusion
G92 E0
; Filament gcode
M107
;LAYER_CHANGE
;Z:0.25
;HEIGHT:0.25
G1 E-.53 F1200
G1 Z.55 F9000
EXCLUDE_OBJECT_START NAME='cwe3d_name_tag_l_(Instance_1)'
G92 E0
G1 X63.301 Y104.992
G1 Z.25
G1 E.53 F1200
;TYPE:External perimeter
;WIDTH:0.599999
G1 F1800
G1 X63.3 Y104.986 E.53034
G1 X63.3 Y88.63 E1.44056
G3 X63.461 Y87.783 I2.861 J.105 E1.48872
G1 X63.743 Y87.36 E1.51701
G1 X64.13 Y87.042 E1.54488
G1 X64.51 Y86.874 E1.568
G1 X65.007 Y86.8 E1.59596
G1 X150.918 Y86.802 E6.37696
G3 X151.658 Y86.943 I-.139 J2.753 E6.41901
G1 X152.078 Y87.187 E6.44604
G1 X152.404 Y87.559 E6.47357
G1 X152.626 Y88.007 E6.50139
G1 X152.7 Y88.549 E6.53183
G1 X152.7 Y104.87 E7.4401
G1 X152.647 Y105.409 E7.47024
G3 X152.352 Y106.015 I-3.882 J-1.519 E7.50779
G1 X151.943 Y106.412 E7.53951
G1 X151.572 Y106.599 E7.56263
G1 X150.993 Y106.7 E7.59534
G1 X65.13 Y106.7 E12.37367
G1 X64.587 Y106.647 E12.40403
G3 X64.055 Y106.402 I1.361 J-3.653 E12.43666
G1 X63.693 Y106.084 E12.46347
G3 X63.376 Y105.47 I2.866 J-1.869 E12.50199
G1 X63.313 Y105.067 E12.52469
G1 X63.302 Y104.567 F9000
G1 X63.846 Y104.429
;TYPE:Perimeter
G1 F1800
G1 X63.846 Y88.63 E13.40391
G1 X63.919 Y88.125 E13.43231
G1 X64.152 Y87.731 E13.45778
G3 X64.676 Y87.398 I1.004 J1.001 E13.49261
G1 X65.021 Y87.346 E13.51203
G1 X150.918 Y87.349 E18.29225
G3 X151.542 Y87.486 I-.151 J2.169 E18.32793
G1 X151.889 Y87.771 E18.35292
G1 X152.1 Y88.166 E18.37784
G1 X152.154 Y88.549 E18.39937
G1 X152.154 Y104.87 E19.30764
G1 X152.114 Y105.269 E19.32996
G1 X151.974 Y105.608 E19.35037
G1 X151.74 Y105.865 E19.36971
G1 X151.387 Y106.08 E19.39271
G1 X150.979 Y106.154 E19.41579
G1 X65.13 Y106.154 E24.19334
G3 X64.449 Y106.008 I.107 J-2.166 E24.23227
G1 X64.207 Y105.825 E24.24915
G1 X63.932 Y105.42 E24.27639
G1 X63.846 Y104.959 E24.30249
G1 X63.846 Y104.504 E24.32781
G1 E23.79781 F1200
G92 E0
G1 X63.846 Y104.504 F9000
G1 X80.716 Y101.219 Z.55
G1 X151.058 Y87.521
G1 Z.25
G1 E.53 F1200
;TYPE:Solid infill
;WIDTH:0.601397
G1 F1800
G1 X151.573 Y88.035 E.5706
G3 X151.744 Y88.531 I-.659 J.505 E.60038
G1 X151.744 Y88.981 E.62549
G1 X150.521 Y87.758 E.72199
G1 X149.747 Y87.758 E.76517
G1 X151.744 Y89.756 E.92278
G1 X151.744 Y90.53 E.96596
M73 P0 R77
G1 X148.972 Y87.758 E1.18468
G1 X148.197 Y87.758 E1.22792
G1 X151.744 Y91.305 E1.50779
G1 X151.744 Y92.08 E1.55103
G1 X147.423 Y87.758 E1.89201
G1 X146.648 Y87.758 E1.93525
G1 X151.744 Y92.854 E2.33734
G1 X151.744 Y93.629 E2.38058
G1 X145.873 Y87.758 E2.84382
G1 X145.099 Y87.758 E2.887
G1 X151.744 Y94.403 E3.41131
G1 X151.744 Y95.178 E3.45455
G1 X144.324 Y87.758 E4.04001
G1 X143.549 Y87.758 E4.08325
G1 X151.744 Y95.953 E4.72986
G1 X151.744 Y96.727 E4.77304
G1 X142.775 Y87.758 E5.48072
G1 X142 Y87.758 E5.52396
G1 X151.744 Y97.502 E6.29279
G1 X151.744 Y98.277 E6.33603
M73 C68
G1 X141.225 Y87.758 E7.16601
G1 X140.451 Y87.758 E7.20919
G1 X151.744 Y99.051 E8.10024
G1 X151.744 Y99.826 E8.14348
G1 X139.676 Y87.758 E9.09568
G1 X138.902 Y87.758 E9.13886
G1 X151.744 Y100.601 E10.15218
G1 X151.744 Y101.375 E10.19536
G1 X138.127 Y87.758 E11.26979
G1 X137.352 Y87.758 E11.31303
G1 X151.744 Y102.15 E12.44861
G1 X151.744 Y102.924 E12.49179
G1 X136.578 Y87.758 E13.68844
G1 X135.803 Y87.758 E13.73168
G1 X151.744 Y103.699 E14.98948
G1 X151.744 Y104.474 E15.03272
G1 X135.028 Y87.758 E16.35167
G1 X134.254 Y87.758 E16.39485
G1 X151.698 Y105.203 E17.77128
G3 X151.357 Y105.636 I-.65 J-.161 E17.80297
G1 X133.479 Y87.758 E19.2136
G1 X132.704 Y87.758 E19.25684
G1 X150.69 Y105.744 E20.67599
G1 X149.916 Y105.744 E20.71917
G1 X131.93 Y87.758 E22.13832
G1 X131.155 Y87.758 E22.18156
G1 X149.141 Y105.744 E23.60071
G1 X148.366 Y105.744 E23.64395
G1 X130.38 Y87.758 E25.0631
G1 X129.606 Y87.758 E25.10628
G1 X147.592 Y105.744 E26.52543
G1 X146.817 Y105.744 E26.56867
G1 X128.831 Y87.758 E27.98782
G1 X128.056 Y87.758 E28.03106
G1 X146.042 Y105.744 E29.45021
G1 X145.268 Y105.744 E29.49339
G1 X127.282 Y87.758 E30.91254
G1 X126.507 Y87.758 E30.95578
G1 X144.493 Y105.744 E32.37493
G1 X143.719 Y105.744 E32.41811
G1 X125.732 Y87.758 E33.8373
G1 X124.958 Y87.758 E33.88048
G1 X142.944 Y105.744 E35.29963
G1 X142.169 Y105.744 E35.34287
G1 X124.183 Y87.758 E36.76202
G1 X123.408 Y87.758 E36.80526
G1 X141.395 Y105.744 E38.22445
G1 X140.62 Y105.744 E38.26769
G1 X122.634 Y87.758 E39.68684
G1 X121.859 Y87.758 E39.73008
G1 X139.845 Y105.744 E41.14923
G1 X139.071 Y105.744 E41.19241
G1 X121.085 Y87.758 E42.61156
G1 X120.31 Y87.758 E42.6548
G1 X138.296 Y105.744 E44.07395
G1 X137.521 Y105.744 E44.11719
G1 X119.535 Y87.758 E45.53634
G1 X118.761 Y87.758 E45.57952
G1 X136.747 Y105.744 E46.99867
G1 X135.972 Y105.744 E47.04191
M73 P1 R77
G1 X117.986 Y87.758 E48.46106
G1 X117.211 Y87.758 E48.5043
G1 X135.198 Y105.744 E49.92349
G1 X134.423 Y105.744 E49.96673
G1 X116.437 Y87.758 E51.38588
G1 X115.662 Y87.757 E51.42912
G1 X133.648 Y105.744 E52.84831
G1 X132.874 Y105.744 E52.89149
G1 X114.887 Y87.757 E54.31072
G1 X114.113 Y87.757 E54.3539
G1 X132.099 Y105.744 E55.77309
G1 X131.324 Y105.744 E55.81633
G1 X113.338 Y87.757 E57.23552
G1 X112.563 Y87.757 E57.27876
G1 X130.55 Y105.744 E58.69799
G1 X129.775 Y105.744 E58.74123
G1 X111.789 Y87.757 E60.16042
G1 X111.014 Y87.757 E60.20366
G1 X129.001 Y105.744 E61.62289
G1 X128.226 Y105.744 E61.66613
G1 X110.239 Y87.757 E63.08536
G1 X109.465 Y87.757 E63.12854
G1 X127.451 Y105.744 E64.54773
G1 X126.677 Y105.744 E64.59091
G1 X108.69 Y87.757 E66.01014
G1 X107.915 Y87.757 E66.05338
G1 X125.902 Y105.744 E67.47261
G1 X125.127 Y105.744 E67.51585
G1 X107.141 Y87.757 E68.93504
G1 X106.366 Y87.757 E68.97828
G1 X124.353 Y105.744 E70.39751
G1 X123.578 Y105.744 E70.44075
G1 X105.591 Y87.757 E71.85998
G1 X104.817 Y87.757 E71.90316
G1 X122.803 Y105.744 E73.32235
G1 X122.029 Y105.744 E73.36553
G1 X104.042 Y87.757 E74.78476
G1 X103.268 Y87.757 E74.82794
G1 X121.254 Y105.744 E76.24713
G1 X120.48 Y105.744 E76.29031
G1 X102.493 Y87.757 E77.70954
G1 X101.718 Y87.757 E77.75278
G1 X119.705 Y105.744 E79.17201
G1 X118.93 Y105.744 E79.21525
G1 X100.944 Y87.757 E80.63444
G1 X100.169 Y87.757 E80.67768
G1 X118.156 Y105.744 E82.09691
G1 X117.381 Y105.744 E82.14015
G1 X99.394 Y87.757 E83.55938
G1 X98.62 Y87.757 E83.60256
G1 X116.606 Y105.744 E85.02175
G1 X115.832 Y105.744 E85.06493
G1 X97.845 Y87.757 E86.48416
G1 X97.07 Y87.757 E86.5274
G1 X115.057 Y105.744 E87.94663
G1 X114.283 Y105.744 E87.98981
G1 X96.296 Y87.757 E89.40904
G1 X95.521 Y87.757 E89.45228
G1 X113.508 Y105.744 E90.87151
G1 X112.733 Y105.744 E90.91475
G1 X94.746 Y87.757 E92.33398
G1 X93.972 Y87.757 E92.37716
G1 X111.959 Y105.744 E93.79639
G1 X111.184 Y105.744 E93.83963
G1 X93.197 Y87.757 E95.25886
M73 P1 R76
G1 X92.422 Y87.757 E95.3021
G1 X110.409 Y105.744 E96.72133
G1 X109.635 Y105.744 E96.76451
G1 X91.648 Y87.757 E98.18374
G1 X90.873 Y87.757 E98.22698
G1 X108.86 Y105.744 E99.64621
G1 X108.086 Y105.744 E99.68939
M73 C67
G1 X90.098 Y87.757 E101.10866
G1 X89.324 Y87.757 E101.15184
G1 X107.311 Y105.744 E102.57107
G1 X106.536 Y105.744 E102.61431
G1 X88.549 Y87.757 E104.03354
G1 X87.774 Y87.757 E104.07678
G1 X105.762 Y105.744 E105.49605
G1 X104.987 Y105.744 E105.53929
G1 X87 Y87.757 E106.95852
G1 X86.225 Y87.757 E107.00176
G1 X104.212 Y105.744 E108.42099
G1 X103.438 Y105.744 E108.46417
G1 X85.45 Y87.757 E109.88344
G1 X84.676 Y87.757 E109.92662
G1 X102.663 Y105.744 E111.34585
G1 X101.888 Y105.744 E111.38909
G1 X83.901 Y87.757 E112.80832
G1 X83.127 Y87.757 E112.8515
G1 X101.114 Y105.744 E114.27073
G1 X100.339 Y105.744 E114.31397
G1 X82.352 Y87.757 E115.7332
G1 X81.577 Y87.757 E115.77644
G1 X99.565 Y105.744 E117.19571
G1 X98.79 Y105.744 E117.23895
G1 X80.803 Y87.757 E118.65818
G1 X80.028 Y87.757 E118.70142
G1 X98.015 Y105.744 E120.12065
G1 X97.241 Y105.744 E120.16383
G1 X79.253 Y87.756 E121.58314
M73 P2 R76
G1 X78.479 Y87.756 E121.62632
G1 X96.466 Y105.744 E123.04559
G1 X95.691 Y105.744 E123.08883
G1 X77.704 Y87.756 E124.5081
G1 X76.929 Y87.756 E124.55134
G1 X94.917 Y105.744 E125.97065
G1 X94.142 Y105.744 E126.01389
G1 X76.155 Y87.756 E127.43316
G1 X75.38 Y87.756 E127.4764
G1 X93.368 Y105.744 E128.89571
G1 X92.593 Y105.744 E128.93895
G1 X74.605 Y87.756 E130.35826
G1 X73.831 Y87.756 E130.40144
G1 X91.818 Y105.744 E131.82071
G1 X91.044 Y105.744 E131.86389
G1 X73.056 Y87.756 E133.2832
G1 X72.281 Y87.756 E133.32644
G1 X90.269 Y105.744 E134.74575
G1 X89.494 Y105.744 E134.78899
G1 X71.507 Y87.756 E136.20826
G1 X70.732 Y87.756 E136.2515
G1 X88.72 Y105.744 E137.67081
G1 X87.945 Y105.744 E137.71405
G1 X69.957 Y87.756 E139.13336
G1 X69.183 Y87.756 E139.17654
G1 X87.17 Y105.744 E140.59581
G1 X86.396 Y105.744 E140.63899
G1 X68.408 Y87.756 E142.0583
G1 X67.633 Y87.756 E142.10154
G1 X85.621 Y105.744 E143.52085
G1 X84.847 Y105.744 E143.56403
G1 X66.859 Y87.756 E144.98334
G1 X66.084 Y87.756 E145.02658
G1 X84.072 Y105.744 E146.44589
G1 X83.297 Y105.744 E146.48913
G1 X65.31 Y87.756 E147.9084
G2 X64.801 Y87.791 I-.124 J1.933 E147.93695
G1 X64.641 Y87.862 E147.94672
G1 X82.523 Y105.744 E149.35767
G1 X81.748 Y105.744 E149.40091
G1 X64.295 Y88.291 E150.77801
G2 X64.256 Y89.027 I3.274 J.541 E150.81922
G1 X80.973 Y105.744 E152.13825
G1 X80.199 Y105.744 E152.18143
G1 X64.256 Y89.801 E153.43939
G1 X64.256 Y90.576 E153.48263
G1 X79.424 Y105.744 E154.67944
G1 X78.65 Y105.744 E154.72262
G1 X64.256 Y91.35 E155.85835
G1 X64.256 Y92.125 E155.90159
G1 X77.875 Y105.744 E156.97617
G1 X77.1 Y105.744 E157.01941
G1 X64.256 Y92.9 E158.03284
G1 X64.256 Y93.674 E158.07602
G1 X76.326 Y105.744 E159.02838
G1 X75.551 Y105.744 E159.07162
G1 X64.256 Y94.449 E159.96283
G1 X64.256 Y95.224 E160.00607
G1 X74.776 Y105.744 E160.83613
G1 X74.002 Y105.744 E160.87931
G1 X64.256 Y95.998 E161.6483
G1 X64.256 Y96.773 E161.69154
G1 X73.227 Y105.744 E162.39938
G1 X72.452 Y105.744 E162.44262
G1 X64.256 Y97.548 E163.08931
G1 X64.256 Y98.322 E163.13249
G1 X71.678 Y105.744 E163.71811
G1 X70.903 Y105.744 E163.76135
G1 X64.256 Y99.097 E164.28582
G1 X64.256 Y99.871 E164.329
G1 X70.129 Y105.744 E164.7924
G1 X69.354 Y105.744 E164.83564
G1 X64.256 Y100.646 E165.23789
G1 X64.256 Y101.421 E165.28113
G1 X68.579 Y105.744 E165.62223
G1 X67.805 Y105.744 E165.66541
G1 X64.256 Y102.195 E165.94544
G1 X64.256 Y102.97 E165.98868
G1 X67.03 Y105.744 E166.20756
G1 X66.255 Y105.744 E166.2508
G1 X64.256 Y103.745 E166.40853
G1 X64.256 Y104.519 E166.45171
G1 X65.481 Y105.744 E166.54837
G3 X64.821 Y105.712 I-.169 J-3.386 E166.5853
G3 X64.534 Y105.572 I.251 J-.876 E166.60321
G1 X64.021 Y105.059 E166.64369
G1 E166.11369 F1200
G92 E0
G1 X64.021 Y105.059 F9000
G1 X63.553 Y122.239 Z.55
EXCLUDE_OBJECT_END NAME='cwe3d_name_tag_l_(Instance_1)'
EXCLUDE_OBJECT_START NAME='cwe3d_name_tag_l_(Instance_2)'
G92 E0
G1 X63.301 Y131.493
G1 Z.25
G1 E.53 F1200
;TYPE:External perimeter
;WIDTH:0.599999
G1 F1800
G1 X63.3 Y131.486 E.53039
G1 X63.3 Y115.13 E1.44061
G3 X63.461 Y114.283 I2.861 J.105 E1.48877
G1 X63.743 Y113.86 E1.51706
G1 X64.13 Y113.542 E1.54493
G1 X64.51 Y113.374 E1.56805
G1 X65.007 Y113.3 E1.59601
G1 X150.918 Y113.302 E6.37701
G3 X151.658 Y113.443 I-.139 J2.753 E6.41906
G1 X152.078 Y113.687 E6.44609
G1 X152.404 Y114.059 E6.47362
G1 X152.626 Y114.507 E6.50144
G1 X152.7 Y115.049 E6.53188
G1 X152.7 Y131.37 E7.44015
G1 X152.647 Y131.909 E7.47029
G3 X152.352 Y132.515 I-3.882 J-1.519 E7.50784
G1 X151.943 Y132.912 E7.53956
G1 X151.572 Y133.099 E7.56268
G1 X150.993 Y133.2 E7.59539
G1 X65.13 Y133.2 E12.37372
G1 X64.587 Y133.147 E12.40408
G3 X64.055 Y132.902 I1.361 J-3.653 E12.43671
G1 X63.693 Y132.584 E12.46352
G3 X63.376 Y131.97 I2.866 J-1.869 E12.50204
G1 X63.313 Y131.567 E12.52474
G1 X63.302 Y131.067 F9000
G1 X63.846 Y130.929
;TYPE:Perimeter
G1 F1800
G1 X63.846 Y115.13 E13.40396
G1 X63.919 Y114.625 E13.43236
G1 X64.152 Y114.231 E13.45783
G3 X64.676 Y113.898 I1.004 J1.001 E13.49266
G1 X65.021 Y113.846 E13.51208
G1 X150.918 Y113.849 E18.2923
G3 X151.542 Y113.986 I-.151 J2.169 E18.32798
G1 X151.889 Y114.271 E18.35297
G1 X152.1 Y114.666 E18.37789
G1 X152.154 Y115.049 E18.39942
G1 X152.154 Y131.37 E19.30769
G1 X152.114 Y131.769 E19.33001
G1 X151.974 Y132.108 E19.35042
G1 X151.74 Y132.365 E19.36976
G1 X151.387 Y132.58 E19.39276
G1 X150.979 Y132.654 E19.41584
G1 X65.13 Y132.654 E24.19339
G3 X64.449 Y132.508 I.107 J-2.166 E24.23232
M73 P2 R75
G1 X64.207 Y132.325 E24.2492
G1 X63.932 Y131.92 E24.27644
G1 X63.846 Y131.459 E24.30254
G1 X63.846 Y131.004 E24.32786
G1 E23.79786 F1200
G92 E0
G1 X63.846 Y131.004 F9000
G1 X80.716 Y127.719 Z.55
G1 X151.058 Y114.021
G1 Z.25
G1 E.53 F1200
;TYPE:Solid infill
;WIDTH:0.601397
G1 F1800
G1 X151.573 Y114.535 E.5706
G3 X151.744 Y115.031 I-.659 J.505 E.60038
G1 X151.744 Y115.481 E.62549
G1 X150.521 Y114.258 E.72199
G1 X149.747 Y114.258 E.76517
G1 X151.744 Y116.256 E.92278
M73 C66
G1 X151.744 Y117.03 E.96596
G1 X148.972 Y114.258 E1.18468
M73 P3 R75
G1 X148.197 Y114.258 E1.22792
G1 X151.744 Y117.805 E1.50779
G1 X151.744 Y118.58 E1.55103
G1 X147.423 Y114.258 E1.89201
G1 X146.648 Y114.258 E1.93525
G1 X151.744 Y119.354 E2.33734
G1 X151.744 Y120.129 E2.38058
G1 X145.873 Y114.258 E2.84382
G1 X145.099 Y114.258 E2.887
G1 X151.744 Y120.903 E3.41131
G1 X151.744 Y121.678 E3.45455
G1 X144.324 Y114.258 E4.04001
G1 X143.549 Y114.258 E4.08325
G1 X151.744 Y122.453 E4.72986
G1 X151.744 Y123.227 E4.77304
G1 X142.775 Y114.258 E5.48072
G1 X142 Y114.258 E5.52396
G1 X151.744 Y124.002 E6.29279
G1 X151.744 Y124.777 E6.33603
G1 X141.225 Y114.258 E7.16601
G1 X140.451 Y114.258 E7.20919
G1 X151.744 Y125.551 E8.10024
G1 X151.744 Y126.326 E8.14348
G1 X139.676 Y114.258 E9.09568
G1 X138.902 Y114.258 E9.13886
G1 X151.744 Y127.101 E10.15218
G1 X151.744 Y127.875 E10.19536
G1 X138.127 Y114.258 E11.26979
G1 X137.352 Y114.258 E11.31303
G1 X151.744 Y128.65 E12.44861
G1 X151.744 Y129.424 E12.49179
G1 X136.578 Y114.258 E13.68844
G1 X135.803 Y114.258 E13.73168
G1 X151.744 Y130.199 E14.98948
G1 X151.744 Y130.974 E15.03272
G1 X135.028 Y114.258 E16.35167
G1 X134.254 Y114.258 E16.39485
G1 X151.698 Y131.703 E17.77128
G3 X151.357 Y132.136 I-.65 J-.161 E17.80297
G1 X133.479 Y114.258 E19.2136
G1 X132.704 Y114.258 E19.25684
G1 X150.69 Y132.244 E20.67599
G1 X149.916 Y132.244 E20.71917
G1 X131.93 Y114.258 E22.13832
G1 X131.155 Y114.258 E22.18156
G1 X149.141 Y132.244 E23.60071
G1 X148.366 Y132.244 E23.64395
G1 X130.38 Y114.258 E25.0631
G1 X129.606 Y114.258 E25.10628
G1 X147.592 Y132.244 E26.52543
G1 X146.817 Y132.244 E26.56867
G1 X128.831 Y114.258 E27.98782
G1 X128.056 Y114.258 E28.03106
G1 X146.042 Y132.244 E29.45021
G1 X145.268 Y132.244 E29.49339
G1 X127.282 Y114.258 E30.91254
G1 X126.507 Y114.258 E30.95578
G1 X144.493 Y132.244 E32.37493
