; generated by PrusaSlicer 2.8.1+MacOS-arm64 on 2024-10-09 at 06:29:46 UTC


;
;

;
;
; 

; external perimeters extrusion width = 0.68mm
; perimeters extrusion width = 0.68mm
; infill extrusion width = 0.68mm
; solid infill extrusion width = 0.68mm
; top infill extrusion width = 0.60mm

; external perimeters extrusion width = 0.68mm
; perimeters extrusion width = 0.68mm
; infill extrusion width = 0.68mm
; solid infill extrusion width = 0.68mm
; top infill extrusion width = 0.60mm


EXCLUDE_OBJECT_DEFINE NAME='cwe3d_name_tag_r' CENTER=123.021,139.698 POLYGON=[[166.113,129.450],[166.780,129.600],[167.429,130.034],[167.862,130.683],[168.014,131.448],[168.005,148.144],[167.862,148.713],[167.496,149.291],[167.043,149.664],[166.405,149.910],[80.014,149.948],[79.341,149.831],[78.746,149.494],[78.299,148.976],[78.053,148.338],[78.024,131.252],[78.206,130.593],[78.532,130.105],[79.072,129.684],[79.624,129.487]]
EXCLUDE_OBJECT_DEFINE NAME='cwe3d_name_tag_l' CENTER=122.299,111.157 POLYGON=[[165.391,100.910],[166.148,101.099],[166.707,101.493],[167.140,102.142],[167.293,102.907],[167.283,119.603],[167.140,120.172],[166.775,120.750],[166.235,121.171],[165.683,121.369],[79.293,121.407],[78.619,121.290],[78.024,120.953],[77.577,120.435],[77.331,119.797],[77.302,102.711],[77.485,102.052],[77.811,101.564],[78.264,101.192],[78.902,100.946]]

;TYPE:Custom
START_PRINT BED_TEMP=65 HOTEND_TEMP=220 FILAMENT_TYPE=PLA EXTRUSION_MULTIPLIER=0.95 PERIMETER_SPEED=80
G21 ; set units to millimeters
G90 ; use absolute coordinates
M82 ; use absolute distances for extrusion
G92 E0
; Filament gcode
M107
;LAYER_CHANGE
;Z:0.35
;HEIGHT:0.35
G1 E-.5 F240
G1 Z.35 F9000
EXCLUDE_OBJECT_START NAME='cwe3d_name_tag_l'
G92 E0
G1 X77.657 Y119.56
G1 E.5 F240
;TYPE:External perimeter
;WIDTH:0.675
G1 F1800
G1 X77.63 Y119.391 E.51419
G1 X77.64 Y102.74 E1.89501
G1 X77.788 Y102.206 E1.94096
G1 X78.063 Y101.793 E1.98211
G1 X78.448 Y101.477 E2.02341
G1 X78.823 Y101.322 E2.05706
G1 X79.309 Y101.245 E2.09787
G1 X165.192 Y101.247 E9.2199
G1 X165.613 Y101.277 E9.2549
G1 X166.072 Y101.449 E9.29555
G1 X166.467 Y101.733 E9.33589
G1 X166.75 Y102.128 E9.37619
G1 X166.922 Y102.583 E9.41653
G1 X166.955 Y103.011 E9.45213
G1 X166.946 Y119.563 E10.82474
G1 X166.823 Y120.053 E10.86663
G1 X166.521 Y120.526 E10.91317
G1 X166.081 Y120.868 E10.95938
G1 X165.61 Y121.037 E11.00088
G1 X165.276 Y121.07 E11.02871
G1 X79.395 Y121.07 E18.15057
G1 X79.241 Y121.065 E18.16335
G1 X78.729 Y120.97 E18.20653
G1 X78.415 Y120.809 E18.23579
G1 X78.016 Y120.468 E18.27932
G1 X77.847 Y120.188 E18.30644
G1 X77.705 Y119.866 E18.33562
G1 X77.671 Y119.648 E18.35392
G1 X77.636 Y119.049 F9000
G1 X78.23 Y118.868
;TYPE:Perimeter
G1 F1800
G1 X78.24 Y102.939 E19.67487
G1 X78.285 Y102.598 E19.70339
G1 X78.513 Y102.2 E19.74143
G1 X78.877 Y101.933 E19.77887
G1 X79.339 Y101.845 E19.81787
G1 X165.192 Y101.847 E26.93741
G1 X165.488 Y101.866 E26.96201
G1 X165.88 Y102.027 E26.99715
G1 X166.172 Y102.319 E27.03139
G1 X166.3 Y102.601 E27.05707
G1 X166.355 Y103.01 E27.09129
G1 X166.346 Y119.351 E28.4464
G1 X166.272 Y119.782 E28.48266
G1 X166.132 Y120.043 E28.50722
G1 X165.918 Y120.255 E28.5322
G1 X165.607 Y120.401 E28.56069
G1 X165.247 Y120.47 E28.59109
G1 X79.395 Y120.47 E35.71055
G1 X79.259 Y120.465 E35.72184
G1 X78.864 Y120.374 E35.75545
G1 X78.564 Y120.168 E35.78563
G1 X78.309 Y119.791 E35.82337
G1 X78.23 Y119.361 E35.85963
G1 X78.23 Y118.958 E35.89305
G1 E35.39305 F240
G92 E0
G1 X78.23 Y118.958 F9000
G1 X165.268 Y102.027
G1 E.5 F240
;TYPE:Solid infill
;WIDTH:0.679086
G1 F1800
G1 X165.725 Y102.484 E.55396
G1 X165.852 Y102.675 E.57311
G1 X165.887 Y102.789 E.58307
G1 X165.905 Y102.975 E.59867
G1 X165.905 Y103.518 E.64401
G1 X164.684 Y102.297 E.78818
G1 X163.83 Y102.297 E.85948
G1 X165.904 Y104.371 E1.10437
G1 X165.904 Y105.225 E1.17567
G1 X162.976 Y102.297 E1.52139
G1 X162.122 Y102.297 E1.59269
G1 X165.903 Y106.078 E2.03913
G1 X165.903 Y106.932 E2.11043
G1 X161.267 Y102.297 E2.65777
G1 X160.413 Y102.297 E2.72907
G1 X165.903 Y107.786 E3.37725
G1 X165.902 Y108.639 E3.44847
G1 X159.559 Y102.297 E4.19736
G1 X158.705 Y102.297 E4.26866
G1 X165.902 Y109.493 E5.11839
G1 X165.901 Y110.347 E5.18969
G1 X157.851 Y102.297 E6.1402
G1 X156.997 Y102.297 E6.2115
G1 X165.901 Y111.2 E7.26278
G1 X165.9 Y112.054 E7.33408
G1 X156.142 Y102.296 E8.48626
G1 X155.288 Y102.296 E8.55756
G1 X165.9 Y112.908 E9.81058
G1 X165.899 Y113.761 E9.8818
G1 X154.434 Y102.296 E11.23554
G1 X153.58 Y102.296 E11.30684
G1 X165.899 Y114.615 E12.76141
G1 X165.898 Y115.469 E12.83271
G1 X152.726 Y102.296 E14.38806
G1 X151.872 Y102.296 E14.45936
G1 X165.898 Y116.322 E16.11549
G1 X165.897 Y117.176 E16.18679
G1 X151.017 Y102.296 E17.94375
G1 X150.163 Y102.296 E18.01505
G1 X165.897 Y118.03 E19.87285
G1 X165.896 Y118.883 E19.94407
G1 X149.309 Y102.296 E21.90259
G1 X148.455 Y102.296 E21.97389
G1 X165.835 Y119.676 E24.02604
G1 X165.691 Y119.866 E24.04594
G1 X165.606 Y119.923 E24.05448
G1 X165.378 Y120.005 E24.07471
G1 X165.315 Y120.011 E24.07999
G1 X147.601 Y102.296 E26.17164
G1 X146.747 Y102.296 E26.24294
G1 X164.47 Y120.02 E28.33565
G1 X163.616 Y120.02 E28.40695
G1 X145.892 Y102.296 E30.49972
G1 X145.038 Y102.296 E30.57102
G1 X162.762 Y120.02 E32.66379
G1 X161.907 Y120.019 E32.73518
G1 X144.184 Y102.296 E34.82783
G1 X143.33 Y102.296 E34.89913
G1 X161.053 Y120.019 E36.99178
G1 X160.199 Y120.019 E37.06308
G1 X142.476 Y102.296 E39.15573
G1 X141.622 Y102.296 E39.22703
G1 X159.345 Y120.019 E41.31968
G1 X158.49 Y120.019 E41.39107
G1 X140.767 Y102.296 E43.48372
G1 X139.913 Y102.296 E43.55502
G1 X157.636 Y120.019 E45.64767
G1 X156.782 Y120.019 E45.71897
G1 X139.059 Y102.296 E47.81162
G1 X138.205 Y102.296 E47.88292
G1 X155.927 Y120.019 E49.97551
G1 X155.073 Y120.019 E50.04681
G1 X137.351 Y102.296 E52.1394
G1 X136.496 Y102.296 E52.21079
G1 X154.219 Y120.018 E54.30338
G1 X153.365 Y120.018 E54.37468
G1 X135.642 Y102.296 E56.46727
G1 X134.788 Y102.296 E56.53857
G1 X152.51 Y120.018 E58.6311
G1 X151.656 Y120.018 E58.7024
G1 X133.934 Y102.296 E60.79493
G1 X133.08 Y102.296 E60.86623
G1 X150.802 Y120.018 E62.95876
G1 X149.948 Y120.018 E63.03006
G1 X132.226 Y102.296 E65.12259
G1 X131.371 Y102.296 E65.19398
G1 X149.093 Y120.018 E67.28651
G1 X148.239 Y120.018 E67.35781
G1 X130.517 Y102.296 E69.45034
G1 X129.663 Y102.296 E69.52164
G1 X147.385 Y120.018 E71.61417
G1 X146.531 Y120.018 E71.68547
G1 X128.809 Y102.296 E73.778
G1 X127.955 Y102.296 E73.8493
G1 X145.676 Y120.017 E75.94172
G1 X144.822 Y120.017 E76.01302
G1 X127.101 Y102.296 E78.10544
G1 X126.246 Y102.296 E78.17683
G1 X143.968 Y120.017 E80.2693
G1 X143.114 Y120.017 E80.3406
G1 X125.392 Y102.296 E82.43307
G1 X124.538 Y102.296 E82.50437
G1 X142.259 Y120.017 E84.59679
G1 X141.405 Y120.017 E84.66809
G1 X123.684 Y102.296 E86.76051
G1 X122.83 Y102.296 E86.83181
G1 X140.551 Y120.017 E88.92423
G1 X139.697 Y120.017 E88.99553
G1 X121.976 Y102.296 E91.08795
G1 X121.121 Y102.296 E91.15934
G1 X138.842 Y120.017 E93.25176
G1 X137.988 Y120.016 E93.32306
G1 X120.267 Y102.296 E95.41542
G1 X119.413 Y102.295 E95.48672
G1 X137.134 Y120.016 E97.57914
G1 X136.28 Y120.016 E97.65044
G1 X118.559 Y102.295 E99.74286
G1 X117.705 Y102.295 E99.81416
G1 X135.425 Y120.016 E101.90652
G1 X134.571 Y120.016 E101.97782
G1 X116.851 Y102.295 E104.07018
G1 X115.996 Y102.295 E104.14157
G1 X133.717 Y120.016 E106.23399
G1 X132.863 Y120.016 E106.30529
G1 X115.142 Y102.295 E108.39771
G1 X114.288 Y102.295 E108.46901
G1 X132.008 Y120.016 E110.56137
G1 X131.154 Y120.016 E110.63267
G1 X113.434 Y102.295 E112.72503
G1 X112.58 Y102.295 E112.79633
G1 X130.3 Y120.016 E114.88869
G1 X129.446 Y120.015 E114.95999
G1 X111.725 Y102.295 E117.05235
G1 X110.871 Y102.295 E117.12365
G1 X128.591 Y120.015 E119.21595
G1 X127.737 Y120.015 E119.28725
G1 X110.017 Y102.295 E121.37955
G1 X109.163 Y102.295 E121.45085
G1 X126.883 Y120.015 E123.54315
G1 X126.029 Y120.015 E123.61445
G1 X108.309 Y102.295 E125.70675
G1 X107.455 Y102.295 E125.77805
G1 X125.174 Y120.015 E127.87029
G1 X124.32 Y120.015 E127.94159
G1 X106.6 Y102.295 E130.03389
G1 X105.746 Y102.295 E130.10519
G1 X123.466 Y120.015 E132.19749
G1 X122.612 Y120.015 E132.26879
G1 X104.892 Y102.295 E134.36109
G1 X104.038 Y102.295 E134.43239
G1 X121.757 Y120.015 E136.52463
G1 X120.903 Y120.014 E136.59593
G1 X103.184 Y102.295 E138.68811
G1 X102.33 Y102.295 E138.75941
G1 X120.049 Y120.014 E140.85159
G1 X119.195 Y120.014 E140.92289
G1 X101.475 Y102.295 E143.01513
G1 X100.621 Y102.295 E143.08643
G1 X118.34 Y120.014 E145.17861
G1 X117.486 Y120.014 E145.24991
G1 X99.767 Y102.295 E147.34209
G1 X98.913 Y102.295 E147.41339
G1 X116.632 Y120.014 E149.50557
G1 X115.778 Y120.014 E149.57687
G1 X98.059 Y102.295 E151.66905
G1 X97.205 Y102.295 E151.74035
G1 X114.923 Y120.014 E153.83247
G1 X114.069 Y120.014 E153.90377
G1 X96.35 Y102.295 E155.99595
G1 X95.496 Y102.295 E156.06725
G1 X113.215 Y120.013 E158.15937
G1 X112.361 Y120.013 E158.23067
G1 X94.642 Y102.295 E160.32279
G1 X93.788 Y102.295 E160.39409
G1 X111.506 Y120.013 E162.48615
G1 X110.652 Y120.013 E162.55745
G1 X92.934 Y102.295 E164.64951
G1 X92.079 Y102.295 E164.7209
G1 X109.798 Y120.013 E166.81302
G1 X108.944 Y120.013 E166.88432
G1 X91.225 Y102.295 E168.97644
G1 X90.371 Y102.295 E169.04774
G1 X108.089 Y120.013 E171.1398
G1 X107.235 Y120.013 E171.2111
G1 X89.517 Y102.295 E173.30316
G1 X88.663 Y102.295 E173.37446
G1 X106.381 Y120.013 E175.46652
G1 X105.527 Y120.013 E175.53782
G1 X87.809 Y102.295 E177.62988
G1 X86.954 Y102.295 E177.70127
G1 X104.672 Y120.012 E179.79327
G1 X103.818 Y120.012 E179.86457
G1 X86.1 Y102.295 E181.95657
G1 X85.246 Y102.295 E182.02787
G1 X102.964 Y120.012 E184.11987
G1 X102.11 Y120.012 E184.19117
G1 X84.392 Y102.295 E186.28317
G1 X83.538 Y102.295 E186.35447
G1 X101.255 Y120.012 E188.44641
G1 X100.401 Y120.012 E188.51771
G1 X82.684 Y102.295 E190.60965
G1 X81.829 Y102.294 E190.68104
G1 X99.547 Y120.012 E192.7731
G1 X98.693 Y120.012 E192.8444
G1 X80.975 Y102.294 E194.93646
G1 X80.121 Y102.294 E195.00776
G1 X97.838 Y120.012 E197.09976
G1 X96.984 Y120.012 E197.17106
G1 X79.277 Y102.305 E199.26182
G1 X79.176 Y102.313 E199.27028
G1 X79.017 Y102.369 E199.28435
G1 X78.85 Y102.505 E199.30233
G1 X78.76 Y102.641 E199.31595
G1 X96.13 Y120.011 E201.36692
G1 X95.275 Y120.011 E201.43831
G1 X78.689 Y103.425 E203.39671
G1 X78.689 Y104.279 E203.46801
G1 X94.421 Y120.011 E205.32557
G1 X93.567 Y120.011 E205.39687
G1 X78.688 Y105.132 E207.15371
G1 X78.688 Y105.986 E207.22501
G1 X92.713 Y120.011 E208.88102
G1 X91.858 Y120.011 E208.95241
G1 X78.687 Y106.84 E210.50758
G1 X78.687 Y107.693 E210.5788
G1 X91.004 Y120.011 E212.03319
G1 X90.15 Y120.011 E212.10449
G1 X78.686 Y108.547 E213.45811
G1 X78.686 Y109.401 E213.52941
G1 X89.296 Y120.011 E214.78219
G1 X88.441 Y120.01 E214.85358
G1 X78.685 Y110.254 E216.00552
G1 X78.685 Y111.108 E216.07682
G1 X87.587 Y120.01 E217.12793
G1 X86.733 Y120.01 E217.19923
G1 X78.684 Y111.962 E218.14956
G1 X78.684 Y112.815 E218.22078
G1 X85.879 Y120.01 E219.07033
G1 X85.024 Y120.01 E219.14172
G1 X78.683 Y113.669 E219.89044
G1 X78.683 Y114.523 E219.96174
G1 X84.17 Y120.01 E220.60962
G1 X83.316 Y120.01 E220.68092
G1 X78.682 Y115.376 E221.22808
G1 X78.682 Y116.23 E221.29938
G1 X82.462 Y120.01 E221.74571
G1 X81.607 Y120.01 E221.8171
G1 X78.681 Y117.083 E222.16265
G1 X78.681 Y117.937 E222.23395
G1 X80.753 Y120.01 E222.47866
G1 X79.899 Y120.009 E222.54996
G1 X78.68 Y118.791 E222.69383
G1 X78.68 Y119.339 E222.73958
G1 X78.723 Y119.607 E222.76224
G1 X78.845 Y119.809 E222.78194
G1 X79.315 Y120.279 E222.83744
G1 E222.33744 F240
G92 E0
G1 X79.315 Y120.279 F9000
EXCLUDE_OBJECT_END NAME='cwe3d_name_tag_l'
EXCLUDE_OBJECT_START NAME='cwe3d_name_tag_r'
G92 E0
G1 X80.023 Y129.786
G1 E.5 F240
;TYPE:External perimeter
;WIDTH:0.675
G1 F1800
G1 X80.031 Y129.786 E.50066
G1 X165.914 Y129.788 E7.62269
G1 X166.335 Y129.818 E7.65769
G1 X166.794 Y129.99 E7.69834
G1 X167.189 Y130.274 E7.73868
G1 X167.472 Y130.669 E7.77898
G1 X167.643 Y131.124 E7.81929
G1 X167.677 Y131.552 E7.85489
G1 X167.667 Y148.104 E9.2275
G1 X167.544 Y148.594 E9.26939
G1 X167.249 Y149.058 E9.31499
G1 X166.862 Y149.376 E9.35653
G1 X166.573 Y149.513 E9.38305
G1 X165.998 Y149.611 E9.43142
G1 X80.118 Y149.611 E16.5532
G1 X79.686 Y149.577 E16.58914
G1 X79.167 Y149.376 E16.63529
G1 X78.942 Y149.191 E16.65945
G1 X78.674 Y148.915 E16.69135
G1 X78.45 Y148.507 E16.72995
G1 X78.352 Y147.932 E16.77832
G1 X78.362 Y131.281 E18.15914
G1 X78.509 Y130.747 E18.20507
G1 X78.791 Y130.324 E18.24723
G1 X79.226 Y129.987 E18.29286
G1 X79.697 Y129.818 E18.33436
G1 X79.933 Y129.795 E18.35402
G1 X80.533 Y129.787 F9000
G1 X80.642 Y130.385
;TYPE:Perimeter
G1 F1800
G1 X165.914 Y130.388 E25.42538
G1 X166.21 Y130.407 E25.44998
G1 X166.602 Y130.568 E25.48512
G1 X166.894 Y130.86 E25.51936
G1 X167.022 Y131.142 E25.54504
G1 X167.077 Y131.551 E25.57926
G1 X167.067 Y148.03 E26.94582
G1 X166.929 Y148.483 E26.98509
G1 X166.666 Y148.76 E27.01677
G1 X166.363 Y148.948 E27.04634
G1 X165.968 Y149.011 E27.07951
G1 X80.118 Y149.011 E34.1988
G1 X79.944 Y148.999 E34.21326
G1 X79.608 Y148.921 E34.24186
G1 X79.217 Y148.641 E34.28174
G1 X79.014 Y148.296 E34.31494
G1 X78.952 Y147.902 E34.34802
G1 X78.961 Y131.333 E35.72204
G1 X79.049 Y131.019 E35.74908
G1 X79.334 Y130.637 E35.7886
G1 X79.675 Y130.464 E35.82031
G1 X80.06 Y130.385 E35.8529
G1 X80.552 Y130.385 E35.8937
G1 E35.3937 F240
G92 E0
G1 X80.552 Y130.385 F9000
G1 X165.99 Y130.568
G1 E.5 F240
;TYPE:Solid infill
;WIDTH:0.679081
G1 F1800
G1 X166.447 Y131.025 E.55396
G1 X166.574 Y131.216 E.57311
G1 X166.609 Y131.33 E.58307
G1 X166.627 Y131.516 E.59867
G1 X166.627 Y132.058 E.64392
G1 X165.406 Y130.838 E.78803
G1 X164.552 Y130.838 E.85933
G1 X166.626 Y132.912 E1.10422
G1 X166.626 Y133.766 E1.17552
G1 X163.698 Y130.838 E1.52124
G1 X162.843 Y130.838 E1.59263
G1 X166.625 Y134.619 E2.03913
G1 X166.625 Y135.473 E2.11043
G1 X161.989 Y130.838 E2.65776
G1 X161.135 Y130.838 E2.72906
G1 X166.624 Y136.327 E3.37717
G1 X166.624 Y137.18 E3.44839
G1 X160.281 Y130.838 E4.19728
G1 X159.427 Y130.838 E4.26858
G1 X166.623 Y138.034 E5.11824
G1 X166.623 Y138.888 E5.18954
G1 X158.573 Y130.838 E6.14004
G1 X157.718 Y130.837 E6.21143
G1 X166.622 Y139.741 E7.26277
G1 X166.622 Y140.595 E7.33407
G1 X156.864 Y130.837 E8.48624
G1 X156.01 Y130.837 E8.55754
G1 X166.621 Y141.449 E9.81049
G1 X166.621 Y142.302 E9.88171
G1 X155.156 Y130.837 E11.23543
G1 X154.302 Y130.837 E11.30673
G1 X166.62 Y143.156 E12.76123
G1 X166.62 Y144.01 E12.83253
G1 X153.448 Y130.837 E14.38787
G1 X152.593 Y130.837 E14.45926
G1 X166.619 Y144.863 E16.11537
G1 X166.619 Y145.717 E16.18667
G1 X151.739 Y130.837 E17.94362
G1 X150.885 Y130.837 E18.01492
G1 X166.618 Y146.571 E19.87264
G1 X166.618 Y147.424 E19.94386
G1 X150.031 Y130.837 E21.90236
G1 X149.177 Y130.837 E21.97366
G1 X166.557 Y148.217 E24.02579
G1 X166.48 Y148.331 E24.03728
G1 X166.296 Y148.482 E24.05715
G1 X166.214 Y148.521 E24.06473
G1 X166.033 Y148.548 E24.08001
G1 X148.323 Y130.837 E26.17117
G1 X147.468 Y130.837 E26.24256
G1 X165.192 Y148.561 E28.33531
G1 X164.338 Y148.561 E28.40661
G1 X146.614 Y130.837 E30.49936
G1 X145.76 Y130.837 E30.57066
G1 X163.484 Y148.561 E32.66341
G1 X162.63 Y148.561 E32.73471
G1 X144.906 Y130.837 E34.82746
G1 X144.052 Y130.837 E34.89876
G1 X161.775 Y148.561 E36.99145
G1 X160.921 Y148.561 E37.06275
G1 X143.198 Y130.837 E39.15544
G1 X142.343 Y130.837 E39.22683
G1 X160.067 Y148.561 E41.31958
G1 X159.213 Y148.561 E41.39088
G1 X141.489 Y130.837 E43.48363
G1 X140.635 Y130.837 E43.55493
G1 X158.359 Y148.561 E45.64768
G1 X157.505 Y148.561 E45.71898
G1 X139.781 Y130.837 E47.81173
G1 X138.927 Y130.837 E47.88303
G1 X156.651 Y148.561 E49.97578
G1 X155.796 Y148.561 E50.04717
G1 X138.073 Y130.837 E52.13986
G1 X137.218 Y130.837 E52.21125
G1 X154.942 Y148.561 E54.304
G1 X154.088 Y148.561 E54.3753
G1 X136.364 Y130.837 E56.46805
G1 X135.51 Y130.837 E56.53935
G1 X153.234 Y148.561 E58.6321
G1 X152.38 Y148.561 E58.7034
G1 X134.656 Y130.837 E60.79615
G1 X133.802 Y130.837 E60.86745
G1 X151.526 Y148.561 E62.9602
G1 X150.672 Y148.561 E63.0315
G1 X132.948 Y130.837 E65.12425
G1 X132.093 Y130.837 E65.19564
G1 X149.817 Y148.561 E67.28839
